; generated by PrusaSlicer 2.5.0+win64 on 2022-12-07 at 00:02:31 UTC

; 

; external perimeters extrusion width = 1.00mm
; perimeters extrusion width = 1.00mm
; infill extrusion width = 1.00mm
; solid infill extrusion width = 1.00mm
; top infill extrusion width = 1.00mm
; support material extrusion width = 1.00mm
; first layer extrusion width = 0.42mm

M73 P0 R241
M107
;TYPE:Custom
G90 ; use absolute coordinates
M83 ; extruder relative mode
M140 S60 ; set final bed temp
M104 S150 ; set temporary nozzle temp to prevent oozing during homing and auto bed leveling
G4 S10 ; allow partial nozzle warmup
G28 ; home all axisG1 Z50 F240
G1 X7.6 Y10 F3000
M104 S210 ; set final nozzle temp
M190 S60 ; wait for bed temp to stabilize
M109 S210 ; wait for nozzle temp to stabilize
G1 Z0.28 F240
G92 E0
G1 Y140 E10 F1500 ; prime the nozzle
G1 X4 F5000
G92 E0
G1 Y10 E10 F1200 ; prime the nozzle
G92 E0
G21 ; set units to millimeters
G90 ; use absolute coordinates
M83 ; use relative distances for extrusion
; Filament gcode
M107
;LAYER_CHANGE
;Z:0.35
;HEIGHT:0.35
;BEFORE_LAYER_CHANGE
G92 E0
;0.35


G1 E-1 F3600
G1 Z.35 F7800
;AFTER_LAYER_CHANGE
;0.35
G1 X147.241 Y115.425
G1 E1 F2400
;TYPE:Perimeter
;WIDTH:0.42
G1 F1800
G1 X147.356 Y115.303 E.00842
G1 X147.418 Y115.056 E.0128
G1 X146.869 Y38.359 E3.84923
G1 X161.612 Y38.359 E.73988
G1 X161.804 Y139.95 E5.09847
G1 X161.82 Y141.267 E.06608
G1 X97.713 Y107.175 E3.64391
G1 X16.159 Y82.644 E4.27398
G1 X16.159 Y68.245 E.72265
M73 P0 R240
G1 X17.827 Y68.75 E.08744
G1 X17.977 Y68.772 E.00761
G1 X20.008 Y68.772 E.10196
G1 X19.998 Y68.933 E.00812
G1 X20.061 Y69.267 E.01706
G1 X20.162 Y69.393 E.00811
G1 X20.357 Y69.505 E.01127
G1 X22.802 Y70.26 E.12841
G1 X22.955 Y70.283 E.00775
G1 X25.267 Y70.283 E.11607
G1 X25.199 Y70.37 E.00556
G1 X25.178 Y70.519 E.00753
G1 X25.235 Y70.839 E.01633
G1 X25.333 Y70.966 E.00804
G1 X25.541 Y71.087 E.01209
G1 X30.475 Y72.539 E.25815
G1 X32.779 Y73.254 E.12105
G1 X32.933 Y73.277 E.00777
G1 X35.152 Y73.277 E.11141
G1 X35.678 Y73.454 E.02783
G1 X35.608 Y73.514 E.00463
G1 X35.581 Y73.764 E.01262
G1 X35.656 Y74.007 E.01274
G1 X35.742 Y74.113 E.00685
G1 X35.949 Y74.233 E.01198
G1 X37.776 Y74.784 E.0958
G1 X37.926 Y74.806 E.00758
G1 X39.909 Y74.806 E.09954
G1 X40.873 Y75.11 E.05072
G1 X40.918 Y75.53 E.02119
G1 X41.023 Y75.663 E.00851
G1 X41.222 Y75.776 E.0115
G1 X42.758 Y76.227 E.08033
G1 X42.904 Y76.248 E.00739
G1 X44.604 Y76.248 E.08534
G1 X46.145 Y76.772 E.08165
G1 X46.292 Y77.232 E.02424
G1 X46.348 Y77.286 E.00391
G1 X46.529 Y77.386 E.0104
G1 X47.74 Y77.761 E.06358
G1 X47.893 Y77.784 E.00776
G1 X49.252 Y77.784 E.06821
G1 X51.638 Y78.593 E.12646
G1 X51.724 Y78.883 E.01519
G1 X51.963 Y79.037 E.01425
G1 X57.709 Y80.771 E.3012
G1 X62.698 Y82.238 E.26097
G1 X67.695 Y83.789 E.26257
G1 X72.666 Y85.216 E.25959
G1 X77.651 Y86.763 E.26193
G1 X87.635 Y89.761 E.52318
G1 X89.367 Y90.297 E.09097
G1 X94.551 Y91.834 E.27133
G1 X97.605 Y92.783 E.16052
G1 X97.759 Y92.806 E.00779
G1 X100.593 Y92.806 E.14224
G1 X101.836 Y93.635 E.07498
G1 X101.892 Y93.949 E.01604
G1 X102.093 Y94.142 E.01397
G1 X102.566 Y94.327 E.0255
G1 X102.856 Y94.36 E.01463
G1 X102.876 Y94.427 E.00351
G1 X103.065 Y94.598 E.01278
G1 X107.485 Y96.92 E.25057
G1 X107.726 Y96.979 E.01244
G1 X110.301 Y96.979 E.12923
G1 X110.888 Y97.369 E.03537
G1 X110.667 Y97.369 E.01106
G1 X110.372 Y97.462 E.01553
G1 X110.165 Y97.762 E.01829
G1 X110.137 Y98.16 E.02003
G1 X110.204 Y98.305 E.00802
G1 X110.392 Y98.475 E.01269
G1 X112.473 Y99.577 E.11819
G1 X112.715 Y99.638 E.01253
G1 X114.738 Y99.638 E.10154
G1 X116.285 Y100.744 E.09542
G1 X116.059 Y100.92 E.01437
G1 X116.017 Y101.257 E.01705
G1 X116.096 Y101.461 E.01097
G1 X116.285 Y101.633 E.01285
G1 X137.516 Y112.941 E1.2072
G1 X142.389 Y115.515 E.27659
G1 X142.631 Y115.574 E.01249
G1 X146.901 Y115.574 E.2143
G1 X147.125 Y115.514 E.01162
G1 X147.014 Y115.188 F7800
;TYPE:External perimeter
G1 F1800
G1 X147.073 Y115.057 E.00723
G1 X146.522 Y38.014 E3.86657
G1 X161.956 Y38.014 E.77459
G1 X162.149 Y139.95 E5.11575
G1 X162.171 Y141.844 E.0951
G1 X97.613 Y107.505 E3.66972
G1 X15.814 Y82.901 E4.28685
G1 X15.814 Y67.78 E.75884
G1 X17.927 Y68.42 E.11077
G1 X19.206 Y68.427 E.06421
;WIDTH:0.457919
G1 X19.533 Y68.446 E.01822
;WIDTH:0.495839
G1 X19.859 Y68.465 E.02003
;WIDTH:0.543988
G1 X20.014 Y68.489 E.0107
;WIDTH:0.592137
G1 X20.169 Y68.513 E.0118
;WIDTH:0.640286
G1 X20.324 Y68.537 E.0129
;WIDTH:0.688435
G1 X20.479 Y68.561 E.01399
G1 X20.419 Y68.65 E.00959
;WIDTH:0.641819
G1 X20.358 Y68.739 E.00886
;WIDTH:0.595203
G1 X20.298 Y68.828 E.00813
;WIDTH:0.548588
G1 X20.3 Y68.904 E.00521
;WIDTH:0.522213
G1 X20.302 Y68.979 E.00492
;WIDTH:0.495839
G1 X20.331 Y69.038 E.004
;WIDTH:0.457919
G1 X20.36 Y69.096 E.00364
;WIDTH:0.42
G1 X20.459 Y69.175 E.00635
G1 X22.904 Y69.93 E.12841
G1 X25.609 Y69.938 E.13576
G1 X26.629 Y70.271 E.05383
G1 X25.647 Y70.283 E.04927
G1 X25.54 Y70.419 E.00866
G1 X25.538 Y70.674 E.01281
G1 X25.64 Y70.757 E.00659
G1 X30.575 Y72.209 E.25817
G1 X32.881 Y72.924 E.12118
G1 X35.209 Y72.932 E.11681
G1 X36.65 Y73.417 E.0763
G1 X36.12 Y73.417 E.02659
G1 X35.949 Y73.564 E.01131
G1 X35.927 Y73.712 E.0075
G1 X35.951 Y73.827 E.00589
G1 X36.048 Y73.903 E.00618
G1 X37.926 Y74.461 E.0983
G1 X39.962 Y74.461 E.1022
G1 X41.543 Y74.959 E.0832
G1 X41.393 Y74.959 E.00757
G1 X41.222 Y75.107 E.01133
G1 X41.22 Y75.363 E.01285
G1 X41.322 Y75.445 E.00655
G1 X42.901 Y75.903 E.08251
G1 X44.661 Y75.903 E.08836
G1 X46.681 Y76.59 E.10704
G1 X46.534 Y76.719 E.00981
G1 X46.512 Y76.866 E.00747
G1 X46.552 Y77.005 E.00727
G1 X46.631 Y77.057 E.00473
G1 X47.893 Y77.439 E.06614
G1 X49.309 Y77.439 E.07107
G1 X51.987 Y78.347 E.14194
G1 X51.942 Y78.517 E.00881
G1 X51.983 Y78.655 E.00725
G1 X52.063 Y78.706 E.00475
G1 X57.809 Y80.44 E.3012
G1 X62.798 Y81.908 E.26098
G1 X67.788 Y83.457 E.26222
G1 X72.765 Y84.886 E.25989
G1 X77.753 Y86.434 E.26211
G1 X87.736 Y89.431 E.52309
G1 X89.465 Y89.966 E.09085
G1 X94.651 Y91.504 E.27144
G1 X97.707 Y92.453 E.16063
G1 X100.697 Y92.461 E.15005
G1 X102.229 Y93.482 E.09236
G1 X102.168 Y93.655 E.00921
G1 X102.217 Y93.809 E.00812
G1 X102.689 Y94.004 E.02565
G1 X103.135 Y94.016 E.02237
G1 X103.163 Y94.236 E.01114
G1 X103.226 Y94.293 E.00426
G1 X107.646 Y96.615 E.25057
G1 X107.726 Y96.634 E.00415
G1 X110.405 Y96.634 E.13446
G1 X112.029 Y97.714 E.09788
G1 X110.667 Y97.714 E.06835
G1 X110.569 Y97.745 E.00518
G1 X110.5 Y97.845 E.0061
G1 X110.469 Y98.066 E.01117
G1 X110.554 Y98.17 E.00677
G1 X112.634 Y99.273 E.11816
G1 X112.715 Y99.293 E.00418
G1 X114.849 Y99.293 E.10709
G1 X117.059 Y100.873 E.13634
G1 X116.561 Y100.873 E.02499
G1 X116.393 Y101.004 E.01065
G1 X116.357 Y101.203 E.01019
G1 X116.447 Y101.329 E.00773
G1 X137.678 Y112.636 E1.2072
G1 X142.55 Y115.21 E.27654
G1 X142.631 Y115.23 E.00416
G1 X146.871 Y115.23 E.21279
G1 X147.152 Y115.228 F7800
G1 E-.7 F3600
;WIPE_START
G1 F6240
G1 X147.073 Y115.057 E-.14586
G1 X147.072 Y114.803 E-.13914
;WIPE_END
G1 E-.015 F3600
G1 X20.758 Y68.559 F7800
G1 E1 F2400
;WIDTH:0.688435
G1 F1800
G1 X20.479 Y68.561 E.02487
G1 E-.7 F3600
;WIPE_START
G1 F6240
G1 X20.758 Y68.559 E-.1527
;WIPE_END
G1 E-.1473 F3600
G1 X161.51 Y39.161 F7800
G1 E1 F2400
;TYPE:Solid infill
;WIDTH:0.420309
G1 F1800
G1 X160.966 Y38.617 E.03865
G1 X160.478 Y38.617 E.02452
G1 X161.355 Y39.495 E.06234
G1 X161.356 Y39.984 E.02457
G1 X159.99 Y38.617 E.09709
G1 X159.501 Y38.617 E.02452
G1 X161.357 Y40.473 E.13183
G1 X161.358 Y40.962 E.02457
G1 X159.013 Y38.617 E.16658
G1 X158.525 Y38.617 E.02452
G1 X161.359 Y41.451 E.20132
G1 X161.36 Y41.94 E.02457
G1 X158.037 Y38.617 E.23607
G1 X157.549 Y38.617 E.02452
G1 X161.361 Y42.43 E.27081
G1 X161.362 Y42.919 E.02457
G1 X157.06 Y38.617 E.30556
G1 X156.572 Y38.617 E.02452
G1 X161.363 Y43.408 E.3403
G1 X161.364 Y43.897 E.02457
G1 X156.084 Y38.617 E.37505
G1 X155.596 Y38.617 E.02452
G1 X161.365 Y44.386 E.40979
G1 X161.366 Y44.875 E.02457
G1 X155.108 Y38.617 E.44454
G1 X154.62 Y38.617 E.02452
G1 X161.367 Y45.364 E.47928
G1 X161.367 Y45.853 E.02457
G1 X154.131 Y38.617 E.51403
G1 X153.643 Y38.617 E.02452
G1 X161.368 Y46.343 E.54878
G1 X161.369 Y46.832 E.02457
G1 X153.155 Y38.617 E.58353
G1 X152.667 Y38.617 E.02452
G1 X161.37 Y47.321 E.61828
G1 X161.371 Y47.81 E.02457
G1 X152.179 Y38.617 E.65303
G1 X151.69 Y38.617 E.02452
G1 X161.372 Y48.299 E.68777
G1 X161.373 Y48.788 E.02457
G1 X151.202 Y38.617 E.72252
G1 X150.714 Y38.617 E.02452
G1 X161.374 Y49.278 E.75727
G1 X161.375 Y49.767 E.02457
G1 X150.226 Y38.617 E.79202
G1 X149.738 Y38.617 E.02452
G1 X161.376 Y50.256 E.82677
G1 X161.377 Y50.745 E.02457
G1 X149.25 Y38.617 E.86152
G1 X148.761 Y38.617 E.02452
G1 X161.378 Y51.234 E.89627
G1 X161.379 Y51.723 E.02457
G1 X148.273 Y38.617 E.93101
G1 X147.785 Y38.617 E.02452
G1 X161.38 Y52.212 E.96576
G1 X161.381 Y52.702 E.02457
G1 X147.297 Y38.617 E1.00051
G1 X147.13 Y38.617 E.0084
G1 X147.132 Y38.941 E.01624
G1 X161.382 Y53.191 E1.01229
G1 X161.383 Y53.68 E.02457
G1 X147.135 Y39.432 E1.01211
G1 X147.139 Y39.924 E.0247
G1 X161.384 Y54.169 E1.01193
G1 X161.385 Y54.658 E.02457
G1 X147.142 Y40.416 E1.01175
G1 X147.146 Y40.907 E.0247
G1 X161.386 Y55.147 E1.01157
G1 X161.387 Y55.637 E.02457
G1 X147.15 Y41.399 E1.01139
G1 X147.153 Y41.891 E.0247
G1 X161.388 Y56.126 E1.01121
G1 X161.389 Y56.615 E.02457
G1 X147.157 Y42.383 E1.01103
G1 X147.16 Y42.874 E.0247
G1 X161.39 Y57.104 E1.01085
G1 X161.391 Y57.593 E.02457
G1 X147.164 Y43.366 E1.01067
G1 X147.167 Y43.858 E.0247
G1 X161.392 Y58.082 E1.01049
G1 X161.393 Y58.572 E.02457
G1 X147.171 Y44.349 E1.01031
G1 X147.174 Y44.841 E.0247
G1 X161.394 Y59.061 E1.01013
G1 X161.395 Y59.55 E.02457
G1 X147.178 Y45.333 E1.00995
G1 X147.181 Y45.824 E.0247
G1 X161.396 Y60.039 E1.00977
G1 X161.397 Y60.528 E.02457
G1 X147.185 Y46.316 E1.00959
G1 X147.188 Y46.808 E.0247
G1 X161.398 Y61.017 E1.0094
G1 X161.399 Y61.507 E.02457
G1 X147.192 Y47.3 E1.00922
G1 X147.195 Y47.791 E.0247
G1 X161.4 Y61.996 E1.00904
G1 X161.401 Y62.485 E.02457
G1 X147.199 Y48.283 E1.00886
G1 X147.202 Y48.775 E.0247
G1 X161.402 Y62.974 E1.00868
G1 X161.403 Y63.463 E.02457
G1 X147.206 Y49.266 E1.0085
G1 X147.209 Y49.758 E.0247
G1 X161.404 Y63.952 E1.00832
G1 X161.405 Y64.442 E.02457
G1 X147.213 Y50.25 E1.00814
G1 X147.216 Y50.742 E.0247
G1 X161.406 Y64.931 E1.00796
G1 X161.407 Y65.42 E.02457
G1 X147.22 Y51.233 E1.00778
G1 X147.223 Y51.725 E.0247
G1 X161.408 Y65.909 E1.0076
G1 X161.409 Y66.398 E.02457
G1 X147.227 Y52.217 E1.00742
G1 X147.231 Y52.708 E.0247
G1 X161.41 Y66.887 E1.00724
G1 X161.411 Y67.377 E.02457
G1 X147.234 Y53.2 E1.00706
G1 X147.238 Y53.692 E.0247
M73 P0 R239
G1 X161.412 Y67.866 E1.00688
G1 X161.412 Y68.355 E.02457
G1 X147.241 Y54.183 E1.0067
G1 X147.245 Y54.675 E.0247
G1 X161.413 Y68.844 E1.00651
G1 X161.414 Y69.333 E.02457
G1 X147.248 Y55.167 E1.00633
G1 X147.252 Y55.659 E.0247
G1 X161.415 Y69.822 E1.00615
G1 X161.416 Y70.311 E.02457
G1 X147.255 Y56.15 E1.00597
G1 X147.259 Y56.642 E.0247
G1 X161.417 Y70.801 E1.00579
G1 X161.418 Y71.29 E.02457
G1 X147.262 Y57.134 E1.00561
G1 X147.266 Y57.625 E.0247
G1 X161.419 Y71.779 E1.00543
G1 X161.42 Y72.268 E.02457
G1 X147.269 Y58.117 E1.00525
G1 X147.273 Y58.609 E.0247
G1 X161.421 Y72.757 E1.00507
G1 X161.422 Y73.246 E.02457
G1 X147.276 Y59.1 E1.00489
G1 X147.28 Y59.592 E.0247
G1 X161.423 Y73.736 E1.00471
G1 X161.424 Y74.225 E.02457
G1 X147.283 Y60.084 E1.00453
G1 X147.287 Y60.576 E.0247
G1 X161.425 Y74.714 E1.00435
G1 X161.426 Y75.203 E.02457
G1 X147.29 Y61.067 E1.00417
G1 X147.294 Y61.559 E.0247
G1 X161.427 Y75.692 E1.00399
G1 X161.428 Y76.181 E.02457
G1 X147.297 Y62.051 E1.0038
G1 X147.301 Y62.542 E.0247
G1 X161.429 Y76.671 E1.00362
G1 X161.43 Y77.16 E.02457
G1 X147.304 Y63.034 E1.00344
G1 X147.308 Y63.526 E.0247
G1 X161.431 Y77.649 E1.00326
G1 X161.432 Y78.138 E.02457
G1 X147.312 Y64.018 E1.00308
G1 X147.315 Y64.509 E.0247
G1 X161.433 Y78.627 E1.0029
G1 X161.434 Y79.116 E.02457
G1 X147.319 Y65.001 E1.00272
G1 X147.322 Y65.493 E.0247
G1 X161.435 Y79.606 E1.00254
G1 X161.436 Y80.095 E.02457
G1 X147.326 Y65.984 E1.00236
G1 X147.329 Y66.476 E.0247
G1 X161.437 Y80.584 E1.00218
G1 X161.438 Y81.073 E.02457
G1 X147.333 Y66.968 E1.002
G1 X147.336 Y67.459 E.0247
G1 X161.439 Y81.562 E1.00182
G1 X161.44 Y82.051 E.02457
G1 X147.34 Y67.951 E1.00164
G1 X147.343 Y68.443 E.0247
G1 X161.441 Y82.541 E1.00146
G1 X161.442 Y83.03 E.02457
G1 X147.347 Y68.935 E1.00128
G1 X147.35 Y69.426 E.0247
G1 X161.443 Y83.519 E1.0011
G1 X161.444 Y84.008 E.02457
G1 X147.354 Y69.918 E1.00091
G1 X147.357 Y70.41 E.0247
G1 X161.445 Y84.497 E1.00073
G1 X161.446 Y84.986 E.02457
G1 X147.361 Y70.901 E1.00055
G1 X147.364 Y71.393 E.0247
G1 X161.447 Y85.476 E1.00037
G1 X161.448 Y85.965 E.02457
G1 X147.368 Y71.885 E1.00019
G1 X147.371 Y72.377 E.0247
G1 X161.449 Y86.454 E1.00001
G1 X161.45 Y86.943 E.02457
G1 X147.375 Y72.868 E.99983
G1 X147.378 Y73.36 E.0247
G1 X161.451 Y87.432 E.99965
G1 X161.452 Y87.921 E.02457
G1 X147.382 Y73.852 E.99947
G1 X147.385 Y74.343 E.0247
G1 X161.453 Y88.41 E.99929
G1 X161.454 Y88.9 E.02457
G1 X147.389 Y74.835 E.99911
G1 X147.393 Y75.327 E.0247
G1 X161.455 Y89.389 E.99893
G1 X161.456 Y89.878 E.02457
G1 X147.396 Y75.818 E.99875
G1 X147.4 Y76.31 E.0247
G1 X161.457 Y90.367 E.99857
G1 X161.457 Y90.856 E.02457
G1 X147.403 Y76.802 E.99839
G1 X147.407 Y77.294 E.0247
G1 X161.458 Y91.345 E.99821
G1 X161.459 Y91.835 E.02457
G1 X147.41 Y77.785 E.99802
G1 X147.414 Y78.277 E.0247
G1 X161.46 Y92.324 E.99784
G1 X161.461 Y92.813 E.02457
G1 X147.417 Y78.769 E.99766
G1 X147.421 Y79.26 E.0247
G1 X161.462 Y93.302 E.99748
G1 X161.463 Y93.791 E.02457
G1 X147.424 Y79.752 E.9973
G1 X147.428 Y80.244 E.0247
G1 X161.464 Y94.28 E.99712
G1 X161.465 Y94.77 E.02457
G1 X147.431 Y80.736 E.99694
G1 X147.435 Y81.227 E.0247
G1 X161.466 Y95.259 E.99676
G1 X161.467 Y95.748 E.02457
G1 X147.438 Y81.719 E.99658
G1 X147.442 Y82.211 E.0247
G1 X161.468 Y96.237 E.9964
G1 X161.469 Y96.726 E.02457
G1 X147.445 Y82.702 E.99622
G1 X147.449 Y83.194 E.0247
G1 X161.47 Y97.215 E.99604
G1 X161.471 Y97.705 E.02457
G1 X147.452 Y83.686 E.99586
G1 X147.456 Y84.177 E.0247
G1 X161.472 Y98.194 E.99568
G1 X161.473 Y98.683 E.02457
G1 X147.459 Y84.669 E.9955
G1 X147.463 Y85.161 E.0247
G1 X161.474 Y99.172 E.99531
G1 X161.475 Y99.661 E.02457
G1 X147.466 Y85.653 E.99513
G1 X147.47 Y86.144 E.0247
G1 X161.476 Y100.15 E.99495
G1 X161.477 Y100.64 E.02457
G1 X147.473 Y86.636 E.99477
G1 X147.477 Y87.128 E.0247
G1 X161.478 Y101.129 E.99459
G1 X161.479 Y101.618 E.02457
G1 X147.481 Y87.619 E.99441
G1 X147.484 Y88.111 E.0247
G1 X161.48 Y102.107 E.99423
G1 X161.481 Y102.596 E.02457
G1 X147.488 Y88.603 E.99405
G1 X147.491 Y89.094 E.0247
G1 X161.482 Y103.085 E.99387
G1 X161.483 Y103.575 E.02457
G1 X147.495 Y89.586 E.99369
G1 X147.498 Y90.078 E.0247
G1 X161.484 Y104.064 E.99351
G1 X161.485 Y104.553 E.02457
G1 X147.502 Y90.57 E.99333
G1 X147.505 Y91.061 E.0247
G1 X161.486 Y105.042 E.99315
G1 X161.487 Y105.531 E.02457
G1 X147.509 Y91.553 E.99297
G1 X147.512 Y92.045 E.0247
G1 X161.488 Y106.02 E.99279
G1 X161.489 Y106.509 E.02457
G1 X147.516 Y92.536 E.99261
G1 X147.519 Y93.028 E.0247
G1 X161.49 Y106.999 E.99242
G1 X161.491 Y107.488 E.02457
M73 P1 R239
G1 X147.523 Y93.52 E.99224
G1 X147.526 Y94.012 E.0247
M73 P1 R238
G1 X161.492 Y107.977 E.99206
G1 X161.493 Y108.466 E.02457
G1 X147.53 Y94.503 E.99188
G1 X147.533 Y94.995 E.0247
G1 X161.494 Y108.955 E.9917
G1 X161.495 Y109.444 E.02457
G1 X147.537 Y95.487 E.99152
G1 X147.54 Y95.978 E.0247
G1 X161.496 Y109.934 E.99134
G1 X161.497 Y110.423 E.02457
G1 X147.544 Y96.47 E.99116
G1 X147.547 Y96.962 E.0247
G1 X161.498 Y110.912 E.99098
G1 X161.499 Y111.401 E.02457
G1 X147.551 Y97.453 E.9908
G1 X147.554 Y97.945 E.0247
G1 X161.5 Y111.89 E.99062
G1 X161.501 Y112.379 E.02457
G1 X147.558 Y98.437 E.99044
G1 X147.562 Y98.929 E.0247
G1 X161.502 Y112.869 E.99026
G1 X161.503 Y113.358 E.02457
G1 X147.565 Y99.42 E.99008
G1 X147.569 Y99.912 E.0247
G1 X161.503 Y113.847 E.9899
G1 X161.504 Y114.336 E.02457
G1 X147.572 Y100.404 E.98972
G1 X147.576 Y100.895 E.0247
G1 X161.505 Y114.825 E.98953
G1 X161.506 Y115.314 E.02457
G1 X147.579 Y101.387 E.98935
G1 X147.583 Y101.879 E.0247
