; generated by PrusaSlicer 2.5.0+win64 on 2022-12-07 at 00:02:16 UTC

; 

; external perimeters extrusion width = 1.00mm
; perimeters extrusion width = 1.00mm
; infill extrusion width = 1.00mm
; solid infill extrusion width = 1.00mm
; top infill extrusion width = 1.00mm
; support material extrusion width = 1.00mm
; first layer extrusion width = 0.42mm

M73 P0 R473
M107
;TYPE:Custom
G90 ; use absolute coordinates
M83 ; extruder relative mode
M140 S60 ; set final bed temp
M104 S150 ; set temporary nozzle temp to prevent oozing during homing and auto bed leveling
G4 S10 ; allow partial nozzle warmup
G28 ; home all axisG1 Z50 F240
G1 X7.6 Y10 F3000
M104 S210 ; set final nozzle temp
M190 S60 ; wait for bed temp to stabilize
M109 S210 ; wait for nozzle temp to stabilize
G1 Z0.28 F240
G92 E0
G1 Y140 E10 F1500 ; prime the nozzle
G1 X4 F5000
G92 E0
G1 Y10 E10 F1200 ; prime the nozzle
G92 E0
G21 ; set units to millimeters
G90 ; use absolute coordinates
M83 ; use relative distances for extrusion
; Filament gcode
M107
;LAYER_CHANGE
;Z:0.35
;HEIGHT:0.35
;BEFORE_LAYER_CHANGE
G92 E0
;0.35


G1 E-1 F3600
G1 Z.35 F7800
;AFTER_LAYER_CHANGE
;0.35
G1 X121.097 Y164.349
G1 E1 F2400
;TYPE:Support material
;WIDTH:0.42
G1 F1800
G1 X121.516 Y164.783 E.03028
G1 X123.769 Y164.783 E.1131
G1 X123.769 Y167.876 E.15521
G1 X96.941 Y167.876 E1.34642
G1 X96.941 Y158.01 E.49509
G1 X121.327 Y158.01 E1.22387
G1 X121.099 Y164.297 E.3157
G1 X123.338 Y167.72 F7800
G1 F1800
G1 X123.338 Y165.093 E.13184
G1 X122.955 Y165.093 E.01923
G1 X122.955 Y167.565 E.12405
G1 X122.572 Y167.565 E.01923
G1 X122.572 Y165.093 E.12405
G1 X122.188 Y165.093 E.01923
G1 X122.188 Y167.565 E.12405
G1 X121.805 Y167.565 E.01923
G1 X121.805 Y165.093 E.12405
G1 X121.422 Y165.093 E.01923
G1 X121.422 Y167.565 E.12405
G1 X121.039 Y167.565 E.01923
M73 P0 R472
G1 X121.039 Y164.736 E.14201
G1 X120.782 Y164.469 E.01857
G1 X121.005 Y158.321 E.30877
G1 X120.656 Y158.321 E.01756
G1 X120.656 Y167.565 E.46394
G1 X120.272 Y167.565 E.01923
G1 X120.272 Y158.321 E.46394
G1 X119.889 Y158.321 E.01923
G1 X119.889 Y167.565 E.46394
G1 X119.506 Y167.565 E.01923
G1 X119.506 Y158.321 E.46394
G1 X119.123 Y158.321 E.01923
G1 X119.123 Y167.565 E.46394
G1 X118.74 Y167.565 E.01923
G1 X118.74 Y158.321 E.46394
G1 X118.356 Y158.321 E.01923
G1 X118.356 Y167.565 E.46394
G1 X117.973 Y167.565 E.01923
G1 X117.973 Y158.321 E.46394
G1 X117.59 Y158.321 E.01923
G1 X117.59 Y167.565 E.46394
G1 X117.207 Y167.565 E.01923
G1 X117.207 Y158.321 E.46394
G1 X116.823 Y158.321 E.01923
G1 X116.823 Y167.565 E.46394
G1 X116.44 Y167.565 E.01923
G1 X116.44 Y158.321 E.46394
G1 X116.057 Y158.321 E.01923
G1 X116.057 Y167.565 E.46394
G1 X115.674 Y167.565 E.01923
G1 X115.674 Y158.321 E.46394
G1 X115.291 Y158.321 E.01923
G1 X115.291 Y167.565 E.46394
G1 X114.907 Y167.565 E.01923
G1 X114.907 Y158.321 E.46394
G1 X114.524 Y158.321 E.01923
G1 X114.524 Y167.565 E.46394
G1 X114.141 Y167.565 E.01923
G1 X114.141 Y158.321 E.46394
G1 X113.758 Y158.321 E.01923
G1 X113.758 Y167.565 E.46394
G1 X113.375 Y167.565 E.01923
G1 X113.375 Y158.321 E.46394
G1 X112.991 Y158.321 E.01923
G1 X112.991 Y167.565 E.46394
G1 X112.608 Y167.565 E.01923
G1 X112.608 Y158.321 E.46394
G1 X112.225 Y158.321 E.01923
G1 X112.225 Y167.565 E.46394
G1 X111.842 Y167.565 E.01923
G1 X111.842 Y158.321 E.46394
G1 X111.459 Y158.321 E.01923
G1 X111.459 Y167.565 E.46394
G1 X111.075 Y167.565 E.01923
G1 X111.075 Y158.321 E.46394
G1 X110.692 Y158.321 E.01923
G1 X110.692 Y167.565 E.46394
G1 X110.309 Y167.565 E.01923
G1 X110.309 Y158.321 E.46394
G1 X109.926 Y158.321 E.01923
G1 X109.926 Y167.565 E.46394
G1 X109.542 Y167.565 E.01923
G1 X109.542 Y158.321 E.46394
G1 X109.159 Y158.321 E.01923
G1 X109.159 Y167.565 E.46394
G1 X108.776 Y167.565 E.01923
G1 X108.776 Y158.321 E.46394
G1 X108.393 Y158.321 E.01923
G1 X108.393 Y167.565 E.46394
G1 X108.01 Y167.565 E.01923
G1 X108.01 Y158.321 E.46394
G1 X107.626 Y158.321 E.01923
G1 X107.626 Y167.565 E.46394
G1 X107.243 Y167.565 E.01923
G1 X107.243 Y158.321 E.46394
G1 X106.86 Y158.321 E.01923
G1 X106.86 Y167.565 E.46394
G1 X106.477 Y167.565 E.01923
G1 X106.477 Y158.321 E.46394
G1 X106.094 Y158.321 E.01923
G1 X106.094 Y167.565 E.46394
G1 X105.71 Y167.565 E.01923
G1 X105.71 Y158.321 E.46394
G1 X105.327 Y158.321 E.01923
G1 X105.327 Y167.565 E.46394
G1 X104.944 Y167.565 E.01923
G1 X104.944 Y158.321 E.46394
G1 X104.561 Y158.321 E.01923
G1 X104.561 Y167.565 E.46394
G1 X104.178 Y167.565 E.01923
G1 X104.178 Y158.321 E.46394
G1 X103.794 Y158.321 E.01923
G1 X103.794 Y167.565 E.46394
G1 X103.411 Y167.565 E.01923
G1 X103.411 Y158.321 E.46394
G1 X103.028 Y158.321 E.01923
G1 X103.028 Y167.565 E.46394
G1 X102.645 Y167.565 E.01923
G1 X102.645 Y158.321 E.46394
G1 X102.261 Y158.321 E.01923
G1 X102.261 Y167.565 E.46394
G1 X101.878 Y167.565 E.01923
G1 X101.878 Y158.321 E.46394
G1 X101.495 Y158.321 E.01923
G1 X101.495 Y167.565 E.46394
G1 X101.112 Y167.565 E.01923
G1 X101.112 Y158.321 E.46394
G1 X100.729 Y158.321 E.01923
G1 X100.729 Y167.565 E.46394
G1 X100.345 Y167.565 E.01923
G1 X100.345 Y158.321 E.46394
G1 X99.962 Y158.321 E.01923
G1 X99.962 Y167.565 E.46394
G1 X99.579 Y167.565 E.01923
G1 X99.579 Y158.321 E.46394
G1 X99.196 Y158.321 E.01923
G1 X99.196 Y167.565 E.46394
G1 X98.813 Y167.565 E.01923
G1 X98.813 Y158.321 E.46394
G1 X98.429 Y158.321 E.01923
G1 X98.429 Y167.565 E.46394
G1 X98.046 Y167.565 E.01923
G1 X98.046 Y158.321 E.46394
G1 X97.663 Y158.321 E.01923
G1 X97.663 Y167.565 E.46394
G1 X97.28 Y167.565 E.01923
G1 X97.28 Y158.166 E.47173
G1 E-.7 F3600
;WIPE_START
G1 F6240
G1 X97.28 Y158.686 E-.285
;WIPE_END
G1 E-.015 F3600
G1 X66.284 Y93.247 F7800
G1 E1 F2400
;TYPE:Perimeter
;WIDTH:0.42
G1 F1800
G1 X66.206 Y93.231 E.00404
G1 X56.192 Y93.681 E.50304
G1 X54.234 Y93.747 E.0983
G1 X49.229 Y93.98 E.25148
G1 X46.218 Y94.079 E.15121
G1 X41.228 Y94.327 E.2507
G1 X29.16 Y94.842 E.6062
G1 X21.277 Y95.219 E.39607
G1 X19.111 Y95.34 E.10886
G1 X14.505 Y95.497 E.23132
G1 X14.505 Y77.14 E.92125
G1 X83.42 Y74.115 E3.46192
G1 X83.598 Y163.518 E4.48679
G1 X68.799 Y163.518 E.74273
G1 X66.745 Y93.733 E3.50376
G1 X66.651 Y93.45 E.01497
G1 X66.432 Y93.276 E.01405
G1 X66.221 Y93.576 F7800
;TYPE:External perimeter
G1 F1800
G1 X56.206 Y94.025 E.50312
G1 X54.251 Y94.091 E.09813
G1 X49.243 Y94.325 E.25164
G1 X46.235 Y94.423 E.15104
G1 X41.244 Y94.671 E.25076
G1 X29.175 Y95.187 E.60626
G1 X21.294 Y95.564 E.39598
G1 X19.127 Y95.685 E.10891
G1 X14.16 Y95.854 E.24942
G1 X14.16 Y76.81 E.95573
G1 X83.765 Y73.755 E3.49654
G1 X83.944 Y163.863 E4.52218
G1 X68.464 Y163.863 E.77688
G1 X66.401 Y93.743 E3.52056
G1 X66.358 Y93.637 E.00575
G1 X66.18 Y92.576 F7800
G1 E-.7 F3600
;WIPE_START
G1 F6240
G1 X65.838 Y93.656 E-.285
;WIPE_END
G1 E-.015 F3600
G1 X83.319 Y74.923 F7800
G1 E1 F2400
;TYPE:Solid infill
;WIDTH:0.420922
G1 F1800
G1 X82.797 Y74.401 E.03712
G1 X82.328 Y74.422 E.0236
G1 X83.164 Y75.257 E.05946
G1 X83.165 Y75.747 E.02466
G1 X81.86 Y74.442 E.09287
G1 X81.391 Y74.463 E.0236
G1 X83.166 Y76.237 E.12628
G1 X83.167 Y76.727 E.02466
G1 X80.923 Y74.483 E.15969
G1 X80.454 Y74.504 E.0236
G1 X83.168 Y77.217 E.1931
G1 X83.169 Y77.707 E.02466
G1 X79.986 Y74.525 E.2265
G1 X79.518 Y74.545 E.0236
G1 X83.17 Y78.197 E.25991
G1 X83.171 Y78.687 E.02466
G1 X79.049 Y74.566 E.29332
G1 X78.581 Y74.586 E.0236
G1 X83.172 Y79.178 E.32673
G1 X83.173 Y79.668 E.02466
G1 X78.112 Y74.607 E.36014
G1 X77.644 Y74.627 E.0236
G1 X83.174 Y80.158 E.39355
G1 X83.175 Y80.648 E.02466
G1 X77.175 Y74.648 E.42695
G1 X76.707 Y74.669 E.0236
G1 X83.176 Y81.138 E.46036
G1 X83.177 Y81.628 E.02466
G1 X76.238 Y74.689 E.49377
G1 X75.77 Y74.71 E.0236
G1 X83.178 Y82.118 E.52718
G1 X83.179 Y82.608 E.02466
G1 X75.301 Y74.73 E.56059
G1 X74.833 Y74.751 E.0236
G1 X83.18 Y83.098 E.594
G1 X83.181 Y83.588 E.02466
G1 X74.364 Y74.771 E.6274
G1 X73.896 Y74.792 E.0236
G1 X83.182 Y84.078 E.66081
G1 X83.183 Y84.568 E.02466
G1 X73.427 Y74.812 E.69422
G1 X72.959 Y74.833 E.0236
G1 X83.184 Y85.058 E.72763
G1 X83.184 Y85.548 E.02466
G1 X72.49 Y74.854 E.76104
G1 X72.022 Y74.874 E.0236
G1 X83.185 Y86.038 E.79444
G1 X83.186 Y86.528 E.02466
G1 X71.553 Y74.895 E.82785
G1 X71.085 Y74.915 E.0236
G1 X83.187 Y87.018 E.86126
G1 X83.188 Y87.508 E.02466
G1 X70.616 Y74.936 E.89467
G1 X70.148 Y74.956 E.0236
G1 X83.189 Y87.998 E.92808
G1 X83.19 Y88.488 E.02466
G1 X69.679 Y74.977 E.96149
G1 X69.211 Y74.998 E.0236
G1 X83.191 Y88.978 E.99489
G1 X83.192 Y89.468 E.02466
G1 X68.742 Y75.018 E1.0283
G1 X68.274 Y75.039 E.0236
G1 X83.193 Y89.958 E1.06171
G1 X83.194 Y90.448 E.02466
M73 P0 R471
G1 X67.805 Y75.059 E1.09512
G1 X67.337 Y75.08 E.0236
G1 X83.195 Y90.938 E1.12853
G1 X83.196 Y91.428 E.02466
G1 X66.868 Y75.1 E1.16194
G1 X66.4 Y75.121 E.0236
G1 X83.197 Y91.918 E1.19534
G1 X83.198 Y92.408 E.02466
G1 X65.931 Y75.142 E1.22875
G1 X65.463 Y75.162 E.0236
G1 X83.199 Y92.898 E1.26216
G1 X83.2 Y93.388 E.02466
G1 X64.995 Y75.183 E1.29557
G1 X64.526 Y75.203 E.0236
G1 X83.201 Y93.878 E1.32898
G1 X83.202 Y94.368 E.02466
G1 X64.058 Y75.224 E1.36239
G1 X63.589 Y75.244 E.0236
G1 X83.203 Y94.858 E1.39579
G1 X83.204 Y95.348 E.02466
G1 X63.121 Y75.265 E1.4292
G1 X62.652 Y75.286 E.0236
G1 X83.205 Y95.838 E1.46261
G1 X83.206 Y96.328 E.02466
G1 X62.184 Y75.306 E1.49602
G1 X61.715 Y75.327 E.0236
G1 X83.207 Y96.818 E1.52943
G1 X83.208 Y97.308 E.02466
G1 X61.247 Y75.347 E1.56284
G1 X60.778 Y75.368 E.0236
G1 X83.209 Y97.799 E1.59624
G1 X83.21 Y98.289 E.02466
G1 X60.31 Y75.388 E1.62965
G1 X59.841 Y75.409 E.0236
G1 X83.211 Y98.779 E1.66306
G1 X83.212 Y99.269 E.02466
G1 X59.373 Y75.429 E1.69647
G1 X58.904 Y75.45 E.0236
G1 X83.213 Y99.759 E1.72988
G1 X83.214 Y100.249 E.02466
G1 X58.436 Y75.471 E1.76329
G1 X57.967 Y75.491 E.0236
G1 X83.215 Y100.739 E1.79669
G1 X83.216 Y101.229 E.02466
G1 X57.499 Y75.512 E1.8301
G1 X57.03 Y75.532 E.0236
G1 X83.217 Y101.719 E1.86351
G1 X83.218 Y102.209 E.02466
G1 X56.562 Y75.553 E1.89692
G1 X56.093 Y75.573 E.0236
G1 X83.219 Y102.699 E1.93033
G1 X83.22 Y103.189 E.02466
G1 X55.625 Y75.594 E1.96374
G1 X55.156 Y75.615 E.0236
G1 X83.221 Y103.679 E1.99714
G1 X83.222 Y104.169 E.02466
G1 X54.688 Y75.635 E2.03055
G1 X54.219 Y75.656 E.0236
G1 X83.223 Y104.659 E2.06396
G1 X83.224 Y105.149 E.02466
G1 X53.751 Y75.676 E2.09737
G1 X53.282 Y75.697 E.0236
G1 X83.224 Y105.639 E2.13078
G1 X83.225 Y106.129 E.02466
G1 X52.814 Y75.717 E2.16418
G1 X52.345 Y75.738 E.0236
G1 X83.226 Y106.619 E2.19759
G1 X83.227 Y107.109 E.02466
G1 X51.877 Y75.759 E2.231
G1 X51.408 Y75.779 E.0236
G1 X83.228 Y107.599 E2.26441
G1 X83.229 Y108.089 E.02466
G1 X50.94 Y75.8 E2.29782
G1 X50.472 Y75.82 E.0236
G1 X83.23 Y108.579 E2.33123
G1 X83.231 Y109.069 E.02466
G1 X50.003 Y75.841 E2.36463
G1 X49.535 Y75.861 E.0236
G1 X83.232 Y109.559 E2.39804
G1 X83.233 Y110.049 E.02466
G1 X67.007 Y93.823 E1.15473
G1 X66.973 Y93.529 E.01489
G1 X66.897 Y93.353 E.00966
G1 X66.787 Y93.208 E.00914
G1 X66.609 Y93.07 E.01132
G1 X66.383 Y92.987 E.01209
G1 X66.158 Y92.974 E.01133
G1 X49.066 Y75.882 E1.21635
G1 X48.598 Y75.903 E.0236
G1 X65.69 Y92.995 E1.21638
G1 X65.222 Y93.016 E.02358
G1 X48.129 Y75.923 E1.21641
G1 X47.661 Y75.944 E.0236
G1 X64.754 Y93.037 E1.21644
G1 X64.286 Y93.058 E.02358
G1 X47.192 Y75.964 E1.21648
G1 X46.724 Y75.985 E.0236
G1 X63.818 Y93.079 E1.21651
G1 X63.35 Y93.1 E.02358
G1 X46.255 Y76.005 E1.21654
G1 X45.787 Y76.026 E.0236
G1 X62.882 Y93.121 E1.21657
G1 X62.414 Y93.142 E.02358
G1 X45.318 Y76.046 E1.2166
G1 X44.85 Y76.067 E.0236
G1 X61.946 Y93.163 E1.21664
G1 X61.478 Y93.184 E.02358
G1 X44.381 Y76.088 E1.21667
G1 X43.913 Y76.108 E.0236
G1 X61.01 Y93.206 E1.2167
G1 X60.542 Y93.227 E.02358
M73 P0 R470
G1 X43.444 Y76.129 E1.21673
G1 X42.976 Y76.149 E.0236
G1 X60.074 Y93.248 E1.21676
G1 X59.606 Y93.269 E.02358
G1 X42.507 Y76.17 E1.2168
G1 X42.039 Y76.19 E.0236
G1 X59.138 Y93.29 E1.21683
G1 X58.67 Y93.311 E.02358
G1 X41.57 Y76.211 E1.21686
G1 X41.102 Y76.232 E.0236
G1 X58.202 Y93.332 E1.21689
G1 X57.734 Y93.353 E.02358
G1 X40.633 Y76.252 E1.21692
G1 X40.165 Y76.273 E.0236
G1 X57.266 Y93.374 E1.21696
G1 X56.798 Y93.395 E.02358
G1 X39.696 Y76.293 E1.21699
G1 X39.228 Y76.314 E.0236
G1 X56.33 Y93.416 E1.21702
G1 X55.858 Y93.433 E.02374
G1 X38.759 Y76.334 E1.2168
G1 X38.291 Y76.355 E.0236
G1 X55.385 Y93.449 E1.21647
G1 X54.912 Y93.465 E.02382
G1 X37.822 Y76.376 E1.21614
G1 X37.354 Y76.396 E.0236
G1 X54.439 Y93.481 E1.21581
G1 X53.969 Y93.5 E.02367
G1 X36.885 Y76.417 E1.21571
G1 X36.417 Y76.437 E.0236
G1 X53.502 Y93.522 E1.2158
G1 X53.034 Y93.544 E.02354
G1 X35.949 Y76.458 E1.21589
G1 X35.48 Y76.478 E.0236
G1 X52.567 Y93.566 E1.21598
G1 X52.1 Y93.587 E.02354
G1 X35.012 Y76.499 E1.21607
G1 X34.543 Y76.52 E.0236
G1 X51.633 Y93.609 E1.21616
G1 X51.165 Y93.631 E.02354
G1 X34.075 Y76.54 E1.21625
G1 X33.606 Y76.561 E.0236
G1 X50.698 Y93.653 E1.21634
G1 X50.231 Y93.675 E.02354
G1 X33.138 Y76.581 E1.21643
G1 X32.669 Y76.602 E.0236
G1 X49.764 Y93.697 E1.21652
G1 X49.297 Y93.718 E.02354
G1 X32.201 Y76.622 E1.21661
G1 X31.732 Y76.643 E.0236
G1 X48.824 Y93.735 E1.21632
G1 X48.351 Y93.75 E.02384
G1 X31.264 Y76.663 E1.21596
G1 X30.795 Y76.684 E.0236
G1 X47.877 Y93.766 E1.21559
G1 X47.403 Y93.781 E.02384
G1 X30.327 Y76.705 E1.21523
G1 X29.858 Y76.725 E.0236
G1 X46.93 Y93.797 E1.21487
G1 X46.456 Y93.812 E.02384
G1 X29.39 Y76.746 E1.21451
G1 X28.921 Y76.766 E.0236
G1 X45.986 Y93.831 E1.2144
G1 X45.52 Y93.855 E.02347
G1 X28.453 Y76.787 E1.21459
G1 X27.984 Y76.807 E.0236
G1 X45.055 Y93.878 E1.21477
G1 X44.589 Y93.901 E.02347
G1 X27.516 Y76.828 E1.21496
G1 X27.047 Y76.849 E.0236
G1 X44.123 Y93.924 E1.21514
G1 X43.657 Y93.947 E.02347
G1 X26.579 Y76.869 E1.21533
G1 X26.11 Y76.89 E.0236
G1 X43.191 Y93.97 E1.21551
G1 X42.725 Y93.994 E.02347
G1 X25.642 Y76.91 E1.2157
G1 X25.173 Y76.931 E.0236
G1 X42.259 Y94.017 E1.21588
G1 X41.793 Y94.04 E.02347
G1 X24.705 Y76.951 E1.21607
G1 X24.236 Y76.972 E.0236
G1 X41.327 Y94.063 E1.21625
G1 X40.859 Y94.084 E.02359
G1 X23.768 Y76.993 E1.21627
G1 X23.299 Y77.013 E.0236
G1 X40.39 Y94.104 E1.21623
G1 X39.921 Y94.124 E.02362
G1 X22.831 Y77.034 E1.21619
G1 X22.362 Y77.054 E.0236
G1 X39.452 Y94.144 E1.21615
G1 X38.983 Y94.164 E.02362
G1 X21.894 Y77.075 E1.21612
G1 X21.426 Y77.095 E.0236
G1 X38.514 Y94.184 E1.21608
G1 X38.045 Y94.204 E.02362
G1 X20.957 Y77.116 E1.21604
G1 X20.489 Y77.137 E.0236
G1 X37.576 Y94.224 E1.216
G1 X37.107 Y94.244 E.02362
G1 X20.02 Y77.157 E1.21596
G1 X19.552 Y77.178 E.0236
G1 X36.638 Y94.264 E1.21593
G1 X36.169 Y94.284 E.02362
G1 X19.083 Y77.198 E1.21589
G1 X18.615 Y77.219 E.0236
G1 X35.7 Y94.304 E1.21585
G1 X35.231 Y94.324 E.02362
G1 X18.146 Y77.239 E1.21581
G1 X17.678 Y77.26 E.0236
G1 X34.762 Y94.344 E1.21577
G1 X34.293 Y94.364 E.02362
G1 X17.209 Y77.28 E1.21574
G1 X16.741 Y77.301 E.0236
G1 X33.824 Y94.384 E1.2157
G1 X33.355 Y94.404 E.02362
G1 X16.272 Y77.322 E1.21566
G1 X15.804 Y77.342 E.0236
G1 X32.886 Y94.424 E1.21562
G1 X32.417 Y94.444 E.02362
G1 X15.335 Y77.363 E1.21558
G1 X14.867 Y77.383 E.0236
G1 X31.948 Y94.464 E1.21555
G1 X31.479 Y94.484 E.02362
G1 X14.763 Y77.769 E1.18953
G1 X14.763 Y78.258 E.02461
G1 X31.01 Y94.504 E1.15615
G1 X30.541 Y94.525 E.02362
G1 X14.763 Y78.747 E1.12277
G1 X14.763 Y79.236 E.02461
G1 X30.072 Y94.545 E1.0894
G1 X29.603 Y94.565 E.02362
G1 X14.763 Y79.725 E1.05602
G1 X14.763 Y80.214 E.02461
G1 X29.134 Y94.585 E1.02265
G1 X28.667 Y94.607 E.02351
G1 X14.763 Y80.703 E.98943
G1 X14.763 Y81.192 E.02461
G1 X28.2 Y94.629 E.95622
G1 X27.734 Y94.652 E.02351
M73 P0 R469
G1 X14.763 Y81.681 E.923
G1 X14.763 Y82.17 E.02461
G1 X27.267 Y94.674 E.88979
G1 X26.8 Y94.696 E.02351
G1 X14.763 Y82.659 E.85657
G1 X14.763 Y83.149 E.02461
G1 X26.333 Y94.718 E.82335
G1 X25.867 Y94.741 E.02351
G1 X14.763 Y83.638 E.79014
G1 X14.763 Y84.127 E.02461
G1 X25.4 Y94.763 E.75692
G1 X24.933 Y94.785 E.02351
G1 X14.763 Y84.616 E.72371
G1 X14.763 Y85.105 E.02461
G1 X24.466 Y94.808 E.69049
G1 X24 Y94.83 E.02351
G1 X14.763 Y85.594 E.65728
G1 X14.763 Y86.083 E.02461
G1 X23.533 Y94.852 E.62406
G1 X23.066 Y94.875 E.02351
G1 X14.763 Y86.572 E.59085
G1 X14.763 Y87.061 E.02461
G1 X22.599 Y94.897 E.55763
G1 X22.133 Y94.919 E.02351
G1 X14.763 Y87.55 E.52442
G1 X14.763 Y88.039 E.02461
G1 X21.666 Y94.941 E.4912
