; generated by PrusaSlicer 2.5.0+win64 on 2022-12-07 at 00:02:26 UTC

; 

; external perimeters extrusion width = 1.00mm
; perimeters extrusion width = 1.00mm
; infill extrusion width = 1.00mm
; solid infill extrusion width = 1.00mm
; top infill extrusion width = 1.00mm
; support material extrusion width = 1.00mm
; first layer extrusion width = 0.42mm

M73 P0 R404
M107
;TYPE:Custom
G90 ; use absolute coordinates
M83 ; extruder relative mode
M140 S60 ; set final bed temp
M104 S150 ; set temporary nozzle temp to prevent oozing during homing and auto bed leveling
G4 S10 ; allow partial nozzle warmup
G28 ; home all axisG1 Z50 F240
G1 X7.6 Y10 F3000
M104 S210 ; set final nozzle temp
M190 S60 ; wait for bed temp to stabilize
M109 S210 ; wait for nozzle temp to stabilize
G1 Z0.28 F240
G92 E0
G1 Y140 E10 F1500 ; prime the nozzle
G1 X4 F5000
G92 E0
G1 Y10 E10 F1200 ; prime the nozzle
G92 E0
G21 ; set units to millimeters
G90 ; use absolute coordinates
M83 ; use relative distances for extrusion
; Filament gcode
M107
;LAYER_CHANGE
;Z:0.35
;HEIGHT:0.35
;BEFORE_LAYER_CHANGE
G92 E0
;0.35


G1 E-1 F3600
G1 Z.35 F7800
;AFTER_LAYER_CHANGE
;0.35
G1 X167.876 Y21.99
G1 E1 F2400
;TYPE:Support material
;WIDTH:0.42
G1 F1800
G1 X110.513 Y21.99 E2.87881
G1 X110.513 Y12.124 E.49509
G1 X167.876 Y12.124 E2.87881
G1 X167.876 Y21.938 E.4925
G1 X167.409 Y21.834 F7800
G1 F1800
G1 X167.409 Y12.435 E.47173
G1 X167.026 Y12.435 E.01923
G1 X167.026 Y21.679 E.46394
G1 X166.643 Y21.679 E.01923
G1 X166.643 Y12.435 E.46394
G1 X166.26 Y12.435 E.01923
G1 X166.26 Y21.679 E.46394
G1 X165.876 Y21.679 E.01923
G1 X165.876 Y12.435 E.46394
G1 X165.493 Y12.435 E.01923
G1 X165.493 Y21.679 E.46394
G1 X165.11 Y21.679 E.01923
G1 X165.11 Y12.435 E.46394
G1 X164.727 Y12.435 E.01923
G1 X164.727 Y21.679 E.46394
G1 X164.344 Y21.679 E.01923
G1 X164.344 Y12.435 E.46394
G1 X163.96 Y12.435 E.01923
G1 X163.96 Y21.679 E.46394
G1 X163.577 Y21.679 E.01923
G1 X163.577 Y12.435 E.46394
G1 X163.194 Y12.435 E.01923
G1 X163.194 Y21.679 E.46394
G1 X162.811 Y21.679 E.01923
G1 X162.811 Y12.435 E.46394
G1 X162.427 Y12.435 E.01923
G1 X162.427 Y21.679 E.46394
G1 X162.044 Y21.679 E.01923
G1 X162.044 Y12.435 E.46394
G1 X161.661 Y12.435 E.01923
G1 X161.661 Y21.679 E.46394
G1 X161.278 Y21.679 E.01923
G1 X161.278 Y12.435 E.46394
G1 X160.895 Y12.435 E.01923
G1 X160.895 Y21.679 E.46394
G1 X160.511 Y21.679 E.01923
G1 X160.511 Y12.435 E.46394
G1 X160.128 Y12.435 E.01923
G1 X160.128 Y21.679 E.46394
G1 X159.745 Y21.679 E.01923
G1 X159.745 Y12.435 E.46394
G1 X159.362 Y12.435 E.01923
G1 X159.362 Y21.679 E.46394
G1 X158.979 Y21.679 E.01923
G1 X158.979 Y12.435 E.46394
G1 X158.595 Y12.435 E.01923
G1 X158.595 Y21.679 E.46394
G1 X158.212 Y21.679 E.01923
G1 X158.212 Y12.435 E.46394
G1 X157.829 Y12.435 E.01923
G1 X157.829 Y21.679 E.46394
G1 X157.446 Y21.679 E.01923
G1 X157.446 Y12.435 E.46394
G1 X157.063 Y12.435 E.01923
G1 X157.063 Y21.679 E.46394
G1 X156.679 Y21.679 E.01923
G1 X156.679 Y12.435 E.46394
G1 X156.296 Y12.435 E.01923
G1 X156.296 Y21.679 E.46394
G1 X155.913 Y21.679 E.01923
G1 X155.913 Y12.435 E.46394
G1 X155.53 Y12.435 E.01923
G1 X155.53 Y21.679 E.46394
G1 X155.146 Y21.679 E.01923
G1 X155.146 Y12.435 E.46394
G1 X154.763 Y12.435 E.01923
G1 X154.763 Y21.679 E.46394
G1 X154.38 Y21.679 E.01923
G1 X154.38 Y12.435 E.46394
G1 X153.997 Y12.435 E.01923
G1 X153.997 Y21.679 E.46394
G1 X153.614 Y21.679 E.01923
G1 X153.614 Y12.435 E.46394
G1 X153.23 Y12.435 E.01923
G1 X153.23 Y21.679 E.46394
G1 X152.847 Y21.679 E.01923
G1 X152.847 Y12.435 E.46394
G1 X152.464 Y12.435 E.01923
G1 X152.464 Y21.679 E.46394
G1 X152.081 Y21.679 E.01923
G1 X152.081 Y12.435 E.46394
G1 X151.698 Y12.435 E.01923
G1 X151.698 Y21.679 E.46394
G1 X151.314 Y21.679 E.01923
G1 X151.314 Y12.435 E.46394
G1 X150.931 Y12.435 E.01923
G1 X150.931 Y21.679 E.46394
G1 X150.548 Y21.679 E.01923
G1 X150.548 Y12.435 E.46394
G1 X150.165 Y12.435 E.01923
G1 X150.165 Y21.679 E.46394
G1 X149.782 Y21.679 E.01923
G1 X149.782 Y12.435 E.46394
G1 X149.398 Y12.435 E.01923
G1 X149.398 Y21.679 E.46394
G1 X149.015 Y21.679 E.01923
G1 X149.015 Y12.435 E.46394
G1 X148.632 Y12.435 E.01923
G1 X148.632 Y21.679 E.46394
G1 X148.249 Y21.679 E.01923
G1 X148.249 Y12.435 E.46394
G1 X147.865 Y12.435 E.01923
G1 X147.865 Y21.679 E.46394
G1 X147.482 Y21.679 E.01923
G1 X147.482 Y12.435 E.46394
G1 X147.099 Y12.435 E.01923
G1 X147.099 Y21.679 E.46394
G1 X146.716 Y21.679 E.01923
G1 X146.716 Y12.435 E.46394
G1 X146.333 Y12.435 E.01923
G1 X146.333 Y21.679 E.46394
G1 X145.949 Y21.679 E.01923
G1 X145.949 Y12.435 E.46394
G1 X145.566 Y12.435 E.01923
G1 X145.566 Y21.679 E.46394
G1 X145.183 Y21.679 E.01923
G1 X145.183 Y12.435 E.46394
G1 X144.8 Y12.435 E.01923
G1 X144.8 Y21.679 E.46394
G1 X144.417 Y21.679 E.01923
G1 X144.417 Y12.435 E.46394
G1 X144.033 Y12.435 E.01923
G1 X144.033 Y21.679 E.46394
G1 X143.65 Y21.679 E.01923
G1 X143.65 Y12.435 E.46394
G1 X143.267 Y12.435 E.01923
G1 X143.267 Y21.679 E.46394
G1 X142.884 Y21.679 E.01923
G1 X142.884 Y12.435 E.46394
G1 X142.501 Y12.435 E.01923
G1 X142.501 Y21.679 E.46394
G1 X142.117 Y21.679 E.01923
G1 X142.117 Y12.435 E.46394
G1 X141.734 Y12.435 E.01923
G1 X141.734 Y21.679 E.46394
G1 X141.351 Y21.679 E.01923
G1 X141.351 Y12.435 E.46394
G1 X140.968 Y12.435 E.01923
G1 X140.968 Y21.679 E.46394
G1 X140.584 Y21.679 E.01923
G1 X140.584 Y12.435 E.46394
G1 X140.201 Y12.435 E.01923
G1 X140.201 Y21.679 E.46394
G1 X139.818 Y21.679 E.01923
G1 X139.818 Y12.435 E.46394
G1 X139.435 Y12.435 E.01923
G1 X139.435 Y21.679 E.46394
G1 X139.052 Y21.679 E.01923
G1 X139.052 Y12.435 E.46394
G1 X138.668 Y12.435 E.01923
G1 X138.668 Y21.679 E.46394
G1 X138.285 Y21.679 E.01923
G1 X138.285 Y12.435 E.46394
G1 X137.902 Y12.435 E.01923
G1 X137.902 Y21.679 E.46394
G1 X137.519 Y21.679 E.01923
G1 X137.519 Y12.435 E.46394
G1 X137.136 Y12.435 E.01923
G1 X137.136 Y21.679 E.46394
G1 X136.752 Y21.679 E.01923
G1 X136.752 Y12.435 E.46394
G1 X136.369 Y12.435 E.01923
G1 X136.369 Y21.679 E.46394
G1 X135.986 Y21.679 E.01923
G1 X135.986 Y12.435 E.46394
G1 X135.603 Y12.435 E.01923
G1 X135.603 Y21.679 E.46394
G1 X135.22 Y21.679 E.01923
G1 X135.22 Y12.435 E.46394
G1 X134.836 Y12.435 E.01923
G1 X134.836 Y21.679 E.46394
G1 X134.453 Y21.679 E.01923
G1 X134.453 Y12.435 E.46394
G1 X134.07 Y12.435 E.01923
G1 X134.07 Y21.679 E.46394
G1 X133.687 Y21.679 E.01923
G1 X133.687 Y12.435 E.46394
G1 X133.304 Y12.435 E.01923
G1 X133.304 Y21.679 E.46394
G1 X132.92 Y21.679 E.01923
G1 X132.92 Y12.435 E.46394
G1 X132.537 Y12.435 E.01923
G1 X132.537 Y21.679 E.46394
G1 X132.154 Y21.679 E.01923
G1 X132.154 Y12.435 E.46394
G1 X131.771 Y12.435 E.01923
G1 X131.771 Y21.679 E.46394
G1 X131.387 Y21.679 E.01923
G1 X131.387 Y12.435 E.46394
G1 X131.004 Y12.435 E.01923
G1 X131.004 Y21.679 E.46394
G1 X130.621 Y21.679 E.01923
G1 X130.621 Y12.435 E.46394
G1 X130.238 Y12.435 E.01923
G1 X130.238 Y21.679 E.46394
G1 X129.855 Y21.679 E.01923
G1 X129.855 Y12.435 E.46394
G1 X129.471 Y12.435 E.01923
G1 X129.471 Y21.679 E.46394
G1 X129.088 Y21.679 E.01923
G1 X129.088 Y12.435 E.46394
G1 X128.705 Y12.435 E.01923
G1 X128.705 Y21.679 E.46394
G1 X128.322 Y21.679 E.01923
M73 P0 R403
G1 X128.322 Y12.435 E.46394
G1 X127.939 Y12.435 E.01923
G1 X127.939 Y21.679 E.46394
G1 X127.555 Y21.679 E.01923
G1 X127.555 Y12.435 E.46394
G1 X127.172 Y12.435 E.01923
G1 X127.172 Y21.679 E.46394
G1 X126.789 Y21.679 E.01923
G1 X126.789 Y12.435 E.46394
G1 X126.406 Y12.435 E.01923
G1 X126.406 Y21.679 E.46394
G1 X126.023 Y21.679 E.01923
G1 X126.023 Y12.435 E.46394
G1 X125.639 Y12.435 E.01923
G1 X125.639 Y21.679 E.46394
G1 X125.256 Y21.679 E.01923
G1 X125.256 Y12.435 E.46394
G1 X124.873 Y12.435 E.01923
G1 X124.873 Y21.679 E.46394
G1 X124.49 Y21.679 E.01923
G1 X124.49 Y12.435 E.46394
G1 X124.106 Y12.435 E.01923
G1 X124.106 Y21.679 E.46394
G1 X123.723 Y21.679 E.01923
G1 X123.723 Y12.435 E.46394
G1 X123.34 Y12.435 E.01923
G1 X123.34 Y21.679 E.46394
G1 X122.957 Y21.679 E.01923
G1 X122.957 Y12.435 E.46394
G1 X122.574 Y12.435 E.01923
G1 X122.574 Y21.679 E.46394
G1 X122.19 Y21.679 E.01923
G1 X122.19 Y12.435 E.46394
G1 X121.807 Y12.435 E.01923
G1 X121.807 Y21.679 E.46394
G1 X121.424 Y21.679 E.01923
G1 X121.424 Y12.435 E.46394
G1 X121.041 Y12.435 E.01923
G1 X121.041 Y21.679 E.46394
G1 X120.658 Y21.679 E.01923
G1 X120.658 Y12.435 E.46394
G1 X120.274 Y12.435 E.01923
G1 X120.274 Y21.679 E.46394
G1 X119.891 Y21.679 E.01923
G1 X119.891 Y12.435 E.46394
G1 X119.508 Y12.435 E.01923
G1 X119.508 Y21.679 E.46394
G1 X119.125 Y21.679 E.01923
G1 X119.125 Y12.435 E.46394
G1 X118.742 Y12.435 E.01923
G1 X118.742 Y21.679 E.46394
G1 X118.358 Y21.679 E.01923
G1 X118.358 Y12.435 E.46394
G1 X117.975 Y12.435 E.01923
G1 X117.975 Y21.679 E.46394
G1 X117.592 Y21.679 E.01923
G1 X117.592 Y12.435 E.46394
G1 X117.209 Y12.435 E.01923
G1 X117.209 Y21.679 E.46394
G1 X116.825 Y21.679 E.01923
G1 X116.825 Y12.435 E.46394
G1 X116.442 Y12.435 E.01923
G1 X116.442 Y21.679 E.46394
G1 X116.059 Y21.679 E.01923
G1 X116.059 Y12.435 E.46394
G1 X115.676 Y12.435 E.01923
G1 X115.676 Y21.679 E.46394
G1 X115.293 Y21.679 E.01923
G1 X115.293 Y12.435 E.46394
G1 X114.909 Y12.435 E.01923
G1 X114.909 Y21.679 E.46394
G1 X114.526 Y21.679 E.01923
G1 X114.526 Y12.435 E.46394
G1 X114.143 Y12.435 E.01923
G1 X114.143 Y21.679 E.46394
G1 X113.76 Y21.679 E.01923
G1 X113.76 Y12.435 E.46394
G1 X113.377 Y12.435 E.01923
G1 X113.377 Y21.679 E.46394
G1 X112.993 Y21.679 E.01923
G1 X112.993 Y12.435 E.46394
G1 X112.61 Y12.435 E.01923
G1 X112.61 Y21.679 E.46394
G1 X112.227 Y21.679 E.01923
G1 X112.227 Y12.435 E.46394
G1 X111.844 Y12.435 E.01923
G1 X111.844 Y21.679 E.46394
G1 X111.461 Y21.679 E.01923
G1 X111.461 Y12.435 E.46394
G1 X111.077 Y12.435 E.01923
G1 X111.077 Y21.834 E.47173
G1 E-.7 F3600
;WIPE_START
G1 F6240
G1 X111.077 Y21.314 E-.285
;WIPE_END
G1 E-.015 F3600
G1 X31.079 Y16.482 F7800
G1 E1 F2400
;TYPE:Perimeter
;WIDTH:0.42
G1 F1800
G1 X31.711 Y140.194 E6.20867
G1 X31.711 Y163.518 E1.17055
G1 X16.262 Y163.518 E.77531
G1 X16.532 Y16.482 E7.37915
G1 X30.929 Y16.482 E.72251
G1 X31.422 Y16.137 F7800
;TYPE:External perimeter
G1 F1800
G1 X32.056 Y140.192 E6.22589
G1 X32.056 Y163.863 E1.18795
G1 X15.917 Y163.863 E.80996
G1 X16.188 Y16.137 E7.41377
G1 X31.272 Y16.137 E.75701
G1 X31.391 Y17.137 F7800
G1 X30.98 Y17.286
;TYPE:Solid infill
;WIDTH:0.420137
G1 F1800
G1 X30.434 Y16.741 E.03876
G1 X29.946 Y16.741 E.0245
G1 X30.826 Y17.621 E.06251
G1 X30.829 Y18.111 E.02462
G1 X29.458 Y16.741 E.09733
G1 X28.97 Y16.741 E.0245
G1 X30.831 Y18.602 E.13216
G1 X30.834 Y19.092 E.02462
G1 X28.482 Y16.741 E.16698
G1 X27.994 Y16.741 E.0245
G1 X30.836 Y19.583 E.2018
G1 X30.839 Y20.073 E.02462
G1 X27.506 Y16.741 E.23662
G1 X27.018 Y16.741 E.0245
G1 X30.841 Y20.564 E.27145
G1 X30.844 Y21.054 E.02462
G1 X26.53 Y16.741 E.30627
G1 X26.042 Y16.741 E.0245
G1 X30.846 Y21.545 E.34109
G1 X30.849 Y22.035 E.02462
G1 X25.554 Y16.741 E.37591
G1 X25.066 Y16.741 E.0245
G1 X30.851 Y22.525 E.41074
G1 X30.854 Y23.016 E.02462
G1 X24.578 Y16.741 E.44556
G1 X24.09 Y16.741 E.0245
G1 X30.856 Y23.506 E.48038
G1 X30.859 Y23.997 E.02462
G1 X23.602 Y16.741 E.5152
G1 X23.114 Y16.741 E.0245
G1 X30.861 Y24.487 E.55003
G1 X30.864 Y24.978 E.02462
G1 X22.627 Y16.741 E.58485
G1 X22.139 Y16.741 E.0245
G1 X30.866 Y25.468 E.61967
G1 X30.869 Y25.959 E.02462
G1 X21.651 Y16.741 E.65449
G1 X21.163 Y16.741 E.0245
G1 X30.871 Y26.449 E.68932
G1 X30.874 Y26.939 E.02462
G1 X20.675 Y16.741 E.72414
G1 X20.187 Y16.741 E.0245
G1 X30.876 Y27.43 E.75896
G1 X30.879 Y27.92 E.02462
G1 X19.699 Y16.741 E.79378
G1 X19.211 Y16.741 E.0245
G1 X30.881 Y28.411 E.82861
G1 X30.884 Y28.901 E.02462
G1 X18.723 Y16.741 E.86343
G1 X18.235 Y16.741 E.0245
G1 X30.886 Y29.392 E.89825
G1 X30.889 Y29.882 E.02462
G1 X17.747 Y16.741 E.93307
G1 X17.259 Y16.741 E.0245
G1 X30.891 Y30.373 E.9679
G1 X30.894 Y30.863 E.02462
G1 X16.79 Y16.76 E1.00137
G1 X16.789 Y17.247 E.02445
G1 X30.896 Y31.353 E1.00161
G1 X30.899 Y31.844 E.02462
G1 X16.788 Y17.734 E1.00185
G1 X16.788 Y18.221 E.02445
G1 X30.901 Y32.334 E1.00209
G1 X30.904 Y32.825 E.02462
G1 X16.787 Y18.708 E1.00233
G1 X16.786 Y19.195 E.02445
G1 X30.906 Y33.315 E1.00258
G1 X30.909 Y33.806 E.02462
G1 X16.785 Y19.682 E1.00282
G1 X16.784 Y20.169 E.02445
G1 X30.911 Y34.296 E1.00306
G1 X30.914 Y34.787 E.02462
G1 X16.783 Y20.656 E1.0033
G1 X16.782 Y21.143 E.02445
G1 X30.916 Y35.277 E1.00354
G1 X30.919 Y35.767 E.02462
G1 X16.781 Y21.63 E1.00378
G1 X16.78 Y22.117 E.02445
G1 X30.921 Y36.258 E1.00402
G1 X30.924 Y36.748 E.02462
G1 X16.78 Y22.604 E1.00427
M73 P0 R402
G1 X16.779 Y23.091 E.02445
G1 X30.926 Y37.239 E1.00451
G1 X30.929 Y37.729 E.02462
G1 X16.778 Y23.578 E1.00475
G1 X16.777 Y24.065 E.02445
G1 X30.931 Y38.22 E1.00499
G1 X30.934 Y38.71 E.02462
G1 X16.776 Y24.552 E1.00523
G1 X16.775 Y25.039 E.02445
G1 X30.936 Y39.201 E1.00547
G1 X30.939 Y39.691 E.02462
G1 X16.774 Y25.526 E1.00571
G1 X16.773 Y26.013 E.02445
G1 X30.941 Y40.181 E1.00595
G1 X30.944 Y40.672 E.02462
G1 X16.772 Y26.5 E1.0062
G1 X16.771 Y26.988 E.02445
G1 X30.946 Y41.162 E1.00644
G1 X30.949 Y41.653 E.02462
G1 X16.771 Y27.475 E1.00668
G1 X16.77 Y27.962 E.02445
G1 X30.951 Y42.143 E1.00692
G1 X30.954 Y42.634 E.02462
G1 X16.769 Y28.449 E1.00716
G1 X16.768 Y28.936 E.02445
G1 X30.956 Y43.124 E1.0074
G1 X30.959 Y43.615 E.02462
G1 X16.767 Y29.423 E1.00764
G1 X16.766 Y29.91 E.02445
G1 X30.961 Y44.105 E1.00789
G1 X30.964 Y44.595 E.02462
G1 X16.765 Y30.397 E1.00813
G1 X16.764 Y30.884 E.02445
G1 X30.966 Y45.086 E1.00837
G1 X30.969 Y45.576 E.02462
G1 X16.763 Y31.371 E1.00861
G1 X16.763 Y31.858 E.02445
G1 X30.971 Y46.067 E1.00885
G1 X30.974 Y46.557 E.02462
G1 X16.762 Y32.345 E1.00909
G1 X16.761 Y32.832 E.02445
G1 X30.976 Y47.048 E1.00933
G1 X30.979 Y47.538 E.02462
G1 X16.76 Y33.319 E1.00958
G1 X16.759 Y33.806 E.02445
G1 X30.981 Y48.029 E1.00982
G1 X30.984 Y48.519 E.02462
G1 X16.758 Y34.293 E1.01006
G1 X16.757 Y34.78 E.02445
G1 X30.986 Y49.009 E1.0103
G1 X30.989 Y49.5 E.02462
G1 X16.756 Y35.267 E1.01054
G1 X16.755 Y35.754 E.02445
G1 X30.991 Y49.99 E1.01078
G1 X30.994 Y50.481 E.02462
G1 X16.754 Y36.241 E1.01102
G1 X16.754 Y36.728 E.02445
G1 X30.996 Y50.971 E1.01126
G1 X30.999 Y51.462 E.02462
G1 X16.753 Y37.215 E1.01151
G1 X16.752 Y37.703 E.02445
G1 X31.001 Y51.952 E1.01175
G1 X31.004 Y52.443 E.02462
G1 X16.751 Y38.19 E1.01199
G1 X16.75 Y38.677 E.02445
G1 X31.006 Y52.933 E1.01223
G1 X31.009 Y53.423 E.02462
G1 X16.749 Y39.164 E1.01247
G1 X16.748 Y39.651 E.02445
G1 X31.011 Y53.914 E1.01271
G1 X31.014 Y54.404 E.02462
G1 X16.747 Y40.138 E1.01295
G1 X16.746 Y40.625 E.02445
G1 X31.016 Y54.895 E1.0132
G1 X31.019 Y55.385 E.02462
G1 X16.746 Y41.112 E1.01344
G1 X16.745 Y41.599 E.02445
G1 X31.021 Y55.876 E1.01368
G1 X31.024 Y56.366 E.02462
G1 X16.744 Y42.086 E1.01392
G1 X16.743 Y42.573 E.02445
G1 X31.026 Y56.857 E1.01416
G1 X31.029 Y57.347 E.02462
G1 X16.742 Y43.06 E1.0144
G1 X16.741 Y43.547 E.02445
G1 X31.031 Y57.837 E1.01464
G1 X31.034 Y58.328 E.02462
G1 X16.74 Y44.034 E1.01489
G1 X16.739 Y44.521 E.02445
G1 X31.036 Y58.818 E1.01513
G1 X31.039 Y59.309 E.02462
G1 X16.738 Y45.008 E1.01537
G1 X16.737 Y45.495 E.02445
G1 X31.041 Y59.799 E1.01561
G1 X31.044 Y60.29 E.02462
G1 X16.737 Y45.982 E1.01585
G1 X16.736 Y46.469 E.02445
G1 X31.047 Y60.78 E1.01609
G1 X31.049 Y61.271 E.02462
G1 X16.735 Y46.956 E1.01633
G1 X16.734 Y47.443 E.02445
G1 X31.052 Y61.761 E1.01657
G1 X31.054 Y62.252 E.02462
G1 X16.733 Y47.93 E1.01682
G1 X16.732 Y48.418 E.02445
G1 X31.057 Y62.742 E1.01706
G1 X31.059 Y63.232 E.02462
G1 X16.731 Y48.905 E1.0173
G1 X16.73 Y49.392 E.02445
G1 X31.062 Y63.723 E1.01754
G1 X31.064 Y64.213 E.02462
G1 X16.729 Y49.879 E1.01778
G1 X16.729 Y50.366 E.02445
G1 X31.067 Y64.704 E1.01802
G1 X31.069 Y65.194 E.02462
G1 X16.728 Y50.853 E1.01826
G1 X16.727 Y51.34 E.02445
G1 X31.072 Y65.685 E1.01851
G1 X31.074 Y66.175 E.02462
G1 X16.726 Y51.827 E1.01875
G1 X16.725 Y52.314 E.02445
G1 X31.077 Y66.666 E1.01899
G1 X31.079 Y67.156 E.02462
G1 X16.724 Y52.801 E1.01923
G1 X16.723 Y53.288 E.02445
G1 X31.082 Y67.646 E1.01947
G1 X31.084 Y68.137 E.02462
G1 X16.722 Y53.775 E1.01971
G1 X16.721 Y54.262 E.02445
G1 X31.087 Y68.627 E1.01995
G1 X31.089 Y69.118 E.02462
G1 X16.72 Y54.749 E1.0202
