; generated by PrusaSlicer 2.5.0+win64 on 2022-12-07 at 00:02:41 UTC

; 

; external perimeters extrusion width = 1.00mm
; perimeters extrusion width = 1.00mm
; infill extrusion width = 1.00mm
; solid infill extrusion width = 1.00mm
; top infill extrusion width = 1.00mm
; support material extrusion width = 1.00mm
; first layer extrusion width = 0.42mm

M73 P0 R91
M107
;TYPE:Custom
G90 ; use absolute coordinates
M83 ; extruder relative mode
M140 S60 ; set final bed temp
M104 S150 ; set temporary nozzle temp to prevent oozing during homing and auto bed leveling
G4 S10 ; allow partial nozzle warmup
G28 ; home all axisG1 Z50 F240
G1 X7.6 Y10 F3000
M104 S210 ; set final nozzle temp
M190 S60 ; wait for bed temp to stabilize
M109 S210 ; wait for nozzle temp to stabilize
G1 Z0.28 F240
G92 E0
G1 Y140 E10 F1500 ; prime the nozzle
G1 X4 F5000
G92 E0
G1 Y10 E10 F1200 ; prime the nozzle
G92 E0
G21 ; set units to millimeters
G90 ; use absolute coordinates
M83 ; use relative distances for extrusion
; Filament gcode
M107
;LAYER_CHANGE
;Z:0.35
;HEIGHT:0.35
;BEFORE_LAYER_CHANGE
G92 E0
;0.35


G1 E-1 F3600
G1 Z.35 F7800
;AFTER_LAYER_CHANGE
;0.35
G1 X104.325 Y68.302
G1 E1 F2400
;TYPE:Perimeter
;WIDTH:0.42
G1 F1800
G1 X76.124 Y98.547 E2.07534
G1 X67.968 Y109.931 E.70281
G1 X67.968 Y86.848 E1.15847
G1 X85.269 Y68.302 E1.27287
G1 X104.175 Y68.302 E.9488
G1 X105.118 Y67.957 F7800
;TYPE:External perimeter
G1 F1800
G1 X76.376 Y98.783 E2.11515
G1 X67.623 Y111.005 E.75449
G1 X67.623 Y86.712 E1.21919
G1 X85.119 Y67.957 E1.28721
G1 X104.968 Y67.957 E.99613
G1 X104.354 Y68.602 F7800
G1 X103.409 Y68.405
;TYPE:Solid infill
;WIDTH:0.421436
G1 F1800
G1 X103.65 Y68.646 E.01717
G1 X103.414 Y68.9 E.01746
G1 X103.075 Y68.561 E.02418
G1 X102.585 Y68.561 E.02468
G1 X103.177 Y69.153 E.04224
G1 X102.941 Y69.407 E.01746
G1 X102.095 Y68.561 E.0603
G1 X101.605 Y68.561 E.02468
G1 X102.705 Y69.66 E.07837
G1 X102.468 Y69.914 E.01746
G1 X101.115 Y68.561 E.09643
G1 X100.626 Y68.561 E.02468
G1 X102.232 Y70.167 E.11449
G1 X101.996 Y70.421 E.01746
G1 X100.136 Y68.561 E.13256
G1 X99.646 Y68.561 E.02468
G1 X101.76 Y70.674 E.15062
G1 X101.523 Y70.928 E.01746
G1 X99.156 Y68.561 E.16868
G1 X98.667 Y68.561 E.02468
G1 X101.287 Y71.181 E.18675
G1 X101.051 Y71.434 E.01746
G1 X98.177 Y68.561 E.20481
G1 X97.687 Y68.561 E.02468
G1 X100.814 Y71.688 E.22287
G1 X100.578 Y71.941 E.01746
G1 X97.197 Y68.561 E.24094
G1 X96.707 Y68.561 E.02468
G1 X100.342 Y72.195 E.259
G1 X100.105 Y72.448 E.01746
G1 X96.218 Y68.561 E.27706
G1 X95.728 Y68.561 E.02468
G1 X99.869 Y72.702 E.29513
G1 X99.633 Y72.955 E.01746
G1 X95.238 Y68.561 E.31319
G1 X94.748 Y68.561 E.02468
G1 X99.396 Y73.209 E.33125
G1 X99.16 Y73.462 E.01746
G1 X94.259 Y68.561 E.34932
G1 X93.769 Y68.561 E.02468
G1 X98.924 Y73.716 E.36738
G1 X98.687 Y73.969 E.01746
G1 X93.279 Y68.561 E.38544
G1 X92.789 Y68.561 E.02468
G1 X98.451 Y74.222 E.40351
G1 X98.215 Y74.476 E.01746
G1 X92.299 Y68.561 E.42157
G1 X91.81 Y68.561 E.02468
G1 X97.978 Y74.729 E.43963
G1 X97.742 Y74.983 E.01746
G1 X91.32 Y68.561 E.4577
G1 X90.83 Y68.561 E.02468
G1 X97.506 Y75.236 E.47576
G1 X97.269 Y75.49 E.01746
G1 X90.34 Y68.561 E.49383
G1 X89.851 Y68.561 E.02468
G1 X97.033 Y75.743 E.51189
G1 X96.797 Y75.997 E.01746
G1 X89.361 Y68.561 E.52995
G1 X88.871 Y68.561 E.02468
G1 X96.56 Y76.25 E.54802
G1 X96.324 Y76.504 E.01746
G1 X88.381 Y68.561 E.56608
G1 X87.891 Y68.561 E.02468
G1 X96.088 Y76.757 E.58414
G1 X95.851 Y77.01 E.01746
G1 X87.402 Y68.561 E.60221
G1 X86.912 Y68.561 E.02468
G1 X95.615 Y77.264 E.62027
G1 X95.379 Y77.517 E.01746
G1 X86.422 Y68.561 E.63833
G1 X85.932 Y68.561 E.02468
G1 X95.142 Y77.771 E.6564
G1 X94.906 Y78.024 E.01746
G1 X85.443 Y68.561 E.67446
G1 X85.382 Y68.561 E.00308
G1 X85.175 Y68.782 E.01529
G1 X94.67 Y78.278 E.67672
G1 X94.434 Y78.531 E.01746
G1 X84.938 Y69.036 E.67672
G1 X84.702 Y69.289 E.01746
G1 X94.197 Y78.785 E.67672
G1 X93.961 Y79.038 E.01746
G1 X84.465 Y69.543 E.67673
G1 X84.229 Y69.796 E.01746
G1 X93.725 Y79.291 E.67673
G1 X93.488 Y79.545 E.01746
G1 X83.993 Y70.049 E.67674
G1 X83.756 Y70.303 E.01746
G1 X93.252 Y79.798 E.67674
G1 X93.016 Y80.052 E.01746
G1 X83.52 Y70.556 E.67675
G1 X83.284 Y70.81 E.01746
G1 X92.779 Y80.305 E.67675
G1 X92.543 Y80.559 E.01746
G1 X83.047 Y71.063 E.67676
G1 X82.811 Y71.316 E.01746
G1 X92.307 Y80.812 E.67676
G1 X92.07 Y81.066 E.01746
G1 X82.574 Y71.57 E.67677
G1 X82.338 Y71.823 E.01746
G1 X91.834 Y81.319 E.67677
G1 X91.598 Y81.573 E.01746
G1 X82.102 Y72.077 E.67678
G1 X81.865 Y72.33 E.01746
G1 X91.361 Y81.826 E.67678
G1 X91.125 Y82.079 E.01746
G1 X81.629 Y72.583 E.67679
G1 X81.392 Y72.837 E.01746
G1 X90.889 Y82.333 E.67679
G1 X90.652 Y82.586 E.01746
G1 X81.156 Y73.09 E.67679
G1 X80.92 Y73.343 E.01746
G1 X90.416 Y82.84 E.6768
G1 X90.18 Y83.093 E.01746
G1 X80.683 Y73.597 E.6768
G1 X80.447 Y73.85 E.01746
G1 X89.943 Y83.347 E.67681
G1 X89.707 Y83.6 E.01746
G1 X80.21 Y74.104 E.67681
G1 X79.974 Y74.357 E.01746
G1 X89.471 Y83.854 E.67682
G1 X89.234 Y84.107 E.01746
G1 X79.738 Y74.61 E.67682
G1 X79.501 Y74.864 E.01746
G1 X88.998 Y84.361 E.67683
G1 X88.762 Y84.614 E.01746
G1 X79.265 Y75.117 E.67683
G1 X79.028 Y75.371 E.01746
G1 X88.525 Y84.867 E.67684
G1 X88.289 Y85.121 E.01746
G1 X78.792 Y75.624 E.67684
G1 X78.556 Y75.877 E.01746
G1 X88.053 Y85.374 E.67685
G1 X87.816 Y85.628 E.01746
G1 X78.319 Y76.131 E.67685
G1 X78.083 Y76.384 E.01746
G1 X87.58 Y85.881 E.67686
G1 X87.344 Y86.135 E.01746
G1 X77.847 Y76.638 E.67686
G1 X77.61 Y76.891 E.01746
G1 X87.107 Y86.388 E.67687
G1 X86.871 Y86.642 E.01746
G1 X77.374 Y77.144 E.67687
G1 X77.137 Y77.398 E.01746
G1 X86.635 Y86.895 E.67687
G1 X86.399 Y87.149 E.01746
G1 X76.901 Y77.651 E.67688
G1 X76.665 Y77.904 E.01746
G1 X86.162 Y87.402 E.67688
G1 X85.926 Y87.655 E.01746
G1 X76.428 Y78.158 E.67689
G1 X76.192 Y78.411 E.01746
G1 X85.69 Y87.909 E.67689
G1 X85.453 Y88.162 E.01746
G1 X75.955 Y78.665 E.6769
G1 X75.719 Y78.918 E.01746
G1 X85.217 Y88.416 E.6769
G1 X84.981 Y88.669 E.01746
G1 X75.483 Y79.171 E.67691
G1 X75.246 Y79.425 E.01746
G1 X84.744 Y88.923 E.67691
G1 X84.508 Y89.176 E.01746
G1 X75.01 Y79.678 E.67692
G1 X74.773 Y79.932 E.01746
G1 X84.272 Y89.43 E.67692
G1 X84.035 Y89.683 E.01746
M73 P1 R91
G1 X74.537 Y80.185 E.67693
G1 X74.301 Y80.438 E.01746
G1 X83.799 Y89.937 E.67693
G1 X83.563 Y90.19 E.01746
G1 X74.064 Y80.692 E.67694
G1 X73.828 Y80.945 E.01746
G1 X83.326 Y90.443 E.67694
G1 X83.09 Y90.697 E.01746
G1 X73.592 Y81.198 E.67694
G1 X73.355 Y81.452 E.01746
M73 P1 R90
G1 X82.854 Y90.95 E.67695
G1 X82.617 Y91.204 E.01746
G1 X73.119 Y81.705 E.67695
G1 X72.882 Y81.959 E.01746
G1 X82.381 Y91.457 E.67696
G1 X82.145 Y91.711 E.01746
G1 X72.646 Y82.212 E.67696
G1 X72.41 Y82.465 E.01746
G1 X81.908 Y91.964 E.67697
G1 X81.672 Y92.218 E.01746
G1 X72.173 Y82.719 E.67697
G1 X71.937 Y82.972 E.01746
G1 X81.436 Y92.471 E.67698
G1 X81.199 Y92.725 E.01746
G1 X71.7 Y83.226 E.67698
G1 X71.464 Y83.479 E.01746
G1 X80.963 Y92.978 E.67699
G1 X80.727 Y93.231 E.01746
G1 X71.228 Y83.732 E.67699
G1 X70.991 Y83.986 E.01746
G1 X80.49 Y93.485 E.677
G1 X80.254 Y93.738 E.01746
G1 X70.755 Y84.239 E.677
G1 X70.518 Y84.493 E.01746
G1 X80.018 Y93.992 E.67701
G1 X79.781 Y94.245 E.01746
G1 X70.282 Y84.746 E.67701
G1 X70.046 Y84.999 E.01746
G1 X79.545 Y94.499 E.67702
G1 X79.309 Y94.752 E.01746
G1 X69.809 Y85.253 E.67702
G1 X69.573 Y85.506 E.01746
G1 X79.072 Y95.006 E.67702
G1 X78.836 Y95.259 E.01746
G1 X69.337 Y85.759 E.67703
G1 X69.1 Y86.013 E.01746
G1 X78.6 Y95.513 E.67703
G1 X78.364 Y95.766 E.01746
G1 X68.864 Y86.266 E.67704
G1 X68.627 Y86.52 E.01746
G1 X78.127 Y96.019 E.67704
G1 X77.891 Y96.273 E.01746
G1 X68.391 Y86.773 E.67705
G1 X68.226 Y86.95 E.01217
G1 X68.226 Y87.098 E.00748
G1 X77.655 Y96.526 E.67195
G1 X77.418 Y96.78 E.01746
G1 X68.226 Y87.588 E.6551
G1 X68.226 Y88.078 E.02468
G1 X77.182 Y97.033 E.63826
G1 X76.946 Y97.287 E.01746
G1 X68.226 Y88.567 E.62142
G1 X68.226 Y89.057 E.02468
G1 X76.709 Y97.54 E.60458
G1 X76.473 Y97.794 E.01746
G1 X68.226 Y89.547 E.58773
G1 X68.226 Y90.037 E.02468
G1 X76.237 Y98.047 E.57089
G1 X76 Y98.301 E.01746
G1 X68.226 Y90.527 E.55405
G1 X68.226 Y91.016 E.02468
G1 X75.786 Y98.577 E.53881
G1 X75.582 Y98.862 E.01769
G1 X68.226 Y91.506 E.52424
G1 X68.226 Y91.996 E.02468
G1 X75.378 Y99.147 E.50967
G1 X75.173 Y99.432 E.01769
G1 X68.226 Y92.486 E.49509
G1 X68.226 Y92.975 E.02468
G1 X74.969 Y99.718 E.48052
G1 X74.764 Y100.003 E.01769
G1 X68.226 Y93.465 E.46595
G1 X68.226 Y93.955 E.02468
G1 X74.56 Y100.288 E.45138
G1 X74.355 Y100.574 E.01769
G1 X68.226 Y94.445 E.4368
G1 X68.226 Y94.935 E.02468
G1 X74.151 Y100.859 E.42223
G1 X73.946 Y101.144 E.01769
G1 X68.226 Y95.424 E.40766
G1 X68.226 Y95.914 E.02468
G1 X73.742 Y101.43 E.39309
G1 X73.537 Y101.715 E.01769
G1 X68.226 Y96.404 E.37852
G1 X68.226 Y96.894 E.02468
G1 X73.333 Y102 E.36394
G1 X73.128 Y102.286 E.01769
G1 X68.226 Y97.383 E.34937
G1 X68.226 Y97.873 E.02468
G1 X72.924 Y102.571 E.3348
G1 X72.719 Y102.856 E.01769
G1 X68.226 Y98.363 E.32023
G1 X68.226 Y98.853 E.02468
G1 X72.515 Y103.141 E.30565
G1 X72.311 Y103.427 E.01769
G1 X68.226 Y99.343 E.29108
G1 X68.226 Y99.832 E.02468
G1 X72.106 Y103.712 E.27651
G1 X71.902 Y103.997 E.01769
G1 X68.226 Y100.322 E.26194
G1 X68.226 Y100.812 E.02468
G1 X71.697 Y104.283 E.24737
G1 X71.493 Y104.568 E.01769
G1 X68.226 Y101.302 E.23279
G1 X68.226 Y101.791 E.02468
G1 X71.288 Y104.853 E.21822
G1 X71.084 Y105.139 E.01769
G1 X68.226 Y102.281 E.20365
G1 X68.226 Y102.771 E.02468
G1 X70.879 Y105.424 E.18908
G1 X70.675 Y105.709 E.01769
G1 X68.226 Y103.261 E.1745
G1 X68.226 Y103.751 E.02468
G1 X70.47 Y105.995 E.15993
G1 X70.266 Y106.28 E.01769
G1 X68.226 Y104.24 E.14536
G1 X68.226 Y104.73 E.02468
G1 X70.061 Y106.565 E.13079
G1 X69.857 Y106.851 E.01769
G1 X68.226 Y105.22 E.11622
G1 X68.226 Y105.71 E.02468
G1 X69.652 Y107.136 E.10164
G1 X69.448 Y107.421 E.01769
G1 X68.226 Y106.199 E.08707
G1 X68.226 Y106.689 E.02468
G1 X69.244 Y107.706 E.0725
G1 X69.039 Y107.992 E.01769
G1 X68.226 Y107.179 E.05793
G1 X68.226 Y107.669 E.02468
G1 X68.835 Y108.277 E.04335
G1 X68.63 Y108.562 E.01769
G1 X68.226 Y108.159 E.02878
G1 X68.226 Y108.648 E.02468
G1 X68.537 Y108.959 E.02214
M106 S255
;LAYER_CHANGE
;Z:0.85
;HEIGHT:0.5
;BEFORE_LAYER_CHANGE
G92 E0
;0.85


G1 E-.7 F3600
;WIPE_START
G1 F6240
G1 X68.226 Y108.648 E-.24076
G1 X68.226 Y108.568 E-.04424
;WIPE_END
G1 E-.015 F3600
G1 Z.85 F7800
;AFTER_LAYER_CHANGE
;0.85
M104 S205 ; set temperature
G1 X102.36 Y69.14
G1 E1 F2400
;TYPE:Perimeter
;WIDTH:1
G1 F2016.357
G1 X75.221 Y98.241 E7.38424
G1 X68.805 Y107.182 E2.04203
G1 X68.805 Y87.134 E3.72026
G1 X85.593 Y69.14 E4.5667
G1 X102.21 Y69.14 E3.08364
G1 E-.7 F3600
;WIPE_START
G1 F6240
G1 X101.856 Y69.521 E-.285
;WIPE_END
G1 E-.015 F3600
G1 X104.413 Y68.247 F7800
G1 E1 F2400
;TYPE:External perimeter
G1 F1800
G1 X75.873 Y98.85 E7.76525
G1 X67.913 Y109.962 E2.53663
G1 X67.913 Y86.782 E4.30146
G1 X85.204 Y68.247 E4.70399
G1 X104.263 Y68.247 E3.53665
G1 X103.65 Y68.894 F7800
G1 E-.7 F3600
;WIPE_START
G1 F6240
G1 X103.909 Y68.628 E-.285
;WIPE_END
G1 E-.015 F3600
G1 X69.073 Y104.152 F7800
G1 E1 F2400
;TYPE:Solid infill
;WIDTH:1.05918
G1 F1200
G1 X72.868 Y100.357 E1.06198
G1 X74.571 Y97.979 E.57875
G1 X74.726 Y97.79 E.04845
G1 X83.527 Y88.352 E2.55345
G1 X69.475 Y102.405 E3.9323
G1 X69.475 Y101.058 E.26637
G1 X100.724 Y69.809 E8.74455
G1 X99.378 Y69.809 E.26637
G1 X69.475 Y99.712 E8.36785
G1 X69.475 Y98.366 E.26637
G1 X98.032 Y69.809 E7.99115
G1 X96.685 Y69.809 E.26637
G1 X69.475 Y97.02 E7.61444
G1 X69.475 Y95.674 E.26637
G1 X95.339 Y69.809 E7.23774
G1 X93.993 Y69.809 E.26637
G1 X69.475 Y94.328 E6.86104
G1 X69.475 Y92.981 E.26637
G1 X92.647 Y69.809 E6.48434
G1 X91.301 Y69.809 E.26637
G1 X69.475 Y91.635 E6.10764
G1 X69.475 Y90.289 E.26637
G1 X89.955 Y69.809 E5.73094
G1 X88.609 Y69.809 E.26637
G1 X69.475 Y88.943 E5.35423
G1 X69.475 Y87.597 E.26637
M73 P2 R90
G1 X87.262 Y69.809 E4.97753
G1 X85.916 Y69.809 E.26637
G1 X77.24 Y78.485 E2.42776
;LAYER_CHANGE
;Z:1.35
;HEIGHT:0.5
;BEFORE_LAYER_CHANGE
G92 E0
;1.35


G1 E-.7 F3600
;WIPE_START
G1 F6240
G1 X77.608 Y78.117 E-.285
;WIPE_END
G1 E-.015 F3600
G1 Z1.35 F7800
;AFTER_LAYER_CHANGE
;1.35
G1 X102.314 Y69.14
G1 E1 F2400
;TYPE:Perimeter
;WIDTH:1
G1 F2016.357
G1 X74.88 Y98.552 E7.46384
G1 X68.805 Y107.017 E1.93339
G1 X68.805 Y87.083 E3.69919
G1 X85.545 Y69.14 E4.55365
G1 X102.164 Y69.14 E3.0841
M73 P2 R89
G1 E-.7 F3600
;WIPE_START
G1 F6240
G1 X101.81 Y69.521 E-.285
;WIPE_END
G1 E-.015 F3600
G1 X104.368 Y68.247 F7800
G1 E1 F2400
;TYPE:External perimeter
G1 F1800
G1 X75.532 Y99.161 E7.84489
G1 X67.913 Y109.797 E2.42797
G1 X67.913 Y86.731 E4.2804
G1 X85.156 Y68.247 E4.69093
G1 X104.218 Y68.247 E3.53717
G1 X103.605 Y68.894 F7800
G1 E-.7 F3600
;WIPE_START
G1 F6240
G1 X103.864 Y68.628 E-.285
;WIPE_END
G1 E-.015 F3600
G1 X99.941 Y69.408 F7800
G1 E1 F2400
;TYPE:Solid infill
;WIDTH:1.00506
G1 F1200
G1 X100.566 Y70.033 E.16494
G1 X99.953 Y70.689 E.16764
G1 X99.073 Y69.809 E.23229
G1 X97.803 Y69.809 E.23694
G1 X99.34 Y71.346 E.40566
G1 X98.728 Y72.003 E.16764
G1 X96.534 Y69.809 E.57903
G1 X95.264 Y69.809 E.23694
G1 X98.115 Y72.66 E.75241
G1 X97.502 Y73.317 E.16764
G1 X93.994 Y69.809 E.92578
G1 X92.725 Y69.809 E.23694
G1 X96.889 Y73.974 E1.09915
G1 X96.277 Y74.631 E.16764
G1 X91.455 Y69.809 E1.27252
G1 X90.186 Y69.809 E.23694
G1 X95.664 Y75.288 E1.44589
G1 X95.051 Y75.945 E.16764
G1 X88.916 Y69.809 E1.61927
G1 X87.646 Y69.809 E.23694
G1 X94.439 Y76.602 E1.79264
G1 X93.826 Y77.258 E.16764
G1 X86.377 Y69.809 E1.96601
G1 X85.836 Y69.809 E.10099
G1 X85.484 Y70.186 E.09619
G1 X93.213 Y77.915 E2.03992
G1 X92.6 Y78.572 E.16764
G1 X84.871 Y70.843 E2.03993
G1 X84.258 Y71.5 E.16764
G1 X91.988 Y79.229 E2.03994
G1 X91.375 Y79.886 E.16764
G1 X83.646 Y72.157 E2.03996
G1 X83.033 Y72.814 E.16764
G1 X90.762 Y80.543 E2.03997
G1 X90.149 Y81.2 E.16764
G1 X82.42 Y73.47 E2.03999
G1 X81.807 Y74.127 E.16764
G1 X89.537 Y81.857 E2.04
G1 X88.924 Y82.514 E.16764
G1 X81.195 Y74.784 E2.04002
G1 X80.582 Y75.441 E.16764
G1 X88.311 Y83.171 E2.04003
G1 X87.699 Y83.827 E.16764
G1 X79.969 Y76.098 E2.04005
G1 X79.356 Y76.755 E.16764
G1 X87.086 Y84.484 E2.04006
G1 X86.473 Y85.141 E.16764
G1 X78.743 Y77.412 E2.04007
G1 X78.131 Y78.068 E.16764
G1 X85.86 Y85.798 E2.04009
G1 X85.248 Y86.455 E.16764
G1 X77.518 Y78.725 E2.0401
G1 X76.905 Y79.382 E.16764
G1 X84.635 Y87.112 E2.04012
G1 X84.022 Y87.769 E.16764
G1 X76.292 Y80.039 E2.04013
G1 X75.679 Y80.696 E.16764
G1 X83.41 Y88.426 E2.04015
G1 X82.797 Y89.083 E.16764
G1 X75.067 Y81.353 E2.04016
G1 X74.454 Y82.009 E.16764
G1 X82.184 Y89.74 E2.04018
G1 X81.571 Y90.396 E.16764
G1 X73.841 Y82.666 E2.04019
G1 X73.228 Y83.323 E.16764
G1 X80.959 Y91.053 E2.0402
G1 X80.346 Y91.71 E.16764
G1 X72.616 Y83.98 E2.04022
G1 X72.003 Y84.637 E.16764
G1 X79.733 Y92.367 E2.04023
G1 X79.12 Y93.024 E.16764
G1 X71.39 Y85.294 E2.04025
G1 X70.777 Y85.951 E.16764
G1 X78.508 Y93.681 E2.04026
G1 X77.895 Y94.338 E.16764
G1 X70.164 Y86.607 E2.04028
G1 X69.552 Y87.264 E.16764
G1 X77.282 Y94.995 E2.04029
G1 X76.67 Y95.652 E.16764
G1 X69.475 Y88.457 E1.89884
G1 X69.475 Y89.727 E.23694
G1 X76.057 Y96.309 E1.73713
G1 X75.444 Y96.965 E.16764
G1 X69.475 Y90.996 E1.57541
G1 X69.475 Y92.266 E.23694
G1 X74.831 Y97.622 E1.4137
G1 X74.23 Y98.291 E.16777
G1 X69.475 Y93.536 E1.25495
G1 X69.475 Y94.805 E.23694
G1 X73.7 Y99.03 E1.11513
G1 X73.17 Y99.77 E.16982
G1 X69.475 Y96.075 E.97532
G1 X69.475 Y97.344 E.23694
G1 X72.641 Y100.51 E.83551
G1 X72.111 Y101.25 E.16982
G1 X69.475 Y98.614 E.6957
G1 X69.475 Y99.884 E.23694
G1 X71.581 Y101.99 E.55589
G1 X71.051 Y102.73 E.16982
G1 X69.475 Y101.153 E.41607
G1 X69.475 Y102.423 E.23694
G1 X70.522 Y103.47 E.27626
G1 X69.992 Y104.21 E.16982
G1 X69.073 Y103.291 E.24247
;LAYER_CHANGE
;Z:1.85
;HEIGHT:0.5
;BEFORE_LAYER_CHANGE
G92 E0
;1.85


G1 E-.7 F3600
;WIPE_START
G1 F6240
G1 X69.441 Y103.659 E-.285
;WIPE_END
G1 E-.015 F3600
G1 Z1.85 F7800
;AFTER_LAYER_CHANGE
;1.85
G1 X102.269 Y69.14
G1 E1 F2400
;TYPE:Perimeter
;WIDTH:1
G1 F914
G1 X74.539 Y98.863 E7.54344
G1 X68.805 Y106.852 E1.82479
G1 X68.805 Y87.031 E3.67818
G1 X85.497 Y69.14 E4.54059
G1 X102.119 Y69.14 E3.08456
G1 E-.7 F3600
;WIPE_START
G1 F6240
