; generated by PrusaSlicer 2.5.0+win64 on 2022-12-07 at 00:02:42 UTC

; 

; external perimeters extrusion width = 1.00mm
; perimeters extrusion width = 1.00mm
; infill extrusion width = 1.00mm
; solid infill extrusion width = 1.00mm
; top infill extrusion width = 1.00mm
; support material extrusion width = 1.00mm
; first layer extrusion width = 0.42mm

M73 P0 R163
M107
;TYPE:Custom
G90 ; use absolute coordinates
M83 ; extruder relative mode
M140 S60 ; set final bed temp
M104 S150 ; set temporary nozzle temp to prevent oozing during homing and auto bed leveling
G4 S10 ; allow partial nozzle warmup
G28 ; home all axisG1 Z50 F240
G1 X7.6 Y10 F3000
M104 S210 ; set final nozzle temp
M190 S60 ; wait for bed temp to stabilize
M109 S210 ; wait for nozzle temp to stabilize
G1 Z0.28 F240
G92 E0
G1 Y140 E10 F1500 ; prime the nozzle
G1 X4 F5000
G92 E0
G1 Y10 E10 F1200 ; prime the nozzle
G92 E0
G21 ; set units to millimeters
G90 ; use absolute coordinates
M83 ; use relative distances for extrusion
; Filament gcode
M107
;LAYER_CHANGE
;Z:0.35
;HEIGHT:0.35
;BEFORE_LAYER_CHANGE
G92 E0
;0.35


G1 E-1 F3600
G1 Z.35 F7800
;AFTER_LAYER_CHANGE
;0.35
G1 X44.506 Y96.486
G1 E1 F2400
;TYPE:Perimeter
;WIDTH:0.42
G1 F1800
G1 X44.495 Y96.585 E.00503
G1 X44.571 Y96.831 E.0129
G1 X44.77 Y97.017 E.01368
G1 X45.014 Y97.077 E.01262
G1 X154.859 Y96.573 E5.51272
G1 X154.859 Y111.737 E.76099
M73 P0 R162
G1 X25.525 Y112.295 E6.49077
G1 X38.272 Y67.645 E2.33035
G1 X52.729 Y67.645 E.72553
G1 X44.537 Y96.339 E1.49759
G1 X44.846 Y96.512 F7800
;TYPE:External perimeter
G1 F1800
G1 X44.873 Y96.663 E.00768
G1 X45.012 Y96.732 E.00779
G1 X155.204 Y96.227 E5.5301
G1 X155.204 Y112.08 E.79561
G1 X25.067 Y112.642 E6.53105
G1 X38.012 Y67.3 E2.36645
G1 X53.186 Y67.3 E.76153
G1 X44.887 Y96.368 E1.5171
G1 X44.731 Y96.613 F7800
G1 E-.7 F3600
;WIPE_START
G1 F6240
G1 X44.873 Y96.663 E-.16172
G1 X45.012 Y96.732 E-.08507
G1 X45.082 Y96.732 E-.0382
;WIPE_END
G1 E-.015 F3600
G1 X154.755 Y97.376 F7800
G1 E1 F2400
;TYPE:Solid infill
;WIDTH:0.420736
G1 F1800
G1 X154.214 Y96.835 E.03848
G1 X153.728 Y96.837 E.02447
G1 X154.6 Y97.71 E.06205
G1 X154.6 Y98.198 E.02458
G1 X153.241 Y96.84 E.09665
G1 X152.755 Y96.842 E.02447
G1 X154.6 Y98.687 E.13126
G1 X154.6 Y99.176 E.02458
G1 X152.268 Y96.844 E.16587
G1 X151.781 Y96.846 E.02447
G1 X154.6 Y99.665 E.20047
G1 X154.6 Y100.154 E.02458
G1 X151.295 Y96.848 E.23508
G1 X150.808 Y96.851 E.02447
G1 X154.6 Y100.642 E.26968
G1 X154.6 Y101.131 E.02458
G1 X150.322 Y96.853 E.30429
G1 X149.835 Y96.855 E.02447
G1 X154.6 Y101.62 E.3389
G1 X154.6 Y102.109 E.02458
G1 X149.349 Y96.857 E.3735
G1 X148.862 Y96.86 E.02447
G1 X154.6 Y102.598 E.40811
G1 X154.6 Y103.086 E.02458
G1 X148.376 Y96.862 E.44272
G1 X147.889 Y96.864 E.02447
G1 X154.6 Y103.575 E.47732
G1 X154.6 Y104.064 E.02458
G1 X147.402 Y96.866 E.51193
G1 X146.916 Y96.869 E.02447
G1 X154.6 Y104.553 E.54654
G1 X154.6 Y105.041 E.02458
G1 X146.429 Y96.871 E.58114
G1 X145.943 Y96.873 E.02447
G1 X154.6 Y105.53 E.61575
G1 X154.6 Y106.019 E.02458
G1 X145.456 Y96.875 E.65035
G1 X144.97 Y96.877 E.02447
G1 X154.6 Y106.508 E.68496
G1 X154.6 Y106.997 E.02458
G1 X144.483 Y96.88 E.71957
G1 X143.997 Y96.882 E.02447
G1 X154.6 Y107.485 E.75417
G1 X154.6 Y107.974 E.02458
G1 X143.51 Y96.884 E.78878
G1 X143.023 Y96.886 E.02447
G1 X154.6 Y108.463 E.82339
G1 X154.6 Y108.952 E.02458
G1 X142.537 Y96.889 E.85799
G1 X142.05 Y96.891 E.02447
G1 X154.6 Y109.441 E.8926
G1 X154.6 Y109.929 E.02458
G1 X141.564 Y96.893 E.9272
G1 X141.077 Y96.895 E.02447
G1 X154.6 Y110.418 E.96181
G1 X154.6 Y110.907 E.02458
G1 X140.591 Y96.898 E.99642
G1 X140.104 Y96.9 E.02447
G1 X154.6 Y111.396 E1.03102
G1 X154.6 Y111.479 E.00421
G1 X154.197 Y111.481 E.02029
G1 X139.618 Y96.902 E1.03694
G1 X139.131 Y96.904 E.02447
G1 X153.71 Y111.483 E1.03693
G1 X153.223 Y111.485 E.02448
G1 X138.644 Y96.906 E1.03692
G1 X138.158 Y96.909 E.02447
G1 X152.737 Y111.487 E1.03691
G1 X152.25 Y111.489 E.02448
G1 X137.671 Y96.911 E1.0369
G1 X137.185 Y96.913 E.02447
G1 X151.763 Y111.492 E1.03689
G1 X151.277 Y111.494 E.02448
G1 X136.698 Y96.915 E1.03688
G1 X136.212 Y96.918 E.02447
G1 X150.79 Y111.496 E1.03687
G1 X150.303 Y111.498 E.02448
G1 X135.725 Y96.92 E1.03687
G1 X135.239 Y96.922 E.02447
G1 X149.816 Y111.5 E1.03686
G1 X149.33 Y111.502 E.02448
G1 X134.752 Y96.924 E1.03685
G1 X134.265 Y96.927 E.02447
G1 X148.843 Y111.504 E1.03684
G1 X148.356 Y111.506 E.02448
G1 X133.779 Y96.929 E1.03683
G1 X133.292 Y96.931 E.02447
G1 X147.87 Y111.508 E1.03682
G1 X147.383 Y111.51 E.02448
G1 X132.806 Y96.933 E1.03681
G1 X132.319 Y96.935 E.02447
G1 X146.896 Y111.513 E1.0368
G1 X146.41 Y111.515 E.02448
G1 X131.833 Y96.938 E1.03679
G1 X131.346 Y96.94 E.02447
G1 X145.923 Y111.517 E1.03678
G1 X145.436 Y111.519 E.02448
G1 X130.86 Y96.942 E1.03677
G1 X130.373 Y96.944 E.02447
G1 X144.95 Y111.521 E1.03676
G1 X144.463 Y111.523 E.02448
G1 X129.886 Y96.947 E1.03675
G1 X129.4 Y96.949 E.02447
G1 X143.976 Y111.525 E1.03675
G1 X143.49 Y111.527 E.02448
G1 X128.913 Y96.951 E1.03674
G1 X128.427 Y96.953 E.02447
G1 X143.003 Y111.529 E1.03673
G1 X142.516 Y111.532 E.02448
G1 X127.94 Y96.956 E1.03672
G1 X127.454 Y96.958 E.02447
G1 X142.029 Y111.534 E1.03671
G1 X141.543 Y111.536 E.02448
G1 X126.967 Y96.96 E1.0367
G1 X126.481 Y96.962 E.02447
G1 X141.056 Y111.538 E1.03669
G1 X140.569 Y111.54 E.02448
G1 X125.994 Y96.964 E1.03668
G1 X125.507 Y96.967 E.02447
G1 X140.083 Y111.542 E1.03667
G1 X139.596 Y111.544 E.02448
G1 X125.021 Y96.969 E1.03666
G1 X124.534 Y96.971 E.02447
G1 X139.109 Y111.546 E1.03665
G1 X138.623 Y111.548 E.02448
G1 X124.048 Y96.973 E1.03664
G1 X123.561 Y96.976 E.02447
G1 X138.136 Y111.55 E1.03663
G1 X137.649 Y111.553 E.02448
G1 X123.075 Y96.978 E1.03663
G1 X122.588 Y96.98 E.02447
M73 P0 R161
G1 X137.163 Y111.555 E1.03662
G1 X136.676 Y111.557 E.02448
G1 X122.102 Y96.982 E1.03661
G1 X121.615 Y96.985 E.02447
G1 X136.189 Y111.559 E1.0366
G1 X135.703 Y111.561 E.02448
G1 X121.128 Y96.987 E1.03659
G1 X120.642 Y96.989 E.02447
G1 X135.216 Y111.563 E1.03658
G1 X134.729 Y111.565 E.02448
G1 X120.155 Y96.991 E1.03657
G1 X119.669 Y96.993 E.02447
G1 X134.243 Y111.567 E1.03656
G1 X133.756 Y111.569 E.02448
G1 X119.182 Y96.996 E1.03655
G1 X118.696 Y96.998 E.02447
G1 X133.269 Y111.571 E1.03654
G1 X132.782 Y111.574 E.02448
G1 X118.209 Y97 E1.03653
G1 X117.722 Y97.002 E.02447
G1 X132.296 Y111.576 E1.03652
G1 X131.809 Y111.578 E.02448
G1 X117.236 Y97.005 E1.03652
G1 X116.749 Y97.007 E.02447
G1 X131.322 Y111.58 E1.03651
G1 X130.836 Y111.582 E.02448
G1 X116.263 Y97.009 E1.0365
G1 X115.776 Y97.011 E.02447
G1 X130.349 Y111.584 E1.03649
G1 X129.862 Y111.586 E.02448
G1 X115.29 Y97.014 E1.03648
G1 X114.803 Y97.016 E.02447
G1 X129.376 Y111.588 E1.03647
G1 X128.889 Y111.59 E.02448
G1 X114.317 Y97.018 E1.03646
G1 X113.83 Y97.02 E.02447
G1 X128.402 Y111.592 E1.03645
G1 X127.916 Y111.595 E.02448
G1 X113.343 Y97.022 E1.03644
G1 X112.857 Y97.025 E.02447
G1 X127.429 Y111.597 E1.03643
G1 X126.942 Y111.599 E.02448
G1 X112.37 Y97.027 E1.03642
G1 X111.884 Y97.029 E.02447
G1 X126.456 Y111.601 E1.03641
G1 X125.969 Y111.603 E.02448
G1 X111.397 Y97.031 E1.0364
G1 X110.911 Y97.034 E.02447
G1 X125.482 Y111.605 E1.0364
G1 X124.995 Y111.607 E.02448
G1 X110.424 Y97.036 E1.03639
G1 X109.938 Y97.038 E.02447
G1 X124.509 Y111.609 E1.03638
G1 X124.022 Y111.611 E.02448
G1 X109.451 Y97.04 E1.03637
G1 X108.964 Y97.043 E.02447
G1 X123.535 Y111.613 E1.03636
G1 X123.049 Y111.616 E.02448
M73 P1 R161
G1 X108.478 Y97.045 E1.03635
G1 X107.991 Y97.047 E.02447
G1 X122.562 Y111.618 E1.03634
G1 X122.075 Y111.62 E.02448
G1 X107.505 Y97.049 E1.03633
G1 X107.018 Y97.051 E.02447
G1 X121.589 Y111.622 E1.03632
G1 X121.102 Y111.624 E.02448
G1 X106.532 Y97.054 E1.03631
G1 X106.045 Y97.056 E.02447
G1 X120.615 Y111.626 E1.0363
G1 X120.129 Y111.628 E.02448
G1 X105.559 Y97.058 E1.03629
G1 X105.072 Y97.06 E.02447
G1 X119.642 Y111.63 E1.03629
G1 X119.155 Y111.632 E.02448
G1 X104.585 Y97.063 E1.03628
G1 X104.099 Y97.065 E.02447
G1 X118.669 Y111.634 E1.03627
G1 X118.182 Y111.637 E.02448
G1 X103.612 Y97.067 E1.03626
G1 X103.126 Y97.069 E.02447
G1 X117.695 Y111.639 E1.03625
G1 X117.209 Y111.641 E.02448
G1 X102.639 Y97.072 E1.03624
G1 X102.153 Y97.074 E.02447
G1 X116.722 Y111.643 E1.03623
G1 X116.235 Y111.645 E.02448
G1 X101.666 Y97.076 E1.03622
G1 X101.18 Y97.078 E.02447
G1 X115.748 Y111.647 E1.03621
G1 X115.262 Y111.649 E.02448
G1 X100.693 Y97.08 E1.0362
G1 X100.206 Y97.083 E.02447
G1 X114.775 Y111.651 E1.03619
G1 X114.288 Y111.653 E.02448
G1 X99.72 Y97.085 E1.03618
G1 X99.233 Y97.087 E.02447
G1 X113.802 Y111.656 E1.03617
G1 X113.315 Y111.658 E.02448
G1 X98.747 Y97.089 E1.03617
G1 X98.26 Y97.092 E.02447
G1 X112.828 Y111.66 E1.03616
G1 X112.342 Y111.662 E.02448
G1 X97.774 Y97.094 E1.03615
G1 X97.287 Y97.096 E.02447
G1 X111.855 Y111.664 E1.03614
G1 X111.368 Y111.666 E.02448
G1 X96.801 Y97.098 E1.03613
G1 X96.314 Y97.101 E.02447
G1 X110.882 Y111.668 E1.03612
G1 X110.395 Y111.67 E.02448
G1 X95.827 Y97.103 E1.03611
G1 X95.341 Y97.105 E.02447
G1 X109.908 Y111.672 E1.0361
G1 X109.422 Y111.674 E.02448
G1 X94.854 Y97.107 E1.03609
G1 X94.368 Y97.109 E.02447
G1 X108.935 Y111.677 E1.03608
G1 X108.448 Y111.679 E.02448
G1 X93.881 Y97.112 E1.03607
G1 X93.395 Y97.114 E.02447
G1 X107.961 Y111.681 E1.03606
G1 X107.475 Y111.683 E.02448
G1 X92.908 Y97.116 E1.03605
G1 X92.422 Y97.118 E.02447
G1 X106.988 Y111.685 E1.03605
G1 X106.501 Y111.687 E.02448
G1 X91.935 Y97.121 E1.03604
G1 X91.448 Y97.123 E.02447
G1 X106.015 Y111.689 E1.03603
G1 X105.528 Y111.691 E.02448
G1 X90.962 Y97.125 E1.03602
G1 X90.475 Y97.127 E.02447
G1 X105.041 Y111.693 E1.03601
G1 X104.555 Y111.695 E.02448
G1 X89.989 Y97.13 E1.036
G1 X89.502 Y97.132 E.02447
G1 X104.068 Y111.698 E1.03599
G1 X103.581 Y111.7 E.02448
G1 X89.016 Y97.134 E1.03598
G1 X88.529 Y97.136 E.02447
G1 X103.095 Y111.702 E1.03597
G1 X102.608 Y111.704 E.02448
G1 X88.043 Y97.138 E1.03596
G1 X87.556 Y97.141 E.02447
G1 X102.121 Y111.706 E1.03595
G1 X101.635 Y111.708 E.02448
G1 X87.069 Y97.143 E1.03594
G1 X86.583 Y97.145 E.02447
G1 X101.148 Y111.71 E1.03594
G1 X100.661 Y111.712 E.02448
G1 X86.096 Y97.147 E1.03593
G1 X85.61 Y97.15 E.02447
G1 X100.174 Y111.714 E1.03592
G1 X99.688 Y111.716 E.02448
G1 X85.123 Y97.152 E1.03591
G1 X84.637 Y97.154 E.02447
G1 X99.201 Y111.719 E1.0359
G1 X98.714 Y111.721 E.02448
G1 X84.15 Y97.156 E1.03589
G1 X83.664 Y97.159 E.02447
M73 P1 R160
G1 X98.228 Y111.723 E1.03588
G1 X97.741 Y111.725 E.02448
G1 X83.177 Y97.161 E1.03587
G1 X82.69 Y97.163 E.02447
G1 X97.254 Y111.727 E1.03586
G1 X96.768 Y111.729 E.02448
G1 X82.204 Y97.165 E1.03585
G1 X81.717 Y97.167 E.02447
G1 X96.281 Y111.731 E1.03584
G1 X95.794 Y111.733 E.02448
G1 X81.231 Y97.17 E1.03583
G1 X80.744 Y97.172 E.02447
G1 X95.308 Y111.735 E1.03582
G1 X94.821 Y111.737 E.02448
G1 X80.258 Y97.174 E1.03582
G1 X79.771 Y97.176 E.02447
G1 X94.334 Y111.74 E1.03581
G1 X93.848 Y111.742 E.02448
G1 X79.285 Y97.179 E1.0358
G1 X78.798 Y97.181 E.02447
G1 X93.361 Y111.744 E1.03579
G1 X92.874 Y111.746 E.02448
G1 X78.311 Y97.183 E1.03578
G1 X77.825 Y97.185 E.02447
G1 X92.388 Y111.748 E1.03577
G1 X91.901 Y111.75 E.02448
G1 X77.338 Y97.188 E1.03576
G1 X76.852 Y97.19 E.02447
G1 X91.414 Y111.752 E1.03575
G1 X90.927 Y111.754 E.02448
G1 X76.365 Y97.192 E1.03574
G1 X75.879 Y97.194 E.02447
G1 X90.441 Y111.756 E1.03573
G1 X89.954 Y111.758 E.02448
G1 X75.392 Y97.196 E1.03572
G1 X74.906 Y97.199 E.02447
G1 X89.467 Y111.761 E1.03571
G1 X88.981 Y111.763 E.02448
G1 X74.419 Y97.201 E1.0357
G1 X73.932 Y97.203 E.02447
G1 X88.494 Y111.765 E1.0357
G1 X88.007 Y111.767 E.02448
G1 X73.446 Y97.205 E1.03569
G1 X72.959 Y97.208 E.02447
G1 X87.521 Y111.769 E1.03568
G1 X87.034 Y111.771 E.02448
G1 X72.473 Y97.21 E1.03567
G1 X71.986 Y97.212 E.02447
G1 X86.547 Y111.773 E1.03566
G1 X86.061 Y111.775 E.02448
G1 X71.5 Y97.214 E1.03565
G1 X71.013 Y97.217 E.02447
G1 X85.574 Y111.777 E1.03564
G1 X85.087 Y111.779 E.02448
G1 X70.527 Y97.219 E1.03563
G1 X70.04 Y97.221 E.02447
G1 X84.601 Y111.782 E1.03562
G1 X84.114 Y111.784 E.02448
G1 X69.553 Y97.223 E1.03561
G1 X69.067 Y97.225 E.02447
G1 X83.627 Y111.786 E1.0356
G1 X83.14 Y111.788 E.02448
G1 X68.58 Y97.228 E1.03559
G1 X68.094 Y97.23 E.02447
G1 X82.654 Y111.79 E1.03559
G1 X82.167 Y111.792 E.02448
G1 X67.607 Y97.232 E1.03558
G1 X67.121 Y97.234 E.02447
G1 X81.68 Y111.794 E1.03557
G1 X81.194 Y111.796 E.02448
G1 X66.634 Y97.237 E1.03556
G1 X66.147 Y97.239 E.02447
G1 X80.707 Y111.798 E1.03555
G1 X80.22 Y111.801 E.02448
G1 X65.661 Y97.241 E1.03554
G1 X65.174 Y97.243 E.02447
G1 X79.734 Y111.803 E1.03553
G1 X79.247 Y111.805 E.02448
G1 X64.688 Y97.246 E1.03552
G1 X64.201 Y97.248 E.02447
G1 X78.76 Y111.807 E1.03551
G1 X78.274 Y111.809 E.02448
G1 X63.715 Y97.25 E1.0355
G1 X63.228 Y97.252 E.02447
G1 X77.787 Y111.811 E1.03549
G1 X77.3 Y111.813 E.02448
G1 X62.742 Y97.254 E1.03548
G1 X62.255 Y97.257 E.02447
G1 X76.814 Y111.815 E1.03547
G1 X76.327 Y111.817 E.02448
G1 X61.768 Y97.259 E1.03547
G1 X61.282 Y97.261 E.02447
G1 X75.84 Y111.819 E1.03546
G1 X75.354 Y111.822 E.02448
G1 X60.795 Y97.263 E1.03545
G1 X60.309 Y97.266 E.02447
G1 X74.867 Y111.824 E1.03544
G1 X74.38 Y111.826 E.02448
G1 X59.822 Y97.268 E1.03543
G1 X59.336 Y97.27 E.02447
G1 X73.893 Y111.828 E1.03542
G1 X73.407 Y111.83 E.02448
G1 X58.849 Y97.272 E1.03541
G1 X58.363 Y97.275 E.02447
G1 X72.92 Y111.832 E1.0354
G1 X72.433 Y111.834 E.02448
G1 X57.876 Y97.277 E1.03539
G1 X57.389 Y97.279 E.02447
G1 X71.947 Y111.836 E1.03538
G1 X71.46 Y111.838 E.02448
G1 X56.903 Y97.281 E1.03537
G1 X56.416 Y97.283 E.02447
G1 X70.973 Y111.84 E1.03536
G1 X70.487 Y111.843 E.02448
G1 X55.93 Y97.286 E1.03536
G1 X55.443 Y97.288 E.02447
G1 X70 Y111.845 E1.03535
G1 X69.513 Y111.847 E.02448
G1 X54.957 Y97.29 E1.03534
G1 X54.47 Y97.292 E.02447
G1 X69.027 Y111.849 E1.03533
G1 X68.54 Y111.851 E.02448
G1 X53.984 Y97.295 E1.03532
G1 X53.497 Y97.297 E.02447
G1 X68.053 Y111.853 E1.03531
G1 X67.567 Y111.855 E.02448
G1 X53.01 Y97.299 E1.0353
G1 X52.524 Y97.301 E.02447
G1 X67.08 Y111.857 E1.03529
G1 X66.593 Y111.859 E.02448
G1 X52.037 Y97.304 E1.03528
G1 X51.551 Y97.306 E.02447
G1 X66.106 Y111.861 E1.03527
G1 X65.62 Y111.864 E.02448
G1 X51.064 Y97.308 E1.03526
G1 X50.578 Y97.31 E.02447
G1 X65.133 Y111.866 E1.03525
G1 X64.646 Y111.868 E.02448
G1 X50.091 Y97.312 E1.03524
G1 X49.605 Y97.315 E.02447
G1 X64.16 Y111.87 E1.03524
G1 X63.673 Y111.872 E.02448
G1 X49.118 Y97.317 E1.03523
G1 X48.631 Y97.319 E.02447
G1 X63.186 Y111.874 E1.03522
G1 X62.7 Y111.876 E.02448
G1 X48.145 Y97.321 E1.03521
G1 X47.658 Y97.324 E.02447
G1 X62.213 Y111.878 E1.0352
G1 X61.726 Y111.88 E.02448
G1 X47.172 Y97.326 E1.03519
G1 X46.685 Y97.328 E.02447
G1 X61.24 Y111.882 E1.03518
G1 X60.753 Y111.885 E.02448
G1 X46.199 Y97.33 E1.03517
G1 X45.712 Y97.333 E.02447
G1 X60.266 Y111.887 E1.03516
G1 X59.78 Y111.889 E.02448
M73 P2 R160
G1 X45.071 Y97.18 E1.04614
G1 E-.7 F3600
;WIPE_START
M73 P2 R159
G1 F6240
G1 X45.439 Y97.548 E-.285
;WIPE_END
G1 E-.015 F3600
G1 X52.418 Y68.357 F7800
G1 E1 F2400
G1 F1800
G1 X51.965 Y67.904 E.03225
G1 X51.476 Y67.904 E.02458
G1 X52.184 Y68.612 E.05037
G1 X52.075 Y68.992 E.01989
G1 X50.987 Y67.904 E.07741
G1 X50.498 Y67.904 E.02458
G1 X51.967 Y69.372 E.10446
G1 X51.858 Y69.752 E.01989
G1 X50.009 Y67.904 E.1315
G1 X49.521 Y67.904 E.02458
G1 X51.75 Y70.133 E.15854
G1 X51.641 Y70.513 E.01989
G1 X49.032 Y67.904 E.18559
G1 X48.543 Y67.904 E.02458
G1 X51.533 Y70.893 E.21263
G1 X51.424 Y71.273 E.01989
G1 X48.054 Y67.904 E.23967
G1 X47.566 Y67.904 E.02458
G1 X51.316 Y71.654 E.26672
G1 X51.207 Y72.034 E.01989
G1 X47.077 Y67.904 E.29376
G1 X46.588 Y67.904 E.02458
G1 X51.098 Y72.414 E.32081
G1 X50.99 Y72.794 E.01989
G1 X46.099 Y67.904 E.34785
G1 X45.61 Y67.904 E.02458
G1 X50.881 Y73.174 E.37489
G1 X50.773 Y73.555 E.01989
G1 X45.122 Y67.904 E.40194
G1 X44.633 Y67.904 E.02458
G1 X50.664 Y73.935 E.42898
G1 X50.556 Y74.315 E.01989
G1 X44.144 Y67.904 E.45602
G1 X43.655 Y67.904 E.02458
G1 X50.447 Y74.695 E.48307
G1 X50.339 Y75.076 E.01989
G1 X43.166 Y67.904 E.51011
G1 X42.678 Y67.904 E.02458
G1 X50.23 Y75.456 E.53716
G1 X50.121 Y75.836 E.01989
G1 X42.189 Y67.904 E.5642
G1 X41.7 Y67.904 E.02458
