; generated by PrusaSlicer 2.5.0+win64 on 2022-12-07 at 00:02:40 UTC

; 

; external perimeters extrusion width = 1.00mm
; perimeters extrusion width = 1.00mm
; infill extrusion width = 1.00mm
; solid infill extrusion width = 1.00mm
; top infill extrusion width = 1.00mm
; support material extrusion width = 1.00mm
; first layer extrusion width = 0.42mm

M73 P0 R305
M107
;TYPE:Custom
G90 ; use absolute coordinates
M83 ; extruder relative mode
M140 S60 ; set final bed temp
M104 S150 ; set temporary nozzle temp to prevent oozing during homing and auto bed leveling
G4 S10 ; allow partial nozzle warmup
G28 ; home all axisG1 Z50 F240
G1 X7.6 Y10 F3000
M104 S210 ; set final nozzle temp
M190 S60 ; wait for bed temp to stabilize
M109 S210 ; wait for nozzle temp to stabilize
G1 Z0.28 F240
G92 E0
G1 Y140 E10 F1500 ; prime the nozzle
G1 X4 F5000
G92 E0
G1 Y10 E10 F1200 ; prime the nozzle
G92 E0
G21 ; set units to millimeters
G90 ; use absolute coordinates
M83 ; use relative distances for extrusion
; Filament gcode
M107
;LAYER_CHANGE
;Z:0.35
;HEIGHT:0.35
;BEFORE_LAYER_CHANGE
G92 E0
;0.35


G1 E-1 F3600
G1 Z.35 F7800
;AFTER_LAYER_CHANGE
;0.35
G1 X108.009 Y91.008
G1 E1 F2400
;TYPE:Perimeter
;WIDTH:0.42
G1 F1800
G1 X108.068 Y91.19 E.00959
G1 X108.247 Y91.356 E.01225
G1 X108.585 Y91.437 E.01744
G1 X108.824 Y91.409 E.01207
G1 X109.023 Y91.277 E.01199
G1 X109.142 Y91.07 E.012
G1 X109.326 Y90.448 E.03257
G1 X146.665 Y38.269 E3.22002
G1 X148.576 Y36.219 E.14069
G1 X148.576 Y59.662 E1.17651
G1 X122.011 Y96.775 E2.29054
G1 X121.934 Y96.934 E.00888
M73 P0 R304
G1 X119.1 Y106.875 E.51878
G1 X107.609 Y106.012 E.57829
G1 X95.313 Y105.006 E.61916
G1 X95.192 Y104.843 E.01022
G1 X93.013 Y61.91 E2.15739
G1 X90.42 Y16.974 E2.2589
G1 X89.966 Y16.487 E.03342
G1 X104.213 Y16.483 E.71496
G1 X107.981 Y90.862 E3.73757
G1 E-.7 F3600
;WIPE_START
G1 F6240
G1 X108.068 Y91.19 E-.18586
G1 X108.2 Y91.313 E-.09914
;WIPE_END
G1 E-.015 F3600
G1 X70.349 Y82.055 F7800
G1 E1 F2400
G1 F1800
G1 X46.763 Y163.519 E4.25628
G1 X32.306 Y163.519 E.72552
G1 X74.87 Y16.483 E7.6821
G1 X88.662 Y16.483 E.69216
;WIDTH:0.447948
G1 X88.913 Y16.525 E.01381
;WIDTH:0.467575
G1 X89.491 Y16.554 E.03304
G1 X89.197 Y16.813 E.02234
G1 X89.147 Y17.128 E.01821
;WIDTH:0.42
G1 X70.391 Y81.91 E3.38469
G1 E-.7 F3600
;WIPE_START
G1 F6240
G1 X70.246 Y82.41 E-.285
;WIPE_END
G1 E-.015 F3600
G1 X108.329 Y90.915 F7800
G1 E1 F2400
;TYPE:External perimeter
G1 F1800
G1 X108.333 Y90.944 E.0015
G1 X108.431 Y91.064 E.00776
G1 X108.705 Y91.085 E.0138
G1 X108.811 Y90.972 E.00778
G1 X109.012 Y90.294 E.03548
G1 X146.397 Y38.05 E3.22405
G1 X148.921 Y35.343 E.18576
G1 X148.921 Y38.953 E.18114
G1 X148.921 Y59.773 E1.04487
G1 X122.291 Y96.976 E2.29609
G1 X119.355 Y107.24 E.53581
G1 X107.582 Y106.356 E.59246
G1 X95.129 Y105.337 E.62706
G1 X94.853 Y104.964 E.02329
G1 X92.669 Y61.927 E2.16263
G1 X90.076 Y16.994 E2.25878
;WIDTH:0.461852
G1 X90.005 Y16.928 E.00544
;WIDTH:0.503704
G1 X89.933 Y16.863 E.00603
;WIDTH:0.545556
G1 X89.862 Y16.798 E.00662
;WIDTH:0.587409
G1 X89.791 Y16.732 E.00721
;WIDTH:0.589415
G1 X89.716 Y16.733 E.00563
G1 X89.668 Y16.798 E.00604
;WIDTH:0.548801
G1 X89.62 Y16.863 E.00557
;WIDTH:0.508188
G1 X89.573 Y16.929 E.00509
;WIDTH:0.467575
G1 X89.478 Y17.224 E.0177
;WIDTH:0.42
G1 X47.022 Y163.864 E7.66151
G1 X31.847 Y163.864 E.76156
G1 X74.611 Y16.138 E7.71814
G1 X88.662 Y16.138 E.70517
;WIDTH:0.467575
G1 X89.006 Y16.162 E.01971
;WIDTH:0.506899
G1 X89.258 Y16.181 E.01583
;WIDTH:0.546223
G1 X89.509 Y16.201 E.01727
;WIDTH:0.585548
G1 X89.76 Y16.221 E.01872
G1 X89.812 Y16.2 E.00413
;WIDTH:0.544161
G1 X89.863 Y16.179 E.00379
;WIDTH:0.502774
G1 X89.915 Y16.159 E.00346
;WIDTH:0.461387
G1 X89.966 Y16.138 E.00312
;WIDTH:0.42
G1 X104.541 Y16.138 E.73141
G1 X108.321 Y90.765 E3.75002
G1 X108.306 Y90.934 F7800
G1 E-.7 F3600
;WIPE_START
G1 F6240
G1 X108.333 Y90.944 E-.09856
G1 X108.431 Y91.064 E-.08471
G1 X108.616 Y91.078 E-.10173
;WIPE_END
G1 E-.015 F3600
G1 X104.149 Y17.265 F7800
G1 E1 F2400
;TYPE:Solid infill
;WIDTH:0.420677
G1 F1800
G1 X103.626 Y16.742 E.0372
G1 X103.137 Y16.742 E.02457
G1 X104.011 Y17.616 E.06217
G1 X104.037 Y18.13 E.02592
G1 X102.648 Y16.742 E.09877
G1 X102.159 Y16.742 E.02457
G1 X104.063 Y18.645 E.13538
G1 X104.089 Y19.16 E.02592
G1 X101.671 Y16.742 E.17199
G1 X101.182 Y16.742 E.02457
G1 X104.115 Y19.675 E.2086
G1 X104.141 Y20.19 E.02592
G1 X100.693 Y16.742 E.2452
G1 X100.205 Y16.742 E.02457
G1 X104.168 Y20.704 E.28181
G1 X104.194 Y21.219 E.02592
G1 X99.716 Y16.742 E.31842
G1 X99.227 Y16.742 E.02457
G1 X104.22 Y21.734 E.35503
G1 X104.246 Y22.249 E.02592
G1 X98.739 Y16.742 E.39163
G1 X98.25 Y16.742 E.02457
G1 X104.272 Y22.764 E.42824
G1 X104.298 Y23.278 E.02592
G1 X97.761 Y16.742 E.46485
G1 X97.272 Y16.742 E.02457
G1 X104.324 Y23.793 E.50146
G1 X104.35 Y24.308 E.02592
G1 X96.784 Y16.742 E.53807
G1 X96.295 Y16.742 E.02457
G1 X104.376 Y24.823 E.57467
G1 X104.402 Y25.337 E.02592
G1 X95.806 Y16.742 E.61128
G1 X95.318 Y16.742 E.02457
G1 X104.428 Y25.852 E.64789
G1 X104.454 Y26.367 E.02592
G1 X94.829 Y16.742 E.6845
G1 X94.34 Y16.742 E.02457
G1 X104.48 Y26.882 E.7211
G1 X104.507 Y27.397 E.02592
G1 X93.852 Y16.742 E.75771
G1 X93.363 Y16.742 E.02457
G1 X104.533 Y27.911 E.79432
G1 X104.559 Y28.426 E.02592
G1 X92.874 Y16.742 E.83093
G1 X92.385 Y16.742 E.02457
G1 X104.585 Y28.941 E.86753
G1 X104.611 Y29.456 E.02592
G1 X91.897 Y16.742 E.90414
G1 X91.408 Y16.742 E.02457
G1 X104.637 Y29.97 E.94075
G1 X104.663 Y30.485 E.02592
G1 X90.919 Y16.742 E.97736
G1 X90.502 Y16.742 E.021
G1 X90.677 Y16.928 E.01285
G1 X90.68 Y16.991 E.00319
G1 X104.689 Y31 E.99621
G1 X104.715 Y31.515 E.02592
G1 X90.71 Y17.51 E.99594
G1 X90.74 Y18.028 E.02612
G1 X104.741 Y32.03 E.99566
G1 X104.767 Y32.544 E.02592
G1 X90.77 Y18.547 E.99539
G1 X90.8 Y19.066 E.02612
G1 X104.793 Y33.059 E.99511
G1 X104.82 Y33.574 E.02592
G1 X90.83 Y19.584 E.99484
G1 X90.86 Y20.103 E.02612
M73 P0 R303
G1 X104.846 Y34.089 E.99457
G1 X104.872 Y34.604 E.02592
G1 X90.89 Y20.622 E.99429
G1 X90.92 Y21.14 E.02612
G1 X104.898 Y35.118 E.99402
G1 X104.924 Y35.633 E.02592
G1 X90.95 Y21.659 E.99375
G1 X90.98 Y22.178 E.02612
G1 X104.95 Y36.148 E.99347
G1 X104.976 Y36.663 E.02592
G1 X91.009 Y22.696 E.9932
G1 X91.039 Y23.215 E.02612
G1 X105.002 Y37.177 E.99292
G1 X105.028 Y37.692 E.02592
G1 X91.069 Y23.733 E.99265
G1 X91.099 Y24.252 E.02612
G1 X105.054 Y38.207 E.99238
G1 X105.08 Y38.722 E.02592
G1 X91.129 Y24.771 E.9921
G1 X91.159 Y25.289 E.02612
G1 X105.106 Y39.237 E.99183
G1 X105.132 Y39.751 E.02592
G1 X91.189 Y25.808 E.99155
G1 X91.219 Y26.327 E.02612
G1 X105.159 Y40.266 E.99128
G1 X105.185 Y40.781 E.02592
G1 X91.249 Y26.845 E.99101
G1 X91.279 Y27.364 E.02612
G1 X105.211 Y41.296 E.99073
G1 X105.237 Y41.81 E.02592
G1 X91.309 Y27.883 E.99046
G1 X91.339 Y28.401 E.02612
G1 X105.263 Y42.325 E.99019
G1 X105.289 Y42.84 E.02592
G1 X91.369 Y28.92 E.98991
G1 X91.399 Y29.438 E.02612
G1 X105.315 Y43.355 E.98964
G1 X105.341 Y43.87 E.02592
G1 X91.429 Y29.957 E.98936
G1 X91.458 Y30.476 E.02612
G1 X105.367 Y44.384 E.98909
G1 X105.393 Y44.899 E.02592
G1 X91.488 Y30.994 E.98882
G1 X91.518 Y31.513 E.02612
G1 X105.419 Y45.414 E.98854
G1 X105.445 Y45.929 E.02592
G1 X91.548 Y32.032 E.98827
G1 X91.578 Y32.55 E.02612
G1 X105.471 Y46.444 E.98799
G1 X105.498 Y46.958 E.02592
G1 X91.608 Y33.069 E.98772
G1 X91.638 Y33.587 E.02612
G1 X105.524 Y47.473 E.98745
G1 X105.55 Y47.988 E.02592
G1 X91.668 Y34.106 E.98717
G1 X91.698 Y34.625 E.02612
G1 X105.576 Y48.503 E.9869
G1 X105.602 Y49.017 E.02592
G1 X91.728 Y35.143 E.98662
G1 X91.758 Y35.662 E.02612
G1 X105.628 Y49.532 E.98635
G1 X105.654 Y50.047 E.02592
G1 X91.788 Y36.181 E.98608
G1 X91.818 Y36.699 E.02612
G1 X105.68 Y50.562 E.9858
G1 X105.706 Y51.077 E.02592
G1 X91.848 Y37.218 E.98553
G1 X91.877 Y37.737 E.02612
G1 X105.732 Y51.591 E.98526
G1 X105.758 Y52.106 E.02592
G1 X91.907 Y38.255 E.98498
G1 X91.937 Y38.774 E.02612
G1 X105.784 Y52.621 E.98471
G1 X105.811 Y53.136 E.02592
G1 X91.967 Y39.292 E.98443
G1 X91.997 Y39.811 E.02612
G1 X105.837 Y53.651 E.98416
G1 X105.863 Y54.165 E.02592
G1 X92.027 Y40.33 E.98389
G1 X92.057 Y40.848 E.02612
G1 X105.889 Y54.68 E.98361
G1 X105.915 Y55.195 E.02592
G1 X92.087 Y41.367 E.98334
G1 X92.117 Y41.886 E.02612
G1 X105.941 Y55.71 E.98306
G1 X105.967 Y56.224 E.02592
G1 X92.147 Y42.404 E.98279
G1 X92.177 Y42.923 E.02612
G1 X105.993 Y56.739 E.98252
G1 X106.019 Y57.254 E.02592
G1 X92.207 Y43.442 E.98224
G1 X92.237 Y43.96 E.02612
G1 X106.045 Y57.769 E.98197
G1 X106.071 Y58.284 E.02592
G1 X92.267 Y44.479 E.9817
G1 X92.296 Y44.997 E.02612
G1 X106.097 Y58.798 E.98142
G1 X106.123 Y59.313 E.02592
G1 X92.326 Y45.516 E.98115
G1 X92.356 Y46.035 E.02612
G1 X106.15 Y59.828 E.98087
G1 X106.176 Y60.343 E.02592
G1 X92.386 Y46.553 E.9806
G1 X92.416 Y47.072 E.02612
G1 X106.202 Y60.857 E.98033
G1 X106.228 Y61.372 E.02592
G1 X92.446 Y47.591 E.98005
G1 X92.476 Y48.109 E.02612
G1 X106.254 Y61.887 E.97978
G1 X106.28 Y62.402 E.02592
G1 X92.506 Y48.628 E.9795
G1 X92.536 Y49.147 E.02612
G1 X106.306 Y62.917 E.97923
G1 X106.332 Y63.431 E.02592
G1 X92.566 Y49.665 E.97896
G1 X92.596 Y50.184 E.02612
G1 X106.358 Y63.946 E.97868
G1 X106.384 Y64.461 E.02592
G1 X92.626 Y50.702 E.97841
G1 X92.656 Y51.221 E.02612
G1 X106.41 Y64.976 E.97814
G1 X106.436 Y65.491 E.02592
G1 X92.686 Y51.74 E.97786
G1 X92.716 Y52.258 E.02612
G1 X106.462 Y66.005 E.97759
G1 X106.489 Y66.52 E.02592
G1 X92.745 Y52.777 E.97731
G1 X92.775 Y53.296 E.02612
G1 X106.515 Y67.035 E.97704
G1 X106.541 Y67.55 E.02592
G1 X92.805 Y53.814 E.97677
G1 X92.835 Y54.333 E.02612
G1 X106.567 Y68.064 E.97649
G1 X106.593 Y68.579 E.02592
G1 X92.865 Y54.851 E.97622
G1 X92.895 Y55.37 E.02612
G1 X106.619 Y69.094 E.97594
G1 X106.645 Y69.609 E.02592
G1 X92.925 Y55.889 E.97567
G1 X92.955 Y56.407 E.02612
G1 X106.671 Y70.124 E.9754
G1 X106.697 Y70.638 E.02592
G1 X92.985 Y56.926 E.97512
G1 X93.015 Y57.445 E.02612
G1 X106.723 Y71.153 E.97485
G1 X106.749 Y71.668 E.02592
G1 X93.045 Y57.963 E.97457
G1 X93.075 Y58.482 E.02612
G1 X106.775 Y72.183 E.9743
G1 X106.802 Y72.697 E.02592
G1 X93.105 Y59.001 E.97403
G1 X93.135 Y59.519 E.02612
G1 X106.828 Y73.212 E.97375
G1 X106.854 Y73.727 E.02592
G1 X93.164 Y60.038 E.97348
G1 X93.194 Y60.556 E.02612
G1 X106.88 Y74.242 E.97321
G1 X106.906 Y74.757 E.02592
G1 X93.224 Y61.075 E.97293
G1 X93.254 Y61.594 E.02612
G1 X106.932 Y75.271 E.97266
G1 X106.958 Y75.786 E.02592
G1 X93.283 Y62.111 E.9725
G1 X93.309 Y62.626 E.02592
G1 X106.984 Y76.301 E.9725
G1 X107.01 Y76.816 E.02592
G1 X93.335 Y63.14 E.97249
G1 X93.361 Y63.655 E.02592
M73 P0 R302
G1 X107.036 Y77.331 E.97249
G1 X107.062 Y77.845 E.02592
G1 X93.387 Y64.17 E.97249
G1 X93.413 Y64.685 E.02592
G1 X107.088 Y78.36 E.97248
G1 X107.114 Y78.875 E.02592
G1 X93.439 Y65.2 E.97248
G1 X93.465 Y65.715 E.02592
G1 X107.141 Y79.39 E.97248
G1 X107.167 Y79.904 E.02592
G1 X93.492 Y66.229 E.97248
G1 X93.518 Y66.744 E.02592
G1 X107.193 Y80.419 E.97247
G1 X107.219 Y80.934 E.02592
G1 X93.544 Y67.259 E.97247
G1 X93.57 Y67.774 E.02592
G1 X107.245 Y81.449 E.97247
G1 X107.271 Y81.964 E.02592
G1 X93.596 Y68.289 E.97246
G1 X93.622 Y68.803 E.02592
G1 X107.297 Y82.478 E.97246
G1 X107.323 Y82.993 E.02592
G1 X93.648 Y69.318 E.97246
G1 X93.674 Y69.833 E.02592
G1 X107.349 Y83.508 E.97245
G1 X107.375 Y84.023 E.02592
G1 X93.701 Y70.348 E.97245
G1 X93.727 Y70.863 E.02592
G1 X107.401 Y84.537 E.97245
G1 X107.427 Y85.052 E.02592
G1 X93.753 Y71.378 E.97244
G1 X93.779 Y71.892 E.02592
G1 X107.453 Y85.567 E.97244
G1 X107.48 Y86.082 E.02592
G1 X93.805 Y72.407 E.97244
G1 X93.831 Y72.922 E.02592
G1 X107.506 Y86.597 E.97244
G1 X107.532 Y87.111 E.02592
G1 X93.857 Y73.437 E.97243
G1 X93.883 Y73.952 E.02592
G1 X107.558 Y87.626 E.97243
G1 X107.584 Y88.141 E.02592
G1 X93.909 Y74.467 E.97243
G1 X93.936 Y74.981 E.02592
G1 X107.61 Y88.656 E.97242
G1 X107.636 Y89.171 E.02592
G1 X93.962 Y75.496 E.97242
G1 X93.988 Y76.011 E.02592
G1 X107.662 Y89.685 E.97242
G1 X107.688 Y90.2 E.02592
G1 X94.014 Y76.526 E.97241
G1 X94.04 Y77.041 E.02592
G1 X107.878 Y90.879 E.98405
G1 E-.7 F3600
;WIPE_START
G1 F6240
G1 X107.51 Y90.511 E-.285
;WIPE_END
G1 E-.015 F3600
G1 X148.473 Y37.154 F7800
G1 E1 F2400
G1 F1800
G1 X148.258 Y36.939 E.01525
G1 X148.023 Y37.192 E.01739
G1 X148.318 Y37.487 E.02098
G1 X148.318 Y37.976 E.02457
G1 X147.787 Y37.445 E.03775
G1 X147.551 Y37.698 E.01739
G1 X148.318 Y38.465 E.05452
G1 X148.318 Y38.953 E.02457
G1 X147.315 Y37.951 E.07129
G1 X147.079 Y38.204 E.01739
G1 X148.318 Y39.442 E.08806
G1 X148.318 Y39.931 E.02457
G1 X146.847 Y38.459 E.10462
G1 X146.643 Y38.744 E.01761
G1 X148.318 Y40.419 E.11911
G1 X148.318 Y40.908 E.02457
G1 X146.439 Y39.029 E.13361
G1 X146.235 Y39.314 E.01761
G1 X148.318 Y41.397 E.14811
G1 X148.318 Y41.885 E.02457
G1 X146.031 Y39.599 E.1626
G1 X145.827 Y39.884 E.01761
G1 X148.318 Y42.374 E.1771
G1 X148.318 Y42.863 E.02457
G1 X145.623 Y40.169 E.19159
G1 X145.42 Y40.453 E.01761
G1 X148.318 Y43.352 E.20609
G1 X148.318 Y43.84 E.02457
G1 X145.216 Y40.738 E.22058
G1 X145.012 Y41.023 E.01761
G1 X148.318 Y44.329 E.23508
G1 X148.318 Y44.818 E.02457
G1 X144.808 Y41.308 E.24958
G1 X144.604 Y41.593 E.01761
G1 X148.318 Y45.306 E.26407
G1 X148.318 Y45.795 E.02457
G1 X144.4 Y41.878 E.27857
G1 X144.197 Y42.163 E.01761
G1 X148.318 Y46.284 E.29306
G1 X148.318 Y46.772 E.02457
G1 X143.993 Y42.448 E.30756
G1 X143.789 Y42.732 E.01761
G1 X148.318 Y47.261 E.32206
G1 X148.318 Y47.75 E.02457
G1 X143.585 Y43.017 E.33655
G1 X143.381 Y43.302 E.01761
G1 X148.318 Y48.239 E.35105
G1 X148.318 Y48.727 E.02457
G1 X143.177 Y43.587 E.36554
G1 X142.974 Y43.872 E.01761
G1 X148.318 Y49.216 E.38004
G1 X148.318 Y49.705 E.02457
G1 X142.77 Y44.157 E.39453
G1 X142.566 Y44.442 E.01761
G1 X148.318 Y50.193 E.40903
G1 X148.318 Y50.682 E.02457
G1 X142.362 Y44.726 E.42353
G1 X142.158 Y45.011 E.01761
G1 X148.318 Y51.171 E.43802
G1 X148.318 Y51.66 E.02457
G1 X141.954 Y45.296 E.45252
G1 X141.75 Y45.581 E.01761
G1 X148.318 Y52.148 E.46701
G1 X148.318 Y52.637 E.02457
G1 X141.547 Y45.866 E.48151
G1 X141.343 Y46.151 E.01761
G1 X148.318 Y53.126 E.49601
G1 X148.318 Y53.614 E.02457
G1 X141.139 Y46.436 E.5105
G1 X140.935 Y46.72 E.01761
G1 X148.318 Y54.103 E.525
G1 X148.318 Y54.592 E.02457
G1 X140.731 Y47.005 E.53949
G1 X140.527 Y47.29 E.01761
G1 X148.318 Y55.08 E.55399
G1 X148.318 Y55.569 E.02457
G1 X140.324 Y47.575 E.56849
G1 X140.12 Y47.86 E.01761
G1 X148.318 Y56.058 E.58298
G1 X148.318 Y56.547 E.02457
G1 X139.916 Y48.145 E.59748
G1 X139.712 Y48.43 E.01761
G1 X148.318 Y57.035 E.61197
G1 X148.318 Y57.524 E.02457
G1 X139.508 Y48.714 E.62647
G1 X139.304 Y48.999 E.01761
G1 X148.318 Y58.013 E.64096
G1 X148.318 Y58.501 E.02457
G1 X139.101 Y49.284 E.65546
G1 X138.897 Y49.569 E.01761
G1 X148.318 Y58.99 E.66996
G1 X148.318 Y59.479 E.02457
G1 X138.693 Y49.854 E.68445
G1 X138.489 Y50.139 E.01761
G1 X148.156 Y59.805 E.68742
G1 X147.952 Y60.09 E.01761
G1 X138.285 Y50.424 E.68741
G1 X138.081 Y50.708 E.01761
G1 X147.748 Y60.375 E.68741
G1 X147.544 Y60.66 E.01761
G1 X137.877 Y50.993 E.68741
G1 X137.674 Y51.278 E.01761
G1 X147.34 Y60.945 E.68741
G1 X147.136 Y61.229 E.01761
G1 X137.47 Y51.563 E.6874
G1 X137.266 Y51.848 E.01761
G1 X146.932 Y61.514 E.6874
G1 X146.728 Y61.799 E.01761
G1 X137.062 Y52.133 E.6874
G1 X136.858 Y52.418 E.01761
G1 X146.525 Y62.084 E.6874
G1 X146.321 Y62.369 E.01761
G1 X136.654 Y52.703 E.68739
G1 X136.451 Y52.987 E.01761
G1 X146.117 Y62.654 E.68739
G1 X145.913 Y62.938 E.01761
G1 X136.247 Y53.272 E.68739
G1 X136.043 Y53.557 E.01761
G1 X145.709 Y63.223 E.68739
G1 X145.505 Y63.508 E.01761
G1 X135.839 Y53.842 E.68738
G1 X135.635 Y54.127 E.01761
G1 X145.301 Y63.793 E.68738
G1 X145.097 Y64.078 E.01761
G1 X135.431 Y54.412 E.68738
G1 X135.227 Y54.697 E.01761
G1 X144.893 Y64.363 E.68738
G1 X144.69 Y64.647 E.01761
G1 X135.024 Y54.981 E.68737
G1 X134.82 Y55.266 E.01761
G1 X144.486 Y64.932 E.68737
G1 X144.282 Y65.217 E.01761
G1 X134.616 Y55.551 E.68737
G1 X134.412 Y55.836 E.01761
G1 X144.078 Y65.502 E.68737
G1 X143.874 Y65.787 E.01761
G1 X134.208 Y56.121 E.68736
G1 X134.004 Y56.406 E.01761
G1 X143.67 Y66.071 E.68736
G1 X143.466 Y66.356 E.01761
G1 X133.801 Y56.691 E.68736
G1 X133.597 Y56.975 E.01761
M73 P1 R302
