; generated by PrusaSlicer 2.5.0+win64 on 2022-12-07 at 00:02:35 UTC

; 

; external perimeters extrusion width = 1.00mm
; perimeters extrusion width = 1.00mm
; infill extrusion width = 1.00mm
; solid infill extrusion width = 1.00mm
; top infill extrusion width = 1.00mm
; support material extrusion width = 1.00mm
; first layer extrusion width = 0.42mm

M73 P0 R132
M107
;TYPE:Custom
G90 ; use absolute coordinates
M83 ; extruder relative mode
M140 S60 ; set final bed temp
M104 S150 ; set temporary nozzle temp to prevent oozing during homing and auto bed leveling
G4 S10 ; allow partial nozzle warmup
G28 ; home all axisG1 Z50 F240
G1 X7.6 Y10 F3000
M104 S210 ; set final nozzle temp
M190 S60 ; wait for bed temp to stabilize
M109 S210 ; wait for nozzle temp to stabilize
G1 Z0.28 F240
G92 E0
G1 Y140 E10 F1500 ; prime the nozzle
G1 X4 F5000
G92 E0
G1 Y10 E10 F1200 ; prime the nozzle
G92 E0
G21 ; set units to millimeters
G90 ; use absolute coordinates
M83 ; use relative distances for extrusion
; Filament gcode
M107
;LAYER_CHANGE
;Z:0.35
;HEIGHT:0.35
;BEFORE_LAYER_CHANGE
G92 E0
;0.35


G1 E-1 F3600
G1 Z.35 F7800
;AFTER_LAYER_CHANGE
;0.35
G1 X75.825 Y46.633
G1 E1 F2400
;TYPE:Perimeter
;WIDTH:0.42
G1 F1800
G1 X139.74 Y106.573 E4.39747
G1 X139.74 Y125.541 E.95193
G1 X138.136 Y124.222 E.10424
G1 X55.465 Y46.633 E5.68995
G1 X75.675 Y46.633 E1.01427
G1 X75.907 Y46.288 F7800
;TYPE:External perimeter
G1 F1800
G1 X75.962 Y46.288 E.00275
G1 X140.085 Y106.424 E4.41182
G1 X140.085 Y126.271 E.99607
G1 X137.908 Y124.481 E.14145
G1 X54.594 Y46.288 E5.73425
G1 X75.757 Y46.288 E1.0621
G1 X75.959 Y46.304 F7800
G1 E-.7 F3600
;WIPE_START
G1 F6240
G1 X75.962 Y46.288 E-.11226
G1 X76.192 Y46.504 E-.17274
;WIPE_END
G1 E-.015 F3600
G1 X128.179 Y95.873 F7800
G1 E1 F2400
;TYPE:Solid infill
;WIDTH:0.422598
G1 F1800
G1 X139.481 Y107.175 E.80819
G1 X139.481 Y107.666 E.02485
G1 X123.698 Y91.883 E1.12861
G1 X115.796 Y84.473 E.5478
M73 P0 R131
G1 X139.481 Y108.158 E1.6937
G1 X139.481 Y108.649 E.02485
G1 X107.894 Y77.062 E2.25878
G1 X99.991 Y69.651 E.5478
G1 X139.481 Y109.141 E2.82387
G1 X139.481 Y109.632 E.02485
G1 X92.089 Y62.24 E3.38895
G1 X84.186 Y54.829 E.5478
G1 X139.481 Y110.124 E3.95404
G1 X139.481 Y110.615 E.02485
G1 X76.284 Y47.418 E4.51912
G1 X75.723 Y46.891 E.0389
G1 X75.266 Y46.891 E.02308
G1 X139.481 Y111.106 E4.59189
G1 X139.481 Y111.598 E.02485
G1 X74.775 Y46.891 E4.62703
G1 X74.284 Y46.891 E.02485
G1 X139.481 Y112.089 E4.66218
G1 X139.481 Y112.581 E.02485
G1 X73.792 Y46.891 E4.69732
G1 X73.301 Y46.891 E.02485
G1 X139.481 Y113.072 E4.73246
G1 X139.481 Y113.564 E.02485
G1 X72.809 Y46.891 E4.7676
G1 X72.318 Y46.891 E.02485
G1 X139.481 Y114.055 E4.80274
G1 X139.481 Y114.546 E.02485
G1 X71.827 Y46.891 E4.83788
G1 X71.335 Y46.891 E.02485
G1 X139.481 Y115.038 E4.87302
G1 X139.481 Y115.529 E.02485
G1 X70.844 Y46.891 E4.90816
G1 X70.352 Y46.891 E.02485
G1 X139.481 Y116.021 E4.9433
G1 X139.481 Y116.512 E.02485
M73 P1 R131
G1 X69.861 Y46.891 E4.97844
G1 X69.369 Y46.891 E.02485
G1 X139.481 Y117.003 E5.01358
G1 X139.481 Y117.495 E.02485
G1 X68.878 Y46.891 E5.04872
G1 X68.387 Y46.891 E.02485
G1 X139.481 Y117.986 E5.08386
G1 X139.481 Y118.478 E.02485
M73 P1 R130
G1 X67.895 Y46.891 E5.119
G1 X67.404 Y46.891 E.02485
G1 X139.481 Y118.969 E5.15414
G1 X139.481 Y119.461 E.02485
G1 X66.912 Y46.891 E5.18928
G1 X66.421 Y46.891 E.02485
G1 X139.481 Y119.952 E5.22442
G1 X139.481 Y120.443 E.02485
G1 X65.929 Y46.891 E5.25957
G1 X65.438 Y46.891 E.02485
G1 X139.481 Y120.935 E5.29471
G1 X139.481 Y121.426 E.02485
G1 X64.947 Y46.891 E5.32985
G1 X64.455 Y46.891 E.02485
G1 X139.481 Y121.918 E5.36499
G1 X139.481 Y122.409 E.02485
G1 X63.964 Y46.891 E5.40013
G1 X63.472 Y46.891 E.02485
G1 X139.481 Y122.901 E5.43527
G1 X139.481 Y123.392 E.02485
G1 X62.981 Y46.891 E5.47041
G1 X62.49 Y46.891 E.02485
G1 X139.481 Y123.883 E5.50555
G1 X139.481 Y124.375 E.02485
G1 X61.998 Y46.891 E5.54069
G1 X61.507 Y46.891 E.02485
G1 X139.481 Y124.866 E5.57583
G1 X139.481 Y124.994 E.00644
G1 X138.306 Y124.027 E.07692
G1 X135.781 Y121.658 E.1751
G1 X61.015 Y46.891 E5.34639
G1 X60.524 Y46.891 E.02485
G1 X127.786 Y114.154 E4.80983
G1 X119.792 Y106.651 E.55441
M73 P1 R129
G1 X60.032 Y46.891 E4.27327
G1 X59.541 Y46.891 E.02485
G1 X111.797 Y99.147 E3.73671
G1 X103.802 Y91.644 E.55441
G1 X59.05 Y46.891 E3.20015
G1 X58.558 Y46.891 E.02485
M73 P2 R129
G1 X95.807 Y84.14 E2.66359
G1 X87.812 Y76.637 E.55441
G1 X58.067 Y46.891 E2.12703
G1 X57.575 Y46.891 E.02485
G1 X79.817 Y69.133 E1.59047
G1 X71.822 Y61.63 E.55441
G1 X57.084 Y46.891 E1.05392
G1 X56.592 Y46.891 E.02485
G1 X67.29 Y57.589 E.76497
M106 S255
;LAYER_CHANGE
;Z:0.85
;HEIGHT:0.5
;BEFORE_LAYER_CHANGE
G92 E0
;0.85


G1 E-.7 F3600
;WIPE_START
G1 F6240
G1 X66.922 Y57.221 E-.285
;WIPE_END
G1 E-.015 F3600
G1 Z.85 F7800
;AFTER_LAYER_CHANGE
;0.85
M104 S205 ; set temperature
G1 X75.446 Y47.471
G1 E1 F2400
;TYPE:Perimeter
;WIDTH:1
G1 F2016.357
G1 X138.902 Y106.98 E16.14364
G1 X138.902 Y123.786 E3.11879
G1 X138.539 Y123.488 E.08731
G1 X57.543 Y47.471 E20.61325
G1 X75.296 Y47.471 E3.29436
G1 X75.799 Y46.578 F7800
;TYPE:External perimeter
G1 F1800
G1 X139.795 Y106.593 E16.28092
G1 X139.795 Y125.676 E3.5412
G1 X137.949 Y124.159 E.4434
G1 X55.288 Y46.578 E21.03727
G1 X75.649 Y46.578 E3.77846
G1 X76.495 Y47.296 F7800
G1 E-.7 F3600
;WIPE_START
G1 F6240
G1 X76.029 Y46.933 E-.285
;WIPE_END
G1 E-.015 F3600
G1 X138.634 Y121.453 F7800
G1 E1 F2400
;TYPE:Solid infill
;WIDTH:1.00522
G1 F1200
G1 X138.012 Y122.075 E.16425
G1 X137.357 Y121.46 E.16769
G1 X138.233 Y120.585 E.23112
G1 X138.233 Y119.315 E.23702
G1 X136.702 Y120.846 E.40404
G1 X136.047 Y120.231 E.16769
G1 X138.233 Y118.045 E.57695
G1 X138.233 Y116.775 E.23702
G1 X135.392 Y119.616 E.74987
G1 X134.737 Y119.001 E.16769
G1 X138.233 Y115.505 E.92278
G1 X138.233 Y114.236 E.23702
G1 X134.082 Y118.386 E1.0957
G1 X133.427 Y117.772 E.16769
G1 X138.233 Y112.966 E1.26861
G1 X138.233 Y111.696 E.23702
G1 X132.772 Y117.157 E1.44153
G1 X132.117 Y116.542 E.16769
G1 X138.233 Y110.426 E1.61445
G1 X138.233 Y109.156 E.23702
G1 X131.462 Y115.927 E1.78736
G1 X130.807 Y115.312 E.16769
G1 X138.233 Y107.886 E1.96028
G1 X138.233 Y107.27 E.11506
G1 X137.896 Y106.954 E.08628
G1 X130.152 Y114.698 E2.04418
G1 X129.497 Y114.083 E.16769
G1 X137.24 Y106.339 E2.04412
G1 X136.585 Y105.725 E.16769
G1 X128.841 Y113.468 E2.04405
G1 X128.186 Y112.853 E.16769
G1 X135.93 Y105.11 E2.04399
G1 X135.274 Y104.496 E.16769
G1 X127.531 Y112.239 E2.04392
G1 X126.876 Y111.624 E.16769
G1 X134.619 Y103.881 E2.04386
G1 X133.964 Y103.266 E.16769
G1 X126.221 Y111.009 E2.04379
G1 X125.566 Y110.394 E.16769
G1 X133.308 Y102.652 E2.04373
G1 X132.653 Y102.037 E.16769
G1 X124.911 Y109.779 E2.04366
G1 X124.256 Y109.165 E.16769
G1 X131.998 Y101.423 E2.04359
G1 X131.343 Y100.808 E.16769
G1 X123.601 Y108.55 E2.04353
G1 X122.946 Y107.935 E.16769
G1 X130.687 Y100.194 E2.04346
G1 X130.032 Y99.579 E.16769
G1 X122.291 Y107.32 E2.0434
G1 X121.636 Y106.705 E.16769
G1 X129.377 Y98.965 E2.04333
G1 X128.721 Y98.35 E.16769
G1 X120.981 Y106.091 E2.04327
G1 X120.326 Y105.476 E.16769
G1 X128.066 Y97.736 E2.0432
G1 X127.411 Y97.121 E.16769
G1 X119.671 Y104.861 E2.04314
G1 X119.016 Y104.246 E.16769
G1 X126.755 Y96.506 E2.04307
G1 X126.1 Y95.892 E.16769
G1 X118.361 Y103.631 E2.04301
G1 X117.706 Y103.017 E.16769
G1 X125.445 Y95.277 E2.04294
G1 X124.789 Y94.663 E.16769
G1 X117.05 Y102.402 E2.04287
G1 X116.395 Y101.787 E.16769
G1 X124.134 Y94.048 E2.04281
G1 X123.479 Y93.434 E.16769
G1 X115.74 Y101.172 E2.04274
G1 X115.085 Y100.557 E.16769
G1 X122.824 Y92.819 E2.04268
G1 X122.168 Y92.205 E.16769
G1 X114.43 Y99.943 E2.04261
G1 X113.775 Y99.328 E.16769
G1 X121.513 Y91.59 E2.04255
G1 X120.858 Y90.976 E.16769
G1 X113.12 Y98.713 E2.04248
G1 X112.465 Y98.098 E.16769
G1 X120.202 Y90.361 E2.04242
G1 X119.547 Y89.746 E.16769
G1 X111.81 Y97.484 E2.04235
G1 X111.155 Y96.869 E.16769
G1 X118.892 Y89.132 E2.04228
G1 X118.236 Y88.517 E.16769
G1 X110.5 Y96.254 E2.04222
G1 X109.845 Y95.639 E.16769
G1 X117.581 Y87.903 E2.04215
G1 X116.926 Y87.288 E.16769
G1 X109.19 Y95.024 E2.04209
G1 X108.535 Y94.41 E.16769
G1 X116.271 Y86.674 E2.04202
G1 X115.615 Y86.059 E.16769
G1 X107.88 Y93.795 E2.04196
G1 X107.225 Y93.18 E.16769
G1 X114.96 Y85.445 E2.04189
G1 X114.305 Y84.83 E.16769
G1 X106.57 Y92.565 E2.04183
G1 X105.914 Y91.95 E.16769
G1 X113.649 Y84.216 E2.04176
G1 X112.994 Y83.601 E.16769
G1 X105.259 Y91.336 E2.04169
G1 X104.604 Y90.721 E.16769
G1 X112.339 Y82.987 E2.04163
G1 X111.683 Y82.372 E.16769
M73 P2 R128
G1 X103.949 Y90.106 E2.04156
G1 X103.294 Y89.491 E.16769
G1 X111.028 Y81.757 E2.0415
G1 X110.373 Y81.143 E.16769
G1 X102.639 Y88.876 E2.04143
G1 X101.984 Y88.262 E.16769
G1 X109.717 Y80.528 E2.04137
G1 X109.062 Y79.914 E.16769
G1 X101.329 Y87.647 E2.0413
G1 X100.674 Y87.032 E.16769
G1 X108.407 Y79.299 E2.04124
G1 X107.752 Y78.685 E.16769
G1 X100.019 Y86.417 E2.04117
G1 X99.364 Y85.802 E.16769
G1 X107.096 Y78.07 E2.0411
G1 X106.441 Y77.456 E.16769
G1 X98.709 Y85.188 E2.04104
G1 X98.054 Y84.573 E.16769
G1 X105.786 Y76.841 E2.04097
G1 X105.13 Y76.227 E.16769
G1 X97.399 Y83.958 E2.04091
G1 X96.744 Y83.343 E.16769
G1 X104.475 Y75.612 E2.04084
G1 X103.82 Y74.997 E.16769
G1 X96.089 Y82.729 E2.04078
G1 X95.434 Y82.114 E.16769
G1 X103.164 Y74.383 E2.04071
G1 X102.509 Y73.768 E.16769
G1 X94.779 Y81.499 E2.04065
G1 X94.123 Y80.884 E.16769
G1 X101.854 Y73.154 E2.04058
G1 X101.199 Y72.539 E.16769
G1 X93.468 Y80.269 E2.04052
G1 X92.813 Y79.655 E.16769
G1 X100.543 Y71.925 E2.04045
G1 X99.888 Y71.31 E.16769
G1 X92.158 Y79.04 E2.04038
G1 X91.503 Y78.425 E.16769
G1 X99.233 Y70.696 E2.04032
G1 X98.577 Y70.081 E.16769
G1 X90.848 Y77.81 E2.04025
G1 X90.193 Y77.195 E.16769
G1 X97.922 Y69.467 E2.04019
G1 X97.267 Y68.852 E.16769
G1 X89.538 Y76.581 E2.04012
G1 X88.883 Y75.966 E.16769
G1 X96.611 Y68.237 E2.04006
G1 X95.956 Y67.623 E.16769
G1 X88.228 Y75.351 E2.03999
G1 X87.573 Y74.736 E.16769
G1 X95.301 Y67.008 E2.03993
G1 X94.645 Y66.394 E.16769
G1 X86.918 Y74.121 E2.03986
G1 X86.263 Y73.507 E.16769
G1 X93.99 Y65.779 E2.03979
G1 X93.335 Y65.165 E.16769
G1 X85.608 Y72.892 E2.03973
G1 X84.953 Y72.277 E.16769
G1 X92.68 Y64.55 E2.03966
G1 X92.024 Y63.936 E.16769
G1 X84.298 Y71.662 E2.0396
G1 X83.643 Y71.047 E.16769
G1 X91.369 Y63.321 E2.03953
G1 X90.714 Y62.707 E.16769
G1 X82.988 Y70.433 E2.03947
G1 X82.332 Y69.818 E.16769
G1 X90.058 Y62.092 E2.0394
G1 X89.403 Y61.477 E.16769
G1 X81.677 Y69.203 E2.03934
G1 X81.022 Y68.588 E.16769
G1 X88.748 Y60.863 E2.03927
G1 X88.092 Y60.248 E.16769
G1 X80.367 Y67.974 E2.0392
G1 X79.712 Y67.359 E.16769
G1 X87.437 Y59.634 E2.03914
G1 X86.782 Y59.019 E.16769
G1 X79.057 Y66.744 E2.03907
G1 X78.402 Y66.129 E.16769
G1 X86.127 Y58.405 E2.03901
G1 X85.471 Y57.79 E.16769
G1 X77.747 Y65.514 E2.03894
G1 X77.092 Y64.9 E.16769
G1 X84.816 Y57.176 E2.03888
G1 X84.161 Y56.561 E.16769
G1 X76.437 Y64.285 E2.03881
G1 X75.782 Y63.67 E.16769
G1 X83.505 Y55.947 E2.03875
G1 X82.85 Y55.332 E.16769
M73 P3 R128
G1 X75.127 Y63.055 E2.03868
G1 X74.472 Y62.44 E.16769
G1 X82.195 Y54.718 E2.03861
G1 X81.539 Y54.103 E.16769
G1 X73.817 Y61.826 E2.03855
G1 X73.162 Y61.211 E.16769
G1 X80.884 Y53.488 E2.03848
G1 X80.229 Y52.874 E.16769
G1 X72.507 Y60.596 E2.03842
G1 X71.852 Y59.981 E.16769
G1 X79.573 Y52.259 E2.03835
G1 X78.918 Y51.645 E.16769
G1 X71.197 Y59.366 E2.03829
G1 X70.541 Y58.752 E.16769
G1 X78.263 Y51.03 E2.03822
G1 X77.608 Y50.416 E.16769
G1 X69.886 Y58.137 E2.03816
G1 X69.231 Y57.522 E.16769
G1 X76.952 Y49.801 E2.03809
G1 X76.297 Y49.187 E.16769
G1 X68.576 Y56.907 E2.03802
G1 X67.921 Y56.292 E.16769
G1 X75.642 Y48.572 E2.03796
G1 X75.181 Y48.14 E.11786
G1 X74.804 Y48.14 E.07043
G1 X67.266 Y55.678 E1.98969
G1 X66.611 Y55.063 E.16769
G1 X73.534 Y48.14 E1.8274
G1 X72.264 Y48.14 E.23702
G1 X65.956 Y54.448 E1.66511
G1 X65.301 Y53.833 E.16769
G1 X70.994 Y48.14 E1.50283
G1 X69.724 Y48.14 E.23702
G1 X64.646 Y53.219 E1.34054
G1 X63.991 Y52.604 E.16769
G1 X68.454 Y48.14 E1.17825
G1 X67.185 Y48.14 E.23702
G1 X63.336 Y51.989 E1.01597
G1 X62.681 Y51.374 E.16769
G1 X65.915 Y48.14 E.85368
G1 X64.645 Y48.14 E.23702
G1 X62.026 Y50.759 E.69139
G1 X61.371 Y50.145 E.16769
G1 X63.375 Y48.14 E.52911
G1 X62.105 Y48.14 E.23702
G1 X60.716 Y49.53 E.36682
G1 X60.061 Y48.915 E.16769
G1 X60.835 Y48.14 E.20453
G1 X59.566 Y48.14 E.23702
G1 X59.121 Y48.584 E.11726
;LAYER_CHANGE
;Z:1.35
;HEIGHT:0.5
;BEFORE_LAYER_CHANGE
G92 E0
;1.35


G1 E-.7 F3600
;WIPE_START
G1 F6240
G1 X59.489 Y48.217 E-.285
;WIPE_END
G1 E-.015 F3600
G1 Z1.35 F7800
;AFTER_LAYER_CHANGE
;1.35
G1 X75.389 Y47.471
G1 E1 F2400
;TYPE:Perimeter
;WIDTH:1
G1 F2016.357
G1 X138.902 Y107.032 E16.15787
G1 X138.902 Y123.809 E3.11327
G1 X138.362 Y123.365 E.12972
G1 X57.498 Y47.471 E20.57991
G1 X75.239 Y47.471 E3.29233
G1 X75.742 Y46.578 F7800
;TYPE:External perimeter
G1 F1800
G1 X139.795 Y106.645 E16.29515
G1 X139.795 Y125.698 E3.53567
G1 X137.773 Y124.036 E.4858
G1 X55.242 Y46.578 E21.00392
G1 X75.592 Y46.578 E3.77643
G1 X76.439 Y47.296 F7800
G1 E-.7 F3600
;WIPE_START
G1 F6240
G1 X75.972 Y46.933 E-.285
;WIPE_END
G1 E-.015 F3600
G1 X129.022 Y98.134 F7800
G1 E1 F2400
;TYPE:Solid infill
;WIDTH:1.04346
G1 F1200
G1 X138.233 Y107.344 E2.53484
G1 X138.233 Y108.668 E.25764
G1 X116.595 Y87.03 E5.95492
G1 X95.317 Y67.076 E5.6768
G1 X138.233 Y109.992 E11.81098
G1 X138.233 Y111.316 E.25764
M73 P3 R127
G1 X75.057 Y48.14 E17.38674
G1 X73.733 Y48.14 E.25764
G1 X138.233 Y112.64 E17.7511
G1 X138.233 Y113.964 E.25764
G1 X72.409 Y48.14 E18.11546
G1 X71.085 Y48.14 E.25764
G1 X138.233 Y115.288 E18.47982
G1 X138.233 Y116.612 E.25764
G1 X69.761 Y48.14 E18.84418
G1 X68.437 Y48.14 E.25764
G1 X138.233 Y117.936 E19.20854
G1 X138.233 Y119.259 E.25764
G1 X67.113 Y48.14 E19.5729
G1 X65.79 Y48.14 E.25764
G1 X138.233 Y120.583 E19.93726
G1 X138.233 Y121.907 E.25764
G1 X64.466 Y48.14 E20.30162
G1 X63.142 Y48.14 E.25764
M73 P4 R127
G1 X123.487 Y108.485 E16.60774
G1 X101.948 Y88.271 E5.74837
G1 X61.818 Y48.14 E11.04443
G1 X60.494 Y48.14 E.25764
G1 X89.373 Y77.019 E7.94782
;LAYER_CHANGE
;Z:1.85
;HEIGHT:0.5
;BEFORE_LAYER_CHANGE
G92 E0
;1.85


G1 E-.7 F3600
;WIPE_START
G1 F6240
G1 X89.005 Y76.651 E-.285
;WIPE_END
G1 E-.015 F3600
G1 Z1.85 F7800
;AFTER_LAYER_CHANGE
;1.85
G1 X75.341 Y47.471
G1 E1 F2400
;TYPE:Perimeter
;WIDTH:1
G1 F2016.357
G1 X138.902 Y107.084 E16.17104
G1 X138.902 Y123.831 E3.10777
M73 P4 R126
G1 X138.186 Y123.242 E.17213
G1 X57.452 Y47.471 E20.54656
G1 X75.191 Y47.471 E3.29174
G1 X75.694 Y46.578 F7800
;TYPE:External perimeter
G1 F1800
G1 X139.795 Y106.697 E16.30832
G1 X139.795 Y125.72 E3.53015
G1 X137.596 Y123.913 E.5282
G1 X55.197 Y46.578 E20.97058
G1 X75.544 Y46.578 E3.77585
G1 X76.39 Y47.296 F7800
G1 E-.7 F3600
;WIPE_START
G1 F6240
G1 X75.923 Y46.933 E-.285
;WIPE_END
G1 E-.015 F3600
G1 X80.813 Y53.521 F7800
G1 E1 F2400
;TYPE:Internal infill
;WIDTH:0.842699
;HEIGHT:1
G1 F1613.643
G1 X84.72 Y57.185 E1.24201
G1 X75.571 Y57.185 E2.12146
G1 X69.261 Y50.875 E2.06948
G1 X62.057 Y50.875 E1.67028
G1 X81.081 Y68.729 E6.04966
G1 X87.115 Y68.729 E1.39914
G1 X93.425 Y75.039 E2.06948
G1 X103.757 Y75.039 E2.39569
G1 X122.793 Y92.893 E6.05191
G1 X111.279 Y92.893 E2.66992
G1 X104.969 Y86.583 E2.06948
G1 X100.104 Y86.583 E1.12799
G1 X119.127 Y104.437 E6.04966
G1 X122.823 Y104.437 E.85684
G1 X129.133 Y110.747 E2.06948
G1 X138.233 Y110.747 E2.11001
G1 X138.233 Y122.291 E2.67669
G1 X138.151 Y122.291 E.01901
G1 X134.245 Y118.625 E1.24201
;LAYER_CHANGE
;Z:2.35
;HEIGHT:0.5
;BEFORE_LAYER_CHANGE
G92 E0
;2.35


G1 E-.7 F3600
;WIPE_START
G1 F6240
G1 X134.624 Y118.981 E-.285
;WIPE_END
G1 E-.015 F3600
G1 Z2.35 F7800
;AFTER_LAYER_CHANGE
;2.35
G1 X75.294 Y47.471
G1 E1 F2400
;TYPE:Perimeter
;WIDTH:1
G1 F2016.357
G1 X138.902 Y107.135 E16.18388
G1 X138.902 Y123.853 E3.10226
G1 X138.009 Y123.119 E.21454
G1 X57.407 Y47.471 E20.51321
G1 X75.144 Y47.471 E3.2916
G1 X75.648 Y46.578 F7800
;TYPE:External perimeter
G1 F1800
G1 X139.795 Y106.749 E16.32116
G1 X139.795 Y125.742 E3.52463
G1 X137.42 Y123.79 E.57061
G1 X55.151 Y46.578 E20.93723
G1 X75.498 Y46.578 E3.77571
G1 X76.344 Y47.296 F7800
G1 E-.7 F3600
;WIPE_START
G1 F6240
G1 X75.877 Y46.933 E-.285
