; generated by PrusaSlicer 2.5.0+win64 on 2022-12-07 at 00:02:44 UTC

; 

; external perimeters extrusion width = 1.00mm
; perimeters extrusion width = 1.00mm
; infill extrusion width = 1.00mm
; solid infill extrusion width = 1.00mm
; top infill extrusion width = 1.00mm
; support material extrusion width = 1.00mm
; first layer extrusion width = 0.42mm

M73 P0 R166
M107
;TYPE:Custom
G90 ; use absolute coordinates
M83 ; extruder relative mode
M140 S60 ; set final bed temp
M104 S150 ; set temporary nozzle temp to prevent oozing during homing and auto bed leveling
G4 S10 ; allow partial nozzle warmup
G28 ; home all axisG1 Z50 F240
G1 X7.6 Y10 F3000
M104 S210 ; set final nozzle temp
M190 S60 ; wait for bed temp to stabilize
M109 S210 ; wait for nozzle temp to stabilize
G1 Z0.28 F240
G92 E0
G1 Y140 E10 F1500 ; prime the nozzle
G1 X4 F5000
G92 E0
G1 Y10 E10 F1200 ; prime the nozzle
G92 E0
G21 ; set units to millimeters
G90 ; use absolute coordinates
M83 ; use relative distances for extrusion
; Filament gcode
M107
;LAYER_CHANGE
;Z:0.35
;HEIGHT:0.35
;BEFORE_LAYER_CHANGE
G92 E0
;0.35


G1 E-1 F3600
M73 P0 R165
G1 Z.35 F7800
;AFTER_LAYER_CHANGE
;0.35
G1 X93.979 Y50.743
G1 E1 F2400
;TYPE:Perimeter
;WIDTH:0.42
G1 F1800
G1 X93.898 Y50.721 E.0042
G1 X69.45 Y50.831 E1.22696
G1 X69.45 Y36.399 E.72429
G1 X99.573 Y36.333 E1.51175
G1 X107.66 Y44.414 E.57379
G1 X108.326 Y45.31 E.056
G1 X108.326 Y154.378 E5.47366
G1 X94.411 Y154.378 E.69837
G1 X94.417 Y51.238 E5.17614
G1 X94.349 Y50.983 E.01324
G1 X94.164 Y50.794 E.01329
G1 X94.123 Y50.783 E.00211
G1 X93.899 Y51.066 F7800
;TYPE:External perimeter
G1 F1800
G1 X69.105 Y51.178 E1.24431
G1 X69.105 Y36.055 E.75895
G1 X99.715 Y35.988 E1.5362
G1 X107.922 Y44.188 E.58224
G1 X108.671 Y45.196 E.063
G1 X108.671 Y154.722 E5.4967
G1 X94.066 Y154.722 E.73299
G1 X94.072 Y51.238 E5.19345
G1 X94.031 Y51.131 E.00573
G1 X93.895 Y50.066 F7800
G1 E-.7 F3600
;WIPE_START
G1 F6240
G1 X93.511 Y51.132 E-.285
;WIPE_END
G1 E-.015 F3600
G1 X108.22 Y45.34 F7800
G1 E1 F2400
;TYPE:Solid infill
;WIDTH:0.420017
G1 F1800
G1 X99.466 Y36.592 E.62111
G1 X98.985 Y36.593 E.02414
G1 X108.068 Y45.675 E.64466
G1 X108.068 Y46.163 E.02448
G1 X98.498 Y36.594 E.67921
G1 X98.012 Y36.595 E.02443
G1 X108.068 Y46.651 E.71375
G1 X108.068 Y47.139 E.02448
G1 X97.525 Y36.596 E.7483
G1 X97.038 Y36.597 E.02443
G1 X108.068 Y47.627 E.78284
G1 X108.068 Y48.114 E.02448
G1 X96.551 Y36.598 E.81739
G1 X96.065 Y36.599 E.02443
G1 X108.068 Y48.602 E.85193
G1 X108.068 Y49.09 E.02448
G1 X95.578 Y36.6 E.88648
G1 X95.091 Y36.601 E.02443
G1 X108.068 Y49.578 E.92102
G1 X108.068 Y50.065 E.02448
G1 X94.605 Y36.602 E.95556
G1 X94.118 Y36.603 E.02443
G1 X108.068 Y50.553 E.99011
G1 X108.068 Y51.041 E.02448
G1 X93.631 Y36.605 E1.02465
G1 X93.144 Y36.606 E.02443
G1 X108.068 Y51.529 E1.0592
G1 X108.068 Y52.016 E.02448
G1 X92.658 Y36.607 E1.09374
G1 X92.171 Y36.608 E.02443
G1 X108.068 Y52.504 E1.12829
G1 X108.068 Y52.992 E.02448
G1 X91.684 Y36.609 E1.16283
G1 X91.198 Y36.61 E.02443
G1 X108.068 Y53.48 E1.19738
G1 X108.068 Y53.968 E.02448
G1 X90.711 Y36.611 E1.23192
G1 X90.224 Y36.612 E.02443
G1 X108.068 Y54.455 E1.26647
G1 X108.068 Y54.943 E.02448
G1 X89.738 Y36.613 E1.30101
G1 X89.251 Y36.614 E.02443
G1 X108.068 Y55.431 E1.33556
G1 X108.068 Y55.919 E.02448
G1 X88.764 Y36.615 E1.3701
G1 X88.277 Y36.616 E.02443
G1 X108.068 Y56.406 E1.40465
G1 X108.068 Y56.894 E.02448
G1 X87.791 Y36.617 E1.43919
G1 X87.304 Y36.618 E.02443
G1 X108.068 Y57.382 E1.47374
G1 X108.068 Y57.87 E.02448
G1 X86.817 Y36.619 E1.50828
G1 X86.331 Y36.621 E.02443
G1 X108.068 Y58.358 E1.54283
G1 X108.068 Y58.845 E.02448
G1 X85.844 Y36.622 E1.57737
G1 X85.357 Y36.623 E.02443
G1 X108.068 Y59.333 E1.61191
G1 X108.068 Y59.821 E.02448
G1 X84.871 Y36.624 E1.64646
G1 X84.384 Y36.625 E.02443
G1 X108.068 Y60.309 E1.681
G1 X108.068 Y60.796 E.02448
G1 X83.897 Y36.626 E1.71555
G1 X83.41 Y36.627 E.02443
G1 X108.068 Y61.284 E1.75009
G1 X108.068 Y61.772 E.02448
G1 X82.924 Y36.628 E1.78464
G1 X82.437 Y36.629 E.02443
G1 X108.068 Y62.26 E1.81918
G1 X108.068 Y62.747 E.02448
G1 X81.95 Y36.63 E1.85373
G1 X81.464 Y36.631 E.02443
M73 P0 R164
G1 X108.068 Y63.235 E1.88827
G1 X108.068 Y63.723 E.02448
G1 X80.977 Y36.632 E1.92282
G1 X80.49 Y36.633 E.02443
G1 X108.068 Y64.211 E1.95736
G1 X108.068 Y64.699 E.02448
G1 X94.675 Y51.306 E.95056
G1 X94.659 Y51.077 E.01154
G1 X94.61 Y50.926 E.00797
G1 X94.533 Y50.79 E.00784
G1 X94.364 Y50.615 E.01221
G1 X94.154 Y50.504 E.0119
G1 X93.831 Y50.462 E.01635
G1 X80.003 Y36.634 E.98146
G1 X79.517 Y36.636 E.02443
G1 X93.346 Y50.465 E.98154
G1 X92.86 Y50.467 E.02437
G1 X79.03 Y36.637 E.98162
G1 X78.543 Y36.638 E.02443
G1 X92.375 Y50.469 E.9817
G1 X91.889 Y50.471 E.02437
G1 X78.057 Y36.639 E.98178
G1 X77.57 Y36.64 E.02443
G1 X91.404 Y50.473 E.98186
G1 X90.918 Y50.475 E.02437
G1 X77.083 Y36.641 E.98194
G1 X76.597 Y36.642 E.02443
G1 X90.432 Y50.478 E.98202
G1 X89.947 Y50.48 E.02437
G1 X76.11 Y36.643 E.9821
G1 X75.623 Y36.644 E.02443
G1 X89.461 Y50.482 E.98218
G1 X88.976 Y50.484 E.02437
G1 X75.136 Y36.645 E.98226
G1 X74.65 Y36.646 E.02443
G1 X88.49 Y50.486 E.98234
G1 X88.004 Y50.489 E.02437
G1 X74.163 Y36.647 E.98242
G1 X73.676 Y36.648 E.02443
G1 X87.519 Y50.491 E.9825
G1 X87.033 Y50.493 E.02437
G1 X73.19 Y36.649 E.98258
G1 X72.703 Y36.65 E.02443
G1 X86.548 Y50.495 E.98266
G1 X86.062 Y50.497 E.02437
G1 X72.216 Y36.652 E.98274
G1 X71.73 Y36.653 E.02443
G1 X85.577 Y50.5 E.98282
G1 X85.091 Y50.502 E.02437
G1 X71.243 Y36.654 E.9829
G1 X70.756 Y36.655 E.02443
G1 X84.605 Y50.504 E.98298
G1 X84.12 Y50.506 E.02437
G1 X70.269 Y36.656 E.98306
G1 X69.783 Y36.657 E.02443
G1 X83.634 Y50.508 E.98314
G1 X83.149 Y50.511 E.02437
G1 X69.709 Y37.07 E.95394
G1 X69.709 Y37.558 E.02448
G1 X82.663 Y50.513 E.91948
G1 X82.178 Y50.515 E.02437
G1 X69.709 Y38.046 E.88501
G1 X69.709 Y38.534 E.02448
G1 X81.692 Y50.517 E.85055
G1 X81.206 Y50.519 E.02437
G1 X69.709 Y39.022 E.81608
G1 X69.709 Y39.509 E.02448
G1 X80.721 Y50.522 E.78162
G1 X80.235 Y50.524 E.02437
G1 X69.709 Y39.997 E.74715
G1 X69.709 Y40.485 E.02448
G1 X79.75 Y50.526 E.71269
G1 X79.264 Y50.528 E.02437
G1 X69.709 Y40.973 E.67822
G1 X69.709 Y41.46 E.02448
G1 X78.778 Y50.53 E.64376
G1 X78.293 Y50.532 E.02437
G1 X69.709 Y41.948 E.60929
G1 X69.709 Y42.436 E.02448
G1 X77.807 Y50.535 E.57483
G1 X77.322 Y50.537 E.02437
G1 X69.709 Y42.924 E.54036
G1 X69.709 Y43.411 E.02448
G1 X76.836 Y50.539 E.5059
G1 X76.351 Y50.541 E.02437
G1 X69.709 Y43.899 E.47143
G1 X69.709 Y44.387 E.02448
G1 X75.865 Y50.543 E.43697
G1 X75.379 Y50.546 E.02437
G1 X69.709 Y44.875 E.4025
G1 X69.709 Y45.363 E.02448
G1 X74.894 Y50.548 E.36804
G1 X74.408 Y50.55 E.02437
G1 X69.709 Y45.85 E.33357
G1 X69.709 Y46.338 E.02448
G1 X73.923 Y50.552 E.29911
G1 X73.437 Y50.554 E.02437
G1 X69.709 Y46.826 E.26464
G1 X69.709 Y47.314 E.02448
G1 X72.952 Y50.557 E.23018
G1 X72.466 Y50.559 E.02437
G1 X69.709 Y47.801 E.19571
G1 X69.709 Y48.289 E.02448
G1 X71.98 Y50.561 E.16125
G1 X71.495 Y50.563 E.02437
G1 X69.709 Y48.777 E.12678
G1 X69.709 Y49.265 E.02448
G1 X71.009 Y50.565 E.09232
G1 X70.524 Y50.568 E.02437
G1 X69.709 Y49.752 E.05785
G1 X69.709 Y50.24 E.02448
G1 X70.193 Y50.724 E.03435
G1 E-.7 F3600
;WIPE_START
G1 F6240
G1 X69.825 Y50.357 E-.285
;WIPE_END
G1 E-.015 F3600
G1 X94.52 Y51.639 F7800
G1 E1 F2400
G1 F1800
G1 X108.068 Y65.186 E.96157
G1 X108.068 Y65.674 E.02448
M73 P1 R164
G1 X94.675 Y52.282 E.95056
G1 X94.675 Y52.769 E.02448
G1 X108.068 Y66.162 E.95056
G1 X108.068 Y66.65 E.02448
G1 X94.675 Y53.257 E.95056
G1 X94.675 Y53.745 E.02448
G1 X108.068 Y67.137 E.95057
G1 X108.068 Y67.625 E.02448
G1 X94.675 Y54.233 E.95057
G1 X94.675 Y54.72 E.02448
G1 X108.068 Y68.113 E.95057
G1 X108.068 Y68.601 E.02448
G1 X94.675 Y55.208 E.95057
G1 X94.675 Y55.696 E.02448
G1 X108.068 Y69.088 E.95057
G1 X108.068 Y69.576 E.02448
G1 X94.675 Y56.184 E.95058
G1 X94.675 Y56.671 E.02448
G1 X108.068 Y70.064 E.95058
G1 X108.068 Y70.552 E.02448
G1 X94.675 Y57.159 E.95058
G1 X94.675 Y57.647 E.02448
G1 X108.068 Y71.04 E.95058
G1 X108.068 Y71.527 E.02448
G1 X94.675 Y58.134 E.95058
G1 X94.675 Y58.622 E.02448
G1 X108.068 Y72.015 E.95059
G1 X108.068 Y72.503 E.02448
G1 X94.675 Y59.11 E.95059
G1 X94.675 Y59.598 E.02448
G1 X108.068 Y72.991 E.95059
G1 X108.068 Y73.478 E.02448
G1 X94.675 Y60.085 E.95059
G1 X94.675 Y60.573 E.02448
G1 X108.068 Y73.966 E.95059
G1 X108.068 Y74.454 E.02448
G1 X94.675 Y61.061 E.9506
G1 X94.675 Y61.549 E.02448
G1 X108.068 Y74.942 E.9506
G1 X108.068 Y75.429 E.02448
G1 X94.675 Y62.036 E.9506
G1 X94.675 Y62.524 E.02448
G1 X108.068 Y75.917 E.9506
G1 X108.068 Y76.405 E.02448
G1 X94.674 Y63.012 E.9506
G1 X94.674 Y63.5 E.02448
G1 X108.068 Y76.893 E.95061
G1 X108.068 Y77.381 E.02448
G1 X94.674 Y63.987 E.95061
G1 X94.674 Y64.475 E.02448
G1 X108.068 Y77.868 E.95061
G1 X108.068 Y78.356 E.02448
G1 X94.674 Y64.963 E.95061
G1 X94.674 Y65.451 E.02448
G1 X108.068 Y78.844 E.95061
G1 X108.068 Y79.332 E.02448
G1 X94.674 Y65.938 E.95062
G1 X94.674 Y66.426 E.02448
G1 X108.068 Y79.819 E.95062
G1 X108.068 Y80.307 E.02448
G1 X94.674 Y66.914 E.95062
G1 X94.674 Y67.402 E.02448
G1 X108.068 Y80.795 E.95062
G1 X108.068 Y81.283 E.02448
G1 X94.674 Y67.889 E.95062
G1 X94.674 Y68.377 E.02448
G1 X108.068 Y81.771 E.95063
G1 X108.068 Y82.258 E.02448
G1 X94.674 Y68.865 E.95063
G1 X94.674 Y69.353 E.02448
G1 X108.068 Y82.746 E.95063
G1 X108.068 Y83.234 E.02448
G1 X94.674 Y69.84 E.95063
G1 X94.674 Y70.328 E.02448
G1 X108.068 Y83.722 E.95063
G1 X108.068 Y84.209 E.02448
G1 X94.674 Y70.816 E.95064
G1 X94.674 Y71.304 E.02448
M73 P1 R163
G1 X108.068 Y84.697 E.95064
G1 X108.068 Y85.185 E.02448
G1 X94.674 Y71.791 E.95064
G1 X94.674 Y72.279 E.02448
G1 X108.068 Y85.673 E.95064
G1 X108.068 Y86.16 E.02448
G1 X94.674 Y72.767 E.95064
G1 X94.674 Y73.255 E.02448
G1 X108.068 Y86.648 E.95065
G1 X108.068 Y87.136 E.02448
G1 X94.674 Y73.742 E.95065
G1 X94.674 Y74.23 E.02448
G1 X108.068 Y87.624 E.95065
G1 X108.068 Y88.112 E.02448
G1 X94.674 Y74.718 E.95065
G1 X94.674 Y75.205 E.02448
G1 X108.068 Y88.599 E.95065
G1 X108.068 Y89.087 E.02448
G1 X94.674 Y75.693 E.95066
G1 X94.674 Y76.181 E.02448
G1 X108.068 Y89.575 E.95066
G1 X108.068 Y90.063 E.02448
G1 X94.674 Y76.669 E.95066
G1 X94.674 Y77.156 E.02448
G1 X108.068 Y90.55 E.95066
G1 X108.068 Y91.038 E.02448
G1 X94.674 Y77.644 E.95066
G1 X94.674 Y78.132 E.02448
G1 X108.068 Y91.526 E.95067
G1 X108.068 Y92.014 E.02448
G1 X94.674 Y78.62 E.95067
G1 X94.674 Y79.107 E.02448
G1 X108.068 Y92.501 E.95067
G1 X108.068 Y92.989 E.02448
G1 X94.674 Y79.595 E.95067
G1 X94.673 Y80.083 E.02448
G1 X108.068 Y93.477 E.95067
G1 X108.068 Y93.965 E.02448
G1 X94.673 Y80.571 E.95068
G1 X94.673 Y81.058 E.02448
G1 X108.068 Y94.453 E.95068
G1 X108.068 Y94.94 E.02448
G1 X94.673 Y81.546 E.95068
G1 X94.673 Y82.034 E.02448
G1 X108.068 Y95.428 E.95068
G1 X108.068 Y95.916 E.02448
G1 X94.673 Y82.522 E.95068
G1 X94.673 Y83.009 E.02448
G1 X108.068 Y96.404 E.95069
G1 X108.068 Y96.891 E.02448
G1 X94.673 Y83.497 E.95069
G1 X94.673 Y83.985 E.02448
G1 X108.068 Y97.379 E.95069
G1 X108.068 Y97.867 E.02448
G1 X94.673 Y84.473 E.95069
G1 X94.673 Y84.96 E.02448
G1 X108.068 Y98.355 E.95069
G1 X108.068 Y98.842 E.02448
G1 X94.673 Y85.448 E.9507
G1 X94.673 Y85.936 E.02448
G1 X108.068 Y99.33 E.9507
G1 X108.068 Y99.818 E.02448
G1 X94.673 Y86.424 E.9507
G1 X94.673 Y86.911 E.02448
G1 X108.068 Y100.306 E.9507
G1 X108.068 Y100.794 E.02448
G1 X94.673 Y87.399 E.9507
G1 X94.673 Y87.887 E.02448
G1 X108.068 Y101.281 E.95071
G1 X108.068 Y101.769 E.02448
G1 X94.673 Y88.375 E.95071
G1 X94.673 Y88.862 E.02448
G1 X108.068 Y102.257 E.95071
G1 X108.068 Y102.745 E.02448
G1 X94.673 Y89.35 E.95071
G1 X94.673 Y89.838 E.02448
G1 X108.068 Y103.232 E.95071
G1 X108.068 Y103.72 E.02448
G1 X94.673 Y90.325 E.95072
G1 X94.673 Y90.813 E.02448
G1 X108.068 Y104.208 E.95072
G1 X108.068 Y104.696 E.02448
G1 X94.673 Y91.301 E.95072
G1 X94.673 Y91.789 E.02448
G1 X108.068 Y105.184 E.95072
G1 X108.068 Y105.671 E.02448
G1 X94.673 Y92.276 E.95072
G1 X94.673 Y92.764 E.02448
G1 X108.068 Y106.159 E.95073
G1 X108.068 Y106.647 E.02448
G1 X94.673 Y93.252 E.95073
G1 X94.673 Y93.74 E.02448
G1 X108.068 Y107.135 E.95073
G1 X108.068 Y107.622 E.02448
G1 X94.673 Y94.227 E.95073
G1 X94.673 Y94.715 E.02448
G1 X108.068 Y108.11 E.95073
G1 X108.068 Y108.598 E.02448
G1 X94.673 Y95.203 E.95074
G1 X94.673 Y95.691 E.02448
G1 X108.068 Y109.086 E.95074
G1 X108.068 Y109.573 E.02448
G1 X94.673 Y96.178 E.95074
G1 X94.673 Y96.666 E.02448
G1 X108.068 Y110.061 E.95074
G1 X108.068 Y110.549 E.02448
G1 X94.673 Y97.154 E.95074
G1 X94.672 Y97.642 E.02448
G1 X108.068 Y111.037 E.95075
G1 X108.068 Y111.525 E.02448
G1 X94.672 Y98.129 E.95075
G1 X94.672 Y98.617 E.02448
G1 X108.068 Y112.012 E.95075
G1 X108.068 Y112.5 E.02448
G1 X94.672 Y99.105 E.95075
G1 X94.672 Y99.593 E.02448
G1 X108.068 Y112.988 E.95075
G1 X108.068 Y113.476 E.02448
G1 X94.672 Y100.08 E.95076
G1 X94.672 Y100.568 E.02448
G1 X108.068 Y113.963 E.95076
G1 X108.068 Y114.451 E.02448
G1 X94.672 Y101.056 E.95076
G1 X94.672 Y101.544 E.02448
G1 X108.068 Y114.939 E.95076
G1 X108.068 Y115.427 E.02448
G1 X94.672 Y102.031 E.95076
G1 X94.672 Y102.519 E.02448
G1 X108.068 Y115.914 E.95077
G1 X108.068 Y116.402 E.02448
G1 X94.672 Y103.007 E.95077
G1 X94.672 Y103.495 E.02448
G1 X108.068 Y116.89 E.95077
G1 X108.068 Y117.378 E.02448
G1 X94.672 Y103.982 E.95077
G1 X94.672 Y104.47 E.02448
G1 X108.068 Y117.866 E.95077
G1 X108.068 Y118.353 E.02448
G1 X94.672 Y104.958 E.95078
G1 X94.672 Y105.446 E.02448
G1 X108.068 Y118.841 E.95078
G1 X108.068 Y119.329 E.02448
G1 X94.672 Y105.933 E.95078
G1 X94.672 Y106.421 E.02448
G1 X108.068 Y119.817 E.95078
G1 X108.068 Y120.304 E.02448
G1 X94.672 Y106.909 E.95078
G1 X94.672 Y107.396 E.02448
G1 X108.068 Y120.792 E.95079
G1 X108.068 Y121.28 E.02448
G1 X94.672 Y107.884 E.95079
G1 X94.672 Y108.372 E.02448
G1 X108.068 Y121.768 E.95079
G1 X108.068 Y122.255 E.02448
G1 X94.672 Y108.86 E.95079
G1 X94.672 Y109.347 E.02448
G1 X108.068 Y122.743 E.95079
G1 X108.068 Y123.231 E.02448
G1 X94.672 Y109.835 E.9508
G1 X94.672 Y110.323 E.02448
G1 X108.068 Y123.719 E.9508
G1 X108.068 Y124.207 E.02448
G1 X94.672 Y110.811 E.9508
G1 X94.672 Y111.298 E.02448
G1 X108.068 Y124.694 E.9508
G1 X108.068 Y125.182 E.02448
G1 X94.672 Y111.786 E.9508
G1 X94.672 Y112.274 E.02448
G1 X108.068 Y125.67 E.95081
G1 X108.068 Y126.158 E.02448
G1 X94.672 Y112.762 E.95081
G1 X94.672 Y113.249 E.02448
M73 P1 R162
G1 X108.068 Y126.645 E.95081
G1 X108.068 Y127.133 E.02448
G1 X94.672 Y113.737 E.95081
G1 X94.672 Y114.225 E.02448
G1 X108.068 Y127.621 E.95081
G1 X108.068 Y128.109 E.02448
G1 X94.671 Y114.713 E.95082
G1 X94.671 Y115.2 E.02448
G1 X108.068 Y128.597 E.95082
G1 X108.068 Y129.084 E.02448
G1 X94.671 Y115.688 E.95082
G1 X94.671 Y116.176 E.02448
G1 X108.068 Y129.572 E.95082
G1 X108.068 Y130.06 E.02448
G1 X94.671 Y116.664 E.95082
G1 X94.671 Y117.151 E.02448
G1 X108.068 Y130.548 E.95083
G1 X108.068 Y131.035 E.02448
G1 X94.671 Y117.639 E.95083
G1 X94.671 Y118.127 E.02448
G1 X108.068 Y131.523 E.95083
G1 X108.068 Y132.011 E.02448
G1 X94.671 Y118.615 E.95083
G1 X94.671 Y119.102 E.02448
G1 X108.068 Y132.499 E.95083
G1 X108.068 Y132.986 E.02448
G1 X94.671 Y119.59 E.95084
G1 X94.671 Y120.078 E.02448
G1 X108.068 Y133.474 E.95084
G1 X108.068 Y133.962 E.02448
G1 X94.671 Y120.566 E.95084
G1 X94.671 Y121.053 E.02448
G1 X108.068 Y134.45 E.95084
G1 X108.068 Y134.938 E.02448
G1 X94.671 Y121.541 E.95084
G1 X94.671 Y122.029 E.02448
M73 P2 R162
G1 X108.068 Y135.425 E.95085
G1 X108.068 Y135.913 E.02448
G1 X94.671 Y122.517 E.95085
G1 X94.671 Y123.004 E.02448
G1 X108.068 Y136.401 E.95085
G1 X108.068 Y136.889 E.02448
G1 X94.671 Y123.492 E.95085
G1 X94.671 Y123.98 E.02448
G1 X108.068 Y137.376 E.95085
G1 X108.068 Y137.864 E.02448
G1 X94.671 Y124.467 E.95086
G1 X94.671 Y124.955 E.02448
G1 X108.068 Y138.352 E.95086
G1 X108.068 Y138.84 E.02448
G1 X94.671 Y125.443 E.95086
G1 X94.671 Y125.931 E.02448
G1 X108.068 Y139.327 E.95086
G1 X108.068 Y139.815 E.02448
G1 X94.671 Y126.418 E.95086
G1 X94.671 Y126.906 E.02448
G1 X108.068 Y140.303 E.95087
G1 X108.068 Y140.791 E.02448
G1 X94.671 Y127.394 E.95087
G1 X94.671 Y127.882 E.02448
G1 X108.068 Y141.279 E.95087
