; generated by PrusaSlicer 2.5.0+win64 on 2022-12-07 at 00:02:45 UTC

; 

; external perimeters extrusion width = 1.00mm
; perimeters extrusion width = 1.00mm
; infill extrusion width = 1.00mm
; solid infill extrusion width = 1.00mm
; top infill extrusion width = 1.00mm
; support material extrusion width = 1.00mm
; first layer extrusion width = 0.42mm

M73 P0 R12
M107
;TYPE:Custom
G90 ; use absolute coordinates
M83 ; extruder relative mode
M140 S60 ; set final bed temp
M104 S150 ; set temporary nozzle temp to prevent oozing during homing and auto bed leveling
G4 S10 ; allow partial nozzle warmup
G28 ; home all axisG1 Z50 F240
G1 X7.6 Y10 F3000
M104 S210 ; set final nozzle temp
M190 S60 ; wait for bed temp to stabilize
M109 S210 ; wait for nozzle temp to stabilize
G1 Z0.28 F240
G92 E0
G1 Y140 E10 F1500 ; prime the nozzle
G1 X4 F5000
G92 E0
G1 Y10 E10 F1200 ; prime the nozzle
G92 E0
G21 ; set units to millimeters
G90 ; use absolute coordinates
M83 ; use relative distances for extrusion
; Filament gcode
M107
;LAYER_CHANGE
;Z:0.35
;HEIGHT:0.35
;BEFORE_LAYER_CHANGE
G92 E0
;0.35


G1 E-1 F3600
M73 P1 R11
G1 Z.35 F7800
;AFTER_LAYER_CHANGE
;0.35
G1 X90.677 Y113.974
G1 E1 F2400
;TYPE:Perimeter
;WIDTH:0.42
G1 F1800
G1 X90.687 Y113.938 E.00187
G1 X90.65 Y113.772 E.00858
G1 X90.527 Y113.591 E.01093
G1 X74.612 Y98.397 E1.10428
G1 X74.289 Y98.255 E.01772
G1 X74.072 Y98.241 E.01087
G1 X88.211 Y94.105 E.7393
G1 X89.829 Y93.653 E.08429
M73 P2 R11
G1 X104.964 Y91.725 E.76573
G1 X105.079 Y91.697 E.00593
G1 X105.318 Y91.516 E.01502
G1 X105.397 Y91.353 E.00906
G1 X105.416 Y91.212 E.00719
G1 X105.364 Y90.985 E.01168
G1 X90.111 Y59.698 E1.74682
G1 X89.807 Y57.651 E.10385
G1 X109.021 Y57.651 E.96429
G1 X109.021 Y121.708 E3.21476
G1 X89.605 Y115.813 E1.01836
G1 X90.606 Y114.244 E.09344
G1 X90.639 Y114.119 E.00645
G1 X90.342 Y113.956 F7800
;TYPE:External perimeter
G1 F1800
G1 X90.289 Y113.841 E.00639
G1 X74.374 Y98.646 E1.10428
G1 X74.266 Y98.599 E.00591
G1 X72.105 Y98.457 E.10867
G1 X88.116 Y93.773 E.8372
G1 X89.76 Y93.314 E.08566
M73 P3 R11
G1 X104.921 Y91.383 E.76699
G1 X104.959 Y91.373 E.00198
G1 X105.065 Y91.259 E.00782
G1 X105.054 Y91.136 E.00619
G1 X89.778 Y59.801 E1.74949
G1 X89.407 Y57.306 E.12659
G1 X109.366 Y57.306 E1.00167
G1 X109.366 Y122.173 E3.25542
G1 X89.069 Y116.011 E1.06453
G1 X90.291 Y114.096 E.11402
G1 X90.389 Y113.838 F7800
G1 E-.7 F3600
;WIPE_START
G1 F6240
G1 X90.289 Y113.841 E-.13987
G1 X90.098 Y113.658 E-.14513
;WIPE_END
G1 E-.015 F3600
G1 X108.918 Y58.453 F7800
G1 E1 F2400
;TYPE:Solid infill
;WIDTH:0.420712
G1 F1800
G1 X108.374 Y57.91 E.03865
G1 X107.886 Y57.91 E.02458
G1 X108.763 Y58.787 E.06238
G1 X108.763 Y59.276 E.02458
G1 X107.397 Y57.91 E.09714
G1 X106.908 Y57.91 E.02458
G1 X108.763 Y59.764 E.1319
G1 X108.763 Y60.253 E.02458
G1 X106.419 Y57.91 E.16666
G1 X105.931 Y57.91 E.02458
G1 X108.763 Y60.742 E.20142
G1 X108.763 Y61.231 E.02458
G1 X105.442 Y57.91 E.23618
G1 X104.953 Y57.91 E.02458
M73 P4 R11
G1 X108.763 Y61.719 E.27094
G1 X108.763 Y62.208 E.02458
G1 X104.464 Y57.91 E.3057
G1 X103.976 Y57.91 E.02458
G1 X108.763 Y62.697 E.34046
G1 X108.763 Y63.186 E.02458
G1 X103.487 Y57.91 E.37522
G1 X102.998 Y57.91 E.02458
G1 X108.763 Y63.674 E.40998
G1 X108.763 Y64.163 E.02458
G1 X102.509 Y57.91 E.44474
G1 X102.021 Y57.91 E.02458
G1 X108.763 Y64.652 E.4795
G1 X108.763 Y65.141 E.02458
G1 X101.532 Y57.91 E.51426
G1 X101.043 Y57.91 E.02458
G1 X108.763 Y65.629 E.54902
G1 X108.763 Y66.118 E.02458
G1 X100.554 Y57.91 E.58378
G1 X100.066 Y57.91 E.02458
G1 X108.763 Y66.607 E.61854
G1 X108.763 Y67.096 E.02458
G1 X99.577 Y57.91 E.6533
G1 X99.088 Y57.91 E.02458
G1 X108.763 Y67.584 E.68806
G1 X108.763 Y68.073 E.02458
G1 X98.599 Y57.91 E.72282
G1 X98.111 Y57.91 E.02458
G1 X108.763 Y68.562 E.75758
G1 X108.763 Y69.051 E.02458
G1 X97.622 Y57.91 E.79234
G1 X97.133 Y57.91 E.02458
G1 X108.763 Y69.539 E.8271
G1 X108.763 Y70.028 E.02458
M73 P5 R11
G1 X96.644 Y57.91 E.86186
G1 X96.156 Y57.91 E.02458
G1 X108.763 Y70.517 E.89662
G1 X108.763 Y71.006 E.02458
G1 X95.667 Y57.91 E.93138
G1 X95.178 Y57.91 E.02458
G1 X108.763 Y71.495 E.96614
G1 X108.763 Y71.983 E.02458
G1 X94.689 Y57.91 E1.0009
G1 X94.201 Y57.91 E.02458
G1 X108.763 Y72.472 E1.03566
G1 X108.763 Y72.961 E.02458
G1 X93.712 Y57.91 E1.07042
G1 X93.223 Y57.91 E.02458
G1 X108.763 Y73.45 E1.10518
G1 X108.763 Y73.938 E.02458
G1 X92.734 Y57.91 E1.13994
G1 X92.246 Y57.91 E.02458
G1 X108.763 Y74.427 E1.1747
G1 X108.763 Y74.916 E.02458
M73 P6 R11
G1 X91.757 Y57.91 E1.20946
G1 X91.268 Y57.91 E.02458
G1 X108.763 Y75.405 E1.24422
G1 X108.763 Y75.893 E.02458
G1 X90.779 Y57.91 E1.27898
G1 X90.291 Y57.91 E.02458
G1 X108.763 Y76.382 E1.31374
G1 X108.763 Y76.871 E.02458
G1 X90.16 Y58.268 E1.32302
G1 X90.245 Y58.842 E.02918
G1 X108.763 Y77.36 E1.31696
G1 X108.763 Y77.848 E.02458
G1 X90.331 Y59.416 E1.31089
G1 X90.361 Y59.621 E.01039
G1 X90.66 Y60.235 E.03436
G1 X108.763 Y78.337 E1.28744
G1 X108.763 Y78.826 E.02458
M73 P7 R11
G1 X91.125 Y61.188 E1.25437
G1 X91.59 Y62.142 E.05336
G1 X108.763 Y79.315 E1.22131
G1 X108.763 Y79.803 E.02458
G1 X92.055 Y63.096 E1.18824
G1 X92.52 Y64.05 E.05336
G1 X108.763 Y80.292 E1.15517
G1 X108.763 Y80.781 E.02458
G1 X92.985 Y65.003 E1.1221
G1 X93.45 Y65.957 E.05336
G1 X108.763 Y81.27 E1.08904
G1 X108.763 Y81.758 E.02458
G1 X93.915 Y66.911 E1.05597
G1 X94.38 Y67.864 E.05336
G1 X108.763 Y82.247 E1.0229
G1 X108.763 Y82.736 E.02458
G1 X94.845 Y68.818 E.98983
G1 X95.31 Y69.772 E.05336
M73 P8 R11
G1 X108.763 Y83.225 E.95677
G1 X108.763 Y83.713 E.02458
G1 X95.775 Y70.725 E.9237
G1 X96.24 Y71.679 E.05336
G1 X108.763 Y84.202 E.89063
G1 X108.763 Y84.691 E.02458
G1 X96.705 Y72.633 E.85756
G1 X97.17 Y73.587 E.05336
G1 X108.763 Y85.18 E.82449
G1 X108.763 Y85.668 E.02458
G1 X97.635 Y74.54 E.79143
G1 X98.1 Y75.494 E.05336
G1 X108.763 Y86.157 E.75836
G1 X108.763 Y86.646 E.02458
G1 X98.565 Y76.448 E.72529
G1 X99.03 Y77.401 E.05336
G1 X108.763 Y87.135 E.69222
G1 X108.763 Y87.623 E.02458
G1 X99.495 Y78.355 E.65916
G1 X99.959 Y79.309 E.05336
G1 X108.763 Y88.112 E.62609
G1 X108.763 Y88.601 E.02458
G1 X100.424 Y80.263 E.59302
G1 X100.889 Y81.216 E.05336
G1 X108.763 Y89.09 E.55995
G1 X108.763 Y89.578 E.02458
M73 P9 R11
G1 X101.354 Y82.17 E.52689
G1 X101.819 Y83.124 E.05336
G1 X108.763 Y90.067 E.49382
G1 X108.763 Y90.556 E.02458
G1 X102.284 Y84.077 E.46075
G1 X102.749 Y85.031 E.05336
G1 X108.763 Y91.045 E.42768
G1 X108.763 Y91.533 E.02458
G1 X103.214 Y85.985 E.39462
G1 X103.679 Y86.939 E.05336
G1 X108.763 Y92.022 E.36155
G1 X108.763 Y92.511 E.02458
G1 X104.144 Y87.892 E.32848
G1 X104.609 Y88.846 E.05336
G1 X108.763 Y93 E.29541
G1 X108.763 Y93.488 E.02458
G1 X105.074 Y89.8 E.26235
G1 X105.539 Y90.753 E.05336
G1 X108.763 Y93.977 E.22928
G1 X108.763 Y94.466 E.02458
G1 X105.653 Y91.356 E.22116
G1 X105.647 Y91.424 E.00343
G1 X105.502 Y91.694 E.01539
G1 X108.763 Y94.955 E.2319
G1 X108.763 Y95.443 E.02458
G1 X105.228 Y91.909 E.2514
G1 X105.002 Y91.981 E.01193
G1 X104.833 Y92.002 E.00857
G1 X108.763 Y95.932 E.2795
G1 X108.763 Y96.421 E.02458
G1 X104.399 Y92.057 E.31033
G1 X103.966 Y92.113 E.02198
G1 X108.763 Y96.91 E.34116
G1 X108.763 Y97.398 E.02458
G1 X103.532 Y92.168 E.372
G1 X103.099 Y92.223 E.02198
G1 X108.763 Y97.887 E.40283
G1 X108.763 Y98.376 E.02458
G1 X102.665 Y92.278 E.43366
G1 X102.232 Y92.334 E.02198
G1 X108.763 Y98.865 E.46449
G1 X108.763 Y99.353 E.02458
M73 P9 R10
G1 X101.798 Y92.389 E.49533
G1 X101.365 Y92.444 E.02198
G1 X108.763 Y99.842 E.52616
G1 X108.763 Y100.331 E.02458
G1 X100.931 Y92.499 E.55699
G1 X100.497 Y92.554 E.02198
M73 P10 R10
G1 X108.763 Y100.82 E.58783
G1 X108.763 Y101.308 E.02458
G1 X100.064 Y92.61 E.61866
G1 X99.63 Y92.665 E.02198
G1 X108.763 Y101.797 E.64949
G1 X108.763 Y102.286 E.02458
G1 X99.197 Y92.72 E.68033
G1 X98.763 Y92.775 E.02198
G1 X108.763 Y102.775 E.71116
G1 X108.763 Y103.263 E.02458
G1 X98.33 Y92.831 E.74199
G1 X97.896 Y92.886 E.02198
G1 X108.763 Y103.752 E.77283
G1 X108.763 Y104.241 E.02458
G1 X97.463 Y92.941 E.80366
G1 X97.029 Y92.996 E.02198
G1 X108.763 Y104.73 E.83449
G1 X108.763 Y105.219 E.02458
G1 X96.596 Y93.051 E.86532
G1 X96.162 Y93.107 E.02198
G1 X108.763 Y105.707 E.89616
G1 X108.763 Y106.196 E.02458
G1 X95.729 Y93.162 E.92699
G1 X95.295 Y93.217 E.02198
G1 X108.763 Y106.685 E.95782
G1 X108.763 Y107.174 E.02458
M73 P11 R10
G1 X94.861 Y93.272 E.98866
G1 X94.428 Y93.328 E.02198
G1 X108.763 Y107.662 E1.01949
G1 X108.763 Y108.151 E.02458
G1 X93.994 Y93.383 E1.05032
G1 X93.561 Y93.438 E.02198
G1 X108.763 Y108.64 E1.08116
G1 X108.763 Y109.129 E.02458
G1 X93.127 Y93.493 E1.11199
G1 X92.694 Y93.548 E.02198
G1 X108.763 Y109.617 E1.14282
G1 X108.763 Y110.106 E.02458
G1 X92.26 Y93.604 E1.17366
G1 X91.827 Y93.659 E.02198
G1 X108.763 Y110.595 E1.20449
G1 X108.763 Y111.084 E.02458
G1 X91.393 Y93.714 E1.23532
G1 X90.96 Y93.769 E.02198
M73 P12 R10
G1 X108.763 Y111.572 E1.26615
G1 X108.763 Y112.061 E.02458
G1 X90.526 Y93.824 E1.29699
G1 X90.093 Y93.88 E.02198
G1 X108.763 Y112.55 E1.32782
G1 X108.763 Y113.039 E.02458
G1 X89.685 Y93.961 E1.35678
G1 X89.303 Y94.068 E.01995
G1 X108.763 Y113.527 E1.38395
G1 X108.763 Y114.016 E.02458
G1 X88.921 Y94.175 E1.41112
G1 X88.539 Y94.281 E.01995
G1 X108.763 Y114.505 E1.43829
G1 X108.763 Y114.994 E.02458
G1 X88.159 Y94.389 E1.46537
G1 X87.78 Y94.5 E.01981
M73 P13 R10
G1 X108.763 Y115.482 E1.49226
G1 X108.763 Y115.971 E.02458
G1 X87.402 Y94.611 E1.51915
G1 X87.024 Y94.721 E.01981
G1 X108.763 Y116.46 E1.54605
G1 X108.763 Y116.949 E.02458
G1 X86.646 Y94.832 E1.57294
G1 X86.268 Y94.943 E.01981
G1 X108.763 Y117.437 E1.59983
G1 X108.763 Y117.926 E.02458
G1 X85.89 Y95.053 E1.62672
G1 X85.512 Y95.164 E.01981
G1 X108.763 Y118.415 E1.65362
G1 X108.763 Y118.904 E.02458
M73 P14 R10
G1 X85.134 Y95.274 E1.68051
G1 X84.755 Y95.385 E.01981
G1 X108.763 Y119.392 E1.7074
G1 X108.763 Y119.881 E.02458
G1 X84.377 Y95.496 E1.7343
G1 X83.999 Y95.606 E.01981
G1 X108.763 Y120.37 E1.76119
G1 X108.763 Y120.859 E.02458
G1 X83.621 Y95.717 E1.78808
G1 X83.243 Y95.827 E.01981
G1 X108.763 Y121.36 E1.81541
G1 X108.078 Y121.152 E.03597
M73 P15 R10
G1 X82.865 Y95.938 E1.79319
G1 X82.487 Y96.049 E.01981
G1 X107.376 Y120.939 E1.77017
G1 X106.675 Y120.726 E.03689
G1 X82.108 Y96.159 E1.74715
G1 X81.73 Y96.27 E.01981
G1 X105.973 Y120.512 E1.72413
G1 X105.271 Y120.299 E.03689
G1 X81.352 Y96.381 E1.70111
G1 X80.974 Y96.491 E.01981
G1 X104.569 Y120.086 E1.67809
G1 X103.867 Y119.873 E.03689
M73 P16 R10
G1 X80.596 Y96.602 E1.65507
G1 X80.218 Y96.712 E.01981
G1 X103.166 Y119.66 E1.63205
G1 X102.464 Y119.447 E.03689
G1 X79.84 Y96.823 E1.60902
G1 X79.461 Y96.934 E.01981
G1 X101.762 Y119.234 E1.586
G1 X101.06 Y119.021 E.03689
G1 X79.083 Y97.044 E1.56298
G1 X78.705 Y97.155 E.01981
G1 X100.358 Y118.808 E1.53996
G1 X99.656 Y118.595 E.03689
M73 P17 R10
G1 X78.327 Y97.266 E1.51694
G1 X77.949 Y97.376 E.01981
G1 X98.955 Y118.382 E1.49392
G1 X98.253 Y118.169 E.03689
G1 X77.571 Y97.487 E1.4709
G1 X77.193 Y97.597 E.01981
G1 X97.551 Y117.956 E1.44788
G1 X96.849 Y117.742 E.03689
G1 X76.815 Y97.708 E1.42485
G1 X76.436 Y97.819 E.01981
G1 X96.147 Y117.529 E1.40183
G1 X95.445 Y117.316 E.03689
G1 X76.058 Y97.929 E1.37881
G1 X75.68 Y98.04 E.01981
M73 P18 R10
G1 X94.744 Y117.103 E1.35579
G1 X94.042 Y116.89 E.03689
M73 P18 R9
G1 X75.302 Y98.15 E1.33277
G1 X74.924 Y98.261 E.01981
G1 X81.364 Y104.701 E.45799
G1 E-.7 F3600
;WIPE_START
G1 F6240
G1 X80.996 Y104.333 E-.285
;WIPE_END
G1 E-.015 F3600
G1 X90.77 Y114.108 F7800
G1 E1 F2400
G1 F1800
G1 X93.34 Y116.677 E.18274
G1 X92.638 Y116.464 E.03689
G1 X90.72 Y114.546 E.1364
G1 X90.53 Y114.844 E.0178
G1 X91.936 Y116.251 E.10003
G1 X91.234 Y116.038 E.03689
G1 X90.339 Y115.143 E.06365
G1 X90.149 Y115.441 E.0178
G1 X90.765 Y116.058 E.04384
M106 S255
;LAYER_CHANGE
;Z:0.85
;HEIGHT:0.5
;BEFORE_LAYER_CHANGE
G92 E0
;0.85


G1 E-.7 F3600
;WIPE_START
G1 F6240
G1 X90.398 Y115.69 E-.285
;WIPE_END
G1 E-.015 F3600
G1 Z.85 F7800
;AFTER_LAYER_CHANGE
;0.85
M104 S205 ; set temperature
G1 X92.131 Y113.258
G1 E1 F2400
;TYPE:Perimeter
;WIDTH:1
G1 F2016.357
G1 X92.035 Y113.015 E.04858
G1 X91.814 Y112.74 E.06541
G1 X76.842 Y98.446 E3.84117
G1 X89.159 Y94.843 E2.38143
G1 X90.981 Y94.334 E.35098
G1 X105.955 Y92.427 E2.80127
G1 X106.315 Y92.329 E.06925
G1 X106.697 Y92.08 E.08458
;WIDTH:1.02529
G1 F1960.805
G1 X106.864 Y91.868 E.05145
;WIDTH:1.05058
G1 F1908.231
G1 X107.031 Y91.657 E.05287
;WIDTH:1.0971
G1 F1818.555
G1 X107.153 Y91.338 E.07009
G1 X107.153 Y90.859 E.09866
G1 X107.081 Y90.68 E.03955
;WIDTH:1.0707
G1 F1868.393
G1 X107.009 Y90.502 E.03849
;WIDTH:1.04429
G1 F1921.039
G1 X95.91 Y67.785 E4.92469
;WIDTH:1
G1 F2016.357
G1 X91.67 Y59.088 E1.79552
G1 X91.581 Y58.489 E.11239
G1 X108.184 Y58.489 E3.08097
G1 X108.184 Y64.953 E1.19947
;WIDTH:1.04429
G1 F1921.039
G1 X108.161 Y90.236 E4.92469
;WIDTH:1.08294
G1 F1844.941
M73 P19 R9
G1 X108.142 Y91.099 E.17494
G1 X108.158 Y91.898 E.16208
;WIDTH:1.05058
G1 F1908.231
G1 X108.171 Y92.313 E.08148
;WIDTH:1.02529
G1 F1960.805
G1 X108.184 Y92.728 E.07929
;WIDTH:1
G1 F2016.357
G1 X108.184 Y120.244 E5.10615
G1 X91.533 Y115.189 E3.22912
G1 X92.018 Y114.428 E.16742
G1 X92.193 Y114.013 E.08361
G1 X92.228 Y113.683 E.06169
G1 X92.185 Y113.398 E.05345
G1 X91.309 Y113.557 F7800
;TYPE:External perimeter
G1 F1800
G1 X91.198 Y113.385 E.03796
G1 X75.414 Y98.317 E4.04935
G1 X75.135 Y98.195 E.05653
G1 X74.635 Y98.162 E.09306
G1 X88.914 Y93.985 E2.76072
G1 X90.803 Y93.457 E.36408
G1 X105.842 Y91.541 E2.81337
G1 X106.09 Y91.426 E.05066
G1 X106.193 Y91.281 E.03301
G1 X106.232 Y91.099 E.03464
G1 X106.187 Y90.903 E.03725
G1 X90.807 Y59.355 E6.51296
G1 X90.546 Y57.596 E.33002
G1 X109.076 Y57.596 E3.43871
G1 X109.076 Y121.448 E11.84903
G1 X90.147 Y115.701 E3.67098
M73 P20 R9
G1 X91.266 Y113.948 E.38586
G1 X91.324 Y113.81 E.02787
G1 X91.318 Y113.707 E.01921
G1 X91.441 Y113.4 F7800
G1 E-.7 F3600
;WIPE_START
G1 F6240
G1 X91.198 Y113.385 E-.18797
G1 X91.07 Y113.263 E-.09703
;WIPE_END
G1 E-.015 F3600
G1 X107.916 Y118.083 F7800
G1 E1 F2400
;TYPE:Solid infill
;WIDTH:1.00542
G1 F1200
G1 X106.857 Y119.142 E.27963
G1 X105.882 Y118.846 E.1901
G1 X107.514 Y117.214 E.43082
G1 X107.514 Y115.944 E.23713
G1 X104.908 Y118.55 E.68807
G1 X103.934 Y118.254 E.1901
G1 X107.514 Y114.674 E.94533
G1 X107.514 Y113.404 E.23713
G1 X102.959 Y117.958 E1.20258
G1 X101.985 Y117.663 E.1901
G1 X107.514 Y112.134 E1.45984
G1 X107.514 Y110.863 E.23713
G1 X101.011 Y117.367 E1.71709
G1 X100.036 Y117.071 E.1901
G1 X107.514 Y109.593 E1.97434
G1 X107.514 Y108.323 E.23713
G1 X99.062 Y116.775 E2.2316
G1 X98.088 Y116.479 E.1901
G1 X107.514 Y107.053 E2.48885
G1 X107.514 Y105.783 E.23713
G1 X97.113 Y116.184 E2.7461
G1 X96.139 Y115.888 E.1901
M73 P21 R9
G1 X107.514 Y104.513 E3.00336
G1 X107.514 Y103.243 E.23713
G1 X95.165 Y115.592 E3.26061
G1 X94.19 Y115.296 E.1901
G1 X107.514 Y101.973 E3.51786
G1 X107.514 Y100.702 E.23713
G1 X93.216 Y115 E3.77512
G1 X92.578 Y114.807 E.12441
G1 X92.846 Y114.171 E.12877
G1 X92.855 Y114.092 E.01494
G1 X107.514 Y99.432 E3.87053
G1 X107.514 Y98.162 E.23713
G1 X92.738 Y112.938 E3.9014
G1 X92.609 Y112.668 E.0559
G1 X92.396 Y112.379 E.06709
G1 X92.207 Y112.199 E.04867
G1 X107.514 Y96.892 E4.04143
G1 X107.514 Y95.622 E.23713
M73 P22 R9
G1 X91.558 Y111.578 E4.21294
G1 X90.908 Y110.957 E.16772
G1 X107.514 Y94.352 E4.38445
G1 X107.514 Y93.082 E.23713
G1 X90.259 Y110.337 E4.55596
G1 X89.609 Y109.716 E.16772
G1 X106.304 Y93.021 E4.40808
G1 X106.055 Y93.089 E.04823
G1 X104.807 Y93.248 E.23486
G1 X88.96 Y109.096 E4.18431
G1 X88.31 Y108.475 E.16772
G1 X103.352 Y93.433 E3.97152
G1 X101.896 Y93.619 E.27394
M73 P23 R9
G1 X87.66 Y107.855 E3.75873
G1 X87.011 Y107.234 E.16772
G1 X100.441 Y93.804 E3.54594
G1 X98.985 Y93.99 E.27394
G1 X86.361 Y106.614 E3.33315
G1 X85.712 Y105.993 E.16772
G1 X97.53 Y94.175 E3.12036
G1 X96.074 Y94.36 E.27394
G1 X85.062 Y105.372 E2.90756
G1 X84.412 Y104.752 E.16772
G1 X94.619 Y94.546 E2.69477
G1 X93.163 Y94.731 E.27394
G1 X83.763 Y104.131 E2.48198
G1 X83.113 Y103.511 E.16772
G1 X91.708 Y94.916 E2.26919
G1 X91.114 Y94.992 E.11179
G1 X90.07 Y95.284 E.20226
M73 P24 R9
G1 X82.464 Y102.89 E2.00839
G1 X81.814 Y102.27 E.16772
G1 X88.288 Y95.795 E1.70942
