; generated by PrusaSlicer 2.5.0+win64 on 2022-12-07 at 00:02:49 UTC

; 

; external perimeters extrusion width = 1.00mm
; perimeters extrusion width = 1.00mm
; infill extrusion width = 1.00mm
; solid infill extrusion width = 1.00mm
; top infill extrusion width = 1.00mm
; support material extrusion width = 1.00mm
; first layer extrusion width = 0.42mm

M73 P0 R211
M107
;TYPE:Custom
G90 ; use absolute coordinates
M83 ; extruder relative mode
M140 S60 ; set final bed temp
M104 S150 ; set temporary nozzle temp to prevent oozing during homing and auto bed leveling
G4 S10 ; allow partial nozzle warmup
G28 ; home all axisG1 Z50 F240
G1 X7.6 Y10 F3000
M104 S210 ; set final nozzle temp
M190 S60 ; wait for bed temp to stabilize
M109 S210 ; wait for nozzle temp to stabilize
G1 Z0.28 F240
G92 E0
G1 Y140 E10 F1500 ; prime the nozzle
G1 X4 F5000
G92 E0
G1 Y10 E10 F1200 ; prime the nozzle
G92 E0
G21 ; set units to millimeters
G90 ; use absolute coordinates
M83 ; use relative distances for extrusion
; Filament gcode
M107
;LAYER_CHANGE
;Z:0.35
;HEIGHT:0.35
;BEFORE_LAYER_CHANGE
G92 E0
;0.35


G1 E-1 F3600
M73 P0 R210
G1 Z.35 F7800
;AFTER_LAYER_CHANGE
;0.35
G1 X21.14 Y45.228
G1 E1 F2400
;TYPE:Support material
;WIDTH:0.42
G1 F1800
G1 X21.313 Y45.546 E.01817
G1 X24.932 Y47.876 E.21601
G1 X24.563 Y49.131 E.06566
G1 X15.517 Y49.131 E.45399
G1 X15.517 Y35.873 E.66536
G1 X21.14 Y35.873 E.28219
G1 X21.14 Y45.176 E.46687
G1 X24.471 Y48.894 F7800
G1 F1800
G1 X24.471 Y47.948 E.04749
G1 X24.088 Y47.701 E.02287
G1 X24.088 Y48.821 E.05618
G1 X23.705 Y48.821 E.01923
G1 X23.705 Y47.455 E.06856
G1 X23.321 Y47.208 E.02287
G1 X23.321 Y48.821 E.08095
G1 X22.938 Y48.821 E.01923
G1 X22.938 Y46.961 E.09333
G1 X22.555 Y46.714 E.02287
G1 X22.555 Y48.821 E.10571
G1 X22.172 Y48.821 E.01923
G1 X22.172 Y46.468 E.1181
G1 X21.789 Y46.221 E.02287
G1 X21.789 Y48.821 E.13048
G1 X21.405 Y48.821 E.01923
G1 X21.405 Y45.974 E.14286
G1 X21.079 Y45.764 E.01949
G1 X21.022 Y45.66 E.00593
G1 X21.022 Y48.821 E.15862
G1 X20.639 Y48.821 E.01923
G1 X20.639 Y36.184 E.6342
G1 X20.256 Y36.184 E.01923
G1 X20.256 Y48.821 E.6342
G1 X19.873 Y48.821 E.01923
G1 X19.873 Y36.184 E.6342
G1 X19.489 Y36.184 E.01923
G1 X19.489 Y48.821 E.6342
G1 X19.106 Y48.821 E.01923
G1 X19.106 Y36.184 E.6342
G1 X18.723 Y36.184 E.01923
G1 X18.723 Y48.821 E.6342
G1 X18.34 Y48.821 E.01923
G1 X18.34 Y36.184 E.6342
G1 X17.957 Y36.184 E.01923
G1 X17.957 Y48.821 E.6342
G1 X17.573 Y48.821 E.01923
G1 X17.573 Y36.184 E.6342
G1 X17.19 Y36.184 E.01923
G1 X17.19 Y48.821 E.6342
G1 X16.807 Y48.821 E.01923
G1 X16.807 Y36.184 E.6342
G1 X16.424 Y36.184 E.01923
G1 X16.424 Y48.821 E.6342
G1 X16.04 Y48.821 E.01923
G1 X16.04 Y36.028 E.64199
G1 E-.7 F3600
;WIPE_START
G1 F6240
G1 X16.04 Y36.548 E-.285
;WIPE_END
G1 E-.015 F3600
G1 X157.595 Y103.254 F7800
G1 E1 F2400
;TYPE:Perimeter
;WIDTH:0.42
G1 F1800
G1 X157.595 Y122.644 E.97312
G1 X147.731 Y117.208 E.56525
G1 X143.021 Y115.025 E.26051
G1 X38.164 Y54.176 E6.08421
G1 X29.868 Y49.549 E.47672
G1 X22.405 Y44.744 E.44546
G1 X22.405 Y25.723 E.95459
G1 X36.913 Y35.09 E.86667
G1 X66.331 Y51.465 E1.68968
G1 X147.582 Y98.597 E4.71406
G1 X157.459 Y103.19 E.54664
G1 X157.94 Y103.034 F7800
;TYPE:External perimeter
G1 F1800
G1 X157.94 Y123.228 E1.01347
G1 X147.564 Y117.51 E.59455
G1 X142.862 Y115.331 E.2601
G1 X37.991 Y54.475 E6.08501
G1 X29.69 Y49.845 E.47697
G1 X22.06 Y44.932 E.45545
G1 X22.06 Y25.09 E.99581
G1 X37.081 Y34.789 E.89732
G1 X66.502 Y51.165 E1.68984
G1 X147.755 Y98.299 E4.71421
G1 X157.804 Y102.97 E.55612
G1 X157.299 Y103.801 F7800
G1 X156.171 Y102.705
;TYPE:Solid infill
;WIDTH:0.42144
G1 F1800
G1 X157.336 Y103.871 E.08308
G1 X157.336 Y104.361 E.02468
G1 X155.575 Y102.599 E.12553
G1 X154.659 Y102.173 E.05089
G1 X157.336 Y104.851 E.19079
G1 X157.336 Y105.34 E.02468
G1 X153.744 Y101.748 E.25605
G1 X152.828 Y101.322 E.05089
G1 X157.336 Y105.83 E.32131
G1 X157.336 Y106.32 E.02468
G1 X151.912 Y100.896 E.38657
G1 X150.997 Y100.47 E.05089
G1 X157.336 Y106.81 E.45183
G1 X157.336 Y107.299 E.02468
G1 X150.081 Y100.044 E.51709
G1 X149.165 Y99.618 E.05089
G1 X157.336 Y107.789 E.58236
G1 X157.336 Y108.279 E.02468
G1 X148.25 Y99.192 E.64762
G1 X147.456 Y98.823 E.04411
G1 X147.301 Y98.733 E.00906
G1 X157.336 Y108.769 E.71526
G1 X157.336 Y109.259 E.02468
G1 X146.134 Y98.056 E.79839
G1 X144.968 Y97.38 E.06795
G1 X157.336 Y109.748 E.88151
G1 X157.336 Y110.238 E.02468
G1 X143.801 Y96.703 E.96464
G1 X142.635 Y96.026 E.06795
G1 X157.336 Y110.728 E1.04777
G1 X157.336 Y111.218 E.02468
G1 X141.469 Y95.35 E1.1309
G1 X140.302 Y94.673 E.06795
G1 X157.336 Y111.707 E1.21403
G1 X157.336 Y112.197 E.02468
G1 X139.136 Y93.997 E1.29715
G1 X137.969 Y93.32 E.06795
G1 X157.336 Y112.687 E1.38028
G1 X157.336 Y113.177 E.02468
G1 X136.803 Y92.643 E1.46341
G1 X135.637 Y91.967 E.06795
G1 X157.336 Y113.667 E1.54654
G1 X157.336 Y114.156 E.02468
G1 X134.47 Y91.29 E1.62966
G1 X133.304 Y90.614 E.06795
G1 X157.336 Y114.646 E1.71279
G1 X157.336 Y115.136 E.02468
G1 X132.138 Y89.937 E1.79592
G1 X130.971 Y89.261 E.06795
G1 X157.336 Y115.626 E1.87905
G1 X157.336 Y116.116 E.02468
G1 X129.805 Y88.584 E1.96217
G1 X128.638 Y87.907 E.06795
G1 X157.336 Y116.605 E2.0453
G1 X157.336 Y117.095 E.02468
G1 X127.472 Y87.231 E2.12843
G1 X126.306 Y86.554 E.06795
G1 X157.336 Y117.585 E2.21156
G1 X157.336 Y118.075 E.02468
M73 P0 R209
G1 X125.139 Y85.878 E2.29469
G1 X123.973 Y85.201 E.06795
G1 X157.336 Y118.564 E2.37781
G1 X157.336 Y119.054 E.02468
G1 X122.807 Y84.524 E2.46094
G1 X121.64 Y83.848 E.06795
G1 X157.336 Y119.544 E2.54407
G1 X157.336 Y120.034 E.02468
G1 X120.474 Y83.171 E2.6272
G1 X119.307 Y82.495 E.06795
G1 X157.336 Y120.524 E2.71032
G1 X157.336 Y121.013 E.02468
G1 X118.141 Y81.818 E2.79345
G1 X116.975 Y81.141 E.06795
G1 X157.336 Y121.503 E2.87658
G1 X157.336 Y121.993 E.02468
G1 X115.808 Y80.465 E2.95971
G1 X114.642 Y79.788 E.06795
G1 X156.721 Y121.867 E2.99894
G1 X155.63 Y121.266 E.06277
G1 X113.476 Y79.112 E3.00432
G1 X112.309 Y78.435 E.06795
G1 X154.539 Y120.665 E3.00969
G1 X153.448 Y120.063 E.06277
G1 X111.143 Y77.758 E3.01507
G1 X109.976 Y77.082 E.06795
G1 X152.357 Y119.462 E3.02045
G1 X151.266 Y118.861 E.06277
G1 X108.81 Y76.405 E3.02583
G1 X107.644 Y75.729 E.06795
G1 X150.175 Y118.26 E3.0312
G1 X149.084 Y117.659 E.06277
G1 X106.477 Y75.052 E3.03658
G1 X105.311 Y74.375 E.06795
G1 X147.993 Y117.058 E3.04196
G1 X147.057 Y116.611 E.05227
G1 X104.144 Y73.699 E3.05837
G1 X102.978 Y73.022 E.06795
G1 X146.144 Y116.188 E3.0764
G1 X145.23 Y115.764 E.05074
G1 X101.812 Y72.346 E3.09443
G1 X100.645 Y71.669 E.06795
G1 X144.317 Y115.341 E3.11247
G1 X143.404 Y114.917 E.05074
G1 X99.479 Y70.992 E3.1305
G1 X98.313 Y70.316 E.06795
G1 X142.31 Y114.313 E3.13567
G1 X141.143 Y113.636 E.06799
G1 X97.146 Y69.639 E3.13562
G1 X95.98 Y68.963 E.06795
G1 X139.976 Y112.958 E3.13558
G1 X138.809 Y112.281 E.06799
G1 X94.813 Y68.286 E3.13554
G1 X93.647 Y67.609 E.06795
G1 X137.642 Y111.604 E3.1355
G1 X136.475 Y110.927 E.06799
G1 X92.481 Y66.933 E3.13545
M73 P1 R209
G1 X91.314 Y66.256 E.06795
G1 X135.308 Y110.25 E3.13541
G1 X134.141 Y109.573 E.06799
M73 P1 R208
G1 X90.148 Y65.58 E3.13537
G1 X88.982 Y64.903 E.06795
G1 X132.974 Y108.895 E3.13533
G1 X131.807 Y108.218 E.06799
G1 X87.815 Y64.226 E3.13528
G1 X86.649 Y63.55 E.06795
G1 X130.64 Y107.541 E3.13524
G1 X129.473 Y106.864 E.06799
G1 X85.482 Y62.873 E3.1352
G1 X84.316 Y62.197 E.06795
G1 X128.306 Y106.187 E3.13516
G1 X127.139 Y105.509 E.06799
G1 X83.15 Y61.52 E3.13511
G1 X81.983 Y60.843 E.06795
G1 X125.972 Y104.832 E3.13507
G1 X124.805 Y104.155 E.06799
G1 X80.817 Y60.167 E3.13503
G1 X79.651 Y59.49 E.06795
G1 X123.638 Y103.478 E3.13499
G1 X122.471 Y102.801 E.06799
G1 X78.484 Y58.814 E3.13494
G1 X77.318 Y58.137 E.06795
G1 X121.304 Y102.123 E3.1349
G1 X120.137 Y101.446 E.06799
G1 X76.151 Y57.46 E3.13486
G1 X74.985 Y56.784 E.06795
G1 X118.97 Y100.769 E3.13482
G1 X117.803 Y100.092 E.06799
G1 X73.819 Y56.107 E3.13478
G1 X72.652 Y55.431 E.06795
G1 X116.636 Y99.415 E3.13473
G1 X115.469 Y98.737 E.06799
G1 X71.486 Y54.754 E3.13469
G1 X70.319 Y54.077 E.06795
G1 X114.302 Y98.06 E3.13465
G1 X113.135 Y97.383 E.06799
G1 X69.153 Y53.401 E3.13461
G1 X67.987 Y52.724 E.06795
G1 X111.968 Y96.706 E3.13456
G1 X110.801 Y96.029 E.06799
G1 X66.82 Y52.048 E3.13452
G1 X65.683 Y51.4 E.06595
G1 X109.634 Y95.352 E3.13241
G1 X108.467 Y94.674 E.06799
G1 X64.578 Y50.785 E3.12796
G1 X63.474 Y50.171 E.06371
G1 X107.3 Y93.997 E3.12352
G1 X106.133 Y93.32 E.06799
G1 X62.369 Y49.556 E3.11908
G1 X61.265 Y48.941 E.06371
G1 X104.966 Y92.643 E3.11463
G1 X103.8 Y91.966 E.06799
G1 X60.16 Y48.326 E3.11019
G1 X59.055 Y47.711 E.06371
G1 X102.633 Y91.288 E3.10574
G1 X101.466 Y90.611 E.06799
M73 P1 R207
G1 X57.951 Y47.096 E3.1013
G1 X56.846 Y46.481 E.06371
G1 X100.299 Y89.934 E3.09686
G1 X99.132 Y89.257 E.06799
G1 X55.741 Y45.867 E3.09241
G1 X54.637 Y45.252 E.06371
G1 X97.965 Y88.58 E3.08797
G1 X96.798 Y87.902 E.06799
G1 X53.532 Y44.637 E3.08353
G1 X52.428 Y44.022 E.06371
G1 X95.631 Y87.225 E3.07908
G1 X94.464 Y86.548 E.06799
G1 X51.323 Y43.407 E3.07464
G1 X50.218 Y42.792 E.06371
G1 X93.297 Y85.871 E3.0702
G1 X92.13 Y85.194 E.06799
G1 X49.114 Y42.178 E3.06575
G1 X48.009 Y41.563 E.06371
G1 X90.963 Y84.516 E3.06131
G1 X89.796 Y83.839 E.06799
G1 X46.904 Y40.948 E3.05687
G1 X45.8 Y40.333 E.06371
G1 X88.629 Y83.162 E3.05242
G1 X87.462 Y82.485 E.06799
G1 X44.695 Y39.718 E3.04798
G1 X43.59 Y39.103 E.06371
G1 X86.295 Y81.808 E3.04354
G1 X85.128 Y81.131 E.06799
G1 X42.486 Y38.488 E3.03909
G1 X41.381 Y37.874 E.06371
G1 X83.961 Y80.453 E3.03465
G1 X82.794 Y79.776 E.06799
G1 X40.277 Y37.259 E3.03021
G1 X39.172 Y36.644 E.06371
G1 X81.627 Y79.099 E3.02576
G1 X80.46 Y78.422 E.06799
G1 X38.067 Y36.029 E3.02132
G1 X36.963 Y35.414 E.06371
G1 X79.293 Y77.745 E3.01688
G1 X78.126 Y77.067 E.06799
G1 X35.628 Y34.569 E3.02887
G1 X34.247 Y33.678 E.08278
G1 X76.959 Y76.39 E3.04407
G1 X75.792 Y75.713 E.06799
G1 X32.865 Y32.785 E3.05944
G1 X31.482 Y31.893 E.08295
G1 X74.625 Y75.036 E3.07481
G1 X73.458 Y74.359 E.06799
G1 X30.099 Y31 E3.09019
G1 X28.717 Y30.107 E.08295
G1 X72.291 Y73.681 E3.10556
G1 X71.124 Y73.004 E.06799
G1 X27.334 Y29.214 E3.12093
G1 X25.951 Y28.321 E.08295
G1 X69.957 Y72.327 E3.1363
G1 X68.79 Y71.65 E.06799
G1 X24.569 Y27.428 E3.15168
G1 X23.186 Y26.535 E.08295
M73 P1 R206
G1 X67.623 Y70.973 E3.16705
G1 X66.456 Y70.295 E.06799
M73 P2 R206
G1 X22.664 Y26.503 E3.12111
G1 X22.664 Y26.992 E.02468
G1 X65.289 Y69.618 E3.03794
G1 X64.122 Y68.941 E.06799
G1 X22.664 Y27.482 E2.95477
G1 X22.664 Y27.972 E.02468
G1 X62.955 Y68.264 E2.8716
G1 X61.788 Y67.587 E.06799
G1 X22.664 Y28.462 E2.78842
G1 X22.664 Y28.952 E.02468
G1 X60.621 Y66.91 E2.70525
G1 X59.454 Y66.232 E.06799
G1 X22.664 Y29.441 E2.62208
G1 X22.664 Y29.931 E.02468
G1 X58.288 Y65.555 E2.53891
G1 X57.121 Y64.878 E.06799
G1 X22.664 Y30.421 E2.45574
G1 X22.664 Y30.911 E.02468
G1 X55.954 Y64.201 E2.37257
G1 X54.787 Y63.524 E.06799
G1 X22.664 Y31.401 E2.2894
G1 X22.664 Y31.89 E.02468
G1 X53.62 Y62.846 E2.20623
G1 X52.453 Y62.169 E.06799
G1 X22.664 Y32.38 E2.12306
G1 X22.664 Y32.87 E.02468
G1 X51.286 Y61.492 E2.03989
G1 X50.119 Y60.815 E.06799
G1 X22.664 Y33.36 E1.95672
G1 X22.664 Y33.849 E.02468
G1 X48.952 Y60.138 E1.87355
G1 X47.785 Y59.46 E.06799
G1 X22.664 Y34.339 E1.79038
G1 X22.664 Y34.829 E.02468
G1 X46.618 Y58.783 E1.70721
G1 X45.451 Y58.106 E.06799
G1 X22.664 Y35.319 E1.62404
G1 X22.664 Y35.809 E.02468
G1 X44.284 Y57.429 E1.54087
G1 X43.117 Y56.752 E.06799
G1 X22.664 Y36.298 E1.4577
G1 X22.664 Y36.788 E.02468
G1 X41.95 Y56.074 E1.37453
G1 X40.783 Y55.397 E.06799
G1 X22.664 Y37.278 E1.29136
G1 X22.664 Y37.768 E.02468
G1 X39.616 Y54.72 E1.20819
G1 X38.449 Y54.043 E.06799
G1 X22.664 Y38.257 E1.12502
G1 X22.664 Y38.747 E.02468
G1 X37.334 Y53.417 E1.04553
G1 X36.226 Y52.8 E.06391
G1 X22.664 Y39.237 E.9666
G1 X22.664 Y39.727 E.02468
G1 X35.119 Y52.182 E.88766
G1 X34.011 Y51.564 E.06391
G1 X22.664 Y40.217 E.80873
G1 X22.664 Y40.706 E.02468
G1 X32.904 Y50.946 E.7298
G1 X31.796 Y50.329 E.06391
G1 X22.664 Y41.196 E.65087
G1 X22.664 Y41.686 E.02468
G1 X30.689 Y49.711 E.57194
G1 X30.001 Y49.328 E.03967
G1 X29.48 Y48.992 E.03126
G1 X22.664 Y42.176 E.48577
G1 X22.664 Y42.666 E.02468
G1 X28.104 Y48.106 E.38775
G1 X26.729 Y47.221 E.08244
G1 X22.664 Y43.155 E.28973
G1 X22.664 Y43.645 E.02468
G1 X25.353 Y46.335 E.19171
G1 X23.978 Y45.449 E.08244
G1 X22.508 Y43.98 E.10475
M106 S255
;LAYER_CHANGE
;Z:0.85
;HEIGHT:0.5
;BEFORE_LAYER_CHANGE
G92 E0
;0.85


G1 E-.7 F3600
;WIPE_START
G1 F6240
G1 X22.876 Y44.347 E-.285
;WIPE_END
G1 E-.015 F3600
G1 Z.85 F7800
;AFTER_LAYER_CHANGE
;0.85
M104 S205 ; set temperature
G1 X156.757 Y104.102
G1 E1 F2400
;TYPE:Perimeter
;WIDTH:1
G1 F2016.357
G1 X156.757 Y121.591 E3.24544
G1 X147.543 Y116.514 E1.95225
G1 X143.414 Y114.597 E.84481
G1 X37.601 Y53.194 E22.70242
G1 X30.227 Y49.081 E1.56677
G1 X23.243 Y44.584 E1.54162
G1 X23.243 Y27.561 E3.159
G1 X36.44 Y36.08 E2.91491
G1 X64.935 Y51.936 E6.05143
G1 X147.185 Y99.65 E17.64546
G1 X156.621 Y104.039 E1.93125
G1 X157.65 Y103.533 F7800
;TYPE:External perimeter
G1 F1800
G1 X157.65 Y123.102 E3.63158
G1 X147.112 Y117.296 E2.23268
G1 X143.002 Y115.39 E.84088
G1 X37.153 Y53.966 E22.71004
G1 X29.768 Y49.847 E1.56919
M73 P2 R205
G1 X22.35 Y45.071 E1.63723
G1 X22.35 Y25.922 E3.55353
G1 X36.874 Y35.3 E3.20822
G1 X65.376 Y51.16 E6.05291
G1 X147.633 Y98.878 E17.64694
G1 X157.514 Y103.469 E2.02193
G1 X157.009 Y104.3 F7800
G1 E-.7 F3600
;WIPE_START
G1 F6240
G1 X157.518 Y103.989 E-.285
;WIPE_END
G1 E-.015 F3600
G1 X156.49 Y119.362 F7800
G1 E1 F2400
;TYPE:Solid infill
;WIDTH:1.0013
G1 F1200
G1 X155.64 Y120.211 E.22328
G1 X154.825 Y119.762 E.17296
G1 X156.088 Y118.499 E.33193
G1 X156.088 Y117.235 E.23496
G1 X154.01 Y119.313 E.54616
G1 X153.195 Y118.864 E.17296
G1 X156.088 Y115.97 E.7604
G1 X156.088 Y114.706 E.23496
G1 X152.379 Y118.414 E.97463
G1 X151.564 Y117.965 E.17296
G1 X156.088 Y113.442 E1.18886
G1 X156.088 Y112.177 E.23496
G1 X150.749 Y117.516 E1.4031
G1 X149.934 Y117.067 E.17296
G1 X156.088 Y110.913 E1.61733
G1 X156.088 Y109.649 E.23496
G1 X149.119 Y116.618 E1.83156
G1 X148.304 Y116.169 E.17296
G1 X156.088 Y108.385 E2.0458
G1 X156.088 Y107.12 E.23496
G1 X147.467 Y115.741 E2.26579
G1 X146.603 Y115.34 E.1769
G1 X156.088 Y105.856 E2.49268
G1 X156.088 Y104.592 E.23496
G1 X145.74 Y114.939 E2.71957
G1 X144.877 Y114.538 E.1769
G1 X155.267 Y104.148 E2.73087
G1 X154.405 Y103.746 E.17685
G1 X144.013 Y114.137 E2.73101
G1 X143.724 Y114.003 E.0594
G1 X143.192 Y113.694 E.11418
G1 X153.542 Y103.345 E2.7201
G1 X152.679 Y102.943 E.17685
G1 X142.392 Y113.23 E2.70361
G1 X141.592 Y112.766 E.1719
G1 X151.816 Y102.542 E2.68711
G1 X150.954 Y102.14 E.17685
G1 X140.792 Y112.301 E2.67062
G1 X139.992 Y111.837 E.1719
G1 X150.091 Y101.739 E2.65413
G1 X149.228 Y101.337 E.17685
G1 X139.192 Y111.373 E2.63764
G1 X138.392 Y110.909 E.1719
G1 X148.365 Y100.935 E2.62115
G1 X147.502 Y100.534 E.17685
G1 X137.592 Y110.444 E2.60466
G1 X136.792 Y109.98 E.1719
G1 X146.655 Y100.117 E2.59233
G1 X145.855 Y99.652 E.17191
G1 X135.992 Y109.516 E2.5923
G1 X135.192 Y109.052 E.1719
G1 X145.055 Y99.188 E2.59228
G1 X144.255 Y98.724 E.17191
G1 X134.392 Y108.587 E2.59225
G1 X133.592 Y108.123 E.1719
G1 X143.455 Y98.26 E2.59223
G1 X142.655 Y97.796 E.17191
G1 X132.792 Y107.659 E2.5922
G1 X131.992 Y107.195 E.1719
G1 X141.855 Y97.332 E2.59218
G1 X141.054 Y96.867 E.17191
G1 X131.192 Y106.73 E2.59215
G1 X130.391 Y106.266 E.1719
G1 X140.254 Y96.403 E2.59213
G1 X139.454 Y95.939 E.17191
G1 X129.591 Y105.802 E2.5921
G1 X128.791 Y105.338 E.1719
G1 X138.654 Y95.475 E2.59208
G1 X137.854 Y95.011 E.17191
G1 X127.991 Y104.873 E2.59205
G1 X127.191 Y104.409 E.1719
G1 X137.054 Y94.547 E2.59203
G1 X136.254 Y94.082 E.17191
G1 X126.391 Y103.945 E2.592
G1 X125.591 Y103.48 E.1719
G1 X135.453 Y93.618 E2.59198
G1 X134.653 Y93.154 E.17191
G1 X124.791 Y103.016 E2.59195
G1 X123.991 Y102.552 E.1719
G1 X133.853 Y92.69 E2.59193
G1 X133.053 Y92.226 E.17191
G1 X123.191 Y102.088 E2.5919
G1 X122.391 Y101.623 E.1719
G1 X132.253 Y91.762 E2.59188
G1 X131.453 Y91.297 E.17191
G1 X121.591 Y101.159 E2.59185
G1 X120.791 Y100.695 E.1719
