; generated by PrusaSlicer 2.5.0+win64 on 2022-12-07 at 00:02:56 UTC

; 

; external perimeters extrusion width = 1.00mm
; perimeters extrusion width = 1.00mm
; infill extrusion width = 1.00mm
; solid infill extrusion width = 1.00mm
; top infill extrusion width = 1.00mm
; support material extrusion width = 1.00mm
; first layer extrusion width = 0.42mm

M73 P0 R163
M107
;TYPE:Custom
G90 ; use absolute coordinates
M83 ; extruder relative mode
M140 S60 ; set final bed temp
M104 S150 ; set temporary nozzle temp to prevent oozing during homing and auto bed leveling
G4 S10 ; allow partial nozzle warmup
G28 ; home all axisG1 Z50 F240
G1 X7.6 Y10 F3000
M104 S210 ; set final nozzle temp
M190 S60 ; wait for bed temp to stabilize
M109 S210 ; wait for nozzle temp to stabilize
G1 Z0.28 F240
G92 E0
G1 Y140 E10 F1500 ; prime the nozzle
G1 X4 F5000
G92 E0
G1 Y10 E10 F1200 ; prime the nozzle
G92 E0
G21 ; set units to millimeters
G90 ; use absolute coordinates
M83 ; use relative distances for extrusion
; Filament gcode
M107
;LAYER_CHANGE
;Z:0.35
;HEIGHT:0.35
;BEFORE_LAYER_CHANGE
G92 E0
;0.35


G1 E-1 F3600
G1 Z.35 F7800
;AFTER_LAYER_CHANGE
;0.35
G1 X165.558 Y101.344
G1 E1 F2400
;TYPE:Perimeter
;WIDTH:0.42
M73 P0 R162
G1 F1800
G1 X165.558 Y116.825 E.77696
G1 X151.167 Y109.111 E.81946
G1 X59.627 Y81.201 E4.80281
G1 X14.442 Y76.658 E2.27907
G1 X14.442 Y62.881 E.69143
G1 X18.808 Y63.3 E.22012
G1 X20.219 Y63.456 E.07127
G1 X33.766 Y64.812 E.68323
G1 X36.155 Y65.033 E.12042
G1 X41.832 Y65.623 E.28642
G1 X48.076 Y66.214 E.31479
G1 X53.435 Y66.773 E.27037
G1 X53.895 Y66.835 E.0233
G1 X58.463 Y67.291 E.23042
G1 X58.999 Y67.317 E.0269
G1 X59.034 Y67.366 E.00304
G1 X59.119 Y67.389 E.00441
G1 X63.618 Y68.166 E.22912
G1 X68.192 Y69.465 E.23867
G1 X68.604 Y69.539 E.02097
G1 X73.546 Y71.021 E.25892
G1 X85.955 Y74.84 E.6516
G1 X98.485 Y78.62 E.65682
G1 X103.473 Y80.164 E.26205
G1 X108.454 Y81.662 E.26104
G1 X112.245 Y82.851 E.1994
G1 X118.435 Y84.716 E.32443
G1 X123.411 Y86.26 E.26149
G1 X132.552 Y88.981 E.47864
G1 X138.385 Y90.816 E.30687
G1 X143.361 Y92.276 E.26027
G1 X148.351 Y93.848 E.26254
G1 X152.891 Y95.201 E.23776
G1 X153.43 Y95.378 E.02843
G1 X158.123 Y97.462 E.25775
G1 X158.283 Y97.51 E.00835
G1 X165.425 Y101.274 E.40517
G1 X165.903 Y101.135 F7800
;TYPE:External perimeter
G1 F1800
G1 X165.903 Y117.402 E.81634
G1 X151.066 Y109.44 E.84501
G1 X59.592 Y81.544 E4.79944
G1 X14.097 Y76.97 E2.29473
G1 X14.097 Y62.501 E.72614
G1 X18.843 Y62.957 E.2393
G1 X20.257 Y63.113 E.07139
G1 X33.8 Y64.469 E.68305
G1 X36.189 Y64.69 E.12039
G1 X41.867 Y65.28 E.28651
G1 X48.11 Y65.871 E.31471
G1 X53.47 Y66.429 E.27045
G1 X53.929 Y66.492 E.02324
G1 X58.498 Y66.948 E.23041
G1 X59.1 Y66.972 E.03026
G1 X59.178 Y67.049 E.00547
G1 X63.694 Y67.829 E.23003
G1 X68.287 Y69.133 E.23958
G1 X68.683 Y69.202 E.02018
G1 X73.646 Y70.691 E.26003
G1 X86.056 Y74.51 E.65166
G1 X98.586 Y78.29 E.65679
G1 X103.575 Y79.834 E.26211
G1 X108.555 Y81.332 E.261
G1 X112.348 Y82.522 E.1995
G1 X118.536 Y84.386 E.32431
G1 X123.511 Y85.93 E.26144
G1 X132.653 Y88.651 E.4787
G1 X138.486 Y90.486 E.30686
G1 X143.462 Y91.946 E.26026
G1 X148.45 Y93.518 E.26247
G1 X152.99 Y94.871 E.23773
G1 X153.57 Y95.063 E.03065
G1 X158.263 Y97.147 E.25775
G1 X158.407 Y97.186 E.00748
G1 X165.77 Y101.066 E.41767
G1 X165.271 Y101.91 F7800
G1 X165.455 Y102.112
;TYPE:Solid infill
;WIDTH:0.420794
G1 F1800
G1 X164.334 Y100.991 E.07973
G1 X163.301 Y100.447 E.05874
G1 X165.299 Y102.445 E.14219
G1 X165.299 Y102.934 E.02459
G1 X162.267 Y99.902 E.21569
G1 X161.234 Y99.358 E.05874
G1 X165.299 Y103.423 E.28919
G1 X165.299 Y103.912 E.02459
G1 X160.201 Y98.814 E.36269
G1 X159.168 Y98.269 E.05874
G1 X165.299 Y104.401 E.43619
G1 X165.299 Y104.89 E.02459
G1 X158.151 Y97.741 E.50853
G1 X158.023 Y97.701 E.00675
G1 X157.3 Y97.379 E.03982
G1 X165.299 Y105.379 E.56908
G1 X165.299 Y105.867 E.02459
G1 X156.418 Y96.986 E.63177
G1 X155.537 Y96.594 E.04852
G1 X165.299 Y106.356 E.69446
G1 X165.299 Y106.845 E.02459
G1 X154.656 Y96.202 E.75714
G1 X153.775 Y95.809 E.04852
G1 X165.299 Y107.334 E.81983
G1 X165.299 Y107.823 E.02459
G1 X152.971 Y95.495 E.87699
G1 X152.275 Y95.287 E.03655
G1 X165.299 Y108.312 E.92653
G1 X165.299 Y108.801 E.02459
G1 X151.579 Y95.08 E.97606
G1 X150.882 Y94.872 E.03655
G1 X165.299 Y109.29 E1.0256
G1 X165.299 Y109.778 E.02459
G1 X150.186 Y94.665 E1.07514
G1 X149.489 Y94.457 E.03655
G1 X165.299 Y110.267 E1.12467
G1 X165.299 Y110.756 E.02459
G1 X148.793 Y94.25 E1.17421
G1 X148.092 Y94.038 E.03683
G1 X165.299 Y111.245 E1.22406
G1 X165.299 Y111.734 E.02459
G1 X147.379 Y93.813 E1.27483
G1 X146.665 Y93.588 E.03764
G1 X165.299 Y112.223 E1.3256
G1 X165.299 Y112.712 E.02459
G1 X145.951 Y93.363 E1.37638
G1 X145.237 Y93.139 E.03764
G1 X165.299 Y113.201 E1.42715
G1 X165.299 Y113.689 E.02459
G1 X144.524 Y92.914 E1.47792
G1 X143.81 Y92.689 E.03764
G1 X165.299 Y114.178 E1.52869
G1 X165.299 Y114.667 E.02459
G1 X143.102 Y92.47 E1.57905
G1 X142.41 Y92.267 E.03627
G1 X165.299 Y115.156 E1.62826
G1 X165.299 Y115.645 E.02459
G1 X141.718 Y92.064 E1.67748
G1 X141.027 Y91.861 E.03627
G1 X165.299 Y116.134 E1.7267
G1 X165.299 Y116.393 E.01303
G1 X164.803 Y116.126 E.02834
G1 X140.335 Y91.658 E1.74061
G1 X139.643 Y91.455 E.03627
G1 X163.748 Y115.56 E1.71474
G1 X162.692 Y114.993 E.06026
G1 X138.951 Y91.252 E1.68887
G1 X138.257 Y91.047 E.03637
G1 X161.637 Y114.426 E1.66311
G1 X160.581 Y113.86 E.06026
G1 X137.544 Y90.823 E1.63877
G1 X136.831 Y90.598 E.03762
G1 X159.525 Y113.293 E1.61442
G1 X158.47 Y112.726 E.06026
G1 X136.118 Y90.374 E1.59008
G1 X135.404 Y90.149 E.03762
G1 X157.414 Y112.16 E1.56574
G1 X156.359 Y111.593 E.06026
G1 X134.691 Y89.925 E1.54139
G1 X133.978 Y89.7 E.03762
G1 X155.303 Y111.026 E1.51705
G1 X154.248 Y110.46 E.06026
G1 X133.264 Y89.476 E1.49271
G1 X132.551 Y89.252 E.03762
G1 X153.192 Y109.893 E1.46836
G1 X152.137 Y109.326 E.06026
G1 X131.853 Y89.043 E1.44291
G1 X131.157 Y88.835 E.03653
G1 X151.159 Y108.838 E1.42291
G1 X150.456 Y108.623 E.03699
M73 P0 R161
G1 X130.461 Y88.628 E1.42238
G1 X129.765 Y88.421 E.03653
G1 X149.753 Y108.409 E1.42185
G1 X149.049 Y108.194 E.03699
G1 X129.069 Y88.214 E1.42133
G1 X128.373 Y88.007 E.03653
G1 X148.346 Y107.98 E1.4208
G1 X147.642 Y107.765 E.03699
G1 X127.677 Y87.8 E1.42027
G1 X126.981 Y87.593 E.03653
G1 X146.939 Y107.551 E1.41975
G1 X146.235 Y107.336 E.03699
G1 X126.285 Y87.385 E1.41922
G1 X125.589 Y87.178 E.03653
G1 X145.532 Y107.121 E1.41869
G1 X144.829 Y106.907 E.03699
G1 X124.893 Y86.971 E1.41817
G1 X124.197 Y86.764 E.03653
G1 X144.125 Y106.692 E1.41764
G1 X143.422 Y106.478 E.03699
G1 X123.501 Y86.557 E1.41712
G1 X122.795 Y86.34 E.03714
G1 X142.718 Y106.263 E1.41728
G1 X142.015 Y106.049 E.03699
G1 X122.086 Y86.12 E1.41767
G1 X121.377 Y85.9 E.03733
G1 X141.312 Y105.834 E1.41805
G1 X140.608 Y105.62 E.03699
G1 X120.669 Y85.68 E1.41844
G1 X119.96 Y85.46 E.03733
G1 X139.905 Y105.405 E1.41882
G1 X139.201 Y105.191 E.03699
G1 X119.251 Y85.24 E1.41921
G1 X118.542 Y85.02 E.03733
G1 X138.498 Y104.976 E1.41959
G1 X137.794 Y104.761 E.03699
G1 X117.84 Y84.807 E1.41949
G1 X117.14 Y84.596 E.03676
G1 X137.091 Y104.547 E1.41923
G1 X136.388 Y104.332 E.03699
G1 X116.441 Y84.385 E1.41896
G1 X115.741 Y84.175 E.03676
G1 X135.684 Y104.118 E1.41869
G1 X134.981 Y103.903 E.03699
G1 X115.041 Y83.964 E1.41843
G1 X114.342 Y83.753 E.03676
G1 X134.277 Y103.689 E1.41816
G1 X133.574 Y103.474 E.03699
M73 P1 R161
G1 X113.642 Y83.542 E1.41789
G1 X112.942 Y83.331 E.03676
G1 X132.871 Y103.26 E1.41763
G1 X132.167 Y103.045 E.03699
G1 X112.243 Y83.121 E1.41736
G1 X111.532 Y82.898 E.03747
G1 X131.464 Y102.831 E1.4179
G1 X130.76 Y102.616 E.03699
G1 X110.819 Y82.675 E1.41854
G1 X110.107 Y82.452 E.03755
G1 X130.057 Y102.401 E1.41917
G1 X129.353 Y102.187 E.03699
G1 X109.395 Y82.228 E1.4198
G1 X108.682 Y82.005 E.03755
G1 X128.65 Y101.972 E1.42043
G1 X127.947 Y101.758 E.03699
G1 X107.978 Y81.789 E1.42053
G1 X107.278 Y81.578 E.03673
G1 X127.243 Y101.543 E1.42023
G1 X126.54 Y101.329 E.03699
G1 X106.579 Y81.368 E1.41993
G1 X105.88 Y81.158 E.03673
G1 X125.836 Y101.114 E1.41963
G1 X125.133 Y100.9 E.03699
G1 X105.181 Y80.947 E1.41933
G1 X104.482 Y80.737 E.03673
G1 X124.43 Y100.685 E1.41903
G1 X123.726 Y100.471 E.03699
G1 X103.782 Y80.527 E1.41874
G1 X103.079 Y80.313 E.03698
G1 X123.023 Y100.256 E1.41872
G1 X122.319 Y100.041 E.03699
G1 X102.371 Y80.093 E1.41904
G1 X101.663 Y79.874 E.03727
G1 X121.616 Y99.827 E1.41936
G1 X120.912 Y99.612 E.03699
G1 X100.956 Y79.655 E1.41968
G1 X100.248 Y79.436 E.03727
G1 X120.209 Y99.398 E1.42
G1 X119.506 Y99.183 E.03699
G1 X99.54 Y79.217 E1.42032
G1 X98.832 Y78.998 E.03727
G1 X118.802 Y98.969 E1.42064
G1 X118.099 Y98.754 E.03699
G1 X98.127 Y78.782 E1.42073
G1 X97.427 Y78.571 E.03678
G1 X117.395 Y98.54 E1.42049
G1 X116.692 Y98.325 E.03699
G1 X96.727 Y78.36 E1.42026
G1 X96.027 Y78.149 E.03678
G1 X115.989 Y98.11 E1.42002
G1 X115.285 Y97.896 E.03699
G1 X95.327 Y77.938 E1.41978
G1 X94.627 Y77.726 E.03678
G1 X114.582 Y97.681 E1.41954
G1 X113.878 Y97.467 E.03699
G1 X93.927 Y77.515 E1.41931
G1 X93.227 Y77.304 E.03678
G1 X113.175 Y97.252 E1.41907
G1 X112.472 Y97.038 E.03699
G1 X92.526 Y77.093 E1.41883
G1 X91.826 Y76.882 E.03678
G1 X111.768 Y96.823 E1.41859
G1 X111.065 Y96.609 E.03699
G1 X91.126 Y76.67 E1.41835
G1 X90.426 Y76.459 E.03678
G1 X110.361 Y96.394 E1.41812
G1 X109.658 Y96.18 E.03699
G1 X89.726 Y76.248 E1.41788
G1 X89.026 Y76.037 E.03678
G1 X108.954 Y95.965 E1.41764
G1 X108.251 Y95.75 E.03699
M73 P1 R160
G1 X88.326 Y75.825 E1.4174
G1 X87.626 Y75.614 E.03678
G1 X107.548 Y95.536 E1.41717
G1 X106.844 Y95.321 E.03699
G1 X86.926 Y75.403 E1.41693
G1 X86.226 Y75.192 E.03678
G1 X106.141 Y95.107 E1.41669
G1 X105.437 Y94.892 E.03699
G1 X85.523 Y74.978 E1.41668
G1 X84.816 Y74.76 E.03717
G1 X104.734 Y94.678 E1.41688
G1 X104.031 Y94.463 E.03699
G1 X84.11 Y74.543 E1.41708
G1 X83.404 Y74.325 E.03717
G1 X103.327 Y94.249 E1.41728
G1 X102.624 Y94.034 E.03699
G1 X82.698 Y74.108 E1.41748
G1 X81.991 Y73.891 E.03717
G1 X101.92 Y93.82 E1.41768
G1 X101.217 Y93.605 E.03699
G1 X81.285 Y73.673 E1.41788
G1 X80.579 Y73.456 E.03717
G1 X100.513 Y93.39 E1.41808
G1 X99.81 Y93.176 E.03699
G1 X79.873 Y73.239 E1.41829
G1 X79.166 Y73.021 E.03717
G1 X99.107 Y92.961 E1.41849
G1 X98.403 Y92.747 E.03699
G1 X78.46 Y72.804 E1.41869
G1 X77.754 Y72.586 E.03717
G1 X97.7 Y92.532 E1.41889
G1 X96.996 Y92.318 E.03699
G1 X77.048 Y72.369 E1.41909
G1 X76.341 Y72.152 E.03717
G1 X96.293 Y92.103 E1.41929
G1 X95.59 Y91.889 E.03699
G1 X75.635 Y71.934 E1.41949
G1 X74.929 Y71.717 E.03717
G1 X94.886 Y91.674 E1.41969
G1 X94.183 Y91.46 E.03699
G1 X74.223 Y71.5 E1.4199
G1 X73.516 Y71.282 E.03717
G1 X93.479 Y91.245 E1.4201
G1 X92.776 Y91.03 E.03699
G1 X72.818 Y71.072 E1.41977
G1 X72.119 Y70.863 E.03667
G1 X92.072 Y90.816 E1.4194
G1 X91.369 Y90.601 E.03699
G1 X71.421 Y70.653 E1.41903
G1 X70.723 Y70.444 E.03667
G1 X90.666 Y90.387 E1.41867
G1 X89.962 Y90.172 E.03699
G1 X70.025 Y70.235 E1.4183
G1 X69.326 Y70.025 E.03667
G1 X89.259 Y89.958 E1.41793
G1 X88.555 Y89.743 E.03699
G1 X68.628 Y69.816 E1.41757
G1 X68.003 Y69.68 E.03216
G1 X87.852 Y89.529 E1.41197
G1 X87.149 Y89.314 E.03699
G1 X67.321 Y69.486 E1.4105
G1 X66.638 Y69.292 E.0357
G1 X86.445 Y89.1 E1.40903
G1 X85.742 Y88.885 E.03699
G1 X65.955 Y69.098 E1.40756
G1 X65.272 Y68.905 E.0357
G1 X85.038 Y88.67 E1.40609
G1 X84.335 Y88.456 E.03699
G1 X64.59 Y68.711 E1.40462
G1 X63.907 Y68.517 E.0357
G1 X83.631 Y88.241 E1.40315
G1 X82.928 Y88.027 E.03699
G1 X63.269 Y68.368 E1.39847
G1 X62.678 Y68.266 E.03017
G1 X82.225 Y87.812 E1.39047
G1 X81.521 Y87.598 E.03699
G1 X62.087 Y68.164 E1.38247
G1 X61.496 Y68.062 E.03017
G1 X80.818 Y87.383 E1.37447
G1 X80.114 Y87.169 E.03699
G1 X60.905 Y67.96 E1.36647
G1 X60.314 Y67.858 E.03017
G1 X79.411 Y86.954 E1.35847
G1 X78.708 Y86.74 E.03699
G1 X59.723 Y67.755 E1.35047
G1 X59.133 Y67.653 E.03017
G1 X78.004 Y86.525 E1.34247
G1 X77.301 Y86.31 E.03699
G1 X58.55 Y67.56 E1.33387
G1 X58.007 Y67.505 E.02745
G1 X76.597 Y86.096 E1.32247
G1 X75.894 Y85.881 E.03699
G1 X57.464 Y67.451 E1.31106
G1 X56.921 Y67.397 E.02745
G1 X75.19 Y85.667 E1.29966
G1 X74.487 Y85.452 E.03699
G1 X56.378 Y67.343 E1.28825
G1 X55.835 Y67.289 E.02745
G1 X73.784 Y85.238 E1.27685
G1 X73.08 Y85.023 E.03699
G1 X55.291 Y67.234 E1.26544
G1 X54.748 Y67.18 E.02745
G1 X72.377 Y84.809 E1.25404
G1 X71.673 Y84.594 E.03699
G1 X54.205 Y67.126 E1.24263
G1 X53.644 Y67.053 E.02849
G1 X70.97 Y84.38 E1.23255
G1 X70.267 Y84.165 E.03699
G1 X53.098 Y66.996 E1.22132
G1 X52.552 Y66.94 E.02759
G1 X69.563 Y83.95 E1.21009
G1 X68.86 Y83.736 E.03699
G1 X52.007 Y66.883 E1.19887
G1 X51.461 Y66.826 E.02759
G1 X68.156 Y83.521 E1.18764
G1 X67.453 Y83.307 E.03699
G1 X50.916 Y66.77 E1.17641
G1 X50.37 Y66.713 E.02759
G1 X66.749 Y83.092 E1.16518
G1 X66.046 Y82.878 E.03699
G1 X49.824 Y66.656 E1.15396
G1 X49.279 Y66.599 E.02759
G1 X65.343 Y82.663 E1.14273
G1 X64.639 Y82.449 E.03699
M73 P1 R159
G1 X48.733 Y66.543 E1.1315
G1 X48.188 Y66.486 E.02759
G1 X63.936 Y82.234 E1.12027
G1 X63.232 Y82.02 E.03699
G1 X47.646 Y66.433 E1.10875
G1 X47.106 Y66.382 E.02728
M73 P2 R159
G1 X62.529 Y81.805 E1.09712
G1 X61.826 Y81.59 E.03699
G1 X46.566 Y66.331 E1.08549
G1 X46.026 Y66.28 E.02728
G1 X61.122 Y81.376 E1.07387
G1 X60.419 Y81.161 E.03699
G1 X45.486 Y66.229 E1.06224
G1 X44.946 Y66.178 E.02728
G1 X59.726 Y80.958 E1.05137
G1 X59.175 Y80.895 E.0279
G1 X44.406 Y66.127 E1.05057
G1 X43.867 Y66.076 E.02728
G1 X58.631 Y80.841 E1.05032
G1 X58.088 Y80.786 E.02748
G1 X43.327 Y66.025 E1.05007
G1 X42.787 Y65.974 E.02728
G1 X57.544 Y80.731 E1.04982
G1 X57.001 Y80.677 E.02748
G1 X42.247 Y65.922 E1.04957
G1 X41.706 Y65.87 E.02734
G1 X56.457 Y80.622 E1.04939
G1 X55.914 Y80.567 E.02748
G1 X41.16 Y65.814 E1.04953
G1 X40.614 Y65.757 E.02759
G1 X55.37 Y80.513 E1.04968
G1 X54.827 Y80.458 E.02748
G1 X40.069 Y65.7 E1.04983
G1 X39.523 Y65.644 E.02759
G1 X54.283 Y80.403 E1.04997
G1 X53.74 Y80.349 E.02748
G1 X38.978 Y65.587 E1.05012
G1 X38.432 Y65.53 E.02759
G1 X53.196 Y80.294 E1.05027
G1 X52.653 Y80.239 E.02748
G1 X37.887 Y65.473 E1.05041
G1 X37.341 Y65.417 E.02759
G1 X52.109 Y80.185 E1.05056
G1 X51.566 Y80.13 E.02748
G1 X36.796 Y65.36 E1.05071
G1 X36.25 Y65.303 E.02759
G1 X51.022 Y80.076 E1.05085
G1 X50.479 Y80.021 E.02748
G1 X35.71 Y65.252 E1.05062
G1 X35.171 Y65.202 E.02722
G1 X49.935 Y79.966 E1.05028
G1 X49.392 Y79.912 E.02748
G1 X34.632 Y65.152 E1.04995
G1 X34.093 Y65.102 E.02722
G1 X48.848 Y79.857 E1.04961
G1 X48.305 Y79.802 E.02748
G1 X33.553 Y65.051 E1.04938
G1 X33.01 Y64.996 E.02746
G1 X47.761 Y79.748 E1.04936
G1 X47.218 Y79.693 E.02748
G1 X32.467 Y64.942 E1.04934
G1 X31.923 Y64.888 E.02746
G1 X46.674 Y79.638 E1.04932
G1 X46.131 Y79.584 E.02748
G1 X31.38 Y64.833 E1.0493
G1 X30.837 Y64.779 E.02746
G1 X45.587 Y79.529 E1.04928
G1 X45.044 Y79.475 E.02748
G1 X30.294 Y64.725 E1.04927
G1 X29.75 Y64.67 E.02746
G1 X44.5 Y79.42 E1.04925
G1 X43.957 Y79.365 E.02748
G1 X29.207 Y64.616 E1.04923
G1 X28.664 Y64.561 E.02746
G1 X43.413 Y79.311 E1.04921
G1 X42.87 Y79.256 E.02748
G1 X28.121 Y64.507 E1.04919
G1 X27.577 Y64.453 E.02746
G1 X42.326 Y79.201 E1.04917
G1 X41.783 Y79.147 E.02748
G1 X27.034 Y64.398 E1.04915
G1 X26.491 Y64.344 E.02746
G1 X41.239 Y79.092 E1.04913
G1 X40.696 Y79.037 E.02748
G1 X25.948 Y64.29 E1.04911
G1 X25.404 Y64.235 E.02746
G1 X40.152 Y78.983 E1.0491
G1 X39.609 Y78.928 E.02748
G1 X24.861 Y64.181 E1.04908
G1 X24.318 Y64.126 E.02746
G1 X39.065 Y78.874 E1.04906
G1 X38.521 Y78.819 E.02748
G1 X23.775 Y64.072 E1.04904
G1 X23.231 Y64.018 E.02746
G1 X37.978 Y78.764 E1.04902
G1 X37.434 Y78.71 E.02748
G1 X22.688 Y63.963 E1.049
G1 X22.145 Y63.909 E.02746
G1 X36.891 Y78.655 E1.04898
G1 X36.347 Y78.6 E.02748
G1 X21.602 Y63.855 E1.04896
G1 X21.059 Y63.8 E.02746
G1 X35.804 Y78.546 E1.04894
G1 X35.26 Y78.491 E.02748
G1 X20.515 Y63.746 E1.04893
G1 X19.969 Y63.689 E.02761
G1 X34.717 Y78.436 E1.04909
G1 X34.173 Y78.382 E.02748
G1 X19.42 Y63.628 E1.04952
G1 X18.87 Y63.567 E.02781
G1 X33.63 Y78.327 E1.04995
G1 X33.086 Y78.272 E.02748
G1 X18.328 Y63.514 E1.04989
G1 X17.787 Y63.462 E.02733
G1 X32.543 Y78.218 E1.0497
G1 X31.999 Y78.163 E.02748
G1 X17.246 Y63.41 E1.04951
G1 X16.705 Y63.358 E.02733
