; generated by PrusaSlicer 2.5.0+win64 on 2022-12-07 at 00:02:57 UTC

; 

; external perimeters extrusion width = 1.00mm
; perimeters extrusion width = 1.00mm
; infill extrusion width = 1.00mm
; solid infill extrusion width = 1.00mm
; top infill extrusion width = 1.00mm
; support material extrusion width = 1.00mm
; first layer extrusion width = 0.42mm

M73 P0 R153
M107
;TYPE:Custom
G90 ; use absolute coordinates
M83 ; extruder relative mode
M140 S60 ; set final bed temp
M104 S150 ; set temporary nozzle temp to prevent oozing during homing and auto bed leveling
G4 S10 ; allow partial nozzle warmup
G28 ; home all axisG1 Z50 F240
G1 X7.6 Y10 F3000
M104 S210 ; set final nozzle temp
M190 S60 ; wait for bed temp to stabilize
M109 S210 ; wait for nozzle temp to stabilize
G1 Z0.28 F240
G92 E0
G1 Y140 E10 F1500 ; prime the nozzle
G1 X4 F5000
G92 E0
G1 Y10 E10 F1200 ; prime the nozzle
G92 E0
G21 ; set units to millimeters
G90 ; use absolute coordinates
M83 ; use relative distances for extrusion
; Filament gcode
M107
;LAYER_CHANGE
;Z:0.35
;HEIGHT:0.35
;BEFORE_LAYER_CHANGE
G92 E0
;0.35


G1 E-1 F3600
G1 Z.35 F7800
;AFTER_LAYER_CHANGE
;0.35
G1 X95.476 Y42.359
G1 E1 F2400
;TYPE:Perimeter
;WIDTH:0.42
G1 F1800
G1 X95.404 Y42.162 E.01052
G1 X95.232 Y42.005 E.01166
G1 X94.979 Y41.939 E.01315
G1 X68.307 Y41.899 E1.33855
G1 X68.307 Y28.118 E.69161
G1 X100.986 Y28.165 E1.64005
G1 X109.043 Y36.219 E.5717
G1 X109.114 Y36.631 E.02098
G1 X109.397 Y36.966 E.022
G1 X109.414 Y151.901 E5.76812
G1 X95.517 Y151.901 E.69743
G1 X95.495 Y42.506 E5.49009
G1 X95.15 Y42.456 F7800
;TYPE:External perimeter
G1 F1800
G1 X95.108 Y42.343 E.00608
G1 X94.978 Y42.283 E.00715
G1 X67.962 Y42.244 E1.35584
G1 X67.962 Y27.773 E.72623
G1 X101.13 Y27.82 E1.66454
G1 X109.371 Y36.06 E.58483
G1 X109.43 Y36.494 E.02201
G1 X109.742 Y36.823 E.02273
G1 X109.759 Y152.246 E5.7926
G1 X95.173 Y152.246 E.73205
G1 X95.151 Y42.606 E5.50237
G1 X95.234 Y42.368 F7800
G1 E-.7 F3600
;WIPE_START
G1 F6240
G1 X95.108 Y42.343 E-.14622
G1 X94.978 Y42.283 E-.07808
G1 X94.868 Y42.283 E-.0607
;WIPE_END
G1 E-.015 F3600
G1 X100.725 Y28.268 F7800
G1 E1 F2400
;TYPE:Solid infill
;WIDTH:0.420394
G1 F1800
G1 X108.797 Y36.34 E.5735
G1 X108.819 Y36.525 E.00939
G1 X108.876 Y36.736 E.011
G1 X109.034 Y36.969 E.01411
G1 X109.139 Y37.073 E.00742
G1 X109.139 Y37.17 E.00487
G1 X100.392 Y28.423 E.62151
G1 X99.903 Y28.422 E.02457
G1 X109.139 Y37.658 E.65626
G1 X109.139 Y38.147 E.02454
G1 X99.414 Y28.422 E.69101
G1 X98.925 Y28.421 E.02457
G1 X109.139 Y38.635 E.72576
G1 X109.139 Y39.123 E.02454
G1 X98.436 Y28.42 E.76051
G1 X97.947 Y28.419 E.02457
G1 X109.139 Y39.612 E.79527
G1 X109.139 Y40.1 E.02454
G1 X97.458 Y28.419 E.83002
G1 X96.969 Y28.418 E.02457
G1 X109.139 Y40.589 E.86477
G1 X109.139 Y41.077 E.02454
G1 X96.48 Y28.417 E.89952
G1 X95.991 Y28.417 E.02457
G1 X109.139 Y41.565 E.93427
G1 X109.139 Y42.054 E.02454
G1 X95.502 Y28.416 E.96902
G1 X95.013 Y28.415 E.02457
G1 X109.139 Y42.542 E1.00377
G1 X109.139 Y43.03 E.02454
G1 X94.524 Y28.415 E1.03852
G1 X94.035 Y28.414 E.02457
G1 X109.14 Y43.519 E1.07328
G1 X109.14 Y44.007 E.02454
G1 X93.546 Y28.413 E1.10803
G1 X93.057 Y28.412 E.02457
G1 X109.14 Y44.496 E1.14278
G1 X109.14 Y44.984 E.02454
G1 X92.568 Y28.412 E1.17753
G1 X92.079 Y28.411 E.02457
G1 X109.14 Y45.472 E1.21228
G1 X109.14 Y45.961 E.02454
G1 X91.59 Y28.41 E1.24703
G1 X91.101 Y28.41 E.02457
G1 X109.14 Y46.449 E1.28178
G1 X109.14 Y46.937 E.02454
G1 X90.612 Y28.409 E1.31653
G1 X90.123 Y28.408 E.02457
G1 X109.14 Y47.426 E1.35128
G1 X109.14 Y47.914 E.02454
G1 X89.634 Y28.408 E1.38604
G1 X89.145 Y28.407 E.02457
G1 X109.14 Y48.403 E1.42079
G1 X109.14 Y48.891 E.02454
G1 X88.656 Y28.406 E1.45554
G1 X88.167 Y28.405 E.02457
M73 P0 R152
G1 X109.14 Y49.379 E1.49029
G1 X109.141 Y49.868 E.02454
G1 X87.678 Y28.405 E1.52504
G1 X87.189 Y28.404 E.02457
G1 X109.141 Y50.356 E1.55979
G1 X109.141 Y50.844 E.02454
G1 X86.7 Y28.403 E1.59454
G1 X86.211 Y28.403 E.02457
G1 X109.141 Y51.333 E1.62929
G1 X109.141 Y51.821 E.02454
G1 X85.722 Y28.402 E1.66405
G1 X85.233 Y28.401 E.02457
G1 X109.141 Y52.31 E1.6988
G1 X109.141 Y52.798 E.02454
G1 X84.744 Y28.401 E1.73355
G1 X84.255 Y28.4 E.02457
G1 X109.141 Y53.286 E1.7683
G1 X109.141 Y53.775 E.02454
G1 X83.766 Y28.399 E1.80305
G1 X83.277 Y28.398 E.02457
G1 X109.141 Y54.263 E1.8378
G1 X109.141 Y54.751 E.02454
G1 X82.788 Y28.398 E1.87255
G1 X82.299 Y28.397 E.02457
G1 X109.141 Y55.24 E1.9073
G1 X109.141 Y55.728 E.02454
G1 X81.81 Y28.396 E1.94206
G1 X81.321 Y28.396 E.02457
G1 X94.604 Y41.679 E.94387
G1 X94.115 Y41.679 E.02457
G1 X80.832 Y28.395 E.94387
G1 X80.343 Y28.394 E.02457
G1 X93.626 Y41.678 E.94387
G1 X93.137 Y41.677 E.02457
G1 X79.853 Y28.394 E.94387
G1 X79.364 Y28.393 E.02457
G1 X92.648 Y41.676 E.94387
G1 X92.159 Y41.676 E.02457
G1 X78.875 Y28.392 E.94386
G1 X78.386 Y28.391 E.02457
G1 X91.67 Y41.675 E.94386
G1 X91.181 Y41.674 E.02457
G1 X77.897 Y28.391 E.94386
G1 X77.408 Y28.39 E.02457
G1 X90.692 Y41.674 E.94386
G1 X90.203 Y41.673 E.02457
G1 X76.919 Y28.389 E.94386
G1 X76.43 Y28.389 E.02457
G1 X89.714 Y41.672 E.94386
G1 X89.225 Y41.671 E.02457
G1 X75.941 Y28.388 E.94386
G1 X75.452 Y28.387 E.02457
G1 X88.736 Y41.671 E.94386
G1 X88.247 Y41.67 E.02457
G1 X74.963 Y28.387 E.94385
G1 X74.474 Y28.386 E.02457
G1 X87.758 Y41.669 E.94385
G1 X87.269 Y41.669 E.02457
G1 X73.985 Y28.385 E.94385
G1 X73.496 Y28.384 E.02457
G1 X86.78 Y41.668 E.94385
G1 X86.291 Y41.667 E.02457
G1 X73.007 Y28.384 E.94385
G1 X72.518 Y28.383 E.02457
G1 X85.802 Y41.666 E.94385
G1 X85.313 Y41.666 E.02457
G1 X72.029 Y28.382 E.94385
G1 X71.54 Y28.382 E.02457
G1 X84.824 Y41.665 E.94385
G1 X84.335 Y41.664 E.02457
G1 X71.051 Y28.381 E.94384
G1 X70.562 Y28.38 E.02457
G1 X83.846 Y41.664 E.94384
G1 X83.357 Y41.663 E.02457
G1 X70.073 Y28.38 E.94384
G1 X69.584 Y28.379 E.02457
G1 X82.868 Y41.662 E.94384
G1 X82.379 Y41.661 E.02457
G1 X69.095 Y28.378 E.94384
G1 X68.606 Y28.377 E.02457
G1 X81.89 Y41.661 E.94384
G1 X81.401 Y41.66 E.02457
G1 X68.566 Y28.825 E.91199
G1 X68.566 Y29.313 E.02453
G1 X80.912 Y41.659 E.87724
G1 X80.423 Y41.659 E.02457
G1 X68.566 Y29.801 E.8425
G1 X68.566 Y30.29 E.02453
M73 P1 R152
G1 X79.934 Y41.658 E.80775
G1 X79.445 Y41.657 E.02457
G1 X68.566 Y30.778 E.773
G1 X68.566 Y31.266 E.02453
G1 X78.956 Y41.656 E.73825
G1 X78.467 Y41.656 E.02457
G1 X68.566 Y31.755 E.70351
G1 X68.566 Y32.243 E.02453
G1 X77.977 Y41.655 E.66876
G1 X77.488 Y41.654 E.02457
G1 X68.566 Y32.731 E.63401
G1 X68.566 Y33.22 E.02453
G1 X76.999 Y41.653 E.59927
G1 X76.51 Y41.653 E.02457
G1 X68.566 Y33.708 E.56452
G1 X68.566 Y34.196 E.02453
G1 X76.021 Y41.652 E.52977
G1 X75.532 Y41.651 E.02457
G1 X68.566 Y34.685 E.49502
G1 X68.566 Y35.173 E.02453
G1 X75.043 Y41.651 E.46028
G1 X74.554 Y41.65 E.02457
G1 X68.566 Y35.661 E.42553
G1 X68.566 Y36.149 E.02453
G1 X74.065 Y41.649 E.39078
G1 X73.576 Y41.648 E.02457
G1 X68.566 Y36.638 E.35603
G1 X68.566 Y37.126 E.02453
G1 X73.087 Y41.648 E.32129
G1 X72.598 Y41.647 E.02457
G1 X68.566 Y37.614 E.28654
G1 X68.566 Y38.103 E.02453
G1 X72.109 Y41.646 E.25179
G1 X71.62 Y41.646 E.02457
G1 X68.566 Y38.591 E.21704
G1 X68.566 Y39.079 E.02453
G1 X71.131 Y41.645 E.1823
G1 X70.642 Y41.644 E.02457
G1 X68.566 Y39.568 E.14755
G1 X68.566 Y40.056 E.02453
G1 X70.153 Y41.643 E.1128
G1 X69.664 Y41.643 E.02457
G1 X68.566 Y40.544 E.07806
G1 X68.566 Y41.032 E.02453
G1 X69.175 Y41.642 E.04331
G1 X68.686 Y41.641 E.02457
G1 X68.41 Y41.366 E.01959
G1 E-.7 F3600
;WIPE_START
G1 F6240
G1 X68.686 Y41.641 E-.21368
G1 X68.816 Y41.641 E-.07132
;WIPE_END
G1 E-.015 F3600
G1 X95.599 Y42.674 F7800
G1 E1 F2400
G1 F1800
G1 X109.141 Y56.217 E.96226
G1 X109.142 Y56.705 E.02454
G1 X95.754 Y43.318 E.95123
G1 X95.754 Y43.806 E.02454
G1 X109.142 Y57.193 E.95123
G1 X109.142 Y57.682 E.02454
G1 X95.754 Y44.294 E.95123
G1 X95.755 Y44.783 E.02454
G1 X109.142 Y58.17 E.95123
G1 X109.142 Y58.658 E.02454
G1 X95.755 Y45.271 E.95122
G1 X95.755 Y45.76 E.02454
G1 X109.142 Y59.147 E.95122
G1 X109.142 Y59.635 E.02454
G1 X95.755 Y46.248 E.95122
G1 X95.755 Y46.736 E.02454
G1 X109.142 Y60.124 E.95122
G1 X109.142 Y60.612 E.02454
G1 X95.755 Y47.225 E.95122
G1 X95.755 Y47.713 E.02454
G1 X109.142 Y61.1 E.95121
G1 X109.142 Y61.589 E.02454
G1 X95.755 Y48.202 E.95121
G1 X95.755 Y48.69 E.02454
G1 X109.142 Y62.077 E.95121
G1 X109.142 Y62.565 E.02454
G1 X95.755 Y49.178 E.95121
G1 X95.755 Y49.667 E.02454
G1 X109.142 Y63.054 E.95121
G1 X109.143 Y63.542 E.02454
G1 X95.756 Y50.155 E.95121
G1 X95.756 Y50.644 E.02454
G1 X109.143 Y64.031 E.9512
G1 X109.143 Y64.519 E.02454
G1 X95.756 Y51.132 E.9512
G1 X95.756 Y51.62 E.02454
G1 X109.143 Y65.007 E.9512
G1 X109.143 Y65.496 E.02454
G1 X95.756 Y52.109 E.9512
G1 X95.756 Y52.597 E.02454
M73 P1 R151
G1 X109.143 Y65.984 E.9512
G1 X109.143 Y66.472 E.02454
G1 X95.756 Y53.086 E.95119
G1 X95.756 Y53.574 E.02454
G1 X109.143 Y66.961 E.95119
G1 X109.143 Y67.449 E.02454
G1 X95.756 Y54.062 E.95119
G1 X95.756 Y54.551 E.02454
G1 X109.143 Y67.938 E.95119
G1 X109.143 Y68.426 E.02454
G1 X95.757 Y55.039 E.95119
G1 X95.757 Y55.528 E.02454
G1 X109.143 Y68.914 E.95119
G1 X109.143 Y69.403 E.02454
G1 X95.757 Y56.016 E.95118
G1 X95.757 Y56.504 E.02454
G1 X109.143 Y69.891 E.95118
G1 X109.144 Y70.379 E.02454
G1 X95.757 Y56.993 E.95118
G1 X95.757 Y57.481 E.02454
G1 X109.144 Y70.868 E.95118
G1 X109.144 Y71.356 E.02454
G1 X95.757 Y57.97 E.95118
G1 X95.757 Y58.458 E.02454
G1 X109.144 Y71.845 E.95118
G1 X109.144 Y72.333 E.02454
G1 X95.757 Y58.946 E.95117
G1 X95.757 Y59.435 E.02454
G1 X109.144 Y72.821 E.95117
G1 X109.144 Y73.31 E.02454
G1 X95.758 Y59.923 E.95117
G1 X95.758 Y60.412 E.02454
G1 X109.144 Y73.798 E.95117
G1 X109.144 Y74.287 E.02454
G1 X95.758 Y60.9 E.95117
G1 X95.758 Y61.389 E.02454
G1 X109.144 Y74.775 E.95116
G1 X109.144 Y75.263 E.02454
G1 X95.758 Y61.877 E.95116
G1 X95.758 Y62.365 E.02454
G1 X109.144 Y75.752 E.95116
G1 X109.144 Y76.24 E.02454
G1 X95.758 Y62.854 E.95116
G1 X95.758 Y63.342 E.02454
G1 X109.145 Y76.728 E.95116
G1 X109.145 Y77.217 E.02454
G1 X95.758 Y63.831 E.95116
G1 X95.758 Y64.319 E.02454
G1 X109.145 Y77.705 E.95115
G1 X109.145 Y78.194 E.02454
G1 X95.759 Y64.807 E.95115
G1 X95.759 Y65.296 E.02454
G1 X109.145 Y78.682 E.95115
G1 X109.145 Y79.17 E.02454
G1 X95.759 Y65.784 E.95115
G1 X95.759 Y66.273 E.02454
G1 X109.145 Y79.659 E.95115
G1 X109.145 Y80.147 E.02454
G1 X95.759 Y66.761 E.95114
G1 X95.759 Y67.249 E.02454
G1 X109.145 Y80.635 E.95114
G1 X109.145 Y81.124 E.02454
G1 X95.759 Y67.738 E.95114
G1 X95.759 Y68.226 E.02454
G1 X109.145 Y81.612 E.95114
G1 X109.145 Y82.101 E.02454
G1 X95.759 Y68.715 E.95114
G1 X95.759 Y69.203 E.02454
G1 X109.145 Y82.589 E.95114
G1 X109.145 Y83.077 E.02454
G1 X95.76 Y69.691 E.95113
G1 X95.76 Y70.18 E.02454
G1 X109.146 Y83.566 E.95113
G1 X109.146 Y84.054 E.02454
G1 X95.76 Y70.668 E.95113
G1 X95.76 Y71.157 E.02454
G1 X109.146 Y84.542 E.95113
G1 X109.146 Y85.031 E.02454
G1 X95.76 Y71.645 E.95113
G1 X95.76 Y72.133 E.02454
G1 X109.146 Y85.519 E.95112
G1 X109.146 Y86.008 E.02454
G1 X95.76 Y72.622 E.95112
G1 X95.76 Y73.11 E.02454
G1 X109.146 Y86.496 E.95112
G1 X109.146 Y86.984 E.02454
G1 X95.76 Y73.599 E.95112
G1 X95.76 Y74.087 E.02454
G1 X109.146 Y87.473 E.95112
G1 X109.146 Y87.961 E.02454
G1 X95.76 Y74.575 E.95112
G1 X95.761 Y75.064 E.02454
G1 X109.146 Y88.449 E.95111
G1 X109.146 Y88.938 E.02454
G1 X95.761 Y75.552 E.95111
G1 X95.761 Y76.041 E.02454
G1 X109.146 Y89.426 E.95111
G1 X109.146 Y89.915 E.02454
G1 X95.761 Y76.529 E.95111
G1 X95.761 Y77.017 E.02454
G1 X109.147 Y90.403 E.95111
G1 X109.147 Y90.891 E.02454
G1 X95.761 Y77.506 E.9511
G1 X95.761 Y77.994 E.02454
G1 X109.147 Y91.38 E.9511
G1 X109.147 Y91.868 E.02454
G1 X95.761 Y78.483 E.9511
G1 X95.761 Y78.971 E.02454
G1 X109.147 Y92.356 E.9511
G1 X109.147 Y92.845 E.02454
G1 X95.761 Y79.459 E.9511
G1 X95.762 Y79.948 E.02454
G1 X109.147 Y93.333 E.9511
G1 X109.147 Y93.822 E.02454
G1 X95.762 Y80.436 E.95109
G1 X95.762 Y80.925 E.02454
G1 X109.147 Y94.31 E.95109
G1 X109.147 Y94.798 E.02454
G1 X95.762 Y81.413 E.95109
G1 X95.762 Y81.901 E.02454
G1 X109.147 Y95.287 E.95109
G1 X109.147 Y95.775 E.02454
G1 X95.762 Y82.39 E.95109
G1 X95.762 Y82.878 E.02454
G1 X109.147 Y96.263 E.95108
G1 X109.148 Y96.752 E.02454
G1 X95.762 Y83.367 E.95108
G1 X95.762 Y83.855 E.02454
G1 X109.148 Y97.24 E.95108
G1 X109.148 Y97.729 E.02454
G1 X95.762 Y84.343 E.95108
G1 X95.763 Y84.832 E.02454
G1 X109.148 Y98.217 E.95108
G1 X109.148 Y98.705 E.02454
G1 X95.763 Y85.32 E.95108
G1 X95.763 Y85.809 E.02454
G1 X109.148 Y99.194 E.95107
G1 X109.148 Y99.682 E.02454
G1 X95.763 Y86.297 E.95107
G1 X95.763 Y86.785 E.02454
G1 X109.148 Y100.17 E.95107
G1 X109.148 Y100.659 E.02454
G1 X95.763 Y87.274 E.95107
G1 X95.763 Y87.762 E.02454
G1 X109.148 Y101.147 E.95107
G1 X109.148 Y101.636 E.02454
G1 X95.763 Y88.251 E.95106
G1 X95.763 Y88.739 E.02454
G1 X109.148 Y102.124 E.95106
G1 X109.148 Y102.612 E.02454
G1 X95.763 Y89.227 E.95106
G1 X95.764 Y89.716 E.02454
G1 X109.148 Y103.101 E.95106
G1 X109.149 Y103.589 E.02454
G1 X95.764 Y90.204 E.95106
G1 X95.764 Y90.693 E.02454
G1 X109.149 Y104.077 E.95106
G1 X109.149 Y104.566 E.02454
G1 X95.764 Y91.181 E.95105
G1 X95.764 Y91.669 E.02454
G1 X109.149 Y105.054 E.95105
G1 X109.149 Y105.543 E.02454
G1 X95.764 Y92.158 E.95105
G1 X95.764 Y92.646 E.02454
G1 X109.149 Y106.031 E.95105
G1 X109.149 Y106.519 E.02454
G1 X95.764 Y93.135 E.95105
G1 X95.764 Y93.623 E.02454
G1 X109.149 Y107.008 E.95104
G1 X109.149 Y107.496 E.02454
G1 X95.764 Y94.111 E.95104
G1 X95.765 Y94.6 E.02454
G1 X109.149 Y107.985 E.95104
G1 X109.149 Y108.473 E.02454
M73 P1 R150
G1 X95.765 Y95.088 E.95104
G1 X95.765 Y95.577 E.02454
G1 X109.149 Y108.961 E.95104
G1 X109.149 Y109.45 E.02454
G1 X95.765 Y96.065 E.95104
G1 X95.765 Y96.553 E.02454
G1 X109.149 Y109.938 E.95103
G1 X109.15 Y110.426 E.02454
G1 X95.765 Y97.042 E.95103
G1 X95.765 Y97.53 E.02454
G1 X109.15 Y110.915 E.95103
G1 X109.15 Y111.403 E.02454
G1 X95.765 Y98.019 E.95103
G1 X95.765 Y98.507 E.02454
G1 X109.15 Y111.892 E.95103
G1 X109.15 Y112.38 E.02454
G1 X95.765 Y98.995 E.95103
G1 X95.766 Y99.484 E.02454
G1 X109.15 Y112.868 E.95102
G1 X109.15 Y113.357 E.02454
G1 X95.766 Y99.972 E.95102
G1 X95.766 Y100.461 E.02454
G1 X109.15 Y113.845 E.95102
G1 X109.15 Y114.333 E.02454
G1 X95.766 Y100.949 E.95102
G1 X95.766 Y101.437 E.02454
G1 X109.15 Y114.822 E.95102
G1 X109.15 Y115.31 E.02454
M73 P2 R150
G1 X95.766 Y101.926 E.95101
G1 X95.766 Y102.414 E.02454
G1 X109.15 Y115.799 E.95101
G1 X109.15 Y116.287 E.02454
G1 X95.766 Y102.903 E.95101
G1 X95.766 Y103.391 E.02454
G1 X109.15 Y116.775 E.95101
G1 X109.151 Y117.264 E.02454
G1 X95.766 Y103.879 E.95101
G1 X95.766 Y104.368 E.02454
G1 X109.151 Y117.752 E.95101
G1 X109.151 Y118.24 E.02454
G1 X95.767 Y104.856 E.951
G1 X95.767 Y105.345 E.02454
G1 X109.151 Y118.729 E.951
G1 X109.151 Y119.217 E.02454
G1 X95.767 Y105.833 E.951
G1 X95.767 Y106.321 E.02454
G1 X109.151 Y119.706 E.951
G1 X109.151 Y120.194 E.02454
G1 X95.767 Y106.81 E.951
G1 X95.767 Y107.298 E.02454
G1 X109.151 Y120.682 E.95099
G1 X109.151 Y121.171 E.02454
G1 X95.767 Y107.787 E.95099
G1 X95.767 Y108.275 E.02454
G1 X109.151 Y121.659 E.95099
G1 X109.151 Y122.147 E.02454
G1 X95.767 Y108.764 E.95099
G1 X95.767 Y109.252 E.02454
G1 X109.151 Y122.636 E.95099
G1 X109.151 Y123.124 E.02454
G1 X95.768 Y109.74 E.95099
G1 X95.768 Y110.229 E.02454
G1 X109.152 Y123.613 E.95098
G1 X109.152 Y124.101 E.02454
G1 X95.768 Y110.717 E.95098
G1 X95.768 Y111.206 E.02454
G1 X109.152 Y124.589 E.95098
G1 X109.152 Y125.078 E.02454
G1 X95.768 Y111.694 E.95098
G1 X95.768 Y112.182 E.02454
G1 X109.152 Y125.566 E.95098
G1 X109.152 Y126.054 E.02454
G1 X95.768 Y112.671 E.95097
G1 X95.768 Y113.159 E.02454
G1 X109.152 Y126.543 E.95097
G1 X109.152 Y127.031 E.02454
G1 X95.768 Y113.648 E.95097
G1 X95.768 Y114.136 E.02454
G1 X109.152 Y127.52 E.95097
G1 X109.152 Y128.008 E.02454
G1 X95.769 Y114.624 E.95097
G1 X95.769 Y115.113 E.02454
G1 X109.152 Y128.496 E.95097
G1 X109.152 Y128.985 E.02454
G1 X95.769 Y115.601 E.95096
G1 X95.769 Y116.09 E.02454
G1 X109.152 Y129.473 E.95096
G1 X109.152 Y129.961 E.02454
G1 X95.769 Y116.578 E.95096
G1 X95.769 Y117.066 E.02454
G1 X109.153 Y130.45 E.95096
G1 X109.153 Y130.938 E.02454
