; generated by PrusaSlicer 2.5.0+win64 on 2022-12-07 at 00:02:59 UTC

; 

; external perimeters extrusion width = 1.00mm
; perimeters extrusion width = 1.00mm
; infill extrusion width = 1.00mm
; solid infill extrusion width = 1.00mm
; top infill extrusion width = 1.00mm
; support material extrusion width = 1.00mm
; first layer extrusion width = 0.42mm

M73 P0 R13
M107
;TYPE:Custom
G90 ; use absolute coordinates
M83 ; extruder relative mode
M140 S60 ; set final bed temp
M104 S150 ; set temporary nozzle temp to prevent oozing during homing and auto bed leveling
G4 S10 ; allow partial nozzle warmup
G28 ; home all axisG1 Z50 F240
G1 X7.6 Y10 F3000
M104 S210 ; set final nozzle temp
M190 S60 ; wait for bed temp to stabilize
M109 S210 ; wait for nozzle temp to stabilize
G1 Z0.28 F240
G92 E0
G1 Y140 E10 F1500 ; prime the nozzle
G1 X4 F5000
G92 E0
G1 Y10 E10 F1200 ; prime the nozzle
G92 E0
G21 ; set units to millimeters
G90 ; use absolute coordinates
M83 ; use relative distances for extrusion
; Filament gcode
M107
;LAYER_CHANGE
;Z:0.35
;HEIGHT:0.35
;BEFORE_LAYER_CHANGE
G92 E0
;0.35


G1 E-1 F3600
M73 P1 R13
G1 Z.35 F7800
;AFTER_LAYER_CHANGE
;0.35
G1 X108.604 Y95.909
G1 E1 F2400
;TYPE:Perimeter
;WIDTH:0.42
G1 F1800
G1 X100.849 Y100.918 E.46331
G1 X96.653 Y104.187 E.26697
G1 X73.071 Y104.187 E1.18345
G1 X105.972 Y78.579 E2.09234
G1 X108.604 Y76.884 E.15714
M73 P2 R13
G1 X108.604 Y95.759 E.94728
G1 X108.949 Y96.097 F7800
;TYPE:External perimeter
G1 F1800
G1 X101.036 Y101.207 E.47274
G1 X96.771 Y104.532 E.27139
G1 X72.067 Y104.532 E1.23982
M73 P2 R12
G1 X105.772 Y78.297 E2.14353
G1 X108.949 Y76.252 E.18965
G1 X108.949 Y95.947 E.98843
G1 X107.953 Y96.015 F7800
G1 E-.7 F3600
;WIPE_START
G1 F6240
G1 X108.516 Y96.235 E-.285
;WIPE_END
G1 E-.015 F3600
G1 X108.501 Y77.761 F7800
G1 E1 F2400
;TYPE:Solid infill
;WIDTH:0.42214
G1 F1800
G1 X108.195 Y77.455 E.02184
G1 X107.896 Y77.647 E.01793
G1 X108.346 Y78.097 E.03208
G1 X108.346 Y78.587 E.02478
G1 X107.598 Y77.84 E.0534
G1 X107.299 Y78.032 E.01793
G1 X108.346 Y79.078 E.07472
G1 X108.346 Y79.569 E.02478
G1 X107.001 Y78.224 E.09604
G1 X106.702 Y78.416 E.01793
G1 X108.346 Y80.06 E.11736
G1 X108.346 Y80.55 E.02478
G1 X106.404 Y78.608 E.13868
G1 X106.106 Y78.802 E.01791
G1 X108.346 Y81.041 E.15991
G1 X108.346 Y81.532 E.02478
G1 X105.83 Y79.017 E.17962
G1 X105.554 Y79.232 E.01766
G1 X108.346 Y82.023 E.19933
G1 X108.346 Y82.513 E.02478
G1 X105.279 Y79.446 E.21904
G1 X105.003 Y79.661 E.01766
G1 X108.346 Y83.004 E.23874
G1 X108.346 Y83.495 E.02478
G1 X104.727 Y79.876 E.25845
G1 X104.451 Y80.091 E.01766
G1 X108.346 Y83.986 E.27816
G1 X108.346 Y84.477 E.02478
G1 X104.175 Y80.306 E.29787
G1 X103.899 Y80.52 E.01766
G1 X108.346 Y84.967 E.31758
G1 X108.346 Y85.458 E.02478
M73 P3 R12
G1 X103.623 Y80.735 E.33729
G1 X103.347 Y80.95 E.01766
G1 X108.346 Y85.949 E.35699
G1 X108.346 Y86.44 E.02478
G1 X103.071 Y81.165 E.3767
G1 X102.795 Y81.38 E.01766
G1 X108.346 Y86.93 E.39641
G1 X108.346 Y87.421 E.02478
G1 X102.519 Y81.594 E.41612
G1 X102.243 Y81.809 E.01766
G1 X108.346 Y87.912 E.43583
G1 X108.346 Y88.403 E.02478
G1 X101.967 Y82.024 E.45553
G1 X101.691 Y82.239 E.01766
G1 X108.346 Y88.894 E.47524
G1 X108.346 Y89.384 E.02478
G1 X101.415 Y82.454 E.49495
G1 X101.139 Y82.668 E.01766
G1 X108.346 Y89.875 E.51466
G1 X108.346 Y90.366 E.02478
G1 X100.863 Y82.883 E.53437
G1 X100.587 Y83.098 E.01766
G1 X108.346 Y90.857 E.55407
G1 X108.346 Y91.347 E.02478
G1 X100.311 Y83.313 E.57378
G1 X100.035 Y83.528 E.01766
G1 X108.346 Y91.838 E.59349
G1 X108.346 Y92.329 E.02478
G1 X99.759 Y83.742 E.6132
G1 X99.483 Y83.957 E.01766
G1 X108.346 Y92.82 E.63291
G1 X108.346 Y93.31 E.02478
G1 X99.207 Y84.172 E.65262
G1 X98.931 Y84.387 E.01766
G1 X108.346 Y93.801 E.67232
G1 X108.346 Y94.292 E.02478
G1 X98.655 Y84.602 E.69203
G1 X98.379 Y84.816 E.01766
G1 X108.346 Y94.783 E.71174
G1 X108.346 Y95.274 E.02478
M73 P4 R12
G1 X98.103 Y85.031 E.73145
G1 X97.827 Y85.246 E.01766
G1 X108.346 Y95.768 E.7513
G1 X108.05 Y95.959 E.01778
G1 X97.551 Y85.461 E.74974
G1 X97.275 Y85.676 E.01766
G1 X107.752 Y96.152 E.74816
G1 X107.454 Y96.345 E.01793
G1 X96.999 Y85.89 E.74657
G1 X96.723 Y86.105 E.01766
G1 X107.155 Y96.537 E.74498
G1 X106.857 Y96.73 E.01793
G1 X96.447 Y86.32 E.7434
G1 X96.171 Y86.535 E.01766
G1 X106.559 Y96.922 E.74181
G1 X106.261 Y97.115 E.01793
G1 X95.896 Y86.75 E.74022
G1 X95.62 Y86.964 E.01766
G1 X105.963 Y97.307 E.73863
G1 X105.664 Y97.5 E.01793
G1 X95.344 Y87.179 E.73705
G1 X95.068 Y87.394 E.01766
G1 X105.366 Y97.693 E.73546
G1 X105.068 Y97.885 E.01793
G1 X94.792 Y87.609 E.73387
G1 X94.516 Y87.824 E.01766
G1 X104.77 Y98.078 E.73228
G1 X104.472 Y98.27 E.01793
G1 X94.24 Y88.038 E.7307
G1 X93.964 Y88.253 E.01766
M73 P5 R12
G1 X104.173 Y98.463 E.72911
G1 X103.875 Y98.655 E.01793
G1 X93.688 Y88.468 E.72752
G1 X93.412 Y88.683 E.01766
G1 X103.577 Y98.848 E.72594
G1 X103.279 Y99.041 E.01793
G1 X93.136 Y88.898 E.72435
G1 X92.86 Y89.112 E.01766
G1 X102.981 Y99.233 E.72276
G1 X102.682 Y99.426 E.01793
G1 X92.584 Y89.327 E.72117
G1 X92.308 Y89.542 E.01766
G1 X102.384 Y99.618 E.71959
G1 X102.086 Y99.811 E.01793
G1 X92.032 Y89.757 E.718
G1 X91.756 Y89.972 E.01766
G1 X101.788 Y100.004 E.71641
G1 X101.49 Y100.196 E.01793
G1 X91.48 Y90.186 E.71483
G1 X91.204 Y90.401 E.01766
G1 X101.191 Y100.389 E.71324
G1 X100.893 Y100.581 E.01793
G1 X90.928 Y90.616 E.71165
G1 X90.652 Y90.831 E.01766
G1 X100.603 Y100.782 E.71065
G1 X100.327 Y100.997 E.01766
G1 X90.376 Y91.046 E.71066
G1 X90.1 Y91.26 E.01766
G1 X100.052 Y101.212 E.71067
G1 X99.776 Y101.427 E.01766
M73 P6 R12
G1 X89.824 Y91.475 E.71067
G1 X89.548 Y91.69 E.01766
G1 X99.5 Y101.642 E.71068
G1 X99.224 Y101.857 E.01766
G1 X89.272 Y91.905 E.71069
G1 X88.996 Y92.12 E.01766
G1 X98.948 Y102.071 E.71069
G1 X98.672 Y102.286 E.01766
G1 X88.72 Y92.335 E.7107
G1 X88.444 Y92.549 E.01766
G1 X98.396 Y102.501 E.7107
G1 X98.12 Y102.716 E.01766
G1 X88.168 Y92.764 E.71071
G1 X87.892 Y92.979 E.01766
G1 X97.844 Y102.931 E.71072
G1 X97.569 Y103.146 E.01766
G1 X87.616 Y93.194 E.71072
G1 X87.34 Y93.409 E.01766
G1 X97.293 Y103.361 E.71073
G1 X97.017 Y103.576 E.01766
G1 X87.064 Y93.623 E.71074
G1 X86.789 Y93.838 E.01766
G1 X96.741 Y103.791 E.71074
G1 X96.564 Y103.929 E.01134
G1 X96.388 Y103.929 E.00887
G1 X86.513 Y94.053 E.70525
G1 X86.237 Y94.268 E.01766
G1 X95.897 Y103.929 E.68991
G1 X95.407 Y103.929 E.02478
G1 X85.961 Y94.483 E.67457
G1 X85.685 Y94.697 E.01766
M73 P7 R12
G1 X94.916 Y103.929 E.65923
G1 X94.425 Y103.929 E.02478
G1 X85.409 Y94.912 E.64389
G1 X85.133 Y95.127 E.01766
G1 X93.934 Y103.929 E.62855
G1 X93.443 Y103.929 E.02478
G1 X84.857 Y95.342 E.61322
G1 X84.581 Y95.557 E.01766
G1 X92.953 Y103.929 E.59788
G1 X92.462 Y103.929 E.02478
G1 X84.305 Y95.771 E.58254
G1 X84.029 Y95.986 E.01766
G1 X91.971 Y103.929 E.5672
G1 X91.48 Y103.929 E.02478
G1 X83.753 Y96.201 E.55186
G1 X83.477 Y96.416 E.01766
G1 X90.99 Y103.929 E.53652
G1 X90.499 Y103.929 E.02478
G1 X83.201 Y96.631 E.52118
G1 X82.925 Y96.845 E.01766
G1 X90.008 Y103.929 E.50584
G1 X89.517 Y103.929 E.02478
G1 X82.649 Y97.06 E.4905
G1 X82.373 Y97.275 E.01766
G1 X89.027 Y103.929 E.47516
G1 X88.536 Y103.929 E.02478
G1 X82.097 Y97.49 E.45982
G1 X81.821 Y97.705 E.01766
G1 X88.045 Y103.929 E.44448
G1 X87.554 Y103.929 E.02478
G1 X81.545 Y97.919 E.42914
G1 X81.269 Y98.134 E.01766
G1 X87.063 Y103.929 E.4138
G1 X86.573 Y103.929 E.02478
G1 X80.993 Y98.349 E.39846
G1 X80.717 Y98.564 E.01766
G1 X86.082 Y103.929 E.38312
G1 X85.591 Y103.929 E.02478
G1 X80.441 Y98.779 E.36778
G1 X80.165 Y98.993 E.01766
M73 P8 R12
G1 X85.1 Y103.929 E.35244
G1 X84.61 Y103.929 E.02478
G1 X79.889 Y99.208 E.3371
G1 X79.613 Y99.423 E.01766
G1 X84.119 Y103.929 E.32176
G1 X83.628 Y103.929 E.02478
G1 X79.337 Y99.638 E.30642
G1 X79.061 Y99.853 E.01766
G1 X83.137 Y103.929 E.29108
G1 X82.646 Y103.929 E.02478
G1 X78.785 Y100.067 E.27574
G1 X78.509 Y100.282 E.01766
G1 X82.156 Y103.929 E.2604
G1 X81.665 Y103.929 E.02478
G1 X78.233 Y100.497 E.24506
G1 X77.957 Y100.712 E.01766
G1 X81.174 Y103.929 E.22972
G1 X80.683 Y103.929 E.02478
G1 X77.681 Y100.927 E.21438
G1 X77.406 Y101.141 E.01766
G1 X80.193 Y103.929 E.19904
G1 X79.702 Y103.929 E.02478
G1 X77.13 Y101.356 E.1837
G1 X76.854 Y101.571 E.01766
G1 X79.211 Y103.929 E.16836
G1 X78.72 Y103.929 E.02478
G1 X76.578 Y101.786 E.15302
G1 X76.302 Y102.001 E.01766
G1 X78.23 Y103.929 E.13768
G1 X77.739 Y103.929 E.02478
G1 X76.026 Y102.215 E.12234
G1 X75.75 Y102.43 E.01766
G1 X77.248 Y103.929 E.107
G1 X76.757 Y103.929 E.02478
G1 X75.474 Y102.645 E.09166
G1 X75.198 Y102.86 E.01766
G1 X76.266 Y103.929 E.07632
G1 X75.776 Y103.929 E.02478
G1 X74.922 Y103.075 E.06098
G1 X74.646 Y103.289 E.01766
G1 X75.285 Y103.929 E.04564
G1 X74.794 Y103.929 E.02478
G1 X74.37 Y103.504 E.0303
G1 X74.094 Y103.719 E.01766
G1 X74.459 Y104.084 E.02604
M106 S255
;LAYER_CHANGE
;Z:0.85
;HEIGHT:0.5
;BEFORE_LAYER_CHANGE
G92 E0
;0.85


G1 E-.7 F3600
;WIPE_START
G1 F6240
G1 X74.094 Y103.719 E-.28265
G1 X74.097 Y103.716 E-.00235
;WIPE_END
G1 E-.015 F3600
G1 Z.85 F7800
;AFTER_LAYER_CHANGE
;0.85
M104 S205 ; set temperature
G1 X107.767 Y95.753
G1 E1 F2400
;TYPE:Perimeter
;WIDTH:1
G1 F2016.357
G1 X99.341 Y101.194 E1.86116
G1 X96.568 Y103.349 E.65184
G1 X75.709 Y103.349 E3.8708
G1 X105.391 Y80.247 E6.97988
G1 X107.767 Y78.717 E.52434
G1 X107.767 Y95.603 E3.13349
G1 X108.659 Y96.239 F7800
;TYPE:External perimeter
G1 F1800
G1 X99.826 Y101.944 E1.95137
G1 X96.875 Y104.242 E.69409
M73 P9 R12
G1 X73.109 Y104.242 E4.41029
G1 X104.874 Y79.518 E7.46982
G1 X108.659 Y77.08 E.83544
G1 X108.659 Y96.089 E3.52741
G1 X107.661 Y96.172 F7800
G1 E-.7 F3600
;WIPE_START
G1 F6240
G1 X108.226 Y96.376 E-.285
;WIPE_END
G1 E-.015 F3600
G1 X107.499 Y93.717 F7800
G1 E1 F2400
;TYPE:Solid infill
;WIDTH:1.03047
G1 F1200
G1 X103.514 Y97.702 E1.08136
G1 X99.828 Y100.082 E.84205
G1 X107.097 Y92.813 E1.9727
G1 X107.097 Y91.508 E.25054
G1 X95.925 Y102.68 E3.03203
G1 X94.619 Y102.68 E.25054
G1 X107.097 Y90.202 E3.38635
G1 X107.097 Y88.897 E.25054
M73 P9 R11
G1 X93.314 Y102.68 E3.74068
G1 X92.008 Y102.68 E.25054
G1 X107.097 Y87.591 E4.095
G1 X107.097 Y86.286 E.25054
M73 P10 R11
G1 X90.703 Y102.68 E4.44932
G1 X89.397 Y102.68 E.25054
G1 X107.097 Y84.98 E4.80364
G1 X107.097 Y83.674 E.25054
G1 X88.092 Y102.68 E5.15797
G1 X86.786 Y102.68 E.25054
G1 X107.097 Y82.369 E5.51229
G1 X107.097 Y81.063 E.25054
G1 X85.48 Y102.68 E5.86661
G1 X84.175 Y102.68 E.25054
M73 P11 R11
G1 X106.573 Y80.281 E6.07884
G1 X105.778 Y80.793 E.18146
G1 X101.165 Y84.384 E1.12182
G1 X82.869 Y102.68 E4.96546
G1 X81.564 Y102.68 E.25054
G1 X95.275 Y88.969 E3.72118
G1 X89.385 Y93.553 E1.43244
G1 X80.258 Y102.68 E2.4769
G1 X78.953 Y102.68 E.25054
G1 X85.791 Y95.841 E1.85594
;LAYER_CHANGE
;Z:1.35
;HEIGHT:0.5
;BEFORE_LAYER_CHANGE
G92 E0
;1.35


G1 E-.7 F3600
;WIPE_START
G1 F6240
G1 X85.423 Y96.209 E-.285
;WIPE_END
G1 E-.015 F3600
G1 Z1.35 F7800
;AFTER_LAYER_CHANGE
;1.35
G1 X107.767 Y96.105
G1 E1 F2400
;TYPE:Perimeter
;WIDTH:1
G1 F2016.357
G1 X98.14 Y102.322 E2.12651
G1 X96.807 Y103.349 E.31231
G1 X75.941 Y103.349 E3.87209
G1 X104.137 Y81.403 E6.63038
G1 X107.767 Y79.066 E.80111
M73 P12 R11
G1 X107.767 Y95.955 E3.13406
G1 X108.659 Y96.591 F7800
;TYPE:External perimeter
G1 F1800
G1 X98.624 Y103.072 E2.21673
G1 X97.114 Y104.242 E.35456
G1 X73.341 Y104.242 E4.41158
G1 X103.62 Y80.674 E7.12032
G1 X108.659 Y77.43 E1.11221
G1 X108.659 Y96.441 E3.52797
G1 X107.66 Y96.552 F7800
G1 E-.7 F3600
;WIPE_START
G1 F6240
G1 X108.225 Y96.728 E-.285
;WIPE_END
G1 E-.015 F3600
G1 X107.499 Y81.342 F7800
G1 E1 F2400
;TYPE:Solid infill
;WIDTH:1.00841
G1 F1200
G1 X106.703 Y80.547 E.21068
G1 X105.928 Y81.046 E.17271
G1 X107.097 Y82.215 E.30962
G1 X107.097 Y83.489 E.23871
G1 X105.153 Y81.545 E.51498
G1 X104.389 Y82.056 E.17211
G1 X107.097 Y84.764 E.7174
G1 X107.097 Y86.038 E.23871
G1 X103.672 Y82.613 E.90723
G1 X102.956 Y83.171 E.1701
G1 X107.097 Y87.312 E1.09707
G1 X107.097 Y88.587 E.23871
G1 X102.239 Y83.729 E1.2869
G1 X101.523 Y84.287 E.1701
G1 X107.097 Y89.861 E1.47673
G1 X107.097 Y91.135 E.23871
G1 X100.806 Y84.844 E1.66656
G1 X100.089 Y85.402 E.1701
M73 P13 R11
G1 X107.097 Y92.41 E1.8564
G1 X107.097 Y93.684 E.23871
G1 X99.373 Y85.96 E2.04623
G1 X98.656 Y86.518 E.1701
G1 X107.097 Y94.959 E2.23606
G1 X107.097 Y95.74 E.14645
G1 X106.798 Y95.934 E.06673
G1 X97.94 Y87.075 E2.34661
G1 X97.223 Y87.633 E.1701
G1 X106.023 Y96.434 E2.33133
G1 X105.249 Y96.934 E.17266
G1 X96.506 Y88.191 E2.31604
G1 X95.79 Y88.749 E.1701
G1 X104.475 Y97.434 E2.30075
G1 X103.7 Y97.934 E.17266
G1 X95.073 Y89.307 E2.28546
G1 X94.357 Y89.864 E.1701
G1 X102.926 Y98.434 E2.27017
G1 X102.152 Y98.934 E.17266
G1 X93.64 Y90.422 E2.25488
G1 X92.923 Y90.98 E.1701
G1 X101.378 Y99.434 E2.23959
G1 X100.603 Y99.934 E.17266
G1 X92.207 Y91.538 E2.22431
G1 X91.49 Y92.095 E.1701
M73 P14 R11
G1 X99.829 Y100.434 E2.20902
G1 X99.055 Y100.934 E.17266
G1 X90.774 Y92.653 E2.19373
G1 X90.057 Y93.211 E.1701
G1 X98.28 Y101.434 E2.17844
G1 X97.732 Y101.788 E.12231
G1 X97.522 Y101.95 E.04963
G1 X89.34 Y93.769 E2.16742
G1 X88.624 Y94.326 E.1701
G1 X96.803 Y102.506 E2.16678
G1 X96.578 Y102.68 E.05336
G1 X95.703 Y102.68 E.16387
G1 X87.907 Y94.884 E2.06515
G1 X87.191 Y95.442 E.1701
G1 X94.429 Y102.68 E1.91739
G1 X93.154 Y102.68 E.23871
G1 X86.474 Y96 E1.76963
G1 X85.757 Y96.557 E.1701
G1 X91.88 Y102.68 E1.62188
G1 X90.605 Y102.68 E.23871
G1 X85.041 Y97.115 E1.47412
G1 X84.324 Y97.673 E.1701
G1 X89.331 Y102.68 E1.32636
G1 X88.057 Y102.68 E.23871
G1 X83.608 Y98.231 E1.17861
G1 X82.891 Y98.789 E.1701
G1 X86.782 Y102.68 E1.03085
G1 X85.508 Y102.68 E.23871
G1 X82.174 Y99.346 E.88309
G1 X81.458 Y99.904 E.1701
G1 X84.234 Y102.68 E.73533
G1 X82.959 Y102.68 E.23871
M73 P15 R11
G1 X80.741 Y100.462 E.58758
G1 X80.025 Y101.02 E.1701
G1 X81.685 Y102.68 E.43982
G1 X80.411 Y102.68 E.23871
G1 X79.308 Y101.577 E.29206
G1 X78.591 Y102.135 E.1701
G1 X79.538 Y103.082 E.25072
;LAYER_CHANGE
;Z:1.85
;HEIGHT:0.5
;BEFORE_LAYER_CHANGE
G92 E0
;1.85


G1 E-.7 F3600
;WIPE_START
G1 F6240
G1 X79.17 Y102.714 E-.285
;WIPE_END
G1 E-.015 F3600
G1 Z1.85 F7800
;AFTER_LAYER_CHANGE
;1.85
G1 X107.767 Y96.458
G1 E1 F2400
;TYPE:Perimeter
;WIDTH:1
G1 F900
G1 X97.114 Y103.349 E2.35435
G1 X76.174 Y103.349 E3.88594
G1 X102.883 Y82.56 E6.28089
G1 X107.767 Y79.416 E1.07787
G1 X107.767 Y96.308 E3.13476
G1 X108.659 Y96.944 F7800
;TYPE:External perimeter
G1 F900
G1 X97.378 Y104.242 E2.49339
G1 X73.573 Y104.242 E4.41738
M73 P16 R11
G1 X102.366 Y81.831 E6.77083
G1 X108.659 Y77.779 E1.38897
G1 X108.659 Y96.794 E3.52859
G1 X107.659 Y96.935 F7800
G1 E-.7 F3600
;WIPE_START
G1 F6240
G1 X108.225 Y97.08 E-.285
;WIPE_END
G1 E-.015 F3600
G1 X107.097 Y91.352 F7800
G1 E1 F2400
;TYPE:Internal infill
;WIDTH:0.842699
;HEIGHT:1
G1 F900
G1 X104.965 Y87.088 E1.10539
G1 X98.156 Y87.088 E1.57895
;LAYER_CHANGE
;Z:2.35
;HEIGHT:0.5
;BEFORE_LAYER_CHANGE
G92 E0
;2.35


G1 E-.7 F3600
;WIPE_START
G1 F6240
G1 X98.676 Y87.088 E-.285
;WIPE_END
G1 E-.015 F3600
G1 Z2.35 F7800
;AFTER_LAYER_CHANGE
;2.35
G1 X107.767 Y96.81
G1 E1 F2400
;TYPE:Perimeter
;WIDTH:1
M73 P17 R11
G1 F900
G1 X97.64 Y103.349 E2.2369
G1 X76.406 Y103.349 E3.94049
G1 X101.629 Y83.717 E5.9314
M73 P17 R10
G1 X107.767 Y79.765 E1.35463
G1 X107.767 Y96.66 E3.1352
G1 X108.659 Y97.296 F7800
;TYPE:External perimeter
G1 F900
G1 X97.904 Y104.242 E2.37596
G1 X73.806 Y104.242 E4.47187
G1 X101.112 Y82.988 E6.42134
M73 P18 R10
G1 X108.659 Y78.128 E1.66573
G1 X108.659 Y97.146 E3.52911
G1 X107.659 Y97.317 F7800
G1 X107.097 Y96.354
;TYPE:Internal infill
;WIDTH:0.842699
;HEIGHT:1
G1 F900
G1 X107.097 Y90.998 E1.24201
G1 X105.319 Y87.441 E.92207
G1 X105.319 Y82.137 E1.2299
G1 X102.017 Y84.264 E.9107
G1 X87.465 Y95.59 E4.27601
G1 X87.465 Y102.68 E1.64398
G1 X92.821 Y102.68 E1.24201
;LAYER_CHANGE
;Z:2.85
;HEIGHT:0.5
;BEFORE_LAYER_CHANGE
G92 E0
;2.85


M73 P19 R10
G1 E-.7 F3600
;WIPE_START
G1 F6240
G1 X92.301 Y102.68 E-.285
;WIPE_END
G1 E-.015 F3600
G1 Z2.85 F7800
;AFTER_LAYER_CHANGE
;2.85
G1 X107.767 Y97.161
G1 E1 F2400
;TYPE:Perimeter
;WIDTH:1
G1 F900
G1 X98.185 Y103.349 E2.11669
G1 X76.638 Y103.349 E3.99837
G1 X100.375 Y84.874 E5.5819
G1 X107.767 Y80.114 E1.63139
G1 X107.767 Y97.011 E3.13558
