; generated by PrusaSlicer 2.5.0+win64 on 2022-12-07 at 00:03:09 UTC

; 

; external perimeters extrusion width = 1.00mm
; perimeters extrusion width = 1.00mm
; infill extrusion width = 1.00mm
; solid infill extrusion width = 1.00mm
; top infill extrusion width = 1.00mm
; support material extrusion width = 1.00mm
; first layer extrusion width = 0.42mm

M73 P0 R95
M107
;TYPE:Custom
G90 ; use absolute coordinates
M83 ; extruder relative mode
M140 S60 ; set final bed temp
M104 S150 ; set temporary nozzle temp to prevent oozing during homing and auto bed leveling
G4 S10 ; allow partial nozzle warmup
G28 ; home all axisG1 Z50 F240
G1 X7.6 Y10 F3000
M104 S210 ; set final nozzle temp
M190 S60 ; wait for bed temp to stabilize
M109 S210 ; wait for nozzle temp to stabilize
G1 Z0.28 F240
G92 E0
G1 Y140 E10 F1500 ; prime the nozzle
G1 X4 F5000
G92 E0
G1 Y10 E10 F1200 ; prime the nozzle
G92 E0
G21 ; set units to millimeters
G90 ; use absolute coordinates
M83 ; use relative distances for extrusion
; Filament gcode
M107
;LAYER_CHANGE
;Z:0.35
;HEIGHT:0.35
;BEFORE_LAYER_CHANGE
G92 E0
;0.35


G1 E-1 F3600
G1 Z.35 F7800
;AFTER_LAYER_CHANGE
;0.35
G1 X96.986 Y63.86
G1 E1 F2400
;TYPE:Perimeter
;WIDTH:0.42
G1 F1800
G1 X96.913 Y63.665 E.01044
G1 X96.738 Y63.506 E.01189
G1 X96.492 Y63.442 E.01275
G1 X67.574 Y63.209 E1.45129
G1 X67.574 Y47.573 E.78473
G1 X102.09 Y47.863 E1.73227
G1 X105.331 Y51.143 E.23142
G1 X105.361 Y51.672 E.02657
G1 X105.487 Y51.878 E.01216
G1 X109.962 Y56.353 E.31757
G1 X110.374 Y62.966 E.33256
G1 X110.375 Y64.598 E.08188
G1 X110.913 Y73.134 E.42925
G1 X110.966 Y81.145 E.40206
G1 X110.967 Y132.535 E2.57906
G1 X97.041 Y132.535 E.6989
G1 X97.002 Y64.007 E3.43914
G1 X96.66 Y63.959 F7800
;TYPE:External perimeter
G1 F1800
G1 X96.617 Y63.845 E.00609
G1 X96.489 Y63.787 E.00708
G1 X67.229 Y63.551 E1.46846
G1 X67.229 Y47.225 E.81935
G1 X102.235 Y47.519 E1.75687
G1 X105.674 Y51 E.24556
G1 X105.68 Y51.514 E.02583
G1 X105.731 Y51.634 E.00653
G1 X110.298 Y56.201 E.32412
G1 X110.719 Y62.955 E.33964
G1 X110.719 Y64.576 E.08133
G1 X111.258 Y73.122 E.42973
G1 X111.311 Y81.145 E.40266
G1 X111.312 Y132.88 E2.59637
G1 X96.696 Y132.88 E.73351
G1 X96.66 Y64.109 E3.45135
G1 X96.741 Y63.869 F7800
M73 P0 R94
G1 E-.7 F3600
;WIPE_START
G1 F6240
G1 X96.617 Y63.845 E-.14634
G1 X96.489 Y63.787 E-.07733
G1 X96.377 Y63.786 E-.06133
;WIPE_END
G1 E-.015 F3600
G1 X101.332 Y47.96 F7800
G1 E1 F2400
;TYPE:Solid infill
;WIDTH:0.420656
G1 F1800
G1 X105.111 Y51.739 E.26875
G1 X105.182 Y51.903 E.00895
G1 X105.267 Y52.022 E.00738
G1 X109.709 Y56.466 E.31596
G1 X109.733 Y56.85 E.01932
G1 X100.996 Y48.112 E.62133
G1 X100.503 Y48.108 E.02478
G1 X109.766 Y57.371 E.65868
G1 X109.798 Y57.892 E.02626
G1 X100.01 Y48.104 E.69603
G1 X99.517 Y48.1 E.02478
G1 X109.831 Y58.413 E.73339
G1 X109.863 Y58.934 E.02626
G1 X99.024 Y48.095 E.77074
G1 X98.532 Y48.091 E.02478
G1 X109.896 Y59.456 E.8081
G1 X109.928 Y59.977 E.02626
G1 X98.039 Y48.087 E.84545
G1 X97.546 Y48.083 E.02478
G1 X109.961 Y60.498 E.8828
G1 X109.993 Y61.019 E.02626
G1 X97.053 Y48.079 E.92016
G1 X96.56 Y48.075 E.02478
G1 X110.026 Y61.54 E.95751
G1 X110.058 Y62.061 E.02626
G1 X96.068 Y48.071 E.99487
G1 X95.575 Y48.066 E.02478
G1 X110.091 Y62.583 E1.03222
G1 X110.115 Y63.096 E.02583
G1 X95.082 Y48.062 E1.06901
G1 X94.589 Y48.058 E.02478
G1 X110.116 Y63.585 E1.10408
G1 X110.116 Y64.074 E.02459
G1 X94.096 Y48.054 E1.13915
G1 X93.603 Y48.05 E.02478
G1 X110.117 Y64.563 E1.17422
G1 X110.146 Y65.081 E.0261
G1 X93.111 Y48.046 E1.21138
G1 X92.618 Y48.042 E.02478
G1 X110.179 Y65.603 E1.24876
G1 X110.212 Y66.124 E.02628
G1 X92.125 Y48.038 E1.28614
G1 X91.632 Y48.033 E.02478
G1 X110.245 Y66.646 E1.32352
G1 X110.278 Y67.168 E.02628
G1 X91.139 Y48.029 E1.3609
G1 X90.647 Y48.025 E.02478
G1 X110.311 Y67.689 E1.39827
G1 X110.343 Y68.211 E.02628
G1 X90.154 Y48.021 E1.43565
G1 X89.661 Y48.017 E.02478
G1 X110.376 Y68.732 E1.47303
G1 X110.409 Y69.254 E.02628
G1 X89.168 Y48.013 E1.51041
G1 X88.675 Y48.009 E.02478
G1 X110.442 Y69.775 E1.54779
G1 X110.475 Y70.297 E.02628
G1 X88.183 Y48.004 E1.58517
G1 X87.69 Y48 E.02478
G1 X110.508 Y70.818 E1.62255
G1 X110.541 Y71.34 E.02628
G1 X87.197 Y47.996 E1.65993
G1 X86.704 Y47.992 E.02478
G1 X110.573 Y71.861 E1.69731
G1 X110.606 Y72.383 E.02628
G1 X86.211 Y47.988 E1.73469
G1 X85.718 Y47.984 E.02478
M73 P1 R94
G1 X110.639 Y72.904 E1.77207
G1 X110.656 Y73.41 E.02543
G1 X85.226 Y47.98 E1.80831
G1 X84.733 Y47.975 E.02478
G1 X110.659 Y73.902 E1.84359
G1 X110.663 Y74.394 E.02474
G1 X84.24 Y47.971 E1.87887
G1 X83.747 Y47.967 E.02478
G1 X110.666 Y74.886 E1.91414
G1 X110.669 Y75.378 E.02474
G1 X83.254 Y47.963 E1.94942
G1 X82.762 Y47.959 E.02478
G1 X110.672 Y75.87 E1.9847
G1 X110.676 Y76.362 E.02474
G1 X82.269 Y47.955 E2.01998
G1 X81.776 Y47.951 E.02478
G1 X110.679 Y76.854 E2.05525
G1 X110.682 Y77.346 E.02474
G1 X97.26 Y63.923 E.95443
G1 X97.247 Y63.797 E.00638
G1 X97.199 Y63.647 E.00793
G1 X97.073 Y63.448 E.01183
G1 X96.932 Y63.322 E.00948
G1 X96.723 Y63.219 E.01176
G1 X96.523 Y63.187 E.01014
G1 X81.283 Y47.946 E1.08372
G1 X80.79 Y47.942 E.02478
G1 X96.027 Y63.179 E1.08348
G1 X95.535 Y63.175 E.02477
G1 X80.297 Y47.938 E1.08349
G1 X79.805 Y47.934 E.02478
G1 X95.042 Y63.171 E1.08351
G1 X94.549 Y63.167 E.02477
G1 X79.312 Y47.93 E1.08352
G1 X78.819 Y47.926 E.02478
G1 X94.057 Y63.163 E1.08353
G1 X93.564 Y63.159 E.02477
G1 X78.326 Y47.922 E1.08354
G1 X77.833 Y47.917 E.02478
G1 X93.071 Y63.156 E1.08356
G1 X92.579 Y63.152 E.02477
G1 X77.341 Y47.913 E1.08357
G1 X76.848 Y47.909 E.02478
G1 X92.086 Y63.148 E1.08358
G1 X91.594 Y63.144 E.02477
G1 X76.355 Y47.905 E1.08359
G1 X75.862 Y47.901 E.02478
G1 X91.101 Y63.14 E1.08361
G1 X90.608 Y63.136 E.02477
G1 X75.369 Y47.897 E1.08362
G1 X74.877 Y47.893 E.02478
G1 X90.116 Y63.132 E1.08363
G1 X89.623 Y63.128 E.02477
G1 X74.384 Y47.888 E1.08364
G1 X73.891 Y47.884 E.02478
G1 X89.13 Y63.124 E1.08366
G1 X88.638 Y63.12 E.02477
G1 X73.398 Y47.88 E1.08367
G1 X72.905 Y47.876 E.02478
G1 X88.145 Y63.116 E1.08368
G1 X87.652 Y63.112 E.02477
G1 X72.412 Y47.872 E1.08369
G1 X71.92 Y47.868 E.02478
G1 X87.16 Y63.108 E1.08371
G1 X86.667 Y63.104 E.02477
G1 X71.427 Y47.864 E1.08372
G1 X70.934 Y47.86 E.02478
G1 X86.175 Y63.1 E1.08373
G1 X85.682 Y63.096 E.02477
G1 X70.441 Y47.855 E1.08374
G1 X69.948 Y47.851 E.02478
G1 X85.189 Y63.092 E1.08376
G1 X84.697 Y63.088 E.02477
G1 X69.456 Y47.847 E1.08377
G1 X68.963 Y47.843 E.02478
M73 P1 R93
G1 X84.204 Y63.084 E1.08378
G1 X83.711 Y63.08 E.02477
G1 X68.47 Y47.839 E1.08379
G1 X67.977 Y47.835 E.02478
G1 X83.219 Y63.076 E1.08381
G1 X82.726 Y63.072 E.02477
G1 X67.833 Y48.179 E1.05903
G1 X67.833 Y48.668 E.02457
G1 X82.233 Y63.068 E1.024
G1 X81.741 Y63.064 E.02477
G1 X67.833 Y49.156 E.98897
G1 X67.833 Y49.645 E.02457
G1 X81.248 Y63.06 E.95394
G1 X80.756 Y63.056 E.02477
G1 X67.833 Y50.134 E.91891
G1 X67.833 Y50.623 E.02457
G1 X80.263 Y63.052 E.88388
G1 X79.77 Y63.049 E.02477
G1 X67.833 Y51.111 E.84885
G1 X67.833 Y51.6 E.02457
G1 X79.278 Y63.045 E.81382
G1 X78.785 Y63.041 E.02477
G1 X67.833 Y52.089 E.77878
G1 X67.833 Y52.577 E.02457
G1 X78.292 Y63.037 E.74375
G1 X77.8 Y63.033 E.02477
G1 X67.833 Y53.066 E.70872
G1 X67.833 Y53.555 E.02457
G1 X77.307 Y63.029 E.67369
G1 X76.814 Y63.025 E.02477
G1 X67.833 Y54.043 E.63866
G1 X67.833 Y54.532 E.02457
G1 X76.322 Y63.021 E.60363
G1 X75.829 Y63.017 E.02477
G1 X67.833 Y55.021 E.5686
G1 X67.833 Y55.509 E.02457
G1 X75.337 Y63.013 E.53357
G1 X74.844 Y63.009 E.02477
G1 X67.833 Y55.998 E.49854
G1 X67.833 Y56.487 E.02457
G1 X74.351 Y63.005 E.46351
G1 X73.859 Y63.001 E.02477
G1 X67.833 Y56.975 E.42848
G1 X67.833 Y57.464 E.02457
G1 X73.366 Y62.997 E.39345
G1 X72.873 Y62.993 E.02477
G1 X67.833 Y57.953 E.35842
G1 X67.833 Y58.441 E.02457
G1 X72.381 Y62.989 E.32338
G1 X71.888 Y62.985 E.02477
G1 X67.833 Y58.93 E.28835
G1 X67.833 Y59.419 E.02457
G1 X71.395 Y62.981 E.25332
G1 X70.903 Y62.977 E.02477
G1 X67.833 Y59.907 E.21829
G1 X67.833 Y60.396 E.02457
G1 X70.41 Y62.973 E.18326
G1 X69.917 Y62.969 E.02477
G1 X67.833 Y60.885 E.14823
G1 X67.833 Y61.373 E.02457
G1 X69.425 Y62.965 E.1132
G1 X68.932 Y62.961 E.02477
G1 X67.833 Y61.862 E.07817
G1 X67.833 Y62.351 E.02457
G1 X68.44 Y62.957 E.04314
G1 X67.947 Y62.953 E.02477
G1 X67.678 Y62.684 E.01914
G1 E-.7 F3600
;WIPE_START
G1 F6240
G1 X67.947 Y62.953 E-.20867
G1 X68.086 Y62.954 E-.07633
;WIPE_END
G1 E-.015 F3600
G1 X97.108 Y64.26 F7800
G1 E1 F2400
G1 F1800
G1 X110.686 Y77.838 E.96546
G1 X110.689 Y78.33 E.02474
G1 X97.264 Y64.905 E.95463
G1 X97.264 Y65.393 E.02458
G1 X110.692 Y78.822 E.95485
G1 X110.695 Y79.313 E.02474
G1 X97.264 Y65.882 E.95507
G1 X97.265 Y66.371 E.02458
G1 X110.699 Y79.805 E.95528
G1 X110.702 Y80.297 E.02474
G1 X97.265 Y66.86 E.9555
G1 X97.265 Y67.349 E.02458
G1 X110.705 Y80.789 E.95572
G1 X110.708 Y81.28 E.02468
G1 X97.265 Y67.838 E.95586
G1 X97.266 Y68.327 E.02458
G1 X110.708 Y81.769 E.95584
G1 X110.708 Y82.258 E.02457
G1 X97.266 Y68.816 E.95582
G1 X97.266 Y69.305 E.02458
G1 X110.708 Y82.746 E.9558
G1 X110.708 Y83.235 E.02457
G1 X97.266 Y69.794 E.95578
G1 X97.267 Y70.283 E.02458
G1 X110.708 Y83.724 E.95577
G1 X110.708 Y84.212 E.02457
M73 P2 R93
G1 X97.267 Y70.772 E.95575
G1 X97.267 Y71.261 E.02458
G1 X110.708 Y84.701 E.95573
G1 X110.708 Y85.19 E.02457
G1 X97.267 Y71.75 E.95571
G1 X97.268 Y72.238 E.02458
G1 X110.708 Y85.678 E.9557
G1 X110.708 Y86.167 E.02457
G1 X97.268 Y72.727 E.95568
G1 X97.268 Y73.216 E.02458
G1 X110.708 Y86.656 E.95566
G1 X110.708 Y87.145 E.02457
G1 X97.268 Y73.705 E.95564
G1 X97.269 Y74.194 E.02458
G1 X110.708 Y87.633 E.95563
G1 X110.708 Y88.122 E.02457
G1 X97.269 Y74.683 E.95561
G1 X97.269 Y75.172 E.02458
G1 X110.708 Y88.611 E.95559
G1 X110.708 Y89.099 E.02457
G1 X97.27 Y75.661 E.95557
G1 X97.27 Y76.15 E.02458
G1 X110.708 Y89.588 E.95555
G1 X110.708 Y90.077 E.02457
G1 X97.27 Y76.639 E.95554
G1 X97.27 Y77.128 E.02458
G1 X110.708 Y90.565 E.95552
G1 X110.708 Y91.054 E.02457
G1 X97.271 Y77.617 E.9555
G1 X97.271 Y78.106 E.02458
G1 X110.708 Y91.543 E.95548
G1 X110.708 Y92.031 E.02457
G1 X97.271 Y78.595 E.95547
G1 X97.271 Y79.084 E.02458
G1 X110.708 Y92.52 E.95545
G1 X110.708 Y93.009 E.02457
G1 X97.272 Y79.572 E.95543
G1 X97.272 Y80.061 E.02458
G1 X110.708 Y93.497 E.95541
G1 X110.708 Y93.986 E.02457
G1 X97.272 Y80.55 E.95539
G1 X97.272 Y81.039 E.02458
G1 X110.708 Y94.475 E.95538
G1 X110.708 Y94.963 E.02457
G1 X97.273 Y81.528 E.95536
G1 X97.273 Y82.017 E.02458
G1 X110.708 Y95.452 E.95534
G1 X110.708 Y95.941 E.02457
G1 X97.273 Y82.506 E.95532
G1 X97.273 Y82.995 E.02458
G1 X110.708 Y96.429 E.95531
G1 X110.708 Y96.918 E.02457
G1 X97.274 Y83.484 E.95529
G1 X97.274 Y83.973 E.02458
G1 X110.708 Y97.407 E.95527
G1 X110.708 Y97.896 E.02457
G1 X97.274 Y84.462 E.95525
G1 X97.274 Y84.951 E.02458
G1 X110.708 Y98.384 E.95524
G1 X110.708 Y98.873 E.02457
G1 X97.275 Y85.44 E.95522
G1 X97.275 Y85.929 E.02458
G1 X110.708 Y99.362 E.9552
G1 X110.708 Y99.85 E.02457
G1 X97.275 Y86.418 E.95518
G1 X97.275 Y86.906 E.02458
G1 X110.708 Y100.339 E.95516
G1 X110.708 Y100.828 E.02457
G1 X97.276 Y87.395 E.95515
G1 X97.276 Y87.884 E.02458
G1 X110.708 Y101.316 E.95513
G1 X110.708 Y101.805 E.02457
G1 X97.276 Y88.373 E.95511
G1 X97.276 Y88.862 E.02458
G1 X110.708 Y102.294 E.95509
G1 X110.708 Y102.782 E.02457
G1 X97.277 Y89.351 E.95508
G1 X97.277 Y89.84 E.02458
G1 X110.708 Y103.271 E.95506
G1 X110.708 Y103.76 E.02457
G1 X97.277 Y90.329 E.95504
G1 X97.277 Y90.818 E.02458
G1 X110.708 Y104.248 E.95502
G1 X110.708 Y104.737 E.02457
G1 X97.278 Y91.307 E.95501
G1 X97.278 Y91.796 E.02458
G1 X110.708 Y105.226 E.95499
G1 X110.708 Y105.714 E.02457
G1 X97.278 Y92.285 E.95497
G1 X97.279 Y92.774 E.02458
G1 X110.708 Y106.203 E.95495
G1 X110.708 Y106.692 E.02457
G1 X97.279 Y93.263 E.95493
G1 X97.279 Y93.751 E.02458
G1 X110.708 Y107.18 E.95492
G1 X110.708 Y107.669 E.02457
G1 X97.279 Y94.24 E.9549
G1 X97.28 Y94.729 E.02458
G1 X110.708 Y108.158 E.95488
G1 X110.708 Y108.647 E.02457
M73 P2 R92
G1 X97.28 Y95.218 E.95486
G1 X97.28 Y95.707 E.02458
G1 X110.708 Y109.135 E.95485
G1 X110.708 Y109.624 E.02457
G1 X97.28 Y96.196 E.95483
G1 X97.281 Y96.685 E.02458
G1 X110.708 Y110.113 E.95481
G1 X110.708 Y110.601 E.02457
G1 X97.281 Y97.174 E.95479
G1 X97.281 Y97.663 E.02458
G1 X110.708 Y111.09 E.95477
G1 X110.708 Y111.579 E.02457
G1 X97.281 Y98.152 E.95476
G1 X97.282 Y98.641 E.02458
G1 X110.708 Y112.067 E.95474
G1 X110.708 Y112.556 E.02457
G1 X97.282 Y99.13 E.95472
G1 X97.282 Y99.619 E.02458
G1 X110.708 Y113.045 E.9547
G1 X110.708 Y113.533 E.02457
G1 X97.282 Y100.108 E.95469
G1 X97.283 Y100.597 E.02458
G1 X110.708 Y114.022 E.95467
G1 X110.708 Y114.511 E.02457
G1 X97.283 Y101.085 E.95465
G1 X97.283 Y101.574 E.02458
G1 X110.708 Y114.999 E.95463
G1 X110.708 Y115.488 E.02457
G1 X97.283 Y102.063 E.95462
G1 X97.284 Y102.552 E.02458
G1 X110.708 Y115.977 E.9546
G1 X110.708 Y116.465 E.02457
G1 X97.284 Y103.041 E.95458
G1 X97.284 Y103.53 E.02458
G1 X110.708 Y116.954 E.95456
G1 X110.708 Y117.443 E.02457
G1 X97.284 Y104.019 E.95454
G1 X97.285 Y104.508 E.02458
G1 X110.708 Y117.931 E.95453
G1 X110.708 Y118.42 E.02457
G1 X97.285 Y104.997 E.95451
G1 X97.285 Y105.486 E.02458
G1 X110.708 Y118.909 E.95449
G1 X110.708 Y119.398 E.02457
G1 X97.285 Y105.975 E.95447
G1 X97.286 Y106.464 E.02458
G1 X110.708 Y119.886 E.95446
G1 X110.708 Y120.375 E.02457
G1 X97.286 Y106.953 E.95444
G1 X97.286 Y107.442 E.02458
G1 X110.708 Y120.864 E.95442
G1 X110.708 Y121.352 E.02457
G1 X97.286 Y107.93 E.9544
G1 X97.287 Y108.419 E.02458
G1 X110.708 Y121.841 E.95438
G1 X110.708 Y122.33 E.02457
G1 X97.287 Y108.908 E.95437
G1 X97.287 Y109.397 E.02458
G1 X110.708 Y122.818 E.95435
G1 X110.708 Y123.307 E.02457
G1 X97.288 Y109.886 E.95433
G1 X97.288 Y110.375 E.02458
G1 X110.708 Y123.796 E.95431
G1 X110.708 Y124.284 E.02457
M73 P3 R92
G1 X97.288 Y110.864 E.9543
G1 X97.288 Y111.353 E.02458
G1 X110.708 Y124.773 E.95428
G1 X110.708 Y125.262 E.02457
G1 X97.289 Y111.842 E.95426
G1 X97.289 Y112.331 E.02458
G1 X110.708 Y125.75 E.95424
G1 X110.708 Y126.239 E.02457
G1 X97.289 Y112.82 E.95423
G1 X97.289 Y113.309 E.02458
G1 X110.708 Y126.728 E.95421
G1 X110.708 Y127.216 E.02457
G1 X97.29 Y113.798 E.95419
G1 X97.29 Y114.287 E.02458
G1 X110.708 Y127.705 E.95417
G1 X110.708 Y128.194 E.02457
G1 X97.29 Y114.776 E.95415
G1 X97.29 Y115.264 E.02458
G1 X110.708 Y128.683 E.95414
G1 X110.708 Y129.171 E.02457
G1 X97.291 Y115.753 E.95412
G1 X97.291 Y116.242 E.02458
G1 X110.708 Y129.66 E.9541
G1 X110.708 Y130.149 E.02457
G1 X97.291 Y116.731 E.95408
G1 X97.291 Y117.22 E.02458
G1 X110.708 Y130.637 E.95407
G1 X110.708 Y131.126 E.02457
G1 X97.292 Y117.709 E.95405
G1 X97.292 Y118.198 E.02458
G1 X110.708 Y131.615 E.95403
G1 X110.708 Y132.103 E.02457
G1 X97.292 Y118.687 E.95401
G1 X97.292 Y119.176 E.02458
G1 X110.393 Y132.277 E.93158
G1 X109.904 Y132.277 E.02457
G1 X97.293 Y119.665 E.89681
G1 X97.293 Y120.154 E.02458
G1 X109.416 Y132.277 E.86204
G1 X108.927 Y132.277 E.02457
G1 X97.293 Y120.643 E.82728
G1 X97.293 Y121.132 E.02458
G1 X108.438 Y132.277 E.79251
G1 X107.95 Y132.277 E.02457
G1 X97.294 Y121.621 E.75774
G1 X97.294 Y122.11 E.02458
G1 X107.461 Y132.277 E.72297
G1 X106.972 Y132.277 E.02457
G1 X97.294 Y122.598 E.68821
G1 X97.294 Y123.087 E.02458
G1 X106.484 Y132.277 E.65344
G1 X105.995 Y132.277 E.02457
G1 X97.295 Y123.576 E.61867
G1 X97.295 Y124.065 E.02458
G1 X105.506 Y132.277 E.5839
G1 X105.018 Y132.277 E.02457
G1 X97.295 Y124.554 E.54914
G1 X97.295 Y125.043 E.02458
G1 X104.529 Y132.277 E.51437
G1 X104.04 Y132.277 E.02457
G1 X97.296 Y125.532 E.4796
G1 X97.296 Y126.021 E.02458
G1 X103.552 Y132.277 E.44484
G1 X103.063 Y132.277 E.02457
G1 X97.296 Y126.51 E.41007
G1 X97.297 Y126.999 E.02458
G1 X102.574 Y132.277 E.3753
G1 X102.086 Y132.277 E.02457
G1 X97.297 Y127.488 E.34053
G1 X97.297 Y127.977 E.02458
G1 X101.597 Y132.277 E.30577
G1 X101.108 Y132.277 E.02457
G1 X97.297 Y128.466 E.271
G1 X97.298 Y128.955 E.02458
G1 X100.62 Y132.277 E.23623
G1 X100.131 Y132.277 E.02457
G1 X97.298 Y129.443 E.20147
G1 X97.298 Y129.932 E.02458
G1 X99.642 Y132.277 E.1667
G1 X99.154 Y132.277 E.02457
G1 X97.298 Y130.421 E.13193
G1 X97.299 Y130.91 E.02458
G1 X98.665 Y132.277 E.09716
G1 X98.176 Y132.277 E.02457
