; generated by PrusaSlicer 2.5.0+win64 on 2022-12-07 at 00:03:16 UTC

; 

; external perimeters extrusion width = 1.00mm
; perimeters extrusion width = 1.00mm
; infill extrusion width = 1.00mm
; solid infill extrusion width = 1.00mm
; top infill extrusion width = 1.00mm
; support material extrusion width = 1.00mm
; first layer extrusion width = 0.42mm

M73 P0 R157
M107
;TYPE:Custom
G90 ; use absolute coordinates
M83 ; extruder relative mode
M140 S60 ; set final bed temp
M104 S150 ; set temporary nozzle temp to prevent oozing during homing and auto bed leveling
G4 S10 ; allow partial nozzle warmup
G28 ; home all axisG1 Z50 F240
G1 X7.6 Y10 F3000
M104 S210 ; set final nozzle temp
M190 S60 ; wait for bed temp to stabilize
M109 S210 ; wait for nozzle temp to stabilize
G1 Z0.28 F240
G92 E0
G1 Y140 E10 F1500 ; prime the nozzle
G1 X4 F5000
G92 E0
G1 Y10 E10 F1200 ; prime the nozzle
G92 E0
G21 ; set units to millimeters
G90 ; use absolute coordinates
M83 ; use relative distances for extrusion
; Filament gcode
M107
;LAYER_CHANGE
;Z:0.35
;HEIGHT:0.35
;BEFORE_LAYER_CHANGE
G92 E0
;0.35


G1 E-1 F3600
M73 P0 R156
G1 Z.35 F7800
;AFTER_LAYER_CHANGE
;0.35
G1 X145.114 Y33.442
G1 E1 F2400
;TYPE:Perimeter
;WIDTH:0.42
G1 F1800
G1 X157.595 Y33.442 E.62635
G1 X157.595 Y41.244 E.3916
G1 X148.866 Y49.29 E.59578
G1 X137.697 Y62.701 E.87588
G1 X118.112 Y84.176 E1.4586
G1 X107.092 Y91.987 E.67789
G1 X85.885 Y111.243 E1.43757
G1 X65.4 Y121.387 E1.1472
G1 X28.719 Y143.721 E2.15527
G1 X22.405 Y145.909 E.33536
G1 X22.405 Y130.511 E.77276
G1 X22.545 Y130.45 E.00767
G1 X54.781 Y110.828 E1.89392
G1 X77.535 Y99.582 E1.27379
G1 X77.653 Y99.501 E.0072
G1 X97.041 Y81.883 E1.31471
G1 X108.835 Y73.531 E.72528
G1 X127.653 Y52.917 E1.40076
G1 X131.785 Y47.928 E.3251
G1 X135.973 Y42.939 E.32691
G1 X139.762 Y38.365 E.29811
G1 X145.004 Y33.543 E.35743
G1 X144.929 Y33.144 F7800
;TYPE:External perimeter
G1 F1800
G1 X144.98 Y33.097 E.00351
G1 X157.94 Y33.097 E.65041
G1 X157.94 Y41.396 E.4165
G1 X149.131 Y49.511 E.60109
G1 X137.957 Y62.928 E.87627
G1 X118.342 Y84.436 E1.46086
G1 X107.324 Y92.242 E.67767
G1 X86.081 Y111.531 E1.43998
G1 X65.58 Y121.681 E1.14811
G1 X28.867 Y144.035 E2.15712
G1 X22.06 Y146.393 E.36153
G1 X22.06 Y130.265 E.8094
G1 X22.366 Y130.155 E.0163
G1 X54.614 Y110.526 E1.89468
G1 X77.422 Y99.246 E1.27693
G1 X96.825 Y81.614 E1.31577
G1 X108.581 Y73.299 E.72264
G1 X127.388 Y52.697 E1.39997
G1 X131.52 Y47.707 E.32511
G1 X135.709 Y42.718 E.32697
G1 X139.511 Y38.127 E.29916
G1 X144.818 Y33.246 E.36185
G1 X144.996 Y33.164 F7800
G1 E-.7 F3600
;WIPE_START
G1 F6240
G1 X144.98 Y33.097 E-.12053
G1 X145.28 Y33.097 E-.16447
;WIPE_END
G1 E-.015 F3600
G1 X157.492 Y34.244 F7800
G1 E1 F2400
;TYPE:Solid infill
;WIDTH:0.420667
G1 F1800
G1 X156.948 Y33.7 E.03864
G1 X156.46 Y33.7 E.02457
G1 X157.336 Y34.577 E.06236
G1 X157.336 Y35.066 E.02457
G1 X155.971 Y33.7 E.09711
G1 X155.482 Y33.7 E.02457
G1 X157.336 Y35.554 E.13186
G1 X157.336 Y36.043 E.02457
G1 X154.993 Y33.7 E.16661
G1 X154.505 Y33.7 E.02457
G1 X157.336 Y36.532 E.20136
G1 X157.336 Y37.021 E.02457
G1 X154.016 Y33.7 E.23611
G1 X153.527 Y33.7 E.02457
G1 X157.336 Y37.509 E.27086
G1 X157.336 Y37.998 E.02457
G1 X153.039 Y33.7 E.30562
G1 X152.55 Y33.7 E.02457
G1 X157.336 Y38.487 E.34037
G1 X157.336 Y38.975 E.02457
G1 X152.061 Y33.7 E.37512
G1 X151.573 Y33.7 E.02457
G1 X157.336 Y39.464 E.40987
G1 X157.336 Y39.953 E.02457
G1 X151.084 Y33.7 E.44462
G1 X150.595 Y33.7 E.02457
G1 X157.336 Y40.441 E.47937
G1 X157.336 Y40.93 E.02457
G1 X150.107 Y33.7 E.51412
G1 X149.618 Y33.7 E.02457
G1 X157.187 Y41.269 E.53823
G1 X156.932 Y41.503 E.01739
G1 X149.129 Y33.7 E.5549
G1 X148.64 Y33.7 E.02457
G1 X156.678 Y41.738 E.57157
G1 X156.424 Y41.972 E.01739
G1 X148.152 Y33.7 E.58824
G1 X147.663 Y33.7 E.02457
G1 X156.17 Y42.207 E.60491
G1 X155.915 Y42.441 E.01739
G1 X147.174 Y33.7 E.62158
G1 X146.686 Y33.7 E.02457
G1 X155.661 Y42.676 E.63825
G1 X155.407 Y42.91 E.01739
G1 X146.197 Y33.7 E.65492
G1 X145.708 Y33.7 E.02457
G1 X155.153 Y43.144 E.67159
G1 X154.898 Y43.379 E.01739
G1 X145.22 Y33.7 E.68826
G1 X144.963 Y33.932 E.0174
G1 X154.644 Y43.613 E.68842
G1 X154.39 Y43.848 E.01739
G1 X144.708 Y34.166 E.68844
G1 X144.454 Y34.401 E.01739
G1 X154.135 Y44.082 E.68846
G1 X153.881 Y44.317 E.01739
G1 X144.199 Y34.635 E.68848
G1 X143.945 Y34.869 E.01739
G1 X153.627 Y44.551 E.6885
G1 X153.373 Y44.785 E.01739
G1 X143.69 Y35.103 E.68852
G1 X143.436 Y35.337 E.01739
G1 X153.118 Y45.02 E.68854
G1 X152.864 Y45.254 E.01739
G1 X143.181 Y35.571 E.68856
G1 X142.927 Y35.805 E.01739
G1 X152.61 Y45.489 E.68858
G1 X152.356 Y45.723 E.01739
G1 X142.672 Y36.04 E.6886
G1 X142.418 Y36.274 E.01739
G1 X152.101 Y45.957 E.68862
G1 X151.847 Y46.192 E.01739
G1 X142.163 Y36.508 E.68864
G1 X141.908 Y36.742 E.01739
G1 X151.593 Y46.426 E.68866
G1 X151.338 Y46.661 E.01739
G1 X141.654 Y36.976 E.68868
G1 X141.399 Y37.21 E.01739
G1 X151.084 Y46.895 E.6887
G1 X150.83 Y47.13 E.01739
G1 X141.145 Y37.444 E.68872
G1 X140.89 Y37.678 E.01739
G1 X150.576 Y47.364 E.68874
G1 X150.321 Y47.598 E.01739
G1 X140.636 Y37.913 E.68876
G1 X140.381 Y38.147 E.01739
G1 X150.067 Y47.833 E.68878
G1 X149.813 Y48.067 E.01739
G1 X140.127 Y38.381 E.6888
G1 X139.882 Y38.625 E.01738
G1 X149.559 Y48.302 E.6881
G1 X149.304 Y48.536 E.01739
G1 X139.661 Y38.893 E.68576
G1 X139.439 Y39.16 E.01745
G1 X149.05 Y48.77 E.68342
G1 X148.796 Y49.005 E.01739
G1 X139.218 Y39.427 E.68108
G1 X138.997 Y39.694 E.01745
G1 X148.558 Y49.256 E.6799
G1 X148.336 Y49.522 E.01745
G1 X138.775 Y39.962 E.67986
G1 X138.554 Y40.229 E.01745
G1 X148.114 Y49.789 E.67981
G1 X147.892 Y50.056 E.01745
G1 X138.333 Y40.496 E.67976
G1 X138.111 Y40.764 E.01745
G1 X147.67 Y50.322 E.67971
G1 X147.448 Y50.589 E.01745
G1 X137.89 Y41.031 E.67967
G1 X137.668 Y41.298 E.01745
G1 X147.226 Y50.855 E.67962
G1 X147.004 Y51.122 E.01745
G1 X137.447 Y41.566 E.67957
G1 X137.226 Y41.833 E.01745
G1 X146.781 Y51.389 E.67952
G1 X146.559 Y51.655 E.01745
G1 X137.004 Y42.1 E.67948
G1 X136.783 Y42.368 E.01745
G1 X146.337 Y51.922 E.67943
G1 X146.115 Y52.189 E.01745
G1 X136.561 Y42.635 E.67938
G1 X136.34 Y42.902 E.01745
G1 X145.893 Y52.455 E.67933
G1 X145.671 Y52.722 E.01745
G1 X136.118 Y43.169 E.67932
G1 X135.895 Y43.435 E.01744
G1 X145.449 Y52.989 E.67939
G1 X145.227 Y53.255 E.01745
G1 X135.672 Y43.7 E.67946
G1 X135.449 Y43.966 E.01744
G1 X145.005 Y53.522 E.67953
G1 X144.783 Y53.789 E.01745
G1 X135.226 Y44.232 E.6796
G1 X135.003 Y44.497 E.01744
G1 X144.561 Y54.055 E.67967
G1 X144.339 Y54.322 E.01745
G1 X134.78 Y44.763 E.67974
G1 X134.557 Y45.029 E.01744
G1 X144.117 Y54.588 E.67982
G1 X143.895 Y54.855 E.01745
G1 X134.334 Y45.294 E.67989
G1 X134.111 Y45.56 E.01744
G1 X143.673 Y55.122 E.67996
G1 X143.451 Y55.388 E.01745
G1 X133.888 Y45.825 E.68003
G1 X133.665 Y46.091 E.01744
G1 X143.229 Y55.655 E.6801
G1 X143.007 Y55.922 E.01745
G1 X133.442 Y46.357 E.68017
G1 X133.219 Y46.622 E.01744
M73 P0 R155
G1 X142.785 Y56.188 E.68024
G1 X142.563 Y56.455 E.01745
G1 X132.996 Y46.888 E.68032
G1 X132.773 Y47.154 E.01744
G1 X142.341 Y56.722 E.68039
G1 X142.118 Y56.988 E.01745
G1 X132.549 Y47.419 E.68046
G1 X132.326 Y47.685 E.01744
G1 X141.896 Y57.255 E.68053
G1 X141.674 Y57.522 E.01745
G1 X132.103 Y47.951 E.6806
G1 X131.881 Y48.217 E.01745
G1 X141.452 Y57.788 E.68062
G1 X141.23 Y58.055 E.01745
G1 X131.66 Y48.484 E.68057
G1 X131.438 Y48.752 E.01745
G1 X141.008 Y58.321 E.68052
G1 X140.786 Y58.588 E.01745
G1 X131.217 Y49.019 E.68048
G1 X130.996 Y49.286 E.01745
G1 X140.564 Y58.855 E.68043
G1 X140.342 Y59.121 E.01745
G1 X130.774 Y49.553 E.68038
G1 X130.553 Y49.821 E.01745
G1 X140.12 Y59.388 E.68034
G1 X139.898 Y59.655 E.01745
G1 X130.331 Y50.088 E.68029
G1 X130.11 Y50.355 E.01745
G1 X139.676 Y59.921 E.68024
G1 X139.454 Y60.188 E.01745
G1 X129.889 Y50.623 E.6802
G1 X129.667 Y50.89 E.01745
G1 X139.232 Y60.455 E.68015
G1 X139.01 Y60.721 E.01745
G1 X129.446 Y51.157 E.6801
G1 X129.224 Y51.425 E.01745
G1 X138.788 Y60.988 E.68006
G1 X138.566 Y61.255 E.01745
G1 X129.003 Y51.692 E.68001
G1 X128.782 Y51.959 E.01745
G1 X138.344 Y61.521 E.67996
G1 X138.122 Y61.788 E.01745
G1 X128.56 Y52.226 E.67991
G1 X128.339 Y52.494 E.01745
G1 X137.9 Y62.054 E.67987
G1 X137.678 Y62.321 E.01745
G1 X128.117 Y52.761 E.67982
G1 X127.896 Y53.028 E.01745
G1 X137.453 Y62.585 E.67961
G1 X137.22 Y62.841 E.01739
G1 X127.666 Y53.287 E.67937
G1 X127.433 Y53.543 E.01739
G1 X136.987 Y63.097 E.67937
G1 X136.754 Y63.352 E.01739
G1 X127.2 Y53.798 E.67938
G1 X126.967 Y54.054 E.01739
G1 X136.521 Y63.608 E.67939
G1 X136.288 Y63.863 E.01739
G1 X126.734 Y54.309 E.6794
G1 X126.5 Y54.565 E.01739
G1 X136.055 Y64.119 E.67941
G1 X135.821 Y64.375 E.01739
G1 X126.267 Y54.82 E.67942
G1 X126.034 Y55.076 E.01739
G1 X135.588 Y64.63 E.67943
G1 X135.355 Y64.886 E.01739
G1 X125.801 Y55.331 E.67943
G1 X125.567 Y55.587 E.01739
G1 X135.122 Y65.141 E.67944
G1 X134.889 Y65.397 E.01739
G1 X125.334 Y55.842 E.67945
G1 X125.101 Y56.098 E.01739
G1 X134.656 Y65.652 E.67946
G1 X134.423 Y65.908 E.01739
G1 X124.868 Y56.353 E.67947
G1 X124.635 Y56.608 E.01739
G1 X134.19 Y66.164 E.67948
G1 X133.957 Y66.419 E.01739
G1 X124.401 Y56.864 E.67948
G1 X124.168 Y57.119 E.01739
G1 X133.723 Y66.675 E.67949
G1 X133.49 Y66.93 E.01739
G1 X123.935 Y57.375 E.6795
G1 X123.702 Y57.63 E.01739
G1 X133.257 Y67.186 E.67951
G1 X133.024 Y67.442 E.01739
G1 X123.468 Y57.886 E.67952
G1 X123.235 Y58.141 E.01739
M73 P1 R155
G1 X132.791 Y67.697 E.67953
G1 X132.558 Y67.953 E.01739
G1 X123.002 Y58.397 E.67954
G1 X122.769 Y58.652 E.01739
G1 X132.325 Y68.208 E.67954
G1 X132.092 Y68.464 E.01739
G1 X122.536 Y58.908 E.67955
G1 X122.302 Y59.163 E.01739
G1 X131.859 Y68.72 E.67956
G1 X131.626 Y68.975 E.01739
G1 X122.069 Y59.419 E.67957
G1 X121.836 Y59.674 E.01739
G1 X131.392 Y69.231 E.67958
G1 X131.159 Y69.486 E.01739
G1 X121.603 Y59.93 E.67959
G1 X121.369 Y60.185 E.01739
G1 X130.926 Y69.742 E.67959
G1 X130.693 Y69.997 E.01739
G1 X121.136 Y60.44 E.6796
G1 X120.903 Y60.696 E.01739
G1 X130.46 Y70.253 E.67961
G1 X130.227 Y70.509 E.01739
G1 X120.67 Y60.951 E.67962
G1 X120.437 Y61.207 E.01739
G1 X129.994 Y70.764 E.67963
G1 X129.761 Y71.02 E.01739
G1 X120.203 Y61.462 E.67964
G1 X119.97 Y61.718 E.01739
G1 X129.528 Y71.275 E.67965
G1 X129.295 Y71.531 E.01739
G1 X119.737 Y61.973 E.67965
G1 X119.504 Y62.229 E.01739
G1 X129.061 Y71.787 E.67966
G1 X128.828 Y72.042 E.01739
G1 X119.27 Y62.484 E.67967
G1 X119.037 Y62.74 E.01739
G1 X128.595 Y72.298 E.67968
G1 X128.362 Y72.553 E.01739
G1 X118.804 Y62.995 E.67969
G1 X118.571 Y63.251 E.01739
G1 X128.129 Y72.809 E.6797
G1 X127.896 Y73.065 E.01739
G1 X118.338 Y63.506 E.6797
G1 X118.104 Y63.762 E.01739
G1 X127.663 Y73.32 E.67971
G1 X127.43 Y73.576 E.01739
G1 X117.871 Y64.017 E.67972
G1 X117.638 Y64.273 E.01739
G1 X127.197 Y73.831 E.67973
G1 X126.964 Y74.087 E.01739
G1 X117.405 Y64.528 E.67974
G1 X117.171 Y64.783 E.01739
G1 X126.73 Y74.342 E.67975
G1 X126.497 Y74.598 E.01739
G1 X116.938 Y65.039 E.67976
G1 X116.705 Y65.294 E.01739
G1 X126.264 Y74.854 E.67976
G1 X126.031 Y75.109 E.01739
G1 X116.472 Y65.55 E.67977
G1 X116.239 Y65.805 E.01739
G1 X125.798 Y75.365 E.67978
G1 X125.565 Y75.62 E.01739
G1 X116.005 Y66.061 E.67979
G1 X115.772 Y66.316 E.01739
G1 X125.332 Y75.876 E.6798
G1 X125.099 Y76.132 E.01739
G1 X115.539 Y66.572 E.67981
G1 X115.306 Y66.827 E.01739
G1 X124.866 Y76.387 E.67981
G1 X124.633 Y76.643 E.01739
G1 X115.072 Y67.083 E.67982
G1 X114.839 Y67.338 E.01739
G1 X124.399 Y76.898 E.67983
G1 X124.166 Y77.154 E.01739
G1 X114.606 Y67.594 E.67984
G1 X114.373 Y67.849 E.01739
G1 X123.933 Y77.409 E.67985
G1 X123.7 Y77.665 E.01739
G1 X114.14 Y68.105 E.67986
G1 X113.906 Y68.36 E.01739
G1 X123.467 Y77.921 E.67987
G1 X123.234 Y78.176 E.01739
G1 X113.673 Y68.615 E.67987
G1 X113.44 Y68.871 E.01739
G1 X123.001 Y78.432 E.67988
G1 X122.768 Y78.687 E.01739
G1 X113.207 Y69.126 E.67989
G1 X112.973 Y69.382 E.01739
G1 X122.535 Y78.943 E.6799
G1 X122.301 Y79.199 E.01739
G1 X112.74 Y69.637 E.67991
G1 X112.507 Y69.893 E.01739
G1 X122.068 Y79.454 E.67992
G1 X121.835 Y79.71 E.01739
G1 X112.274 Y70.148 E.67993
G1 X112.041 Y70.404 E.01739
G1 X121.602 Y79.965 E.67993
G1 X121.369 Y80.221 E.01739
G1 X111.807 Y70.659 E.67994
G1 X111.574 Y70.915 E.01739
G1 X121.136 Y80.477 E.67995
G1 X120.903 Y80.732 E.01739
G1 X111.341 Y71.17 E.67996
G1 X111.108 Y71.426 E.01739
G1 X120.67 Y80.988 E.67997
G1 X120.437 Y81.243 E.01739
G1 X110.874 Y71.681 E.67998
G1 X110.641 Y71.937 E.01739
G1 X120.204 Y81.499 E.67998
G1 X119.97 Y81.754 E.01739
G1 X110.408 Y72.192 E.67999
G1 X110.175 Y72.448 E.01739
G1 X119.737 Y82.01 E.68
G1 X119.504 Y82.266 E.01739
G1 X109.942 Y72.703 E.68001
G1 X109.708 Y72.958 E.01739
G1 X119.271 Y82.521 E.68002
G1 X119.038 Y82.777 E.01739
G1 X109.475 Y73.214 E.68003
G1 X109.242 Y73.469 E.01739
G1 X118.805 Y83.032 E.68004
G1 X118.572 Y83.288 E.01739
G1 X109.007 Y73.723 E.68016
G1 X108.731 Y73.936 E.01752
G1 X118.339 Y83.544 E.68319
G1 X118.106 Y83.799 E.01739
G1 X108.445 Y74.139 E.68698
G1 X108.159 Y74.341 E.01763
G1 X117.857 Y84.039 E.68967
G1 X117.571 Y84.242 E.01763
G1 X107.872 Y74.543 E.6897
G1 X107.586 Y74.746 E.01763
G1 X117.285 Y84.445 E.68972
G1 X116.999 Y84.648 E.01763
G1 X107.3 Y74.948 E.68974
G1 X107.013 Y75.15 E.01763
G1 X116.713 Y84.85 E.68977
G1 X116.427 Y85.053 E.01763
G1 X106.727 Y75.353 E.68979
G1 X106.441 Y75.555 E.01763
G1 X116.141 Y85.256 E.68982
G1 X115.855 Y85.459 E.01763
G1 X106.155 Y75.758 E.68984
G1 X105.868 Y75.96 E.01763
G1 X115.57 Y85.661 E.68986
G1 X115.284 Y85.864 E.01763
G1 X105.582 Y76.162 E.68989
G1 X105.296 Y76.365 E.01763
G1 X114.998 Y86.067 E.68991
G1 X114.712 Y86.269 E.01763
G1 X105.009 Y76.567 E.68993
G1 X104.723 Y76.77 E.01763
M73 P1 R154
G1 X114.426 Y86.472 E.68996
G1 X114.14 Y86.675 E.01763
G1 X104.437 Y76.972 E.68998
G1 X104.15 Y77.174 E.01763
G1 X113.854 Y86.878 E.69001
G1 X113.568 Y87.08 E.01763
G1 X103.864 Y77.377 E.69003
G1 X103.578 Y77.579 E.01763
G1 X113.282 Y87.283 E.69005
G1 X112.996 Y87.486 E.01763
G1 X103.292 Y77.782 E.69008
G1 X103.005 Y77.984 E.01763
G1 X112.71 Y87.688 E.6901
G1 X112.424 Y87.891 E.01763
G1 X102.719 Y78.186 E.69012
G1 X102.433 Y78.389 E.01763
G1 X112.138 Y88.094 E.69015
G1 X111.852 Y88.297 E.01763
G1 X102.146 Y78.591 E.69017
G1 X101.86 Y78.793 E.01763
G1 X111.566 Y88.499 E.6902
G1 X111.28 Y88.702 E.01763
G1 X101.574 Y78.996 E.69022
G1 X101.287 Y79.198 E.01763
G1 X110.994 Y88.905 E.69024
G1 X110.708 Y89.108 E.01763
G1 X101.001 Y79.401 E.69027
G1 X100.715 Y79.603 E.01763
G1 X110.422 Y89.31 E.69029
G1 X110.136 Y89.513 E.01763
G1 X100.429 Y79.805 E.69031
G1 X100.142 Y80.008 E.01763
G1 X109.85 Y89.716 E.69034
G1 X109.564 Y89.918 E.01763
G1 X99.856 Y80.21 E.69036
G1 X99.57 Y80.413 E.01763
G1 X109.278 Y90.121 E.69039
G1 X108.992 Y90.324 E.01763
G1 X99.283 Y80.615 E.69041
G1 X98.997 Y80.817 E.01763
G1 X108.706 Y90.527 E.69043
G1 X108.42 Y90.729 E.01763
G1 X98.711 Y81.02 E.69046
G1 X98.424 Y81.222 E.01763
G1 X108.134 Y90.932 E.69048
G1 X107.848 Y91.135 E.01763
G1 X98.138 Y81.425 E.6905
G1 X97.852 Y81.627 E.01763
G1 X107.562 Y91.338 E.69053
G1 X107.276 Y91.54 E.01763
G1 X97.566 Y81.829 E.69055
G1 X97.279 Y82.032 E.01763
G1 X106.991 Y91.743 E.69058
G1 X106.727 Y91.968 E.01743
G1 X97.015 Y82.256 E.69063
G1 X96.759 Y82.489 E.0174
G1 X106.471 Y92.201 E.69063
G1 X106.215 Y92.434 E.0174
G1 X96.503 Y82.722 E.69062
G1 X96.247 Y82.954 E.0174
G1 X105.959 Y92.666 E.69062
G1 X105.703 Y92.899 E.0174
G1 X95.991 Y83.187 E.69062
G1 X95.735 Y83.419 E.0174
G1 X105.447 Y93.131 E.69061
G1 X105.19 Y93.364 E.0174
G1 X95.479 Y83.652 E.69061
G1 X95.223 Y83.885 E.0174
G1 X104.934 Y93.596 E.6906
G1 X104.678 Y93.829 E.0174
G1 X94.967 Y84.117 E.6906
G1 X94.711 Y84.35 E.0174
G1 X104.422 Y94.061 E.6906
G1 X104.166 Y94.294 E.0174
G1 X94.455 Y84.583 E.69059
G1 X94.198 Y84.815 E.0174
G1 X103.91 Y94.527 E.69059
G1 X103.654 Y94.759 E.0174
G1 X93.942 Y85.048 E.69058
G1 X93.686 Y85.28 E.0174
G1 X103.398 Y94.992 E.69058
G1 X103.142 Y95.224 E.0174
G1 X93.43 Y85.513 E.69058
G1 X93.174 Y85.746 E.0174
G1 X102.885 Y95.457 E.69057
G1 X102.629 Y95.689 E.0174
G1 X92.918 Y85.978 E.69057
G1 X92.662 Y86.211 E.0174
G1 X102.373 Y95.922 E.69056
G1 X102.117 Y96.155 E.0174
