; generated by PrusaSlicer 2.5.0+win64 on 2022-12-07 at 00:03:13 UTC

; 

; external perimeters extrusion width = 1.00mm
; perimeters extrusion width = 1.00mm
; infill extrusion width = 1.00mm
; solid infill extrusion width = 1.00mm
; top infill extrusion width = 1.00mm
; support material extrusion width = 1.00mm
; first layer extrusion width = 0.42mm

M73 P0 R66
M107
;TYPE:Custom
G90 ; use absolute coordinates
M83 ; extruder relative mode
M140 S60 ; set final bed temp
M104 S150 ; set temporary nozzle temp to prevent oozing during homing and auto bed leveling
G4 S10 ; allow partial nozzle warmup
G28 ; home all axisG1 Z50 F240
G1 X7.6 Y10 F3000
M104 S210 ; set final nozzle temp
M190 S60 ; wait for bed temp to stabilize
M109 S210 ; wait for nozzle temp to stabilize
G1 Z0.28 F240
G92 E0
G1 Y140 E10 F1500 ; prime the nozzle
G1 X4 F5000
G92 E0
G1 Y10 E10 F1200 ; prime the nozzle
G92 E0
G21 ; set units to millimeters
G90 ; use absolute coordinates
M83 ; use relative distances for extrusion
; Filament gcode
M107
;LAYER_CHANGE
;Z:0.35
;HEIGHT:0.35
;BEFORE_LAYER_CHANGE
G92 E0
;0.35


G1 E-1 F3600
G1 Z.35 F7800
;AFTER_LAYER_CHANGE
;0.35
G1 X83.407 Y134.183
G1 E1 F2400
;TYPE:Perimeter
;WIDTH:0.42
G1 F1800
G1 X68.573 Y134.183 E.74443
G1 X71.32 Y127.901 E.34408
G1 X112.17 Y48.132 E4.49767
G1 X112.17 Y77.968 E1.49731
G1 X83.475 Y134.049 E3.16154
G1 X83.618 Y134.528 F7800
;TYPE:External perimeter
G1 F1800
G1 X68.046 Y134.528 E.78148
G1 X71.008 Y127.753 E.37107
G1 X112.515 Y46.702 E4.56997
G1 X112.515 Y78.051 E1.57326
G1 X83.686 Y134.394 E3.1763
G1 X82.809 Y133.939 F7800
G1 E-.7 F3600
;WIPE_START
G1 F6240
G1 X83.166 Y134.399 E-.285
;WIPE_END
G1 E-.015 F3600
G1 X111.633 Y49.408 F7800
G1 E1 F2400
;TYPE:Solid infill
;WIDTH:0.420192
G1 F1800
G1 X111.912 Y49.686 E.01978
G1 X111.912 Y50.175 E.02451
G1 X111.583 Y49.846 E.02332
G1 X111.418 Y50.169 E.01821
G1 X111.912 Y50.663 E.03506
G1 X111.912 Y51.151 E.02451
G1 X111.253 Y50.492 E.0468
G1 X111.087 Y50.814 E.01821
G1 X111.912 Y51.639 E.05854
G1 X111.912 Y52.127 E.02451
G1 X110.922 Y51.137 E.07027
G1 X110.757 Y51.46 E.01821
G1 X111.912 Y52.615 E.08201
G1 X111.912 Y53.103 E.02451
G1 X110.591 Y51.782 E.09375
G1 X110.426 Y52.105 E.01821
G1 X111.912 Y53.591 E.10548
G1 X111.912 Y54.079 E.02451
G1 X110.261 Y52.428 E.11722
G1 X110.096 Y52.751 E.01821
M73 P0 R65
G1 X111.912 Y54.567 E.12896
G1 X111.912 Y55.055 E.02451
G1 X109.93 Y53.073 E.14069
G1 X109.765 Y53.396 E.01821
G1 X111.912 Y55.543 E.15243
G1 X111.912 Y56.031 E.02451
G1 X109.6 Y53.719 E.16417
G1 X109.434 Y54.042 E.01821
G1 X111.912 Y56.519 E.1759
G1 X111.912 Y57.007 E.02451
G1 X109.269 Y54.364 E.18764
G1 X109.104 Y54.687 E.01821
G1 X111.912 Y57.495 E.19938
G1 X111.912 Y57.983 E.02451
G1 X108.939 Y55.01 E.21111
G1 X108.773 Y55.333 E.01821
G1 X111.912 Y58.471 E.22285
G1 X111.912 Y58.959 E.02451
G1 X108.608 Y55.655 E.23459
G1 X108.443 Y55.978 E.01821
G1 X111.912 Y59.447 E.24633
G1 X111.912 Y59.935 E.02451
G1 X108.278 Y56.301 E.25806
G1 X108.112 Y56.624 E.01821
G1 X111.912 Y60.423 E.2698
G1 X111.912 Y60.911 E.02451
G1 X107.947 Y56.946 E.28154
G1 X107.782 Y57.269 E.01821
G1 X111.912 Y61.399 E.29327
G1 X111.912 Y61.887 E.02451
G1 X107.616 Y57.592 E.30501
G1 X107.451 Y57.915 E.01821
G1 X111.912 Y62.375 E.31675
G1 X111.912 Y62.863 E.02451
G1 X107.286 Y58.237 E.32848
G1 X107.121 Y58.56 E.01821
G1 X111.912 Y63.351 E.34022
G1 X111.912 Y63.839 E.02451
G1 X106.955 Y58.883 E.35196
G1 X106.79 Y59.206 E.01821
G1 X111.912 Y64.327 E.36369
G1 X111.912 Y64.815 E.02451
G1 X106.625 Y59.528 E.37543
G1 X106.459 Y59.851 E.01821
G1 X111.912 Y65.303 E.38717
G1 X111.912 Y65.791 E.02451
G1 X106.294 Y60.174 E.39891
G1 X106.129 Y60.496 E.01821
G1 X111.912 Y66.279 E.41064
G1 X111.912 Y66.767 E.02451
G1 X105.964 Y60.819 E.42238
G1 X105.798 Y61.142 E.01821
G1 X111.912 Y67.255 E.43412
G1 X111.912 Y67.743 E.02451
G1 X105.633 Y61.465 E.44585
G1 X105.468 Y61.787 E.01821
G1 X111.912 Y68.231 E.45759
G1 X111.912 Y68.719 E.02451
G1 X105.303 Y62.11 E.46933
G1 X105.137 Y62.433 E.01821
G1 X111.912 Y69.207 E.48106
G1 X111.912 Y69.695 E.02451
G1 X104.972 Y62.756 E.4928
G1 X104.807 Y63.078 E.01821
G1 X111.912 Y70.183 E.50454
G1 X111.912 Y70.671 E.02451
G1 X104.641 Y63.401 E.51627
G1 X104.476 Y63.724 E.01821
G1 X111.912 Y71.159 E.52801
G1 X111.912 Y71.647 E.02451
G1 X104.311 Y64.047 E.53975
G1 X104.146 Y64.369 E.01821
M73 P1 R65
G1 X111.912 Y72.135 E.55148
G1 X111.912 Y72.623 E.02451
G1 X103.98 Y64.692 E.56322
G1 X103.815 Y65.015 E.01821
G1 X111.912 Y73.111 E.57496
G1 X111.912 Y73.599 E.02451
G1 X103.65 Y65.338 E.5867
G1 X103.484 Y65.66 E.01821
G1 X111.912 Y74.087 E.59843
G1 X111.912 Y74.575 E.02451
G1 X103.319 Y65.983 E.61017
G1 X103.154 Y66.306 E.01821
G1 X111.912 Y75.063 E.62191
G1 X111.912 Y75.551 E.02451
G1 X102.989 Y66.629 E.63364
G1 X102.823 Y66.951 E.01821
G1 X111.912 Y76.039 E.64538
G1 X111.912 Y76.527 E.02451
G1 X102.658 Y67.274 E.65712
G1 X102.493 Y67.597 E.01821
G1 X111.912 Y77.016 E.66885
G1 X111.912 Y77.504 E.02451
G1 X102.328 Y67.92 E.68059
G1 X102.162 Y68.242 E.01821
G1 X111.882 Y77.962 E.69025
G1 X111.717 Y78.285 E.01821
G1 X101.997 Y68.565 E.69026
G1 X101.832 Y68.888 E.01821
G1 X111.552 Y78.608 E.69026
G1 X111.387 Y78.931 E.01821
G1 X101.666 Y69.21 E.69027
G1 X101.501 Y69.533 E.01821
G1 X111.222 Y79.254 E.69028
G1 X111.056 Y79.576 E.01821
G1 X101.336 Y69.856 E.69028
G1 X101.171 Y70.179 E.01821
G1 X110.891 Y79.899 E.69029
G1 X110.726 Y80.222 E.01821
G1 X101.005 Y70.501 E.6903
G1 X100.84 Y70.824 E.01821
G1 X110.561 Y80.545 E.6903
G1 X110.396 Y80.868 E.01821
G1 X100.675 Y71.147 E.69031
G1 X100.509 Y71.47 E.01821
G1 X110.23 Y81.191 E.69032
G1 X110.065 Y81.513 E.01821
G1 X100.344 Y71.792 E.69032
G1 X100.179 Y72.115 E.01821
G1 X109.9 Y81.836 E.69033
G1 X109.735 Y82.159 E.01821
G1 X100.014 Y72.438 E.69034
G1 X99.848 Y72.761 E.01821
G1 X109.57 Y82.482 E.69034
G1 X109.405 Y82.805 E.01821
G1 X99.683 Y73.083 E.69035
G1 X99.518 Y73.406 E.01821
G1 X109.239 Y83.128 E.69036
G1 X109.074 Y83.45 E.01821
G1 X99.353 Y73.729 E.69036
G1 X99.187 Y74.052 E.01821
G1 X108.909 Y83.773 E.69037
G1 X108.744 Y84.096 E.01821
G1 X99.022 Y74.374 E.69038
G1 X98.857 Y74.697 E.01821
G1 X108.579 Y84.419 E.69038
G1 X108.413 Y84.742 E.01821
G1 X98.691 Y75.02 E.69039
G1 X98.526 Y75.343 E.01821
G1 X108.248 Y85.065 E.6904
G1 X108.083 Y85.387 E.01821
G1 X98.361 Y75.665 E.6904
G1 X98.196 Y75.988 E.01821
G1 X107.918 Y85.71 E.69041
G1 X107.753 Y86.033 E.01821
G1 X98.03 Y76.311 E.69042
G1 X97.865 Y76.633 E.01821
G1 X107.588 Y86.356 E.69042
G1 X107.422 Y86.679 E.01821
G1 X97.7 Y76.956 E.69043
G1 X97.534 Y77.279 E.01821
G1 X107.257 Y87.002 E.69044
G1 X107.092 Y87.324 E.01821
G1 X97.369 Y77.602 E.69044
G1 X97.204 Y77.924 E.01821
G1 X106.927 Y87.647 E.69045
G1 X106.762 Y87.97 E.01821
G1 X97.039 Y78.247 E.69046
G1 X96.873 Y78.57 E.01821
G1 X106.596 Y88.293 E.69046
G1 X106.431 Y88.616 E.01821
G1 X96.708 Y78.893 E.69047
G1 X96.543 Y79.215 E.01821
G1 X106.266 Y88.939 E.69048
G1 X106.101 Y89.262 E.01821
G1 X96.378 Y79.538 E.69048
G1 X96.212 Y79.861 E.01821
G1 X105.936 Y89.584 E.69049
G1 X105.771 Y89.907 E.01821
G1 X96.047 Y80.184 E.6905
G1 X95.882 Y80.506 E.01821
G1 X105.605 Y90.23 E.6905
G1 X105.44 Y90.553 E.01821
G1 X95.716 Y80.829 E.69051
G1 X95.551 Y81.152 E.01821
G1 X105.275 Y90.876 E.69052
G1 X105.11 Y91.199 E.01821
G1 X95.386 Y81.475 E.69052
G1 X95.221 Y81.797 E.01821
G1 X104.945 Y91.521 E.69053
G1 X104.779 Y91.844 E.01821
G1 X95.055 Y82.12 E.69054
G1 X94.89 Y82.443 E.01821
G1 X104.614 Y92.167 E.69054
G1 X104.449 Y92.49 E.01821
G1 X94.725 Y82.766 E.69055
G1 X94.559 Y83.088 E.01821
G1 X104.284 Y92.813 E.69056
G1 X104.119 Y93.136 E.01821
G1 X94.394 Y83.411 E.69056
G1 X94.229 Y83.734 E.01821
G1 X103.953 Y93.458 E.69057
G1 X103.788 Y93.781 E.01821
G1 X94.064 Y84.057 E.69058
G1 X93.898 Y84.379 E.01821
G1 X103.623 Y94.104 E.69058
G1 X103.458 Y94.427 E.01821
G1 X93.733 Y84.702 E.69059
G1 X93.568 Y85.025 E.01821
G1 X103.293 Y94.75 E.6906
G1 X103.128 Y95.073 E.01821
G1 X93.403 Y85.347 E.6906
G1 X93.237 Y85.67 E.01821
G1 X102.962 Y95.395 E.69061
G1 X102.797 Y95.718 E.01821
G1 X93.072 Y85.993 E.69062
G1 X92.907 Y86.316 E.01821
G1 X102.632 Y96.041 E.69062
G1 X102.467 Y96.364 E.01821
G1 X92.741 Y86.638 E.69063
G1 X92.576 Y86.961 E.01821
G1 X102.302 Y96.687 E.69064
G1 X102.136 Y97.01 E.01821
G1 X92.411 Y87.284 E.69064
G1 X92.246 Y87.607 E.01821
G1 X101.971 Y97.332 E.69065
G1 X101.806 Y97.655 E.01821
G1 X92.08 Y87.929 E.69066
G1 X91.915 Y88.252 E.01821
G1 X101.641 Y97.978 E.69066
G1 X101.476 Y98.301 E.01821
G1 X91.75 Y88.575 E.69067
G1 X91.584 Y88.898 E.01821
G1 X101.311 Y98.624 E.69068
G1 X101.145 Y98.947 E.01821
G1 X91.419 Y89.22 E.69068
G1 X91.254 Y89.543 E.01821
G1 X100.98 Y99.269 E.69069
G1 X100.815 Y99.592 E.01821
M73 P2 R65
G1 X91.089 Y89.866 E.6907
G1 X90.923 Y90.189 E.01821
G1 X100.65 Y99.915 E.6907
G1 X100.485 Y100.238 E.01821
G1 X90.758 Y90.511 E.69071
G1 X90.593 Y90.834 E.01821
G1 X100.319 Y100.561 E.69072
G1 X100.154 Y100.884 E.01821
G1 X90.428 Y91.157 E.69072
G1 X90.262 Y91.48 E.01821
G1 X99.989 Y101.206 E.69073
G1 X99.824 Y101.529 E.01821
G1 X90.097 Y91.802 E.69074
G1 X89.932 Y92.125 E.01821
G1 X99.659 Y101.852 E.69074
G1 X99.494 Y102.175 E.01821
G1 X89.766 Y92.448 E.69075
G1 X89.601 Y92.77 E.01821
G1 X99.328 Y102.498 E.69076
G1 X99.163 Y102.821 E.01821
G1 X89.436 Y93.093 E.69076
G1 X89.271 Y93.416 E.01821
G1 X98.998 Y103.143 E.69077
G1 X98.833 Y103.466 E.01821
G1 X89.105 Y93.739 E.69078
G1 X88.94 Y94.061 E.01821
G1 X98.668 Y103.789 E.69078
G1 X98.502 Y104.112 E.01821
G1 X88.775 Y94.384 E.69079
G1 X88.609 Y94.707 E.01821
G1 X98.337 Y104.435 E.6908
G1 X98.172 Y104.758 E.01821
G1 X88.444 Y95.03 E.6908
G1 X88.279 Y95.352 E.01821
G1 X98.007 Y105.08 E.69081
G1 X97.842 Y105.403 E.01821
G1 X88.114 Y95.675 E.69082
G1 X87.948 Y95.998 E.01821
G1 X97.676 Y105.726 E.69082
G1 X97.511 Y106.049 E.01821
M73 P2 R64
G1 X87.783 Y96.321 E.69083
G1 X87.618 Y96.643 E.01821
G1 X97.346 Y106.372 E.69084
G1 X97.181 Y106.695 E.01821
G1 X87.453 Y96.966 E.69084
G1 X87.287 Y97.289 E.01821
G1 X97.016 Y107.017 E.69085
G1 X96.851 Y107.34 E.01821
G1 X87.122 Y97.612 E.69086
G1 X86.957 Y97.934 E.01821
G1 X96.685 Y107.663 E.69086
G1 X96.52 Y107.986 E.01821
G1 X86.791 Y98.257 E.69087
G1 X86.626 Y98.58 E.01821
G1 X96.355 Y108.309 E.69088
G1 X96.19 Y108.632 E.01821
G1 X86.461 Y98.903 E.69088
G1 X86.296 Y99.225 E.01821
G1 X96.025 Y108.954 E.69089
G1 X95.859 Y109.277 E.01821
G1 X86.13 Y99.548 E.6909
G1 X85.965 Y99.871 E.01821
G1 X95.694 Y109.6 E.6909
G1 X95.529 Y109.923 E.01821
G1 X85.8 Y100.194 E.69091
G1 X85.634 Y100.516 E.01821
G1 X95.364 Y110.246 E.69092
G1 X95.199 Y110.569 E.01821
G1 X85.469 Y100.839 E.69092
G1 X85.304 Y101.162 E.01821
G1 X95.034 Y110.891 E.69093
G1 X94.868 Y111.214 E.01821
G1 X85.139 Y101.484 E.69094
G1 X84.973 Y101.807 E.01821
G1 X94.703 Y111.537 E.69094
G1 X94.538 Y111.86 E.01821
G1 X84.808 Y102.13 E.69095
G1 X84.643 Y102.453 E.01821
G1 X94.373 Y112.183 E.69096
G1 X94.208 Y112.506 E.01821
G1 X84.478 Y102.775 E.69096
G1 X84.312 Y103.098 E.01821
G1 X94.042 Y112.828 E.69097
G1 X93.877 Y113.151 E.01821
G1 X84.147 Y103.421 E.69098
G1 X83.982 Y103.744 E.01821
G1 X93.712 Y113.474 E.69098
G1 X93.547 Y113.797 E.01821
G1 X83.816 Y104.066 E.69099
G1 X83.651 Y104.389 E.01821
G1 X93.382 Y114.12 E.691
G1 X93.217 Y114.443 E.01821
G1 X83.486 Y104.712 E.691
G1 X83.321 Y105.035 E.01821
G1 X93.051 Y114.765 E.69101
G1 X92.886 Y115.088 E.01821
G1 X83.155 Y105.357 E.69102
G1 X82.99 Y105.68 E.01821
G1 X92.721 Y115.411 E.69102
G1 X92.556 Y115.734 E.01821
G1 X82.825 Y106.003 E.69103
G1 X82.659 Y106.326 E.01821
G1 X92.391 Y116.057 E.69104
G1 X92.225 Y116.38 E.01821
G1 X82.494 Y106.648 E.69104
G1 X82.329 Y106.971 E.01821
G1 X92.06 Y116.702 E.69105
G1 X91.895 Y117.025 E.01821
G1 X82.164 Y107.294 E.69106
G1 X81.998 Y107.617 E.01821
G1 X91.73 Y117.348 E.69106
G1 X91.565 Y117.671 E.01821
G1 X81.833 Y107.939 E.69107
G1 X81.668 Y108.262 E.01821
G1 X91.399 Y117.994 E.69108
G1 X91.234 Y118.317 E.01821
G1 X81.502 Y108.585 E.69108
G1 X81.337 Y108.908 E.01821
G1 X91.069 Y118.639 E.69109
G1 X90.904 Y118.962 E.01821
G1 X81.172 Y109.23 E.6911
G1 X81.007 Y109.553 E.01821
G1 X90.739 Y119.285 E.6911
G1 X90.574 Y119.608 E.01821
G1 X80.841 Y109.876 E.69111
G1 X80.676 Y110.198 E.01821
G1 X90.408 Y119.931 E.69112
G1 X90.243 Y120.254 E.01821
G1 X80.511 Y110.521 E.69112
G1 X80.346 Y110.844 E.01821
G1 X90.078 Y120.576 E.69113
G1 X89.913 Y120.899 E.01821
G1 X80.18 Y111.167 E.69114
G1 X80.015 Y111.489 E.01821
G1 X89.748 Y121.222 E.69114
G1 X89.582 Y121.545 E.01821
G1 X79.85 Y111.812 E.69115
G1 X79.684 Y112.135 E.01821
G1 X89.417 Y121.868 E.69116
G1 X89.252 Y122.191 E.01821
G1 X79.519 Y112.458 E.69116
G1 X79.354 Y112.78 E.01821
G1 X89.087 Y122.513 E.69117
G1 X88.922 Y122.836 E.01821
G1 X79.189 Y113.103 E.69118
G1 X79.023 Y113.426 E.01821
G1 X88.757 Y123.159 E.69118
G1 X88.591 Y123.482 E.01821
G1 X78.858 Y113.749 E.69119
G1 X78.693 Y114.071 E.01821
G1 X88.426 Y123.805 E.6912
G1 X88.261 Y124.128 E.01821
G1 X78.527 Y114.394 E.6912
G1 X78.362 Y114.717 E.01821
G1 X88.096 Y124.45 E.69121
G1 X87.931 Y124.773 E.01821
M73 P3 R64
G1 X78.197 Y115.04 E.69122
G1 X78.032 Y115.362 E.01821
G1 X87.765 Y125.096 E.69122
G1 X87.6 Y125.419 E.01821
G1 X77.866 Y115.685 E.69123
G1 X77.701 Y116.008 E.01821
G1 X87.435 Y125.742 E.69124
G1 X87.27 Y126.065 E.01821
G1 X77.536 Y116.331 E.69124
G1 X77.371 Y116.653 E.01821
G1 X87.105 Y126.387 E.69125
G1 X86.94 Y126.71 E.01821
G1 X77.205 Y116.976 E.69126
G1 X77.04 Y117.299 E.01821
G1 X86.774 Y127.033 E.69126
G1 X86.609 Y127.356 E.01821
G1 X76.875 Y117.621 E.69127
G1 X76.709 Y117.944 E.01821
G1 X86.444 Y127.679 E.69128
G1 X86.279 Y128.002 E.01821
G1 X76.544 Y118.267 E.69128
G1 X76.379 Y118.59 E.01821
G1 X86.114 Y128.324 E.69129
G1 X85.948 Y128.647 E.01821
G1 X76.214 Y118.912 E.6913
G1 X76.048 Y119.235 E.01821
G1 X85.783 Y128.97 E.6913
G1 X85.618 Y129.293 E.01821
G1 X75.883 Y119.558 E.69131
G1 X75.718 Y119.881 E.01821
G1 X85.453 Y129.616 E.69132
G1 X85.288 Y129.939 E.01821
G1 X75.552 Y120.203 E.69132
G1 X75.387 Y120.526 E.01821
G1 X85.122 Y130.261 E.69133
G1 X84.957 Y130.584 E.01821
G1 X75.222 Y120.849 E.69134
G1 X75.057 Y121.172 E.01821
G1 X84.792 Y130.907 E.69134
G1 X84.627 Y131.23 E.01821
G1 X74.891 Y121.494 E.69135
G1 X74.726 Y121.817 E.01821
G1 X84.462 Y131.553 E.69136
G1 X84.297 Y131.876 E.01821
G1 X74.561 Y122.14 E.69136
G1 X74.396 Y122.463 E.01821
G1 X84.131 Y132.198 E.69137
G1 X83.966 Y132.521 E.01821
G1 X74.23 Y122.785 E.69138
G1 X74.065 Y123.108 E.01821
G1 X83.801 Y132.844 E.69138
G1 X83.636 Y133.167 E.01821
G1 X73.9 Y123.431 E.69139
G1 X73.734 Y123.754 E.01821
G1 X83.471 Y133.49 E.6914
G1 X83.305 Y133.813 E.01821
G1 X73.569 Y124.076 E.6914
G1 X73.404 Y124.399 E.01821
G1 X82.929 Y133.924 E.67641
G1 X82.441 Y133.924 E.02451
G1 X73.239 Y124.722 E.65349
G1 X73.073 Y125.045 E.01821
G1 X81.953 Y133.924 E.63057
G1 X81.465 Y133.924 E.02451
G1 X72.908 Y125.367 E.60765
G1 X72.743 Y125.69 E.01821
G1 X80.977 Y133.924 E.58473
G1 X80.489 Y133.924 E.02451
G1 X72.577 Y126.013 E.56181
G1 X72.412 Y126.335 E.01821
G1 X80.001 Y133.924 E.5389
G1 X79.513 Y133.924 E.02451
G1 X72.247 Y126.658 E.51598
G1 X72.082 Y126.981 E.01821
G1 X79.025 Y133.924 E.49306
G1 X78.537 Y133.924 E.02451
G1 X71.916 Y127.304 E.47014
G1 X71.751 Y127.626 E.01821
G1 X78.049 Y133.924 E.44722
G1 X77.561 Y133.924 E.02451
G1 X71.586 Y127.949 E.4243
G1 X71.434 Y128.285 E.01853
G1 X77.073 Y133.924 E.40042
G1 X76.585 Y133.924 E.02451
G1 X71.286 Y128.625 E.37631
G1 X71.137 Y128.965 E.01861
G1 X76.097 Y133.924 E.3522
G1 X75.609 Y133.924 E.02451
G1 X70.989 Y129.304 E.32808
G1 X70.84 Y129.644 E.01861
G1 X75.121 Y133.924 E.30397
G1 X74.633 Y133.924 E.02451
G1 X70.692 Y129.983 E.27986
G1 X70.543 Y130.323 E.01861
G1 X74.145 Y133.924 E.25575
G1 X73.657 Y133.924 E.02451
G1 X70.395 Y130.662 E.23163
G1 X70.246 Y131.002 E.01861
G1 X73.169 Y133.924 E.20752
G1 X72.681 Y133.924 E.02451
G1 X70.098 Y131.341 E.18341
G1 X69.949 Y131.681 E.01861
G1 X72.193 Y133.924 E.1593
G1 X71.705 Y133.924 E.02451
G1 X69.801 Y132.02 E.13519
G1 X69.652 Y132.36 E.01861
G1 X71.217 Y133.924 E.11107
G1 X70.729 Y133.924 E.02451
