; generated by PrusaSlicer 2.5.0+win64 on 2022-12-07 at 00:29:25 UTC

; 

; external perimeters extrusion width = 1.00mm
; perimeters extrusion width = 1.00mm
; infill extrusion width = 1.00mm
; solid infill extrusion width = 1.00mm
; top infill extrusion width = 1.00mm
; support material extrusion width = 1.00mm
; first layer extrusion width = 0.42mm

M73 P0 R180
M107
;TYPE:Custom
G90 ; use absolute coordinates
M83 ; extruder relative mode
M140 S60 ; set final bed temp
M104 S150 ; set temporary nozzle temp to prevent oozing during homing and auto bed leveling
G4 S10 ; allow partial nozzle warmup
G28 ; home all axisG1 Z50 F240
G1 X7.6 Y10 F3000
M104 S210 ; set final nozzle temp
M190 S60 ; wait for bed temp to stabilize
M109 S210 ; wait for nozzle temp to stabilize
G1 Z0.28 F240
G92 E0
G1 Y140 E10 F1500 ; prime the nozzle
G1 X4 F5000
G92 E0
G1 Y10 E10 F1200 ; prime the nozzle
G92 E0
G21 ; set units to millimeters
G90 ; use absolute coordinates
M83 ; use relative distances for extrusion
; Filament gcode
M107
;LAYER_CHANGE
;Z:0.35
;HEIGHT:0.35
;BEFORE_LAYER_CHANGE
G92 E0
;0.35


G1 E-1 F3600
G1 Z.35 F7800
;AFTER_LAYER_CHANGE
;0.35
G1 X127.94 Y31.921
G1 E1 F2400
;TYPE:Support material interface
;WIDTH:1
G1 F1800
G1 X127.94 Y35.715 E.51067
G1 X128.832 Y35.715 E.12014
G1 X128.832 Y32.322 E.45661
G1 X129.725 Y32.322 E.12014
G1 X129.725 Y35.715 E.45661
G1 X130.618 Y35.715 E.12014
G1 X130.618 Y32.322 E.45661
G1 X131.51 Y32.322 E.12014
G1 X131.51 Y39.108 E.91321
G1 X132.403 Y39.108 E.12014
G1 X132.403 Y32.322 E.91321
G1 X133.296 Y32.322 E.12014
G1 X133.296 Y39.108 E.91321
G1 X134.189 Y39.108 E.12014
G1 X134.189 Y32.322 E.91321
G1 X135.081 Y32.322 E.12014
G1 X135.081 Y39.108 E.91321
G1 X135.974 Y39.108 E.12014
G1 X135.974 Y32.322 E.91321
G1 X136.867 Y32.322 E.12014
G1 X136.867 Y39.108 E.91321
G1 X137.759 Y39.108 E.12014
G1 X137.759 Y32.322 E.91321
G1 X138.652 Y32.322 E.12014
G1 X138.652 Y39.108 E.91321
G1 X139.545 Y39.108 E.12014
G1 X139.545 Y32.322 E.91321
G1 X140.437 Y32.322 E.12014
G1 X140.437 Y39.108 E.91321
G1 X141.33 Y39.108 E.12014
G1 X141.33 Y32.322 E.91321
G1 X142.223 Y32.322 E.12014
G1 X142.223 Y39.108 E.91321
G1 X143.116 Y39.108 E.12014
G1 X143.116 Y32.322 E.91321
G1 X144.008 Y32.322 E.12014
G1 X144.008 Y39.108 E.91321
G1 X144.901 Y39.108 E.12014
G1 X144.901 Y32.322 E.91321
G1 X145.794 Y32.322 E.12014
M73 P0 R179
G1 X145.794 Y39.108 E.91321
G1 X146.686 Y39.108 E.12014
G1 X146.686 Y32.322 E.91321
G1 X147.579 Y32.322 E.12014
G1 X147.579 Y39.51 E.96727
G1 E-.7 F3600
;WIPE_START
G1 F6240
G1 X147.579 Y38.99 E-.285
;WIPE_END
G1 E-.015 F3600
G1 X150.257 Y39.51 F7800
G1 E1 F2400
G1 F1800
G1 X150.257 Y36.073 E.46248
G1 X149.364 Y35.934 E.12159
G1 X149.364 Y39.108 E.42714
G1 X148.472 Y39.108 E.12014
G1 X148.472 Y32.322 E.91321
G1 X149.364 Y32.322 E.12014
G1 X149.364 Y34.012 E.22739
G1 X150.257 Y34.012 E.12014
G1 X150.257 Y31.921 E.28145
G1 E-.7 F3600
;WIPE_START
G1 F6240
G1 X150.257 Y32.441 E-.285
;WIPE_END
G1 E-.015 F3600
G1 X129.663 Y31.666 F7800
G1 E1 F2400
;TYPE:Support material
;WIDTH:0.42
G1 F1800
G1 X126.663 Y31.666 E.15056
G1 X126.663 Y36.372 E.23616
G1 X130.056 Y36.372 E.17027
G1 X130.056 Y39.764 E.17027
G1 X133.056 Y39.764 E.15056
G1 X133.056 Y42.344 E.12947
G1 X8.732 Y42.344 E6.23933
G1 X8.732 Y29.086 E.66536
G1 X129.663 Y29.086 E6.06906
G1 X129.663 Y31.614 E.12687
G1 E-.7 F3600
;WIPE_START
G1 F6240
G1 X129.663 Y31.094 E-.285
;WIPE_END
G1 E-.015 F3600
G1 X132.536 Y42.189 F7800
G1 E1 F2400
G1 F1800
G1 X132.536 Y40.075 E.1061
G1 X132.153 Y40.075 E.01923
G1 X132.153 Y42.034 E.09831
G1 X131.77 Y42.034 E.01923
G1 X131.77 Y40.075 E.09831
G1 X131.387 Y40.075 E.01923
G1 X131.387 Y42.034 E.09831
G1 X131.003 Y42.034 E.01923
G1 X131.003 Y40.075 E.09831
G1 X130.62 Y40.075 E.01923
G1 X130.62 Y42.034 E.09831
G1 X130.237 Y42.034 E.01923
G1 X130.237 Y40.075 E.09831
G1 X129.854 Y40.075 E.01923
G1 X129.854 Y42.034 E.09831
G1 X129.471 Y42.034 E.01923
G1 X129.471 Y36.682 E.26858
G1 X129.087 Y36.682 E.01923
G1 X129.087 Y42.034 E.26858
G1 X128.704 Y42.034 E.01923
G1 X128.704 Y36.682 E.26858
G1 X128.321 Y36.682 E.01923
G1 X128.321 Y42.034 E.26858
G1 X127.938 Y42.034 E.01923
G1 X127.938 Y36.682 E.26858
G1 X127.555 Y36.682 E.01923
G1 X127.555 Y42.034 E.26858
G1 X127.171 Y42.034 E.01923
G1 X127.171 Y36.682 E.26858
G1 X126.788 Y36.682 E.01923
G1 X126.788 Y42.034 E.26858
G1 X126.405 Y42.034 E.01923
G1 X126.405 Y29.397 E.6342
G1 X126.788 Y29.397 E.01923
G1 X126.788 Y31.356 E.09831
G1 X127.171 Y31.356 E.01923
G1 X127.171 Y29.397 E.09831
G1 X127.555 Y29.397 E.01923
G1 X127.555 Y31.356 E.09831
G1 X127.938 Y31.356 E.01923
G1 X127.938 Y29.397 E.09831
G1 X128.321 Y29.397 E.01923
G1 X128.321 Y31.356 E.09831
G1 X128.704 Y31.356 E.01923
G1 X128.704 Y29.397 E.09831
G1 X129.087 Y29.397 E.01923
G1 X129.087 Y31.511 E.1061
G1 E-.7 F3600
;WIPE_START
G1 F6240
G1 X129.087 Y30.991 E-.285
;WIPE_END
G1 E-.015 F3600
G1 X126.022 Y42.189 F7800
G1 E1 F2400
G1 F1800
G1 X126.022 Y29.397 E.64199
G1 X125.639 Y29.397 E.01923
G1 X125.639 Y42.034 E.6342
G1 X125.255 Y42.034 E.01923
G1 X125.255 Y29.397 E.6342
G1 X124.872 Y29.397 E.01923
G1 X124.872 Y42.034 E.6342
G1 X124.489 Y42.034 E.01923
G1 X124.489 Y29.397 E.6342
G1 X124.106 Y29.397 E.01923
G1 X124.106 Y42.034 E.6342
G1 X123.723 Y42.034 E.01923
G1 X123.723 Y29.397 E.6342
G1 X123.339 Y29.397 E.01923
G1 X123.339 Y42.034 E.6342
G1 X122.956 Y42.034 E.01923
G1 X122.956 Y29.397 E.6342
G1 X122.573 Y29.397 E.01923
G1 X122.573 Y42.034 E.6342
G1 X122.19 Y42.034 E.01923
G1 X122.19 Y29.397 E.6342
G1 X121.806 Y29.397 E.01923
G1 X121.806 Y42.034 E.6342
G1 X121.423 Y42.034 E.01923
G1 X121.423 Y29.397 E.6342
G1 X121.04 Y29.397 E.01923
G1 X121.04 Y42.034 E.6342
G1 X120.657 Y42.034 E.01923
G1 X120.657 Y29.397 E.6342
G1 X120.274 Y29.397 E.01923
G1 X120.274 Y42.034 E.6342
G1 X119.89 Y42.034 E.01923
G1 X119.89 Y29.397 E.6342
G1 X119.507 Y29.397 E.01923
G1 X119.507 Y42.034 E.6342
G1 X119.124 Y42.034 E.01923
G1 X119.124 Y29.397 E.6342
G1 X118.741 Y29.397 E.01923
G1 X118.741 Y42.034 E.6342
G1 X118.358 Y42.034 E.01923
G1 X118.358 Y29.397 E.6342
G1 X117.974 Y29.397 E.01923
G1 X117.974 Y42.034 E.6342
G1 X117.591 Y42.034 E.01923
G1 X117.591 Y29.397 E.6342
G1 X117.208 Y29.397 E.01923
G1 X117.208 Y42.034 E.6342
G1 X116.825 Y42.034 E.01923
G1 X116.825 Y29.397 E.6342
G1 X116.442 Y29.397 E.01923
G1 X116.442 Y42.034 E.6342
G1 X116.058 Y42.034 E.01923
G1 X116.058 Y29.397 E.6342
G1 X115.675 Y29.397 E.01923
G1 X115.675 Y42.034 E.6342
G1 X115.292 Y42.034 E.01923
G1 X115.292 Y29.397 E.6342
G1 X114.909 Y29.397 E.01923
G1 X114.909 Y42.034 E.6342
G1 X114.525 Y42.034 E.01923
G1 X114.525 Y29.397 E.6342
G1 X114.142 Y29.397 E.01923
G1 X114.142 Y42.034 E.6342
G1 X113.759 Y42.034 E.01923
G1 X113.759 Y29.397 E.6342
G1 X113.376 Y29.397 E.01923
G1 X113.376 Y42.034 E.6342
G1 X112.993 Y42.034 E.01923
G1 X112.993 Y29.397 E.6342
G1 X112.609 Y29.397 E.01923
G1 X112.609 Y42.034 E.6342
G1 X112.226 Y42.034 E.01923
G1 X112.226 Y29.397 E.6342
G1 X111.843 Y29.397 E.01923
G1 X111.843 Y42.034 E.6342
G1 X111.46 Y42.034 E.01923
G1 X111.46 Y29.397 E.6342
G1 X111.077 Y29.397 E.01923
G1 X111.077 Y42.034 E.6342
G1 X110.693 Y42.034 E.01923
G1 X110.693 Y29.397 E.6342
G1 X110.31 Y29.397 E.01923
G1 X110.31 Y42.034 E.6342
G1 X109.927 Y42.034 E.01923
G1 X109.927 Y29.397 E.6342
G1 X109.544 Y29.397 E.01923
G1 X109.544 Y42.034 E.6342
G1 X109.161 Y42.034 E.01923
G1 X109.161 Y29.397 E.6342
G1 X108.777 Y29.397 E.01923
G1 X108.777 Y42.034 E.6342
G1 X108.394 Y42.034 E.01923
G1 X108.394 Y29.397 E.6342
G1 X108.011 Y29.397 E.01923
G1 X108.011 Y42.034 E.6342
G1 X107.628 Y42.034 E.01923
G1 X107.628 Y29.397 E.6342
G1 X107.244 Y29.397 E.01923
G1 X107.244 Y42.034 E.6342
G1 X106.861 Y42.034 E.01923
G1 X106.861 Y29.397 E.6342
G1 X106.478 Y29.397 E.01923
G1 X106.478 Y42.034 E.6342
G1 X106.095 Y42.034 E.01923
G1 X106.095 Y29.397 E.6342
G1 X105.712 Y29.397 E.01923
G1 X105.712 Y42.034 E.6342
G1 X105.328 Y42.034 E.01923
G1 X105.328 Y29.397 E.6342
G1 X104.945 Y29.397 E.01923
G1 X104.945 Y42.034 E.6342
G1 X104.562 Y42.034 E.01923
G1 X104.562 Y29.397 E.6342
G1 X104.179 Y29.397 E.01923
G1 X104.179 Y42.034 E.6342
G1 X103.796 Y42.034 E.01923
G1 X103.796 Y29.397 E.6342
G1 X103.412 Y29.397 E.01923
G1 X103.412 Y42.034 E.6342
G1 X103.029 Y42.034 E.01923
G1 X103.029 Y29.397 E.6342
G1 X102.646 Y29.397 E.01923
G1 X102.646 Y42.034 E.6342
G1 X102.263 Y42.034 E.01923
G1 X102.263 Y29.397 E.6342
G1 X101.88 Y29.397 E.01923
G1 X101.88 Y42.034 E.6342
G1 X101.496 Y42.034 E.01923
G1 X101.496 Y29.397 E.6342
G1 X101.113 Y29.397 E.01923
G1 X101.113 Y42.034 E.6342
G1 X100.73 Y42.034 E.01923
G1 X100.73 Y29.397 E.6342
G1 X100.347 Y29.397 E.01923
G1 X100.347 Y42.034 E.6342
G1 X99.963 Y42.034 E.01923
G1 X99.963 Y29.397 E.6342
G1 X99.58 Y29.397 E.01923
G1 X99.58 Y42.034 E.6342
G1 X99.197 Y42.034 E.01923
G1 X99.197 Y29.397 E.6342
G1 X98.814 Y29.397 E.01923
G1 X98.814 Y42.034 E.6342
G1 X98.431 Y42.034 E.01923
G1 X98.431 Y29.397 E.6342
G1 X98.047 Y29.397 E.01923
G1 X98.047 Y42.034 E.6342
G1 X97.664 Y42.034 E.01923
G1 X97.664 Y29.397 E.6342
G1 X97.281 Y29.397 E.01923
G1 X97.281 Y42.034 E.6342
G1 X96.898 Y42.034 E.01923
G1 X96.898 Y29.397 E.6342
G1 X96.515 Y29.397 E.01923
G1 X96.515 Y42.034 E.6342
G1 X96.131 Y42.034 E.01923
G1 X96.131 Y29.397 E.6342
G1 X95.748 Y29.397 E.01923
G1 X95.748 Y42.034 E.6342
G1 X95.365 Y42.034 E.01923
G1 X95.365 Y29.397 E.6342
G1 X94.982 Y29.397 E.01923
G1 X94.982 Y42.034 E.6342
G1 X94.599 Y42.034 E.01923
G1 X94.599 Y29.397 E.6342
G1 X94.215 Y29.397 E.01923
G1 X94.215 Y42.034 E.6342
G1 X93.832 Y42.034 E.01923
G1 X93.832 Y29.397 E.6342
G1 X93.449 Y29.397 E.01923
G1 X93.449 Y42.034 E.6342
G1 X93.066 Y42.034 E.01923
G1 X93.066 Y29.397 E.6342
G1 X92.682 Y29.397 E.01923
G1 X92.682 Y42.034 E.6342
G1 X92.299 Y42.034 E.01923
M73 P0 R178
G1 X92.299 Y29.397 E.6342
G1 X91.916 Y29.397 E.01923
G1 X91.916 Y42.034 E.6342
G1 X91.533 Y42.034 E.01923
G1 X91.533 Y29.397 E.6342
G1 X91.15 Y29.397 E.01923
G1 X91.15 Y42.034 E.6342
G1 X90.766 Y42.034 E.01923
G1 X90.766 Y29.397 E.6342
G1 X90.383 Y29.397 E.01923
G1 X90.383 Y42.034 E.6342
G1 X90 Y42.034 E.01923
G1 X90 Y29.397 E.6342
G1 X89.617 Y29.397 E.01923
G1 X89.617 Y42.034 E.6342
G1 X89.234 Y42.034 E.01923
G1 X89.234 Y29.397 E.6342
G1 X88.85 Y29.397 E.01923
G1 X88.85 Y42.034 E.6342
G1 X88.467 Y42.034 E.01923
G1 X88.467 Y29.397 E.6342
G1 X88.084 Y29.397 E.01923
G1 X88.084 Y42.034 E.6342
G1 X87.701 Y42.034 E.01923
G1 X87.701 Y29.397 E.6342
G1 X87.318 Y29.397 E.01923
G1 X87.318 Y42.034 E.6342
G1 X86.934 Y42.034 E.01923
G1 X86.934 Y29.397 E.6342
G1 X86.551 Y29.397 E.01923
G1 X86.551 Y42.034 E.6342
G1 X86.168 Y42.034 E.01923
G1 X86.168 Y29.397 E.6342
G1 X85.785 Y29.397 E.01923
G1 X85.785 Y42.034 E.6342
G1 X85.402 Y42.034 E.01923
G1 X85.402 Y29.397 E.6342
G1 X85.018 Y29.397 E.01923
G1 X85.018 Y42.034 E.6342
G1 X84.635 Y42.034 E.01923
G1 X84.635 Y29.397 E.6342
G1 X84.252 Y29.397 E.01923
G1 X84.252 Y42.034 E.6342
G1 X83.869 Y42.034 E.01923
G1 X83.869 Y29.397 E.6342
G1 X83.485 Y29.397 E.01923
G1 X83.485 Y42.034 E.6342
G1 X83.102 Y42.034 E.01923
G1 X83.102 Y29.397 E.6342
G1 X82.719 Y29.397 E.01923
G1 X82.719 Y42.034 E.6342
G1 X82.336 Y42.034 E.01923
G1 X82.336 Y29.397 E.6342
G1 X81.953 Y29.397 E.01923
G1 X81.953 Y42.034 E.6342
G1 X81.569 Y42.034 E.01923
G1 X81.569 Y29.397 E.6342
G1 X81.186 Y29.397 E.01923
G1 X81.186 Y42.034 E.6342
G1 X80.803 Y42.034 E.01923
G1 X80.803 Y29.397 E.6342
G1 X80.42 Y29.397 E.01923
G1 X80.42 Y42.034 E.6342
G1 X80.037 Y42.034 E.01923
G1 X80.037 Y29.397 E.6342
G1 X79.653 Y29.397 E.01923
G1 X79.653 Y42.034 E.6342
G1 X79.27 Y42.034 E.01923
G1 X79.27 Y29.397 E.6342
G1 X78.887 Y29.397 E.01923
G1 X78.887 Y42.034 E.6342
G1 X78.504 Y42.034 E.01923
G1 X78.504 Y29.397 E.6342
G1 X78.121 Y29.397 E.01923
G1 X78.121 Y42.034 E.6342
G1 X77.737 Y42.034 E.01923
G1 X77.737 Y29.397 E.6342
G1 X77.354 Y29.397 E.01923
G1 X77.354 Y42.034 E.6342
G1 X76.971 Y42.034 E.01923
G1 X76.971 Y29.397 E.6342
G1 X76.588 Y29.397 E.01923
G1 X76.588 Y42.034 E.6342
G1 X76.204 Y42.034 E.01923
G1 X76.204 Y29.397 E.6342
G1 X75.821 Y29.397 E.01923
G1 X75.821 Y42.034 E.6342
G1 X75.438 Y42.034 E.01923
G1 X75.438 Y29.397 E.6342
G1 X75.055 Y29.397 E.01923
G1 X75.055 Y42.034 E.6342
G1 X74.672 Y42.034 E.01923
G1 X74.672 Y29.397 E.6342
G1 X74.288 Y29.397 E.01923
G1 X74.288 Y42.034 E.6342
G1 X73.905 Y42.034 E.01923
G1 X73.905 Y29.397 E.6342
G1 X73.522 Y29.397 E.01923
G1 X73.522 Y42.034 E.6342
G1 X73.139 Y42.034 E.01923
G1 X73.139 Y29.397 E.6342
G1 X72.756 Y29.397 E.01923
G1 X72.756 Y42.034 E.6342
G1 X72.372 Y42.034 E.01923
G1 X72.372 Y29.397 E.6342
G1 X71.989 Y29.397 E.01923
G1 X71.989 Y42.034 E.6342
G1 X71.606 Y42.034 E.01923
G1 X71.606 Y29.397 E.6342
G1 X71.223 Y29.397 E.01923
G1 X71.223 Y42.034 E.6342
G1 X70.84 Y42.034 E.01923
G1 X70.84 Y29.397 E.6342
G1 X70.456 Y29.397 E.01923
G1 X70.456 Y42.034 E.6342
G1 X70.073 Y42.034 E.01923
G1 X70.073 Y29.397 E.6342
G1 X69.69 Y29.397 E.01923
M73 P1 R178
G1 X69.69 Y42.034 E.6342
G1 X69.307 Y42.034 E.01923
G1 X69.307 Y29.397 E.6342
G1 X68.923 Y29.397 E.01923
G1 X68.923 Y42.034 E.6342
G1 X68.54 Y42.034 E.01923
G1 X68.54 Y29.397 E.6342
G1 X68.157 Y29.397 E.01923
G1 X68.157 Y42.034 E.6342
G1 X67.774 Y42.034 E.01923
G1 X67.774 Y29.397 E.6342
G1 X67.391 Y29.397 E.01923
G1 X67.391 Y42.034 E.6342
G1 X67.007 Y42.034 E.01923
G1 X67.007 Y29.397 E.6342
G1 X66.624 Y29.397 E.01923
G1 X66.624 Y42.034 E.6342
G1 X66.241 Y42.034 E.01923
G1 X66.241 Y29.397 E.6342
G1 X65.858 Y29.397 E.01923
G1 X65.858 Y42.034 E.6342
G1 X65.475 Y42.034 E.01923
G1 X65.475 Y29.397 E.6342
G1 X65.091 Y29.397 E.01923
G1 X65.091 Y42.034 E.6342
G1 X64.708 Y42.034 E.01923
G1 X64.708 Y29.397 E.6342
G1 X64.325 Y29.397 E.01923
G1 X64.325 Y42.034 E.6342
G1 X63.942 Y42.034 E.01923
G1 X63.942 Y29.397 E.6342
G1 X63.559 Y29.397 E.01923
G1 X63.559 Y42.034 E.6342
G1 X63.175 Y42.034 E.01923
G1 X63.175 Y29.397 E.6342
G1 X62.792 Y29.397 E.01923
G1 X62.792 Y42.034 E.6342
G1 X62.409 Y42.034 E.01923
G1 X62.409 Y29.397 E.6342
G1 X62.026 Y29.397 E.01923
G1 X62.026 Y42.034 E.6342
G1 X61.642 Y42.034 E.01923
G1 X61.642 Y29.397 E.6342
G1 X61.259 Y29.397 E.01923
G1 X61.259 Y42.034 E.6342
G1 X60.876 Y42.034 E.01923
G1 X60.876 Y29.397 E.6342
G1 X60.493 Y29.397 E.01923
G1 X60.493 Y42.034 E.6342
G1 X60.11 Y42.034 E.01923
G1 X60.11 Y29.397 E.6342
G1 X59.726 Y29.397 E.01923
G1 X59.726 Y42.034 E.6342
G1 X59.343 Y42.034 E.01923
G1 X59.343 Y29.397 E.6342
G1 X58.96 Y29.397 E.01923
G1 X58.96 Y42.034 E.6342
G1 X58.577 Y42.034 E.01923
G1 X58.577 Y29.397 E.6342
G1 X58.194 Y29.397 E.01923
G1 X58.194 Y42.034 E.6342
G1 X57.81 Y42.034 E.01923
G1 X57.81 Y29.397 E.6342
G1 X57.427 Y29.397 E.01923
G1 X57.427 Y42.034 E.6342
G1 X57.044 Y42.034 E.01923
G1 X57.044 Y29.397 E.6342
G1 X56.661 Y29.397 E.01923
G1 X56.661 Y42.034 E.6342
G1 X56.278 Y42.034 E.01923
G1 X56.278 Y29.397 E.6342
G1 X55.894 Y29.397 E.01923
G1 X55.894 Y42.034 E.6342
G1 X55.511 Y42.034 E.01923
G1 X55.511 Y29.397 E.6342
G1 X55.128 Y29.397 E.01923
G1 X55.128 Y42.034 E.6342
G1 X54.745 Y42.034 E.01923
G1 X54.745 Y29.397 E.6342
G1 X54.361 Y29.397 E.01923
G1 X54.361 Y42.034 E.6342
G1 X53.978 Y42.034 E.01923
G1 X53.978 Y29.397 E.6342
G1 X53.595 Y29.397 E.01923
G1 X53.595 Y42.034 E.6342
G1 X53.212 Y42.034 E.01923
G1 X53.212 Y29.397 E.6342
G1 X52.829 Y29.397 E.01923
G1 X52.829 Y42.034 E.6342
G1 X52.445 Y42.034 E.01923
G1 X52.445 Y29.397 E.6342
G1 X52.062 Y29.397 E.01923
G1 X52.062 Y42.034 E.6342
G1 X51.679 Y42.034 E.01923
G1 X51.679 Y29.397 E.6342
G1 X51.296 Y29.397 E.01923
G1 X51.296 Y42.034 E.6342
G1 X50.913 Y42.034 E.01923
G1 X50.913 Y29.397 E.6342
G1 X50.529 Y29.397 E.01923
G1 X50.529 Y42.034 E.6342
G1 X50.146 Y42.034 E.01923
G1 X50.146 Y29.397 E.6342
G1 X49.763 Y29.397 E.01923
G1 X49.763 Y42.034 E.6342
G1 X49.38 Y42.034 E.01923
G1 X49.38 Y29.397 E.6342
G1 X48.997 Y29.397 E.01923
G1 X48.997 Y42.034 E.6342
G1 X48.613 Y42.034 E.01923
G1 X48.613 Y29.397 E.6342
G1 X48.23 Y29.397 E.01923
G1 X48.23 Y42.034 E.6342
G1 X47.847 Y42.034 E.01923
G1 X47.847 Y29.397 E.6342
G1 X47.464 Y29.397 E.01923
G1 X47.464 Y42.034 E.6342
G1 X47.081 Y42.034 E.01923
G1 X47.081 Y29.397 E.6342
G1 X46.697 Y29.397 E.01923
