; generated by PrusaSlicer 2.5.0+win64 on 2022-12-07 at 00:29:20 UTC

; 

; external perimeters extrusion width = 1.00mm
; perimeters extrusion width = 1.00mm
; infill extrusion width = 1.00mm
; solid infill extrusion width = 1.00mm
; top infill extrusion width = 1.00mm
; support material extrusion width = 1.00mm
; first layer extrusion width = 0.42mm

M73 P0 R355
M107
;TYPE:Custom
G90 ; use absolute coordinates
M83 ; extruder relative mode
M140 S60 ; set final bed temp
M104 S150 ; set temporary nozzle temp to prevent oozing during homing and auto bed leveling
G4 S10 ; allow partial nozzle warmup
G28 ; home all axisG1 Z50 F240
G1 X7.6 Y10 F3000
M104 S210 ; set final nozzle temp
M190 S60 ; wait for bed temp to stabilize
M109 S210 ; wait for nozzle temp to stabilize
G1 Z0.28 F240
G92 E0
G1 Y140 E10 F1500 ; prime the nozzle
G1 X4 F5000
G92 E0
M73 P0 R354
G1 Y10 E10 F1200 ; prime the nozzle
G92 E0
G21 ; set units to millimeters
G90 ; use absolute coordinates
M83 ; use relative distances for extrusion
; Filament gcode
M107
;LAYER_CHANGE
;Z:0.35
;HEIGHT:0.35
;BEFORE_LAYER_CHANGE
G92 E0
;0.35


G1 E-1 F3600
G1 Z.35 F7800
;AFTER_LAYER_CHANGE
;0.35
G1 X114.549 Y8.977
G1 E1 F2400
;TYPE:Support material interface
;WIDTH:1
G1 F1800
G1 X114.549 Y5.183 E.51067
G1 X115.442 Y5.183 E.12014
G1 X115.442 Y8.575 E.45661
G1 X116.335 Y8.575 E.12014
G1 X116.335 Y5.183 E.45661
G1 X117.227 Y5.183 E.12014
G1 X117.227 Y8.575 E.45661
G1 X118.12 Y8.575 E.12014
G1 X118.12 Y5.183 E.45661
G1 X119.013 Y5.183 E.12014
G1 X119.013 Y8.575 E.45661
G1 X119.905 Y8.575 E.12014
G1 X119.905 Y5.183 E.45661
G1 X120.798 Y5.183 E.12014
G1 X120.798 Y8.575 E.45661
G1 X121.691 Y8.575 E.12014
G1 X121.691 Y5.183 E.45661
G1 X122.583 Y5.183 E.12014
G1 X122.583 Y8.575 E.45661
G1 X123.476 Y8.575 E.12014
G1 X123.476 Y5.183 E.45661
G1 X124.369 Y5.183 E.12014
G1 X124.369 Y8.575 E.45661
G1 X125.262 Y8.575 E.12014
G1 X125.262 Y5.183 E.45661
G1 X126.154 Y5.183 E.12014
G1 X126.154 Y8.575 E.45661
G1 X127.047 Y8.575 E.12014
G1 X127.047 Y5.183 E.45661
G1 X127.94 Y5.183 E.12014
G1 X127.94 Y11.968 E.91321
G1 X128.832 Y11.968 E.12014
G1 X128.832 Y5.183 E.91321
G1 X129.725 Y5.183 E.12014
G1 X129.725 Y11.968 E.91321
G1 X130.618 Y11.968 E.12014
G1 X130.618 Y5.183 E.91321
G1 X131.51 Y5.183 E.12014
G1 X131.51 Y11.968 E.91321
G1 X132.403 Y11.968 E.12014
G1 X132.403 Y5.183 E.91321
G1 X133.296 Y5.183 E.12014
G1 X133.296 Y11.968 E.91321
G1 X134.189 Y11.968 E.12014
G1 X134.189 Y5.183 E.91321
G1 X135.081 Y5.183 E.12014
G1 X135.081 Y11.968 E.91321
G1 X135.974 Y11.968 E.12014
G1 X135.974 Y5.183 E.91321
G1 X136.867 Y5.183 E.12014
G1 X136.867 Y11.968 E.91321
G1 X137.759 Y11.968 E.12014
G1 X137.759 Y5.183 E.91321
G1 X138.652 Y5.183 E.12014
G1 X138.652 Y11.968 E.91321
G1 X139.545 Y11.968 E.12014
G1 X139.545 Y5.183 E.91321
G1 X140.437 Y5.183 E.12014
G1 X140.437 Y11.968 E.91321
G1 X141.33 Y11.968 E.12014
G1 X141.33 Y5.183 E.91321
G1 X142.223 Y5.183 E.12014
G1 X142.223 Y11.968 E.91321
G1 X143.116 Y11.968 E.12014
G1 X143.116 Y5.183 E.91321
G1 X143.604 Y5.183 E.06575
G1 X143.377 Y7.59 E.3254
G1 X144.008 Y7.71 E.08653
G1 X144.008 Y11.968 E.57304
G1 X144.283 Y11.968 E.037
G1 X144.283 Y15.361 E.4566
G1 X144.901 Y15.361 E.08314
G1 X144.901 Y7.88 E1.00674
G1 X145.794 Y8.05 E.12231
G1 X145.794 Y15.361 E.98383
G1 X146.686 Y15.361 E.12014
G1 X146.686 Y8.221 E.96093
G1 X147.579 Y8.391 E.12231
G1 X147.579 Y15.361 E.93802
G1 X148.472 Y15.361 E.12014
G1 X148.472 Y8.561 E.91512
G1 X149.364 Y8.731 E.12231
G1 X149.364 Y15.361 E.89221
G1 X150.257 Y15.361 E.12014
G1 X150.257 Y8.901 E.86931
G1 X151.15 Y9.072 E.12231
G1 X151.15 Y15.361 E.84641
G1 X152.043 Y15.361 E.12014
G1 X152.043 Y9.242 E.8235
G1 X152.935 Y9.412 E.12231
G1 X152.935 Y15.361 E.8006
G1 X153.828 Y15.361 E.12014
G1 X153.828 Y9.582 E.77769
G1 X154.721 Y9.752 E.12231
G1 X154.721 Y15.361 E.75479
G1 X155.613 Y15.361 E.12014
G1 X155.613 Y9.923 E.73188
G1 X156.506 Y10.093 E.12231
G1 X156.506 Y15.361 E.70898
G1 X157.399 Y15.361 E.12014
G1 X157.399 Y10.263 E.68607
G1 X158.291 Y10.433 E.12231
G1 X158.291 Y15.361 E.66317
G1 X159.184 Y15.361 E.12014
G1 X159.184 Y10.603 E.64026
G1 X160.077 Y10.773 E.12231
G1 X160.077 Y15.361 E.61736
G1 X160.97 Y15.361 E.12014
G1 X160.97 Y10.944 E.59445
G1 X161.862 Y11.114 E.12231
G1 X161.862 Y15.361 E.57155
G1 X162.755 Y15.361 E.12014
G1 X162.755 Y11.284 E.54864
G1 X163.648 Y11.454 E.12231
G1 X163.648 Y15.361 E.52574
G1 X164.54 Y15.361 E.12014
G1 X164.54 Y11.624 E.50283
G1 X165.433 Y11.795 E.12231
G1 X165.433 Y18.753 E.93653
G1 X166.326 Y18.753 E.12014
G1 X166.326 Y11.558 E.96834
G1 X166.975 Y11.021 E.11343
G1 X166.975 Y8.575 E.32917
G1 X167.218 Y8.575 E.03275
G1 X167.218 Y19.155 E1.42387
G1 E-.7 F3600
;WIPE_START
G1 F6240
G1 X167.218 Y18.635 E-.285
;WIPE_END
G1 E-.015 F3600
G1 X171.268 Y10.919 F7800
G1 E1 F2400
;TYPE:Support material
;WIDTH:0.42
G1 F1800
G1 X168.689 Y10.919 E.12947
G1 X168.689 Y7.919 E.15056
G1 X166.319 Y7.919 E.11893
G1 X166.319 Y8.795 E.04398
G1 X165.73 Y9.283 E.03837
G1 X166.319 Y9.283 E.02956
G1 X166.319 Y10.712 E.07175
G1 X166.069 Y10.919 E.01627
G1 X164.344 Y10.919 E.08656
G1 X163.739 Y10.803 E.03092
G1 X163.739 Y7.002 E.19077
G1 X166.224 Y7.475 E.12696
G1 X166.739 Y7.05 E.03353
G1 X166.739 Y5.621 E.07168
G1 X166.323 Y5.205 E.02952
G1 X161.182 Y5.205 E.258
G1 X161.061 Y6.492 E.06485
G1 X163.281 Y6.915 E.11342
G1 X163.159 Y8.205 E.06505
G1 X155.51 Y8.205 E.38383
G1 X155.51 Y7.626 E.02905
G1 X155.899 Y7.7 E.01983
G1 X155.961 Y7.036 E.03351
G1 X155.51 Y6.95 E.02304
G1 X155.51 Y5.625 E.06645
G1 X158.51 Y5.625 E.15056
G1 X158.51 Y4.526 E.05517
G1 X155.51 Y4.526 E.15056
G1 X155.51 Y1.946 E.12947
G1 X171.268 Y1.946 E.79082
G1 X171.268 Y10.867 E.4477
G1 E-.7 F3600
;WIPE_START
G1 F6240
G1 X171.268 Y10.347 E-.285
;WIPE_END
G1 E-.015 F3600
G1 X165.207 Y9.283 F7800
G1 E1 F2400
G1 F1800
G1 X165.72 Y9.283 E.02575
G1 X165.756 Y8.902 E.01919
G1 X165.207 Y8.797 E.02805
G1 X165.207 Y9.231 E.02176
G1 E-.7 F3600
;WIPE_START
G1 F6240
G1 X165.207 Y8.797 E-.23762
G1 X165.292 Y8.813 E-.04738
;WIPE_END
G1 E-.015 F3600
G1 X170.857 Y10.764 F7800
G1 E1 F2400
G1 F1800
G1 X170.857 Y2.257 E.42693
G1 X170.474 Y2.257 E.01923
G1 X170.474 Y10.608 E.41914
G1 X170.091 Y10.608 E.01923
G1 X170.091 Y2.257 E.41914
G1 X169.708 Y2.257 E.01923
G1 X169.708 Y10.608 E.41914
G1 X169.324 Y10.608 E.01923
G1 X169.324 Y2.257 E.41914
G1 X168.941 Y2.257 E.01923
G1 X168.941 Y7.608 E.26858
G1 X168.558 Y7.608 E.01923
G1 X168.558 Y2.257 E.26858
G1 X168.175 Y2.257 E.01923
G1 X168.175 Y7.608 E.26858
G1 X167.792 Y7.608 E.01923
G1 X167.792 Y2.257 E.26858
G1 X167.408 Y2.257 E.01923
G1 X167.408 Y7.608 E.26858
G1 X167.025 Y7.608 E.01923
G1 X167.025 Y2.257 E.26858
G1 X166.642 Y2.257 E.01923
G1 X166.642 Y5.086 E.14197
G1 X166.451 Y4.895 E.01353
G1 X166.259 Y4.895 E.00967
G1 X166.259 Y2.257 E.13241
G1 X165.876 Y2.257 E.01923
G1 X165.876 Y4.895 E.13241
G1 X165.492 Y4.895 E.01923
G1 X165.492 Y2.257 E.13241
G1 X165.109 Y2.257 E.01923
G1 X165.109 Y4.895 E.13241
G1 X164.726 Y4.895 E.01923
G1 X164.726 Y2.257 E.13241
G1 X164.343 Y2.257 E.01923
G1 X164.343 Y4.895 E.13241
G1 X163.96 Y4.895 E.01923
G1 X163.96 Y2.257 E.13241
G1 X163.576 Y2.257 E.01923
G1 X163.576 Y4.895 E.13241
G1 X163.193 Y4.895 E.01923
G1 X163.193 Y2.257 E.13241
G1 X162.81 Y2.257 E.01923
G1 X162.81 Y4.895 E.13241
G1 X162.427 Y4.895 E.01923
G1 X162.427 Y2.257 E.13241
G1 X162.043 Y2.257 E.01923
G1 X162.043 Y4.895 E.13241
G1 X161.66 Y4.895 E.01923
G1 X161.66 Y2.257 E.13241
G1 X161.277 Y2.257 E.01923
G1 X161.277 Y4.895 E.13241
G1 X160.899 Y4.895 E.01895
G1 X160.894 Y4.954 E.00299
G1 X160.894 Y2.257 E.13538
G1 X160.511 Y2.257 E.01923
G1 X160.511 Y7.895 E.28296
G1 X160.894 Y7.895 E.01923
G1 X160.894 Y6.776 E.05614
G1 X161.277 Y6.849 E.01958
G1 X161.277 Y7.895 E.05248
G1 X161.66 Y7.895 E.01923
G1 X161.66 Y6.922 E.04882
G1 X162.043 Y6.995 E.01958
G1 X162.043 Y7.895 E.04515
G1 X162.427 Y7.895 E.01923
G1 X162.427 Y7.068 E.04149
G1 X162.81 Y7.141 E.01958
G1 X162.81 Y8.05 E.04562
G1 E-.7 F3600
;WIPE_START
G1 F6240
G1 X162.81 Y7.53 E-.285
;WIPE_END
G1 E-.015 F3600
G1 X166.642 Y7.764 F7800
G1 E1 F2400
G1 F1800
G1 X166.642 Y7.331 E.02171
G1 X165.876 Y10.764 F7800
G1 F1800
G1 X165.876 Y9.593 E.05875
G1 X165.492 Y9.593 E.01923
G1 X165.492 Y10.608 E.05096
G1 X165.109 Y10.608 E.01923
G1 X165.109 Y9.593 E.05096
G1 X164.897 Y9.593 E.01067
G1 X164.897 Y8.422 E.05876
G1 X165.109 Y8.463 E.01086
G1 X165.109 Y7.579 E.04434
G1 X165.492 Y7.652 E.01958
G1 X165.492 Y8.536 E.04434
G1 X165.876 Y8.609 E.01958
G1 X165.876 Y7.567 E.05227
G1 X164.726 Y10.764 F7800
G1 F1800
G1 X164.726 Y7.506 E.16348
G1 X164.343 Y7.433 E.01958
G1 X164.343 Y10.761 E.16699
G1 E-.7 F3600
;WIPE_START
G1 F6240
G1 X164.343 Y10.241 E-.285
;WIPE_END
G1 E-.015 F3600
G1 X160.127 Y8.05 F7800
G1 E1 F2400
G1 F1800
G1 X160.127 Y2.257 E.29075
G1 X159.744 Y2.257 E.01923
G1 X159.744 Y7.895 E.28296
G1 X159.361 Y7.895 E.01923
G1 X159.361 Y2.257 E.28296
G1 X158.978 Y2.257 E.01923
G1 X158.978 Y7.895 E.28296
G1 X158.595 Y7.895 E.01923
G1 X158.595 Y5.936 E.09831
G1 X158.211 Y5.936 E.01923
G1 X158.211 Y7.895 E.09831
G1 X157.828 Y7.895 E.01923
G1 X157.828 Y5.936 E.09831
G1 X157.445 Y5.936 E.01923
G1 X157.445 Y7.895 E.09831
G1 X157.062 Y7.895 E.01923
G1 X157.062 Y5.936 E.09831
G1 X156.679 Y5.936 E.01923
G1 X156.679 Y7.895 E.09831
G1 X156.295 Y7.895 E.01923
G1 X156.295 Y5.936 E.09831
G1 X155.912 Y5.936 E.01923
G1 X155.912 Y6.868 E.04679
G1 E-.7 F3600
;WIPE_START
G1 F6240
G1 X155.912 Y6.348 E-.285
;WIPE_END
G1 E-.015 F3600
G1 X158.595 Y4.371 F7800
G1 E1 F2400
G1 F1800
G1 X158.595 Y2.257 E.1061
G1 X158.211 Y2.257 E.01923
G1 X158.211 Y4.216 E.09831
G1 X157.828 Y4.216 E.01923
G1 X157.828 Y2.257 E.09831
G1 X157.445 Y2.257 E.01923
G1 X157.445 Y4.216 E.09831
G1 X157.062 Y4.216 E.01923
G1 X157.062 Y2.257 E.09831
G1 X156.679 Y2.257 E.01923
G1 X156.679 Y4.216 E.09831
G1 X156.295 Y4.216 E.01923
G1 X156.295 Y2.257 E.09831
G1 X155.912 Y2.257 E.01923
G1 X155.912 Y4.371 E.1061
G1 E-.7 F3600
;WIPE_START
G1 F6240
G1 X155.912 Y3.851 E-.285
;WIPE_END
G1 E-.015 F3600
G1 X116.092 Y4.526 F7800
G1 E1 F2400
G1 F1800
G1 X113.092 Y4.526 E.15056
G1 X113.092 Y9.232 E.23616
G1 X126.663 Y9.232 E.68106
G1 X126.663 Y12.624 E.17027
G1 X143.627 Y12.624 E.85133
G1 X143.627 Y16.017 E.17027
G1 X163.983 Y16.017 E1.02159
G1 X163.983 Y19.41 E.17027
G1 X168.689 Y19.41 E.23616
G1 X168.689 Y16.41 E.15056
G1 X171.268 Y16.41 E.12947
G1 X171.268 Y32.168 E.79082
G1 X8.732 Y32.168 E8.15705
G1 X8.732 Y1.946 E1.51669
G1 X116.092 Y1.946 E5.388
G1 X116.092 Y4.474 E.12687
G1 E-.7 F3600
;WIPE_START
G1 F6240
G1 X116.092 Y3.954 E-.285
;WIPE_END
G1 E-.015 F3600
G1 X170.857 Y32.012 F7800
G1 E1 F2400
M73 P0 R353
G1 F1800
G1 X170.857 Y16.72 E.76746
G1 X170.474 Y16.72 E.01923
G1 X170.474 Y31.857 E.75967
G1 X170.091 Y31.857 E.01923
G1 X170.091 Y16.72 E.75967
G1 X169.708 Y16.72 E.01923
G1 X169.708 Y31.857 E.75967
G1 X169.324 Y31.857 E.01923
G1 X169.324 Y16.72 E.75967
G1 X168.999 Y16.72 E.01634
G1 X168.999 Y19.72 E.15056
G1 X168.941 Y19.72 E.00289
G1 X168.941 Y31.857 E.60911
G1 X168.558 Y31.857 E.01923
G1 X168.558 Y19.72 E.60911
G1 X168.175 Y19.72 E.01923
G1 X168.175 Y31.857 E.60911
G1 X167.792 Y31.857 E.01923
G1 X167.792 Y19.72 E.60911
G1 X167.408 Y19.72 E.01923
G1 X167.408 Y31.857 E.60911
G1 X167.025 Y31.857 E.01923
G1 X167.025 Y19.72 E.60911
G1 X166.642 Y19.72 E.01923
G1 X166.642 Y31.857 E.60911
G1 X166.259 Y31.857 E.01923
G1 X166.259 Y19.72 E.60911
G1 X165.876 Y19.72 E.01923
G1 X165.876 Y31.857 E.60911
G1 X165.492 Y31.857 E.01923
G1 X165.492 Y19.72 E.60911
G1 X165.109 Y19.72 E.01923
G1 X165.109 Y31.857 E.60911
G1 X164.726 Y31.857 E.01923
G1 X164.726 Y19.72 E.60911
G1 X164.343 Y19.72 E.01923
G1 X164.343 Y31.857 E.60911
G1 X163.96 Y31.857 E.01923
G1 X163.96 Y19.72 E.60911
G1 X163.673 Y19.72 E.0144
G1 X163.673 Y16.327 E.17027
G1 X163.576 Y16.327 E.00483
G1 X163.576 Y31.857 E.77938
G1 X163.193 Y31.857 E.01923
G1 X163.193 Y16.327 E.77938
G1 X162.81 Y16.327 E.01923
G1 X162.81 Y31.857 E.77938
G1 X162.427 Y31.857 E.01923
G1 X162.427 Y16.327 E.77938
G1 X162.043 Y16.327 E.01923
G1 X162.043 Y31.857 E.77938
G1 X161.66 Y31.857 E.01923
G1 X161.66 Y16.327 E.77938
G1 X161.277 Y16.327 E.01923
G1 X161.277 Y31.857 E.77938
G1 X160.894 Y31.857 E.01923
G1 X160.894 Y16.327 E.77938
G1 X160.511 Y16.327 E.01923
G1 X160.511 Y31.857 E.77938
G1 X160.127 Y31.857 E.01923
G1 X160.127 Y16.327 E.77938
G1 X159.744 Y16.327 E.01923
G1 X159.744 Y31.857 E.77938
G1 X159.361 Y31.857 E.01923
G1 X159.361 Y16.327 E.77938
G1 X158.978 Y16.327 E.01923
G1 X158.978 Y31.857 E.77938
G1 X158.595 Y31.857 E.01923
G1 X158.595 Y16.327 E.77938
G1 X158.211 Y16.327 E.01923
G1 X158.211 Y31.857 E.77938
G1 X157.828 Y31.857 E.01923
G1 X157.828 Y16.327 E.77938
G1 X157.445 Y16.327 E.01923
G1 X157.445 Y31.857 E.77938
G1 X157.062 Y31.857 E.01923
G1 X157.062 Y16.327 E.77938
G1 X156.679 Y16.327 E.01923
G1 X156.679 Y31.857 E.77938
G1 X156.295 Y31.857 E.01923
G1 X156.295 Y16.327 E.77938
G1 X155.912 Y16.327 E.01923
G1 X155.912 Y31.857 E.77938
G1 X155.529 Y31.857 E.01923
G1 X155.529 Y16.327 E.77938
G1 X155.146 Y16.327 E.01923
G1 X155.146 Y31.857 E.77938
G1 X154.763 Y31.857 E.01923
G1 X154.763 Y16.327 E.77938
G1 X154.379 Y16.327 E.01923
G1 X154.379 Y31.857 E.77938
G1 X153.996 Y31.857 E.01923
G1 X153.996 Y16.327 E.77938
G1 X153.613 Y16.327 E.01923
G1 X153.613 Y31.857 E.77938
G1 X153.23 Y31.857 E.01923
G1 X153.23 Y16.327 E.77938
G1 X152.846 Y16.327 E.01923
G1 X152.846 Y31.857 E.77938
G1 X152.463 Y31.857 E.01923
G1 X152.463 Y16.327 E.77938
G1 X152.08 Y16.327 E.01923
G1 X152.08 Y31.857 E.77938
G1 X151.697 Y31.857 E.01923
G1 X151.697 Y16.327 E.77938
G1 X151.314 Y16.327 E.01923
G1 X151.314 Y31.857 E.77938
G1 X150.93 Y31.857 E.01923
G1 X150.93 Y16.327 E.77938
G1 X150.547 Y16.327 E.01923
G1 X150.547 Y31.857 E.77938
G1 X150.164 Y31.857 E.01923
G1 X150.164 Y16.327 E.77938
G1 X149.781 Y16.327 E.01923
G1 X149.781 Y31.857 E.77938
G1 X149.398 Y31.857 E.01923
G1 X149.398 Y16.327 E.77938
G1 X149.014 Y16.327 E.01923
G1 X149.014 Y31.857 E.77938
G1 X148.631 Y31.857 E.01923
G1 X148.631 Y16.327 E.77938
G1 X148.248 Y16.327 E.01923
G1 X148.248 Y31.857 E.77938
G1 X147.865 Y31.857 E.01923
G1 X147.865 Y16.327 E.77938
G1 X147.482 Y16.327 E.01923
G1 X147.482 Y31.857 E.77938
G1 X147.098 Y31.857 E.01923
G1 X147.098 Y16.327 E.77938
G1 X146.715 Y16.327 E.01923
G1 X146.715 Y31.857 E.77938
G1 X146.332 Y31.857 E.01923
G1 X146.332 Y16.327 E.77938
G1 X145.949 Y16.327 E.01923
G1 X145.949 Y31.857 E.77938
G1 X145.565 Y31.857 E.01923
G1 X145.565 Y16.327 E.77938
G1 X145.182 Y16.327 E.01923
G1 X145.182 Y31.857 E.77938
G1 X144.799 Y31.857 E.01923
G1 X144.799 Y16.327 E.77938
G1 X144.416 Y16.327 E.01923
G1 X144.416 Y31.857 E.77938
G1 X144.033 Y31.857 E.01923
G1 X144.033 Y16.327 E.77938
G1 X143.649 Y16.327 E.01923
G1 X143.649 Y31.857 E.77938
G1 X143.266 Y31.857 E.01923
G1 X143.266 Y12.935 E.94964
G1 X142.883 Y12.935 E.01923
G1 X142.883 Y31.857 E.94964
G1 X142.5 Y31.857 E.01923
G1 X142.5 Y12.935 E.94964
G1 X142.117 Y12.935 E.01923
G1 X142.117 Y31.857 E.94964
G1 X141.733 Y31.857 E.01923
G1 X141.733 Y12.935 E.94964
G1 X141.35 Y12.935 E.01923
G1 X141.35 Y31.857 E.94964
G1 X140.967 Y31.857 E.01923
G1 X140.967 Y12.935 E.94964
G1 X140.584 Y12.935 E.01923
G1 X140.584 Y31.857 E.94964
G1 X140.201 Y31.857 E.01923
G1 X140.201 Y12.935 E.94964
G1 X139.817 Y12.935 E.01923
G1 X139.817 Y31.857 E.94964
G1 X139.434 Y31.857 E.01923
G1 X139.434 Y12.935 E.94964
G1 X139.051 Y12.935 E.01923
G1 X139.051 Y31.857 E.94964
G1 X138.668 Y31.857 E.01923
G1 X138.668 Y12.935 E.94964
G1 X138.284 Y12.935 E.01923
G1 X138.284 Y31.857 E.94964
G1 X137.901 Y31.857 E.01923
G1 X137.901 Y12.935 E.94964
G1 X137.518 Y12.935 E.01923
G1 X137.518 Y31.857 E.94964
G1 X137.135 Y31.857 E.01923
G1 X137.135 Y12.935 E.94964
G1 X136.752 Y12.935 E.01923
G1 X136.752 Y31.857 E.94964
G1 X136.368 Y31.857 E.01923
G1 X136.368 Y12.935 E.94964
G1 X135.985 Y12.935 E.01923
G1 X135.985 Y31.857 E.94964
G1 X135.602 Y31.857 E.01923
G1 X135.602 Y12.935 E.94964
G1 X135.219 Y12.935 E.01923
G1 X135.219 Y31.857 E.94964
G1 X134.836 Y31.857 E.01923
G1 X134.836 Y12.935 E.94964
G1 X134.452 Y12.935 E.01923
G1 X134.452 Y31.857 E.94964
