; generated by PrusaSlicer 2.5.0+win64 on 2022-12-07 at 00:29:27 UTC

; 

; external perimeters extrusion width = 1.00mm
; perimeters extrusion width = 1.00mm
; infill extrusion width = 1.00mm
; solid infill extrusion width = 1.00mm
; top infill extrusion width = 1.00mm
; support material extrusion width = 1.00mm
; first layer extrusion width = 0.42mm

M73 P0 R77
M107
;TYPE:Custom
G90 ; use absolute coordinates
M83 ; extruder relative mode
M140 S60 ; set final bed temp
M104 S150 ; set temporary nozzle temp to prevent oozing during homing and auto bed leveling
G4 S10 ; allow partial nozzle warmup
G28 ; home all axisG1 Z50 F240
G1 X7.6 Y10 F3000
M104 S210 ; set final nozzle temp
M190 S60 ; wait for bed temp to stabilize
M109 S210 ; wait for nozzle temp to stabilize
G1 Z0.28 F240
G92 E0
G1 Y140 E10 F1500 ; prime the nozzle
G1 X4 F5000
G92 E0
G1 Y10 E10 F1200 ; prime the nozzle
G92 E0
G21 ; set units to millimeters
G90 ; use absolute coordinates
M83 ; use relative distances for extrusion
; Filament gcode
M107
;LAYER_CHANGE
;Z:0.35
;HEIGHT:0.35
;BEFORE_LAYER_CHANGE
G92 E0
;0.35


G1 E-1 F3600
G1 Z.35 F7800
;AFTER_LAYER_CHANGE
;0.35
G1 X19.03 Y113.347
G1 E1 F2400
;TYPE:Support material interface
;WIDTH:1
G1 F1800
G1 X19.03 Y114.609 E.16973
G1 X19.923 Y114.668 E.1204
G1 X19.923 Y113.749 E.12361
G1 X20.816 Y113.749 E.12014
G1 X20.816 Y115.129 E.18575
G1 E-.7 F3600
;WIPE_START
G1 F6240
G1 X20.816 Y114.609 E-.285
;WIPE_END
G1 E-.015 F3600
G1 X19.03 Y116.223 F7800
G1 E1 F2400
G1 F1800
G1 X19.03 Y117.142 E.12368
G1 X19.923 Y117.142 E.12014
G1 X19.923 Y116.625 E.06962
G1 X20.816 Y116.625 E.12014
G1 X20.816 Y117.142 E.06962
G1 X21.708 Y117.142 E.12014
G1 X21.708 Y113.749 E.45661
G1 X22.601 Y113.749 E.12014
G1 X22.601 Y117.142 E.45661
G1 X23.494 Y117.142 E.12014
G1 X23.494 Y113.749 E.45661
G1 X24.387 Y113.749 E.12014
G1 X24.387 Y117.142 E.45661
G1 X25.279 Y117.142 E.12014
G1 X25.279 Y113.749 E.45661
G1 X26.172 Y113.749 E.12014
G1 X26.172 Y117.142 E.45661
G1 X27.065 Y117.142 E.12014
G1 X27.065 Y113.749 E.45661
G1 X27.957 Y113.749 E.12014
G1 X27.957 Y117.142 E.45661
G1 X28.85 Y117.142 E.12014
G1 X28.85 Y113.749 E.45661
G1 X29.743 Y113.749 E.12014
G1 X29.743 Y117.142 E.45661
G1 X30.635 Y117.142 E.12014
G1 X30.635 Y113.749 E.45661
G1 X31.528 Y113.749 E.12014
G1 X31.528 Y117.142 E.45661
G1 X32.421 Y117.142 E.12014
G1 X32.421 Y113.749 E.45661
G1 X33.314 Y113.749 E.12014
G1 X33.314 Y117.142 E.45661
G1 X34.206 Y117.142 E.12014
G1 X34.206 Y113.749 E.45661
G1 X35.099 Y113.749 E.12014
G1 X35.099 Y117.544 E.51067
G1 E-.7 F3600
;WIPE_START
G1 F6240
G1 X35.099 Y117.024 E-.285
;WIPE_END
G1 E-.015 F3600
G1 X171.268 Y120.378 F7800
G1 E1 F2400
;TYPE:Support material
;WIDTH:0.42
G1 F1800
G1 X33.373 Y120.378 E6.92039
G1 X33.373 Y117.798 E.12947
G1 X36.373 Y117.798 E.15056
G1 X36.373 Y113.093 E.23616
G1 X33.373 Y113.093 E.15056
G1 X33.373 Y110.513 E.12947
G1 X171.268 Y110.513 E6.92039
G1 X171.268 Y120.326 E.4925
G1 X170.857 Y120.223 F7800
G1 F1800
G1 X170.857 Y110.823 E.47173
G1 X170.474 Y110.823 E.01923
G1 X170.474 Y120.068 E.46394
G1 X170.091 Y120.068 E.01923
G1 X170.091 Y110.823 E.46394
G1 X169.708 Y110.823 E.01923
G1 X169.708 Y120.068 E.46394
G1 X169.324 Y120.068 E.01923
G1 X169.324 Y110.823 E.46394
G1 X168.941 Y110.823 E.01923
G1 X168.941 Y120.068 E.46394
G1 X168.558 Y120.068 E.01923
G1 X168.558 Y110.823 E.46394
G1 X168.175 Y110.823 E.01923
G1 X168.175 Y120.068 E.46394
G1 X167.792 Y120.068 E.01923
G1 X167.792 Y110.823 E.46394
G1 X167.408 Y110.823 E.01923
G1 X167.408 Y120.068 E.46394
G1 X167.025 Y120.068 E.01923
G1 X167.025 Y110.823 E.46394
G1 X166.642 Y110.823 E.01923
G1 X166.642 Y120.068 E.46394
G1 X166.259 Y120.068 E.01923
G1 X166.259 Y110.823 E.46394
G1 X165.876 Y110.823 E.01923
G1 X165.876 Y120.068 E.46394
G1 X165.492 Y120.068 E.01923
G1 X165.492 Y110.823 E.46394
G1 X165.109 Y110.823 E.01923
G1 X165.109 Y120.068 E.46394
G1 X164.726 Y120.068 E.01923
G1 X164.726 Y110.823 E.46394
G1 X164.343 Y110.823 E.01923
G1 X164.343 Y120.068 E.46394
G1 X163.96 Y120.068 E.01923
G1 X163.96 Y110.823 E.46394
G1 X163.576 Y110.823 E.01923
G1 X163.576 Y120.068 E.46394
G1 X163.193 Y120.068 E.01923
G1 X163.193 Y110.823 E.46394
G1 X162.81 Y110.823 E.01923
G1 X162.81 Y120.068 E.46394
G1 X162.427 Y120.068 E.01923
G1 X162.427 Y110.823 E.46394
G1 X162.043 Y110.823 E.01923
G1 X162.043 Y120.068 E.46394
G1 X161.66 Y120.068 E.01923
G1 X161.66 Y110.823 E.46394
G1 X161.277 Y110.823 E.01923
G1 X161.277 Y120.068 E.46394
G1 X160.894 Y120.068 E.01923
G1 X160.894 Y110.823 E.46394
G1 X160.511 Y110.823 E.01923
G1 X160.511 Y120.068 E.46394
G1 X160.127 Y120.068 E.01923
G1 X160.127 Y110.823 E.46394
G1 X159.744 Y110.823 E.01923
G1 X159.744 Y120.068 E.46394
G1 X159.361 Y120.068 E.01923
G1 X159.361 Y110.823 E.46394
G1 X158.978 Y110.823 E.01923
G1 X158.978 Y120.068 E.46394
G1 X158.595 Y120.068 E.01923
G1 X158.595 Y110.823 E.46394
G1 X158.211 Y110.823 E.01923
G1 X158.211 Y120.068 E.46394
G1 X157.828 Y120.068 E.01923
G1 X157.828 Y110.823 E.46394
G1 X157.445 Y110.823 E.01923
G1 X157.445 Y120.068 E.46394
G1 X157.062 Y120.068 E.01923
G1 X157.062 Y110.823 E.46394
G1 X156.679 Y110.823 E.01923
G1 X156.679 Y120.068 E.46394
G1 X156.295 Y120.068 E.01923
G1 X156.295 Y110.823 E.46394
G1 X155.912 Y110.823 E.01923
G1 X155.912 Y120.068 E.46394
G1 X155.529 Y120.068 E.01923
G1 X155.529 Y110.823 E.46394
G1 X155.146 Y110.823 E.01923
G1 X155.146 Y120.068 E.46394
G1 X154.762 Y120.068 E.01923
G1 X154.762 Y110.823 E.46394
G1 X154.379 Y110.823 E.01923
G1 X154.379 Y120.068 E.46394
G1 X153.996 Y120.068 E.01923
G1 X153.996 Y110.823 E.46394
G1 X153.613 Y110.823 E.01923
G1 X153.613 Y120.068 E.46394
G1 X153.23 Y120.068 E.01923
G1 X153.23 Y110.823 E.46394
G1 X152.846 Y110.823 E.01923
M73 P1 R77
G1 X152.846 Y120.068 E.46394
G1 X152.463 Y120.068 E.01923
G1 X152.463 Y110.823 E.46394
G1 X152.08 Y110.823 E.01923
G1 X152.08 Y120.068 E.46394
G1 X151.697 Y120.068 E.01923
G1 X151.697 Y110.823 E.46394
G1 X151.314 Y110.823 E.01923
G1 X151.314 Y120.068 E.46394
G1 X150.93 Y120.068 E.01923
G1 X150.93 Y110.823 E.46394
G1 X150.547 Y110.823 E.01923
G1 X150.547 Y120.068 E.46394
G1 X150.164 Y120.068 E.01923
G1 X150.164 Y110.823 E.46394
G1 X149.781 Y110.823 E.01923
G1 X149.781 Y120.068 E.46394
G1 X149.398 Y120.068 E.01923
G1 X149.398 Y110.823 E.46394
G1 X149.014 Y110.823 E.01923
G1 X149.014 Y120.068 E.46394
G1 X148.631 Y120.068 E.01923
G1 X148.631 Y110.823 E.46394
G1 X148.248 Y110.823 E.01923
G1 X148.248 Y120.068 E.46394
G1 X147.865 Y120.068 E.01923
G1 X147.865 Y110.823 E.46394
G1 X147.481 Y110.823 E.01923
G1 X147.481 Y120.068 E.46394
G1 X147.098 Y120.068 E.01923
G1 X147.098 Y110.823 E.46394
G1 X146.715 Y110.823 E.01923
G1 X146.715 Y120.068 E.46394
G1 X146.332 Y120.068 E.01923
G1 X146.332 Y110.823 E.46394
G1 X145.949 Y110.823 E.01923
G1 X145.949 Y120.068 E.46394
G1 X145.565 Y120.068 E.01923
G1 X145.565 Y110.823 E.46394
G1 X145.182 Y110.823 E.01923
G1 X145.182 Y120.068 E.46394
G1 X144.799 Y120.068 E.01923
G1 X144.799 Y110.823 E.46394
G1 X144.416 Y110.823 E.01923
G1 X144.416 Y120.068 E.46394
G1 X144.033 Y120.068 E.01923
M73 P1 R76
G1 X144.033 Y110.823 E.46394
G1 X143.649 Y110.823 E.01923
G1 X143.649 Y120.068 E.46394
G1 X143.266 Y120.068 E.01923
G1 X143.266 Y110.823 E.46394
G1 X142.883 Y110.823 E.01923
G1 X142.883 Y120.068 E.46394
G1 X142.5 Y120.068 E.01923
G1 X142.5 Y110.823 E.46394
G1 X142.117 Y110.823 E.01923
G1 X142.117 Y120.068 E.46394
G1 X141.733 Y120.068 E.01923
G1 X141.733 Y110.823 E.46394
G1 X141.35 Y110.823 E.01923
G1 X141.35 Y120.068 E.46394
G1 X140.967 Y120.068 E.01923
G1 X140.967 Y110.823 E.46394
G1 X140.584 Y110.823 E.01923
G1 X140.584 Y120.068 E.46394
G1 X140.2 Y120.068 E.01923
G1 X140.201 Y110.823 E.46394
G1 X139.817 Y110.823 E.01923
G1 X139.817 Y120.068 E.46394
G1 X139.434 Y120.068 E.01923
G1 X139.434 Y110.823 E.46394
G1 X139.051 Y110.823 E.01923
G1 X139.051 Y120.068 E.46394
G1 X138.668 Y120.068 E.01923
G1 X138.668 Y110.823 E.46394
G1 X138.284 Y110.823 E.01923
G1 X138.284 Y120.068 E.46394
G1 X137.901 Y120.068 E.01923
G1 X137.901 Y110.823 E.46394
G1 X137.518 Y110.823 E.01923
G1 X137.518 Y120.068 E.46394
G1 X137.135 Y120.068 E.01923
G1 X137.135 Y110.823 E.46394
G1 X136.752 Y110.823 E.01923
G1 X136.752 Y120.068 E.46394
G1 X136.368 Y120.068 E.01923
G1 X136.368 Y110.823 E.46394
G1 X135.985 Y110.823 E.01923
G1 X135.985 Y120.068 E.46394
G1 X135.602 Y120.068 E.01923
G1 X135.602 Y110.823 E.46394
G1 X135.219 Y110.823 E.01923
G1 X135.219 Y120.068 E.46394
G1 X134.836 Y120.068 E.01923
G1 X134.836 Y110.823 E.46394
G1 X134.452 Y110.823 E.01923
G1 X134.452 Y120.068 E.46394
G1 X134.069 Y120.068 E.01923
G1 X134.069 Y110.823 E.46394
G1 X133.686 Y110.823 E.01923
G1 X133.686 Y120.068 E.46394
G1 X133.303 Y120.068 E.01923
G1 X133.303 Y110.823 E.46394
G1 X132.92 Y110.823 E.01923
G1 X132.92 Y120.068 E.46394
G1 X132.536 Y120.068 E.01923
G1 X132.536 Y110.823 E.46394
G1 X132.153 Y110.823 E.01923
G1 X132.153 Y120.068 E.46394
G1 X131.77 Y120.068 E.01923
G1 X131.77 Y110.823 E.46394
G1 X131.387 Y110.823 E.01923
G1 X131.387 Y120.068 E.46394
G1 X131.003 Y120.068 E.01923
G1 X131.003 Y110.823 E.46394
G1 X130.62 Y110.823 E.01923
G1 X130.62 Y120.068 E.46394
G1 X130.237 Y120.068 E.01923
G1 X130.237 Y110.823 E.46394
G1 X129.854 Y110.823 E.01923
G1 X129.854 Y120.068 E.46394
G1 X129.471 Y120.068 E.01923
G1 X129.471 Y110.823 E.46394
G1 X129.087 Y110.823 E.01923
G1 X129.087 Y120.068 E.46394
G1 X128.704 Y120.068 E.01923
G1 X128.704 Y110.823 E.46394
G1 X128.321 Y110.823 E.01923
G1 X128.321 Y120.068 E.46394
G1 X127.938 Y120.068 E.01923
G1 X127.938 Y110.823 E.46394
G1 X127.555 Y110.823 E.01923
G1 X127.555 Y120.068 E.46394
G1 X127.171 Y120.068 E.01923
G1 X127.171 Y110.823 E.46394
G1 X126.788 Y110.823 E.01923
G1 X126.788 Y120.068 E.46394
G1 X126.405 Y120.068 E.01923
G1 X126.405 Y110.823 E.46394
G1 X126.022 Y110.823 E.01923
G1 X126.022 Y120.068 E.46394
G1 X125.639 Y120.068 E.01923
G1 X125.639 Y110.823 E.46394
G1 X125.255 Y110.823 E.01923
G1 X125.255 Y120.068 E.46394
G1 X124.872 Y120.068 E.01923
G1 X124.872 Y110.823 E.46394
G1 X124.489 Y110.823 E.01923
G1 X124.489 Y120.068 E.46394
G1 X124.106 Y120.068 E.01923
G1 X124.106 Y110.823 E.46394
G1 X123.722 Y110.823 E.01923
G1 X123.722 Y120.068 E.46394
G1 X123.339 Y120.068 E.01923
G1 X123.339 Y110.823 E.46394
G1 X122.956 Y110.823 E.01923
G1 X122.956 Y120.068 E.46394
G1 X122.573 Y120.068 E.01923
G1 X122.573 Y110.823 E.46394
G1 X122.19 Y110.823 E.01923
G1 X122.19 Y120.068 E.46394
G1 X121.806 Y120.068 E.01923
G1 X121.806 Y110.823 E.46394
G1 X121.423 Y110.823 E.01923
G1 X121.423 Y120.068 E.46394
G1 X121.04 Y120.068 E.01923
G1 X121.04 Y110.823 E.46394
G1 X120.657 Y110.823 E.01923
G1 X120.657 Y120.068 E.46394
G1 X120.274 Y120.068 E.01923
G1 X120.274 Y110.823 E.46394
G1 X119.89 Y110.823 E.01923
G1 X119.89 Y120.068 E.46394
G1 X119.507 Y120.068 E.01923
G1 X119.507 Y110.823 E.46394
G1 X119.124 Y110.823 E.01923
G1 X119.124 Y120.068 E.46394
G1 X118.741 Y120.068 E.01923
G1 X118.741 Y110.823 E.46394
G1 X118.358 Y110.823 E.01923
G1 X118.358 Y120.068 E.46394
G1 X117.974 Y120.068 E.01923
G1 X117.974 Y110.823 E.46394
G1 X117.591 Y110.823 E.01923
G1 X117.591 Y120.068 E.46394
G1 X117.208 Y120.068 E.01923
G1 X117.208 Y110.823 E.46394
G1 X116.825 Y110.823 E.01923
G1 X116.825 Y120.068 E.46394
G1 X116.441 Y120.068 E.01923
G1 X116.441 Y110.823 E.46394
G1 X116.058 Y110.823 E.01923
G1 X116.058 Y120.068 E.46394
G1 X115.675 Y120.068 E.01923
G1 X115.675 Y110.823 E.46394
G1 X115.292 Y110.823 E.01923
G1 X115.292 Y120.068 E.46394
G1 X114.909 Y120.068 E.01923
G1 X114.909 Y110.823 E.46394
G1 X114.525 Y110.823 E.01923
G1 X114.525 Y120.068 E.46394
G1 X114.142 Y120.068 E.01923
G1 X114.142 Y110.823 E.46394
G1 X113.759 Y110.823 E.01923
G1 X113.759 Y120.068 E.46394
G1 X113.376 Y120.068 E.01923
G1 X113.376 Y110.823 E.46394
G1 X112.993 Y110.823 E.01923
G1 X112.993 Y120.068 E.46394
G1 X112.609 Y120.068 E.01923
G1 X112.609 Y110.823 E.46394
G1 X112.226 Y110.823 E.01923
G1 X112.226 Y120.068 E.46394
G1 X111.843 Y120.068 E.01923
G1 X111.843 Y110.823 E.46394
G1 X111.46 Y110.823 E.01923
G1 X111.46 Y120.068 E.46394
G1 X111.077 Y120.068 E.01923
G1 X111.077 Y110.823 E.46394
G1 X110.693 Y110.823 E.01923
G1 X110.693 Y120.068 E.46394
G1 X110.31 Y120.068 E.01923
G1 X110.31 Y110.823 E.46394
G1 X109.927 Y110.823 E.01923
G1 X109.927 Y120.068 E.46394
G1 X109.544 Y120.068 E.01923
G1 X109.544 Y110.823 E.46394
G1 X109.16 Y110.823 E.01923
G1 X109.16 Y120.068 E.46394
G1 X108.777 Y120.068 E.01923
G1 X108.777 Y110.823 E.46394
G1 X108.394 Y110.823 E.01923
G1 X108.394 Y120.068 E.46394
G1 X108.011 Y120.068 E.01923
G1 X108.011 Y110.823 E.46394
G1 X107.628 Y110.823 E.01923
G1 X107.628 Y120.068 E.46394
G1 X107.244 Y120.068 E.01923
G1 X107.244 Y110.823 E.46394
G1 X106.861 Y110.823 E.01923
G1 X106.861 Y120.068 E.46394
G1 X106.478 Y120.068 E.01923
G1 X106.478 Y110.823 E.46394
G1 X106.095 Y110.823 E.01923
G1 X106.095 Y120.068 E.46394
G1 X105.712 Y120.068 E.01923
G1 X105.712 Y110.823 E.46394
G1 X105.328 Y110.823 E.01923
G1 X105.328 Y120.068 E.46394
G1 X104.945 Y120.068 E.01923
G1 X104.945 Y110.823 E.46394
G1 X104.562 Y110.823 E.01923
M73 P2 R76
G1 X104.562 Y120.068 E.46394
G1 X104.179 Y120.068 E.01923
G1 X104.179 Y110.823 E.46394
G1 X103.796 Y110.823 E.01923
G1 X103.796 Y120.068 E.46394
G1 X103.412 Y120.068 E.01923
G1 X103.412 Y110.823 E.46394
G1 X103.029 Y110.823 E.01923
G1 X103.029 Y120.068 E.46394
G1 X102.646 Y120.068 E.01923
G1 X102.646 Y110.823 E.46394
G1 X102.263 Y110.823 E.01923
G1 X102.263 Y120.068 E.46394
G1 X101.88 Y120.068 E.01923
G1 X101.88 Y110.823 E.46394
G1 X101.496 Y110.823 E.01923
G1 X101.496 Y120.068 E.46394
G1 X101.113 Y120.068 E.01923
G1 X101.113 Y110.823 E.46394
G1 X100.73 Y110.823 E.01923
G1 X100.73 Y120.068 E.46394
G1 X100.347 Y120.068 E.01923
G1 X100.347 Y110.823 E.46394
G1 X99.963 Y110.823 E.01923
G1 X99.963 Y120.068 E.46394
G1 X99.58 Y120.068 E.01923
G1 X99.58 Y110.823 E.46394
G1 X99.197 Y110.823 E.01923
G1 X99.197 Y120.068 E.46394
G1 X98.814 Y120.068 E.01923
G1 X98.814 Y110.823 E.46394
G1 X98.431 Y110.823 E.01923
G1 X98.431 Y120.068 E.46394
G1 X98.047 Y120.068 E.01923
G1 X98.047 Y110.823 E.46394
G1 X97.664 Y110.823 E.01923
G1 X97.664 Y120.068 E.46394
G1 X97.281 Y120.068 E.01923
G1 X97.281 Y110.823 E.46394
G1 X96.898 Y110.823 E.01923
G1 X96.898 Y120.068 E.46394
G1 X96.515 Y120.068 E.01923
G1 X96.515 Y110.823 E.46394
G1 X96.131 Y110.823 E.01923
G1 X96.131 Y120.068 E.46394
G1 X95.748 Y120.068 E.01923
G1 X95.748 Y110.823 E.46394
G1 X95.365 Y110.823 E.01923
G1 X95.365 Y120.068 E.46394
G1 X94.982 Y120.068 E.01923
G1 X94.982 Y110.823 E.46394
G1 X94.599 Y110.823 E.01923
G1 X94.599 Y120.068 E.46394
G1 X94.215 Y120.068 E.01923
G1 X94.215 Y110.823 E.46394
G1 X93.832 Y110.823 E.01923
G1 X93.832 Y120.068 E.46394
G1 X93.449 Y120.068 E.01923
G1 X93.449 Y110.823 E.46394
G1 X93.066 Y110.823 E.01923
G1 X93.066 Y120.068 E.46394
G1 X92.682 Y120.068 E.01923
G1 X92.682 Y110.823 E.46394
G1 X92.299 Y110.823 E.01923
G1 X92.299 Y120.068 E.46394
G1 X91.916 Y120.068 E.01923
G1 X91.916 Y110.823 E.46394
G1 X91.533 Y110.823 E.01923
G1 X91.533 Y120.068 E.46394
G1 X91.15 Y120.068 E.01923
G1 X91.15 Y110.823 E.46394
G1 X90.766 Y110.823 E.01923
G1 X90.766 Y120.068 E.46394
G1 X90.383 Y120.068 E.01923
G1 X90.383 Y110.823 E.46394
G1 X90 Y110.823 E.01923
G1 X90 Y120.068 E.46394
G1 X89.617 Y120.068 E.01923
G1 X89.617 Y110.823 E.46394
G1 X89.234 Y110.823 E.01923
G1 X89.234 Y120.068 E.46394
G1 X88.85 Y120.068 E.01923
G1 X88.85 Y110.823 E.46394
G1 X88.467 Y110.823 E.01923
G1 X88.467 Y120.068 E.46394
G1 X88.084 Y120.068 E.01923
G1 X88.084 Y110.823 E.46394
G1 X87.701 Y110.823 E.01923
G1 X87.701 Y120.068 E.46394
G1 X87.318 Y120.068 E.01923
G1 X87.318 Y110.823 E.46394
G1 X86.934 Y110.823 E.01923
G1 X86.934 Y120.068 E.46394
G1 X86.551 Y120.068 E.01923
G1 X86.551 Y110.823 E.46394
G1 X86.168 Y110.823 E.01923
G1 X86.168 Y120.068 E.46394
G1 X85.785 Y120.068 E.01923
G1 X85.785 Y110.823 E.46394
G1 X85.401 Y110.823 E.01923
G1 X85.401 Y120.068 E.46394
G1 X85.018 Y120.068 E.01923
G1 X85.018 Y110.823 E.46394
G1 X84.635 Y110.823 E.01923
G1 X84.635 Y120.068 E.46394
G1 X84.252 Y120.068 E.01923
G1 X84.252 Y110.823 E.46394
