; generated by PrusaSlicer 2.5.0+win64 on 2022-12-07 at 00:29:47 UTC

; 

; external perimeters extrusion width = 1.00mm
; perimeters extrusion width = 1.00mm
; infill extrusion width = 1.00mm
; solid infill extrusion width = 1.00mm
; top infill extrusion width = 1.00mm
; support material extrusion width = 1.00mm
; first layer extrusion width = 0.42mm

M73 P0 R428
M107
;TYPE:Custom
G90 ; use absolute coordinates
M83 ; extruder relative mode
M140 S60 ; set final bed temp
M104 S150 ; set temporary nozzle temp to prevent oozing during homing and auto bed leveling
G4 S10 ; allow partial nozzle warmup
G28 ; home all axisG1 Z50 F240
G1 X7.6 Y10 F3000
M104 S210 ; set final nozzle temp
M190 S60 ; wait for bed temp to stabilize
M109 S210 ; wait for nozzle temp to stabilize
G1 Z0.28 F240
G92 E0
G1 Y140 E10 F1500 ; prime the nozzle
G1 X4 F5000
G92 E0
G1 Y10 E10 F1200 ; prime the nozzle
G92 E0
G21 ; set units to millimeters
G90 ; use absolute coordinates
M83 ; use relative distances for extrusion
; Filament gcode
M107
;LAYER_CHANGE
;Z:0.35
;HEIGHT:0.35
;BEFORE_LAYER_CHANGE
G92 E0
;0.35


G1 E-1 F3600
G1 Z.35 F7800
;AFTER_LAYER_CHANGE
;0.35
G1 X114.549 Y8.977
G1 E1 F2400
;TYPE:Support material interface
;WIDTH:1
G1 F1800
G1 X114.549 Y5.183 E.51067
G1 X115.442 Y5.183 E.12014
G1 X115.442 Y8.575 E.45661
G1 X116.335 Y8.575 E.12014
G1 X116.335 Y5.183 E.45661
G1 X117.227 Y5.183 E.12014
G1 X117.227 Y8.575 E.45661
G1 X118.12 Y8.575 E.12014
G1 X118.12 Y5.183 E.45661
G1 X119.013 Y5.183 E.12014
G1 X119.013 Y8.575 E.45661
G1 X119.905 Y8.575 E.12014
G1 X119.905 Y5.183 E.45661
G1 X120.798 Y5.183 E.12014
G1 X120.798 Y8.575 E.45661
G1 X121.691 Y8.575 E.12014
G1 X121.691 Y5.183 E.45661
G1 X122.583 Y5.183 E.12014
G1 X122.583 Y8.575 E.45661
G1 X123.476 Y8.575 E.12014
G1 X123.476 Y5.183 E.45661
G1 X124.369 Y5.183 E.12014
G1 X124.369 Y8.575 E.45661
G1 X125.262 Y8.575 E.12014
G1 X125.262 Y5.183 E.45661
G1 X126.154 Y5.183 E.12014
G1 X126.154 Y8.575 E.45661
G1 X127.047 Y8.575 E.12014
G1 X127.047 Y5.183 E.45661
G1 X127.94 Y5.183 E.12014
G1 X127.94 Y8.575 E.45661
G1 X128.832 Y8.575 E.12014
G1 X128.832 Y5.183 E.45661
G1 X129.725 Y5.183 E.12014
G1 X129.725 Y8.575 E.45661
G1 X130.618 Y8.575 E.12014
G1 X130.618 Y6.839 E.23364
G1 X131.51 Y7.045 E.12329
G1 X131.51 Y8.575 E.20597
G1 X132.403 Y8.575 E.12014
G1 X132.403 Y7.25 E.1783
G1 X133.296 Y7.456 E.12328
G1 X133.296 Y8.977 E.20474
G1 E-.7 F3600
;WIPE_START
G1 F6240
G1 X133.296 Y8.457 E-.285
;WIPE_END
G1 E-.015 F3600
G1 X116.092 Y4.526 F7800
G1 E1 F2400
;TYPE:Support material
;WIDTH:0.42
G1 F1800
G1 X113.092 Y4.526 E.15056
G1 X113.092 Y9.232 E.23616
G1 X116.092 Y9.232 E.15056
G1 X116.092 Y11.811 E.12947
G1 X8.732 Y11.811 E5.388
G1 X8.732 Y1.946 E.49509
G1 X116.092 Y1.946 E5.388
G1 X116.092 Y4.474 E.12687
G1 E-.7 F3600
;WIPE_START
G1 F6240
G1 X116.092 Y3.954 E-.285
;WIPE_END
G1 E-.015 F3600
G1 X115.675 Y11.656 F7800
G1 E1 F2400
G1 F1800
G1 X115.675 Y9.542 E.1061
G1 X115.292 Y9.542 E.01923
G1 X115.292 Y11.501 E.09831
G1 X114.909 Y11.501 E.01923
G1 X114.909 Y9.542 E.09831
G1 X114.525 Y9.542 E.01923
G1 X114.525 Y11.501 E.09831
G1 X114.142 Y11.501 E.01923
G1 X114.142 Y9.542 E.09831
G1 X113.759 Y9.542 E.01923
G1 X113.759 Y11.501 E.09831
G1 X113.376 Y11.501 E.01923
G1 X113.376 Y9.542 E.09831
G1 X112.993 Y9.542 E.01923
G1 X112.993 Y11.501 E.09831
G1 X112.609 Y11.501 E.01923
G1 X112.609 Y2.257 E.46394
G1 X112.993 Y2.257 E.01923
G1 X112.993 Y4.216 E.09831
G1 X113.376 Y4.216 E.01923
G1 X113.376 Y2.257 E.09831
G1 X113.759 Y2.257 E.01923
G1 X113.759 Y4.216 E.09831
G1 X114.142 Y4.216 E.01923
G1 X114.142 Y2.257 E.09831
G1 X114.525 Y2.257 E.01923
G1 X114.525 Y4.216 E.09831
G1 X114.909 Y4.216 E.01923
G1 X114.909 Y2.257 E.09831
G1 X115.292 Y2.257 E.01923
G1 X115.292 Y4.216 E.09831
G1 X115.675 Y4.216 E.01923
G1 X115.675 Y2.101 E.1061
G1 E-.7 F3600
;WIPE_START
G1 F6240
G1 X115.675 Y2.621 E-.285
;WIPE_END
G1 E-.015 F3600
G1 X112.226 Y11.656 F7800
G1 E1 F2400
G1 F1800
G1 X112.226 Y2.257 E.47173
G1 X111.843 Y2.257 E.01923
G1 X111.843 Y11.501 E.46394
G1 X111.46 Y11.501 E.01923
G1 X111.46 Y2.257 E.46394
G1 X111.077 Y2.257 E.01923
G1 X111.077 Y11.501 E.46394
G1 X110.693 Y11.501 E.01923
G1 X110.693 Y2.257 E.46394
G1 X110.31 Y2.257 E.01923
G1 X110.31 Y11.501 E.46394
G1 X109.927 Y11.501 E.01923
G1 X109.927 Y2.257 E.46394
G1 X109.544 Y2.257 E.01923
G1 X109.544 Y11.501 E.46394
G1 X109.16 Y11.501 E.01923
G1 X109.16 Y2.257 E.46394
G1 X108.777 Y2.257 E.01923
G1 X108.777 Y11.501 E.46394
G1 X108.394 Y11.501 E.01923
G1 X108.394 Y2.257 E.46394
G1 X108.011 Y2.257 E.01923
G1 X108.011 Y11.501 E.46394
G1 X107.628 Y11.501 E.01923
G1 X107.628 Y2.257 E.46394
G1 X107.244 Y2.257 E.01923
G1 X107.244 Y11.501 E.46394
G1 X106.861 Y11.501 E.01923
G1 X106.861 Y2.257 E.46394
G1 X106.478 Y2.257 E.01923
G1 X106.478 Y11.501 E.46394
G1 X106.095 Y11.501 E.01923
G1 X106.095 Y2.257 E.46394
G1 X105.712 Y2.257 E.01923
G1 X105.712 Y11.501 E.46394
G1 X105.328 Y11.501 E.01923
G1 X105.328 Y2.257 E.46394
G1 X104.945 Y2.257 E.01923
G1 X104.945 Y11.501 E.46394
G1 X104.562 Y11.501 E.01923
G1 X104.562 Y2.257 E.46394
G1 X104.179 Y2.257 E.01923
G1 X104.179 Y11.501 E.46394
G1 X103.796 Y11.501 E.01923
G1 X103.796 Y2.257 E.46394
G1 X103.412 Y2.257 E.01923
G1 X103.412 Y11.501 E.46394
G1 X103.029 Y11.501 E.01923
G1 X103.029 Y2.257 E.46394
G1 X102.646 Y2.257 E.01923
M73 P0 R427
G1 X102.646 Y11.501 E.46394
G1 X102.263 Y11.501 E.01923
G1 X102.263 Y2.257 E.46394
G1 X101.88 Y2.257 E.01923
G1 X101.88 Y11.501 E.46394
G1 X101.496 Y11.501 E.01923
G1 X101.496 Y2.257 E.46394
G1 X101.113 Y2.257 E.01923
G1 X101.113 Y11.501 E.46394
G1 X100.73 Y11.501 E.01923
G1 X100.73 Y2.257 E.46394
G1 X100.347 Y2.257 E.01923
G1 X100.347 Y11.501 E.46394
G1 X99.963 Y11.501 E.01923
G1 X99.963 Y2.257 E.46394
G1 X99.58 Y2.257 E.01923
G1 X99.58 Y11.501 E.46394
G1 X99.197 Y11.501 E.01923
G1 X99.197 Y2.257 E.46394
G1 X98.814 Y2.257 E.01923
G1 X98.814 Y11.501 E.46394
G1 X98.431 Y11.501 E.01923
G1 X98.431 Y2.257 E.46394
G1 X98.047 Y2.257 E.01923
G1 X98.047 Y11.501 E.46394
G1 X97.664 Y11.501 E.01923
G1 X97.664 Y2.257 E.46394
G1 X97.281 Y2.257 E.01923
G1 X97.281 Y11.501 E.46394
G1 X96.898 Y11.501 E.01923
G1 X96.898 Y2.257 E.46394
G1 X96.515 Y2.257 E.01923
G1 X96.515 Y11.501 E.46394
G1 X96.131 Y11.501 E.01923
G1 X96.131 Y2.257 E.46394
G1 X95.748 Y2.257 E.01923
G1 X95.748 Y11.501 E.46394
G1 X95.365 Y11.501 E.01923
G1 X95.365 Y2.257 E.46394
G1 X94.982 Y2.257 E.01923
G1 X94.982 Y11.501 E.46394
G1 X94.599 Y11.501 E.01923
G1 X94.599 Y2.257 E.46394
G1 X94.215 Y2.257 E.01923
G1 X94.215 Y11.501 E.46394
G1 X93.832 Y11.501 E.01923
G1 X93.832 Y2.257 E.46394
G1 X93.449 Y2.257 E.01923
G1 X93.449 Y11.501 E.46394
G1 X93.066 Y11.501 E.01923
G1 X93.066 Y2.257 E.46394
G1 X92.682 Y2.257 E.01923
G1 X92.682 Y11.501 E.46394
G1 X92.299 Y11.501 E.01923
G1 X92.299 Y2.257 E.46394
G1 X91.916 Y2.257 E.01923
G1 X91.916 Y11.501 E.46394
G1 X91.533 Y11.501 E.01923
G1 X91.533 Y2.257 E.46394
G1 X91.15 Y2.257 E.01923
G1 X91.15 Y11.501 E.46394
G1 X90.766 Y11.501 E.01923
G1 X90.766 Y2.257 E.46394
G1 X90.383 Y2.257 E.01923
G1 X90.383 Y11.501 E.46394
G1 X90 Y11.501 E.01923
G1 X90 Y2.257 E.46394
G1 X89.617 Y2.257 E.01923
G1 X89.617 Y11.501 E.46394
G1 X89.234 Y11.501 E.01923
G1 X89.234 Y2.257 E.46394
G1 X88.85 Y2.257 E.01923
G1 X88.85 Y11.501 E.46394
G1 X88.467 Y11.501 E.01923
G1 X88.467 Y2.257 E.46394
G1 X88.084 Y2.257 E.01923
G1 X88.084 Y11.501 E.46394
G1 X87.701 Y11.501 E.01923
G1 X87.701 Y2.257 E.46394
G1 X87.318 Y2.257 E.01923
G1 X87.318 Y11.501 E.46394
G1 X86.934 Y11.501 E.01923
G1 X86.934 Y2.257 E.46394
G1 X86.551 Y2.257 E.01923
G1 X86.551 Y11.501 E.46394
G1 X86.168 Y11.501 E.01923
G1 X86.168 Y2.257 E.46394
G1 X85.785 Y2.257 E.01923
G1 X85.785 Y11.501 E.46394
G1 X85.401 Y11.501 E.01923
G1 X85.401 Y2.257 E.46394
G1 X85.018 Y2.257 E.01923
G1 X85.018 Y11.501 E.46394
G1 X84.635 Y11.501 E.01923
G1 X84.635 Y2.257 E.46394
G1 X84.252 Y2.257 E.01923
G1 X84.252 Y11.501 E.46394
G1 X83.869 Y11.501 E.01923
G1 X83.869 Y2.257 E.46394
G1 X83.485 Y2.257 E.01923
G1 X83.485 Y11.501 E.46394
G1 X83.102 Y11.501 E.01923
G1 X83.102 Y2.257 E.46394
G1 X82.719 Y2.257 E.01923
G1 X82.719 Y11.501 E.46394
G1 X82.336 Y11.501 E.01923
G1 X82.336 Y2.257 E.46394
G1 X81.953 Y2.257 E.01923
G1 X81.953 Y11.501 E.46394
G1 X81.569 Y11.501 E.01923
G1 X81.569 Y2.257 E.46394
G1 X81.186 Y2.257 E.01923
G1 X81.186 Y11.501 E.46394
G1 X80.803 Y11.501 E.01923
G1 X80.803 Y2.257 E.46394
G1 X80.42 Y2.257 E.01923
G1 X80.42 Y11.501 E.46394
G1 X80.037 Y11.501 E.01923
G1 X80.037 Y2.257 E.46394
G1 X79.653 Y2.257 E.01923
G1 X79.653 Y11.501 E.46394
G1 X79.27 Y11.501 E.01923
G1 X79.27 Y2.257 E.46394
G1 X78.887 Y2.257 E.01923
G1 X78.887 Y11.501 E.46394
G1 X78.504 Y11.501 E.01923
G1 X78.504 Y2.257 E.46394
G1 X78.12 Y2.257 E.01923
G1 X78.12 Y11.501 E.46394
G1 X77.737 Y11.501 E.01923
G1 X77.737 Y2.257 E.46394
G1 X77.354 Y2.257 E.01923
G1 X77.354 Y11.501 E.46394
G1 X76.971 Y11.501 E.01923
G1 X76.971 Y2.257 E.46394
G1 X76.588 Y2.257 E.01923
G1 X76.588 Y11.501 E.46394
G1 X76.204 Y11.501 E.01923
G1 X76.204 Y2.257 E.46394
G1 X75.821 Y2.257 E.01923
G1 X75.821 Y11.501 E.46394
G1 X75.438 Y11.501 E.01923
G1 X75.438 Y2.257 E.46394
G1 X75.055 Y2.257 E.01923
G1 X75.055 Y11.501 E.46394
G1 X74.672 Y11.501 E.01923
G1 X74.672 Y2.257 E.46394
G1 X74.288 Y2.257 E.01923
G1 X74.288 Y11.501 E.46394
G1 X73.905 Y11.501 E.01923
G1 X73.905 Y2.257 E.46394
G1 X73.522 Y2.257 E.01923
G1 X73.522 Y11.501 E.46394
G1 X73.139 Y11.501 E.01923
G1 X73.139 Y2.257 E.46394
G1 X72.756 Y2.257 E.01923
G1 X72.756 Y11.501 E.46394
G1 X72.372 Y11.501 E.01923
G1 X72.372 Y2.257 E.46394
G1 X71.989 Y2.257 E.01923
G1 X71.989 Y11.501 E.46394
G1 X71.606 Y11.501 E.01923
G1 X71.606 Y2.257 E.46394
G1 X71.223 Y2.257 E.01923
G1 X71.223 Y11.501 E.46394
G1 X70.839 Y11.501 E.01923
G1 X70.839 Y2.257 E.46394
G1 X70.456 Y2.257 E.01923
G1 X70.456 Y11.501 E.46394
G1 X70.073 Y11.501 E.01923
G1 X70.073 Y2.257 E.46394
G1 X69.69 Y2.257 E.01923
G1 X69.69 Y11.501 E.46394
G1 X69.307 Y11.501 E.01923
G1 X69.307 Y2.257 E.46394
G1 X68.923 Y2.257 E.01923
G1 X68.923 Y11.501 E.46394
G1 X68.54 Y11.501 E.01923
G1 X68.54 Y2.257 E.46394
G1 X68.157 Y2.257 E.01923
G1 X68.157 Y11.501 E.46394
G1 X67.774 Y11.501 E.01923
G1 X67.774 Y2.257 E.46394
G1 X67.391 Y2.257 E.01923
G1 X67.391 Y11.501 E.46394
G1 X67.007 Y11.501 E.01923
G1 X67.007 Y2.257 E.46394
G1 X66.624 Y2.257 E.01923
G1 X66.624 Y11.501 E.46394
G1 X66.241 Y11.501 E.01923
G1 X66.241 Y2.257 E.46394
G1 X65.858 Y2.257 E.01923
G1 X65.858 Y11.501 E.46394
G1 X65.475 Y11.501 E.01923
G1 X65.475 Y2.257 E.46394
G1 X65.091 Y2.257 E.01923
G1 X65.091 Y11.501 E.46394
G1 X64.708 Y11.501 E.01923
G1 X64.708 Y2.257 E.46394
G1 X64.325 Y2.257 E.01923
G1 X64.325 Y11.501 E.46394
G1 X63.942 Y11.501 E.01923
G1 X63.942 Y2.257 E.46394
G1 X63.559 Y2.257 E.01923
G1 X63.559 Y11.501 E.46394
G1 X63.175 Y11.501 E.01923
G1 X63.175 Y2.257 E.46394
G1 X62.792 Y2.257 E.01923
G1 X62.792 Y11.501 E.46394
G1 X62.409 Y11.501 E.01923
G1 X62.409 Y2.257 E.46394
G1 X62.026 Y2.257 E.01923
G1 X62.026 Y11.501 E.46394
G1 X61.642 Y11.501 E.01923
G1 X61.642 Y2.257 E.46394
G1 X61.259 Y2.257 E.01923
G1 X61.259 Y11.501 E.46394
G1 X60.876 Y11.501 E.01923
G1 X60.876 Y2.257 E.46394
G1 X60.493 Y2.257 E.01923
G1 X60.493 Y11.501 E.46394
G1 X60.11 Y11.501 E.01923
G1 X60.11 Y2.257 E.46394
G1 X59.726 Y2.257 E.01923
G1 X59.726 Y11.501 E.46394
G1 X59.343 Y11.501 E.01923
G1 X59.343 Y2.257 E.46394
G1 X58.96 Y2.257 E.01923
G1 X58.96 Y11.501 E.46394
G1 X58.577 Y11.501 E.01923
G1 X58.577 Y2.257 E.46394
G1 X58.194 Y2.257 E.01923
G1 X58.194 Y11.501 E.46394
G1 X57.81 Y11.501 E.01923
G1 X57.81 Y2.257 E.46394
G1 X57.427 Y2.257 E.01923
G1 X57.427 Y11.501 E.46394
G1 X57.044 Y11.501 E.01923
G1 X57.044 Y2.257 E.46394
G1 X56.661 Y2.257 E.01923
G1 X56.661 Y11.501 E.46394
G1 X56.278 Y11.501 E.01923
G1 X56.278 Y2.257 E.46394
G1 X55.894 Y2.257 E.01923
G1 X55.894 Y11.501 E.46394
G1 X55.511 Y11.501 E.01923
G1 X55.511 Y2.257 E.46394
G1 X55.128 Y2.257 E.01923
G1 X55.128 Y11.501 E.46394
G1 X54.745 Y11.501 E.01923
G1 X54.745 Y2.257 E.46394
G1 X54.361 Y2.257 E.01923
G1 X54.361 Y11.501 E.46394
G1 X53.978 Y11.501 E.01923
G1 X53.978 Y2.257 E.46394
G1 X53.595 Y2.257 E.01923
G1 X53.595 Y11.501 E.46394
G1 X53.212 Y11.501 E.01923
G1 X53.212 Y2.257 E.46394
G1 X52.829 Y2.257 E.01923
G1 X52.829 Y11.501 E.46394
G1 X52.445 Y11.501 E.01923
G1 X52.445 Y2.257 E.46394
G1 X52.062 Y2.257 E.01923
G1 X52.062 Y11.501 E.46394
G1 X51.679 Y11.501 E.01923
G1 X51.679 Y2.257 E.46394
G1 X51.296 Y2.257 E.01923
G1 X51.296 Y11.501 E.46394
G1 X50.913 Y11.501 E.01923
G1 X50.913 Y2.257 E.46394
G1 X50.529 Y2.257 E.01923
G1 X50.529 Y11.501 E.46394
G1 X50.146 Y11.501 E.01923
G1 X50.146 Y2.257 E.46394
G1 X49.763 Y2.257 E.01923
G1 X49.763 Y11.501 E.46394
G1 X49.38 Y11.501 E.01923
G1 X49.38 Y2.257 E.46394
G1 X48.997 Y2.257 E.01923
G1 X48.997 Y11.501 E.46394
G1 X48.613 Y11.501 E.01923
G1 X48.613 Y2.257 E.46394
G1 X48.23 Y2.257 E.01923
G1 X48.23 Y11.501 E.46394
G1 X47.847 Y11.501 E.01923
G1 X47.847 Y2.257 E.46394
G1 X47.464 Y2.257 E.01923
G1 X47.464 Y11.501 E.46394
G1 X47.08 Y11.501 E.01923
G1 X47.08 Y2.257 E.46394
G1 X46.697 Y2.257 E.01923
G1 X46.697 Y11.501 E.46394
G1 X46.314 Y11.501 E.01923
G1 X46.314 Y2.257 E.46394
G1 X45.931 Y2.257 E.01923
G1 X45.931 Y11.501 E.46394
G1 X45.548 Y11.501 E.01923
G1 X45.548 Y2.257 E.46394
G1 X45.164 Y2.257 E.01923
G1 X45.164 Y11.501 E.46394
G1 X44.781 Y11.501 E.01923
G1 X44.781 Y2.257 E.46394
G1 X44.398 Y2.257 E.01923
G1 X44.398 Y11.501 E.46394
G1 X44.015 Y11.501 E.01923
G1 X44.015 Y2.257 E.46394
G1 X43.632 Y2.257 E.01923
G1 X43.632 Y11.501 E.46394
G1 X43.248 Y11.501 E.01923
G1 X43.248 Y2.257 E.46394
G1 X42.865 Y2.257 E.01923
G1 X42.865 Y11.501 E.46394
G1 X42.482 Y11.501 E.01923
G1 X42.482 Y2.257 E.46394
G1 X42.099 Y2.257 E.01923
G1 X42.099 Y11.501 E.46394
G1 X41.716 Y11.501 E.01923
G1 X41.716 Y2.257 E.46394
G1 X41.332 Y2.257 E.01923
G1 X41.332 Y11.501 E.46394
G1 X40.949 Y11.501 E.01923
M73 P0 R426
G1 X40.949 Y2.257 E.46394
G1 X40.566 Y2.257 E.01923
G1 X40.566 Y11.501 E.46394
G1 X40.183 Y11.501 E.01923
G1 X40.183 Y2.257 E.46394
G1 X39.799 Y2.257 E.01923
G1 X39.799 Y11.501 E.46394
G1 X39.416 Y11.501 E.01923
G1 X39.416 Y2.257 E.46394
G1 X39.033 Y2.257 E.01923
G1 X39.033 Y11.501 E.46394
G1 X38.65 Y11.501 E.01923
G1 X38.65 Y2.257 E.46394
G1 X38.267 Y2.257 E.01923
G1 X38.267 Y11.501 E.46394
G1 X37.883 Y11.501 E.01923
G1 X37.883 Y2.257 E.46394
G1 X37.5 Y2.257 E.01923
G1 X37.5 Y11.501 E.46394
G1 X37.117 Y11.501 E.01923
G1 X37.117 Y2.257 E.46394
G1 X36.734 Y2.257 E.01923
G1 X36.734 Y11.501 E.46394
G1 X36.351 Y11.501 E.01923
G1 X36.351 Y2.257 E.46394
G1 X35.967 Y2.257 E.01923
G1 X35.967 Y11.501 E.46394
G1 X35.584 Y11.501 E.01923
G1 X35.584 Y2.257 E.46394
G1 X35.201 Y2.257 E.01923
G1 X35.201 Y11.501 E.46394
G1 X34.818 Y11.501 E.01923
G1 X34.818 Y2.257 E.46394
G1 X34.435 Y2.257 E.01923
G1 X34.435 Y11.501 E.46394
G1 X34.051 Y11.501 E.01923
G1 X34.051 Y2.257 E.46394
G1 X33.668 Y2.257 E.01923
G1 X33.668 Y11.501 E.46394
G1 X33.285 Y11.501 E.01923
G1 X33.285 Y2.257 E.46394
G1 X32.902 Y2.257 E.01923
G1 X32.902 Y11.501 E.46394
G1 X32.518 Y11.501 E.01923
G1 X32.518 Y2.257 E.46394
G1 X32.135 Y2.257 E.01923
G1 X32.135 Y11.501 E.46394
G1 X31.752 Y11.501 E.01923
G1 X31.752 Y2.257 E.46394
G1 X31.369 Y2.257 E.01923
G1 X31.369 Y11.501 E.46394
G1 X30.986 Y11.501 E.01923
G1 X30.986 Y2.257 E.46394
G1 X30.602 Y2.257 E.01923
G1 X30.602 Y11.501 E.46394
G1 X30.219 Y11.501 E.01923
G1 X30.219 Y2.257 E.46394
G1 X29.836 Y2.257 E.01923
G1 X29.836 Y11.501 E.46394
G1 X29.453 Y11.501 E.01923
G1 X29.453 Y2.257 E.46394
G1 X29.07 Y2.257 E.01923
G1 X29.07 Y11.501 E.46394
G1 X28.686 Y11.501 E.01923
G1 X28.686 Y2.257 E.46394
G1 X28.303 Y2.257 E.01923
G1 X28.303 Y11.501 E.46394
G1 X27.92 Y11.501 E.01923
G1 X27.92 Y2.257 E.46394
G1 X27.537 Y2.257 E.01923
G1 X27.537 Y11.501 E.46394
G1 X27.154 Y11.501 E.01923
G1 X27.154 Y2.257 E.46394
G1 X26.77 Y2.257 E.01923
G1 X26.77 Y11.501 E.46394
G1 X26.387 Y11.501 E.01923
G1 X26.387 Y2.257 E.46394
G1 X26.004 Y2.257 E.01923
G1 X26.004 Y11.501 E.46394
G1 X25.621 Y11.501 E.01923
G1 X25.621 Y2.257 E.46394
G1 X25.238 Y2.257 E.01923
