; generated by PrusaSlicer 2.5.0+win64 on 2022-12-07 at 00:29:26 UTC

; 

; external perimeters extrusion width = 1.00mm
; perimeters extrusion width = 1.00mm
; infill extrusion width = 1.00mm
; solid infill extrusion width = 1.00mm
; top infill extrusion width = 1.00mm
; support material extrusion width = 1.00mm
; first layer extrusion width = 0.42mm

M73 P0 R84
M107
;TYPE:Custom
G90 ; use absolute coordinates
M83 ; extruder relative mode
M140 S60 ; set final bed temp
M104 S150 ; set temporary nozzle temp to prevent oozing during homing and auto bed leveling
G4 S10 ; allow partial nozzle warmup
G28 ; home all axisG1 Z50 F240
G1 X7.6 Y10 F3000
M104 S210 ; set final nozzle temp
M190 S60 ; wait for bed temp to stabilize
M109 S210 ; wait for nozzle temp to stabilize
G1 Z0.28 F240
G92 E0
G1 Y140 E10 F1500 ; prime the nozzle
G1 X4 F5000
G92 E0
G1 Y10 E10 F1200 ; prime the nozzle
G92 E0
G21 ; set units to millimeters
G90 ; use absolute coordinates
M83 ; use relative distances for extrusion
; Filament gcode
M107
;LAYER_CHANGE
;Z:0.35
;HEIGHT:0.35
;BEFORE_LAYER_CHANGE
G92 E0
;0.35


G1 E-1 F3600
G1 Z.35 F7800
;AFTER_LAYER_CHANGE
;0.35
G1 X12.781 Y113.352
G1 E1 F2400
;TYPE:Support material interface
;WIDTH:1
G1 F1800
G1 X12.781 Y117.147 E.51067
G1 X13.674 Y117.147 E.12014
G1 X13.674 Y113.754 E.45661
G1 X14.567 Y113.754 E.12014
G1 X14.567 Y117.147 E.45661
G1 X15.46 Y117.147 E.12014
G1 X15.46 Y113.754 E.45661
G1 X16.352 Y113.754 E.12014
G1 X16.352 Y117.147 E.45661
G1 X17.245 Y117.147 E.12014
G1 X17.245 Y113.754 E.45661
G1 X18.138 Y113.754 E.12014
G1 X18.138 Y117.147 E.45661
G1 X19.03 Y117.147 E.12014
G1 X19.03 Y113.754 E.45661
G1 X19.923 Y113.754 E.12014
G1 X19.923 Y117.147 E.45661
G1 X20.816 Y117.147 E.12014
G1 X20.816 Y113.754 E.45661
G1 X21.708 Y113.754 E.12014
G1 X21.708 Y117.147 E.45661
G1 X22.601 Y117.147 E.12014
G1 X22.601 Y113.754 E.45661
G1 X23.494 Y113.754 E.12014
G1 X23.494 Y117.147 E.45661
G1 X24.387 Y117.147 E.12014
G1 X24.387 Y113.754 E.45661
G1 X25.279 Y113.754 E.12014
G1 X25.279 Y117.147 E.45661
G1 X26.172 Y117.147 E.12014
G1 X26.172 Y113.754 E.45661
G1 X27.065 Y113.754 E.12014
G1 X27.065 Y117.548 E.51067
G1 E-.7 F3600
;WIPE_START
G1 F6240
G1 X27.065 Y117.028 E-.285
;WIPE_END
G1 E-.015 F3600
G1 X31.528 Y117.548 F7800
G1 E1 F2400
G1 F1800
G1 X31.528 Y116.585 E.1297
G1 X30.635 Y116.585 E.12014
G1 X30.635 Y117.147 E.07563
G1 X29.743 Y117.147 E.12014
G1 X29.743 Y116.585 E.07563
G1 X28.85 Y116.585 E.12014
G1 X28.85 Y117.147 E.07563
G1 X27.957 Y117.147 E.12014
G1 X27.957 Y113.754 E.45661
G1 X28.85 Y113.754 E.12014
G1 X28.85 Y114.694 E.12649
G1 X29.743 Y114.687 E.12015
G1 X29.743 Y113.754 E.12559
G1 X30.635 Y113.754 E.12014
G1 X30.635 Y114.68 E.12469
G1 X31.528 Y114.674 E.12015
G1 X31.528 Y113.352 E.17785
G1 E-.7 F3600
;WIPE_START
G1 F6240
G1 X31.528 Y113.872 E-.285
;WIPE_END
G1 E-.015 F3600
G1 X86.876 Y113.352 F7800
G1 E1 F2400
G1 F1800
G1 X86.876 Y114.555 E.16195
G1 X87.768 Y114.614 E.1204
G1 X87.768 Y113.754 E.11583
G1 X88.661 Y113.754 E.12014
G1 X88.661 Y115.076 E.17795
G1 E-.7 F3600
;WIPE_START
G1 F6240
G1 X88.661 Y114.556 E-.285
;WIPE_END
G1 E-.015 F3600
G1 X86.876 Y116.183 F7800
G1 E1 F2400
G1 F1800
G1 X86.876 Y117.147 E.1297
G1 X87.768 Y117.147 E.12014
G1 X87.768 Y116.585 E.07563
G1 X88.661 Y116.585 E.12014
G1 X88.661 Y117.147 E.07563
G1 X89.554 Y117.147 E.12014
G1 X89.554 Y113.754 E.45661
G1 X90.446 Y113.754 E.12014
G1 X90.446 Y117.147 E.45661
G1 X91.339 Y117.147 E.12014
G1 X91.339 Y113.754 E.45661
G1 X92.232 Y113.754 E.12014
G1 X92.232 Y117.147 E.45661
G1 X93.124 Y117.147 E.12014
G1 X93.124 Y113.754 E.45661
G1 X94.017 Y113.754 E.12014
G1 X94.017 Y117.147 E.45661
G1 X94.91 Y117.147 E.12014
G1 X94.91 Y113.754 E.45661
G1 X95.803 Y113.754 E.12014
G1 X95.803 Y117.147 E.45661
G1 X96.695 Y117.147 E.12014
G1 X96.695 Y113.754 E.45661
G1 X97.588 Y113.754 E.12014
G1 X97.588 Y117.147 E.45661
G1 X98.481 Y117.147 E.12014
G1 X98.481 Y113.754 E.45661
G1 X99.373 Y113.754 E.12014
G1 X99.373 Y117.147 E.45661
G1 X100.266 Y117.147 E.12014
G1 X100.266 Y113.754 E.45661
G1 X101.159 Y113.754 E.12014
G1 X101.159 Y117.147 E.45661
G1 X102.051 Y117.147 E.12014
G1 X102.051 Y113.754 E.45661
G1 X102.944 Y113.754 E.12014
G1 X102.944 Y117.548 E.51067
G1 E-.7 F3600
;WIPE_START
G1 F6240
G1 X102.944 Y117.028 E-.285
;WIPE_END
G1 E-.015 F3600
G1 X171.268 Y120.383 F7800
G1 E1 F2400
;TYPE:Support material
;WIDTH:0.42
G1 F1800
G1 X101.227 Y120.383 E3.51508
G1 X101.227 Y117.803 E.12947
G1 X104.227 Y117.803 E.15056
G1 X104.227 Y113.097 E.23616
G1 X101.227 Y113.097 E.15056
G1 X101.227 Y110.518 E.12947
G1 X171.268 Y110.518 E3.51508
G1 X171.268 Y120.331 E.4925
M73 P0 R83
G1 X170.857 Y120.228 F7800
G1 F1800
G1 X170.857 Y110.828 E.47173
G1 X170.474 Y110.828 E.01923
G1 X170.474 Y120.072 E.46394
G1 X170.091 Y120.072 E.01923
G1 X170.091 Y110.828 E.46394
G1 X169.708 Y110.828 E.01923
G1 X169.708 Y120.072 E.46394
G1 X169.324 Y120.072 E.01923
G1 X169.324 Y110.828 E.46394
G1 X168.941 Y110.828 E.01923
G1 X168.941 Y120.072 E.46394
G1 X168.558 Y120.072 E.01923
G1 X168.558 Y110.828 E.46394
G1 X168.175 Y110.828 E.01923
G1 X168.175 Y120.072 E.46394
G1 X167.792 Y120.072 E.01923
G1 X167.792 Y110.828 E.46394
G1 X167.408 Y110.828 E.01923
G1 X167.408 Y120.072 E.46394
G1 X167.025 Y120.072 E.01923
G1 X167.025 Y110.828 E.46394
G1 X166.642 Y110.828 E.01923
G1 X166.642 Y120.072 E.46394
G1 X166.259 Y120.072 E.01923
G1 X166.259 Y110.828 E.46394
G1 X165.876 Y110.828 E.01923
G1 X165.876 Y120.072 E.46394
G1 X165.492 Y120.072 E.01923
G1 X165.492 Y110.828 E.46394
G1 X165.109 Y110.828 E.01923
G1 X165.109 Y120.072 E.46394
G1 X164.726 Y120.072 E.01923
G1 X164.726 Y110.828 E.46394
G1 X164.343 Y110.828 E.01923
G1 X164.343 Y120.072 E.46394
G1 X163.96 Y120.072 E.01923
G1 X163.96 Y110.828 E.46394
G1 X163.576 Y110.828 E.01923
G1 X163.576 Y120.072 E.46394
G1 X163.193 Y120.072 E.01923
G1 X163.193 Y110.828 E.46394
G1 X162.81 Y110.828 E.01923
G1 X162.81 Y120.072 E.46394
G1 X162.427 Y120.072 E.01923
G1 X162.427 Y110.828 E.46394
G1 X162.043 Y110.828 E.01923
G1 X162.043 Y120.072 E.46394
G1 X161.66 Y120.072 E.01923
G1 X161.66 Y110.828 E.46394
G1 X161.277 Y110.828 E.01923
G1 X161.277 Y120.072 E.46394
G1 X160.894 Y120.072 E.01923
G1 X160.894 Y110.828 E.46394
G1 X160.511 Y110.828 E.01923
G1 X160.511 Y120.072 E.46394
G1 X160.127 Y120.072 E.01923
G1 X160.127 Y110.828 E.46394
G1 X159.744 Y110.828 E.01923
G1 X159.744 Y120.072 E.46394
G1 X159.361 Y120.072 E.01923
G1 X159.361 Y110.828 E.46394
G1 X158.978 Y110.828 E.01923
G1 X158.978 Y120.072 E.46394
G1 X158.595 Y120.072 E.01923
G1 X158.595 Y110.828 E.46394
G1 X158.211 Y110.828 E.01923
G1 X158.211 Y120.072 E.46394
G1 X157.828 Y120.072 E.01923
G1 X157.828 Y110.828 E.46394
G1 X157.445 Y110.828 E.01923
G1 X157.445 Y120.072 E.46394
G1 X157.062 Y120.072 E.01923
G1 X157.062 Y110.828 E.46394
G1 X156.679 Y110.828 E.01923
G1 X156.679 Y120.072 E.46394
G1 X156.295 Y120.072 E.01923
G1 X156.295 Y110.828 E.46394
G1 X155.912 Y110.828 E.01923
G1 X155.912 Y120.072 E.46394
G1 X155.529 Y120.072 E.01923
G1 X155.529 Y110.828 E.46394
G1 X155.146 Y110.828 E.01923
G1 X155.146 Y120.072 E.46394
G1 X154.762 Y120.072 E.01923
G1 X154.762 Y110.828 E.46394
G1 X154.379 Y110.828 E.01923
G1 X154.379 Y120.072 E.46394
G1 X153.996 Y120.072 E.01923
G1 X153.996 Y110.828 E.46394
G1 X153.613 Y110.828 E.01923
G1 X153.613 Y120.072 E.46394
G1 X153.23 Y120.072 E.01923
G1 X153.23 Y110.828 E.46394
G1 X152.846 Y110.828 E.01923
G1 X152.846 Y120.072 E.46394
G1 X152.463 Y120.072 E.01923
G1 X152.463 Y110.828 E.46394
G1 X152.08 Y110.828 E.01923
G1 X152.08 Y120.072 E.46394
G1 X151.697 Y120.072 E.01923
G1 X151.697 Y110.828 E.46394
G1 X151.314 Y110.828 E.01923
G1 X151.314 Y120.072 E.46394
G1 X150.93 Y120.072 E.01923
G1 X150.93 Y110.828 E.46394
G1 X150.547 Y110.828 E.01923
G1 X150.547 Y120.072 E.46394
G1 X150.164 Y120.072 E.01923
G1 X150.164 Y110.828 E.46394
G1 X149.781 Y110.828 E.01923
G1 X149.781 Y120.072 E.46394
G1 X149.398 Y120.072 E.01923
M73 P1 R83
G1 X149.398 Y110.828 E.46394
G1 X149.014 Y110.828 E.01923
G1 X149.014 Y120.072 E.46394
G1 X148.631 Y120.072 E.01923
G1 X148.631 Y110.828 E.46394
G1 X148.248 Y110.828 E.01923
G1 X148.248 Y120.072 E.46394
G1 X147.865 Y120.072 E.01923
G1 X147.865 Y110.828 E.46394
G1 X147.482 Y110.828 E.01923
G1 X147.482 Y120.072 E.46394
G1 X147.098 Y120.072 E.01923
G1 X147.098 Y110.828 E.46394
G1 X146.715 Y110.828 E.01923
G1 X146.715 Y120.072 E.46394
G1 X146.332 Y120.072 E.01923
G1 X146.332 Y110.828 E.46394
G1 X145.949 Y110.828 E.01923
G1 X145.949 Y120.072 E.46394
G1 X145.565 Y120.072 E.01923
G1 X145.565 Y110.828 E.46394
G1 X145.182 Y110.828 E.01923
G1 X145.182 Y120.072 E.46394
G1 X144.799 Y120.072 E.01923
G1 X144.799 Y110.828 E.46394
G1 X144.416 Y110.828 E.01923
G1 X144.416 Y120.072 E.46394
G1 X144.033 Y120.072 E.01923
G1 X144.033 Y110.828 E.46394
G1 X143.649 Y110.828 E.01923
G1 X143.649 Y120.072 E.46394
G1 X143.266 Y120.072 E.01923
G1 X143.266 Y110.828 E.46394
G1 X142.883 Y110.828 E.01923
G1 X142.883 Y120.072 E.46394
G1 X142.5 Y120.072 E.01923
G1 X142.5 Y110.828 E.46394
G1 X142.117 Y110.828 E.01923
G1 X142.117 Y120.072 E.46394
G1 X141.733 Y120.072 E.01923
G1 X141.733 Y110.828 E.46394
G1 X141.35 Y110.828 E.01923
G1 X141.35 Y120.072 E.46394
G1 X140.967 Y120.072 E.01923
G1 X140.967 Y110.828 E.46394
G1 X140.584 Y110.828 E.01923
G1 X140.584 Y120.072 E.46394
G1 X140.201 Y120.072 E.01923
G1 X140.201 Y110.828 E.46394
G1 X139.817 Y110.828 E.01923
G1 X139.817 Y120.072 E.46394
G1 X139.434 Y120.072 E.01923
G1 X139.434 Y110.828 E.46394
G1 X139.051 Y110.828 E.01923
G1 X139.051 Y120.072 E.46394
G1 X138.668 Y120.072 E.01923
G1 X138.668 Y110.828 E.46394
G1 X138.284 Y110.828 E.01923
G1 X138.284 Y120.072 E.46394
G1 X137.901 Y120.072 E.01923
G1 X137.901 Y110.828 E.46394
G1 X137.518 Y110.828 E.01923
G1 X137.518 Y120.072 E.46394
G1 X137.135 Y120.072 E.01923
G1 X137.135 Y110.828 E.46394
G1 X136.752 Y110.828 E.01923
G1 X136.752 Y120.072 E.46394
G1 X136.368 Y120.072 E.01923
G1 X136.368 Y110.828 E.46394
G1 X135.985 Y110.828 E.01923
G1 X135.985 Y120.072 E.46394
G1 X135.602 Y120.072 E.01923
G1 X135.602 Y110.828 E.46394
G1 X135.219 Y110.828 E.01923
G1 X135.219 Y120.072 E.46394
G1 X134.836 Y120.072 E.01923
G1 X134.836 Y110.828 E.46394
G1 X134.452 Y110.828 E.01923
G1 X134.452 Y120.072 E.46394
G1 X134.069 Y120.072 E.01923
G1 X134.069 Y110.828 E.46394
G1 X133.686 Y110.828 E.01923
G1 X133.686 Y120.072 E.46394
G1 X133.303 Y120.072 E.01923
G1 X133.303 Y110.828 E.46394
G1 X132.92 Y110.828 E.01923
G1 X132.92 Y120.072 E.46394
G1 X132.536 Y120.072 E.01923
G1 X132.536 Y110.828 E.46394
G1 X132.153 Y110.828 E.01923
G1 X132.153 Y120.072 E.46394
G1 X131.77 Y120.072 E.01923
G1 X131.77 Y110.828 E.46394
G1 X131.387 Y110.828 E.01923
G1 X131.387 Y120.072 E.46394
G1 X131.003 Y120.072 E.01923
G1 X131.003 Y110.828 E.46394
G1 X130.62 Y110.828 E.01923
G1 X130.62 Y120.072 E.46394
G1 X130.237 Y120.072 E.01923
G1 X130.237 Y110.828 E.46394
G1 X129.854 Y110.828 E.01923
G1 X129.854 Y120.072 E.46394
G1 X129.471 Y120.072 E.01923
G1 X129.471 Y110.828 E.46394
G1 X129.087 Y110.828 E.01923
G1 X129.087 Y120.072 E.46394
G1 X128.704 Y120.072 E.01923
G1 X128.704 Y110.828 E.46394
G1 X128.321 Y110.828 E.01923
G1 X128.321 Y120.072 E.46394
G1 X127.938 Y120.072 E.01923
G1 X127.938 Y110.828 E.46394
G1 X127.555 Y110.828 E.01923
G1 X127.555 Y120.072 E.46394
G1 X127.171 Y120.072 E.01923
G1 X127.171 Y110.828 E.46394
G1 X126.788 Y110.828 E.01923
G1 X126.788 Y120.072 E.46394
G1 X126.405 Y120.072 E.01923
G1 X126.405 Y110.828 E.46394
G1 X126.022 Y110.828 E.01923
G1 X126.022 Y120.072 E.46394
G1 X125.639 Y120.072 E.01923
G1 X125.639 Y110.828 E.46394
G1 X125.255 Y110.828 E.01923
G1 X125.255 Y120.072 E.46394
G1 X124.872 Y120.072 E.01923
G1 X124.872 Y110.828 E.46394
G1 X124.489 Y110.828 E.01923
G1 X124.489 Y120.072 E.46394
G1 X124.106 Y120.072 E.01923
G1 X124.106 Y110.828 E.46394
G1 X123.722 Y110.828 E.01923
G1 X123.722 Y120.072 E.46394
G1 X123.339 Y120.072 E.01923
G1 X123.339 Y110.828 E.46394
G1 X122.956 Y110.828 E.01923
G1 X122.956 Y120.072 E.46394
G1 X122.573 Y120.072 E.01923
G1 X122.573 Y110.828 E.46394
G1 X122.19 Y110.828 E.01923
G1 X122.19 Y120.072 E.46394
G1 X121.806 Y120.072 E.01923
G1 X121.806 Y110.828 E.46394
G1 X121.423 Y110.828 E.01923
G1 X121.423 Y120.072 E.46394
G1 X121.04 Y120.072 E.01923
G1 X121.04 Y110.828 E.46394
G1 X120.657 Y110.828 E.01923
G1 X120.657 Y120.072 E.46394
G1 X120.274 Y120.072 E.01923
G1 X120.274 Y110.828 E.46394
G1 X119.89 Y110.828 E.01923
G1 X119.89 Y120.072 E.46394
G1 X119.507 Y120.072 E.01923
G1 X119.507 Y110.828 E.46394
G1 X119.124 Y110.828 E.01923
G1 X119.124 Y120.072 E.46394
G1 X118.741 Y120.072 E.01923
G1 X118.741 Y110.828 E.46394
G1 X118.358 Y110.828 E.01923
G1 X118.358 Y120.072 E.46394
G1 X117.974 Y120.072 E.01923
G1 X117.974 Y110.828 E.46394
G1 X117.591 Y110.828 E.01923
G1 X117.591 Y120.072 E.46394
G1 X117.208 Y120.072 E.01923
G1 X117.208 Y110.828 E.46394
G1 X116.825 Y110.828 E.01923
G1 X116.825 Y120.072 E.46394
G1 X116.441 Y120.072 E.01923
G1 X116.441 Y110.828 E.46394
G1 X116.058 Y110.828 E.01923
G1 X116.058 Y120.072 E.46394
G1 X115.675 Y120.072 E.01923
G1 X115.675 Y110.828 E.46394
G1 X115.292 Y110.828 E.01923
G1 X115.292 Y120.072 E.46394
G1 X114.909 Y120.072 E.01923
G1 X114.909 Y110.828 E.46394
G1 X114.525 Y110.828 E.01923
G1 X114.525 Y120.072 E.46394
G1 X114.142 Y120.072 E.01923
G1 X114.142 Y110.828 E.46394
G1 X113.759 Y110.828 E.01923
G1 X113.759 Y120.072 E.46394
G1 X113.376 Y120.072 E.01923
G1 X113.376 Y110.828 E.46394
G1 X112.993 Y110.828 E.01923
G1 X112.993 Y120.072 E.46394
G1 X112.609 Y120.072 E.01923
G1 X112.609 Y110.828 E.46394
G1 X112.226 Y110.828 E.01923
G1 X112.226 Y120.072 E.46394
G1 X111.843 Y120.072 E.01923
G1 X111.843 Y110.828 E.46394
G1 X111.46 Y110.828 E.01923
M73 P1 R82
G1 X111.46 Y120.072 E.46394
G1 X111.077 Y120.072 E.01923
G1 X111.077 Y110.828 E.46394
G1 X110.693 Y110.828 E.01923
G1 X110.693 Y120.072 E.46394
G1 X110.31 Y120.072 E.01923
G1 X110.31 Y110.828 E.46394
G1 X109.927 Y110.828 E.01923
G1 X109.927 Y120.072 E.46394
G1 X109.544 Y120.072 E.01923
G1 X109.544 Y110.828 E.46394
G1 X109.161 Y110.828 E.01923
G1 X109.161 Y120.072 E.46394
G1 X108.777 Y120.072 E.01923
G1 X108.777 Y110.828 E.46394
G1 X108.394 Y110.828 E.01923
G1 X108.394 Y120.072 E.46394
G1 X108.011 Y120.072 E.01923
G1 X108.011 Y110.828 E.46394
G1 X107.628 Y110.828 E.01923
G1 X107.628 Y120.072 E.46394
G1 X107.244 Y120.072 E.01923
G1 X107.244 Y110.828 E.46394
G1 X106.861 Y110.828 E.01923
G1 X106.861 Y120.072 E.46394
G1 X106.478 Y120.072 E.01923
G1 X106.478 Y110.828 E.46394
G1 X106.095 Y110.828 E.01923
G1 X106.095 Y120.072 E.46394
G1 X105.712 Y120.072 E.01923
G1 X105.712 Y110.828 E.46394
G1 X105.328 Y110.828 E.01923
G1 X105.328 Y120.072 E.46394
G1 X104.945 Y120.072 E.01923
G1 X104.945 Y110.828 E.46394
G1 X104.562 Y110.828 E.01923
G1 X104.562 Y120.072 E.46394
G1 X104.179 Y120.072 E.01923
G1 X104.179 Y118.113 E.09831
G1 X103.796 Y118.113 E.01923
G1 X103.796 Y120.072 E.09831
G1 X103.412 Y120.072 E.01923
G1 X103.412 Y118.113 E.09831
G1 X103.029 Y118.113 E.01923
G1 X103.029 Y120.072 E.09831
G1 X102.646 Y120.072 E.01923
G1 X102.646 Y118.113 E.09831
G1 X102.263 Y118.113 E.01923
G1 X102.263 Y120.072 E.09831
G1 X101.88 Y120.072 E.01923
G1 X101.88 Y117.958 E.1061
G1 E-.7 F3600
;WIPE_START
G1 F6240
G1 X101.88 Y118.478 E-.285
;WIPE_END
G1 E-.015 F3600
G1 X104.179 Y112.942 F7800
G1 E1 F2400
G1 F1800
G1 X104.179 Y110.828 E.1061
G1 X103.796 Y110.828 E.01923
G1 X103.796 Y112.787 E.09831
G1 X103.412 Y112.787 E.01923
G1 X103.412 Y110.828 E.09831
G1 X103.029 Y110.828 E.01923
G1 X103.029 Y112.787 E.09831
G1 X102.646 Y112.787 E.01923
G1 X102.646 Y110.828 E.09831
G1 X102.263 Y110.828 E.01923
G1 X102.263 Y112.787 E.09831
G1 X101.88 Y112.787 E.01923
G1 X101.88 Y110.673 E.1061
M106 S255
;LAYER_CHANGE
;Z:0.65
;HEIGHT:0.3
;BEFORE_LAYER_CHANGE
G92 E0
;0.65


G1 E-.7 F3600
;WIPE_START
G1 F6240
G1 X101.88 Y111.193 E-.285
;WIPE_END
G1 E-.015 F3600
G1 Z.65 F7800
;AFTER_LAYER_CHANGE
;0.65
M104 S205 ; set temperature
G1 X96.695 Y117.548
G1 E1 F2400
;TYPE:Support material interface
;WIDTH:1
G1 F3206.432
G1 X96.695 Y113.754 E.44279
G1 X95.803 Y113.754 E.10417
