; generated by PrusaSlicer 2.5.0+win64 on 2022-12-07 at 00:29:58 UTC

; 

; external perimeters extrusion width = 1.00mm
; perimeters extrusion width = 1.00mm
; infill extrusion width = 1.00mm
; solid infill extrusion width = 1.00mm
; top infill extrusion width = 1.00mm
; support material extrusion width = 1.00mm
; first layer extrusion width = 0.42mm

M73 P0 R460
M107
;TYPE:Custom
G90 ; use absolute coordinates
M83 ; extruder relative mode
M140 S60 ; set final bed temp
M104 S150 ; set temporary nozzle temp to prevent oozing during homing and auto bed leveling
G4 S10 ; allow partial nozzle warmup
G28 ; home all axisG1 Z50 F240
G1 X7.6 Y10 F3000
M104 S210 ; set final nozzle temp
M190 S60 ; wait for bed temp to stabilize
M109 S210 ; wait for nozzle temp to stabilize
G1 Z0.28 F240
G92 E0
G1 Y140 E10 F1500 ; prime the nozzle
G1 X4 F5000
G92 E0
G1 Y10 E10 F1200 ; prime the nozzle
G92 E0
G21 ; set units to millimeters
G90 ; use absolute coordinates
M83 ; use relative distances for extrusion
; Filament gcode
M107
;LAYER_CHANGE
;Z:0.35
;HEIGHT:0.35
;BEFORE_LAYER_CHANGE
G92 E0
;0.35


G1 E-1 F3600
G1 Z.35 F7800
;AFTER_LAYER_CHANGE
;0.35
G1 X21.99 Y93.549
G1 E1 F2400
;TYPE:Support material
;WIDTH:0.42
G1 F1800
G1 X25.382 Y93.549 E.17027
G1 X25.382 Y107.12 E.68106
G1 X29.088 Y107.12 E.18597
G1 X29.088 Y100.335 E.34053
G1 X32.481 Y100.335 E.17027
G1 X32.481 Y96.942 E.17027
G1 X42.659 Y96.942 E.5108
G1 X42.659 Y93.549 E.17027
G1 X46.051 Y93.549 E.17027
G1 X46.051 Y90.156 E.17027
G1 X49.444 Y90.156 E.17027
G1 X49.444 Y86.764 E.17027
G1 X62.702 Y86.764 E.66536
G1 X62.702 Y93.549 E.34053
G1 X66.095 Y93.549 E.17027
G1 X66.095 Y96.942 E.17027
G1 X69.487 Y96.942 E.17027
G1 X69.487 Y100.335 E.17027
G1 X72.88 Y100.335 E.17027
G1 X72.88 Y107.12 E.34053
G1 X76.273 Y107.12 E.17027
G1 X76.273 Y110.513 E.17027
G1 X79.665 Y110.513 E.17027
G1 X79.665 Y121.576 E.55525
G1 X79.381 Y121.456 E.0155
G1 X66.908 Y125.432 E.65703
G1 X66.908 Y125.3 E.00665
G1 X70.3 Y124.219 E.1787
G1 X70.3 Y119.878 E.21784
G1 X62.202 Y119.878 E.40642
G1 X62.202 Y123.771 E.19536
G1 X49.444 Y123.771 E.64027
G1 X49.444 Y116.985 E.34053
G1 X42.659 Y116.985 E.34053
G1 X42.659 Y110.2 E.34053
G1 X38.953 Y110.2 E.18597
G1 X38.953 Y113.592 E.17027
G1 X35.56 Y113.592 E.17027
G1 X35.56 Y147.832 E1.71836
G1 X39.266 Y147.832 E.18597
G1 X39.266 Y130.869 E.85133
G1 X49.131 Y130.869 E.49509
G1 X49.131 Y147.832 E.85133
G1 X52.524 Y147.832 E.17027
G1 X52.524 Y162.77 E.74965
G1 X51.454 Y163.071 E.05575
G1 X49.137 Y159.286 E.2227
G1 X49.015 Y159.165 E.00863
G1 X42.044 Y155.018 E.40707
G1 X42.18 Y154.79 E.01327
G1 X13.979 Y138.006 E1.64697
G1 X13.261 Y138.414 E.04146
M73 P0 R459
G1 X13.261 Y144.127 E.28669
G1 X8.732 Y144.127 E.22731
G1 X8.732 Y76.586 E3.38961
G1 X21.99 Y76.586 E.66536
G1 X21.99 Y93.497 E.84873
G1 E-.7 F3600
;WIPE_START
G1 F6240
G1 X21.99 Y92.977 E-.285
;WIPE_END
G1 E-.015 F3600
G1 X79.27 Y121.328 F7800
G1 E1 F2400
G1 F1800
G1 X79.27 Y110.823 E.52722
G1 X78.887 Y110.823 E.01923
G1 X78.887 Y121.288 E.5252
G1 X78.504 Y121.411 E.02019
G1 X78.504 Y110.823 E.53136
G1 X78.12 Y110.823 E.01923
G1 X78.12 Y121.533 E.5375
G1 X77.737 Y121.655 E.02018
G1 X77.737 Y110.823 E.54363
G1 X77.354 Y110.823 E.01923
G1 X77.354 Y121.778 E.54976
G1 X76.971 Y121.9 E.02018
G1 X76.971 Y110.823 E.55589
G1 X76.588 Y110.823 E.01923
G1 X76.588 Y122.022 E.56202
G1 X76.204 Y122.144 E.02018
G1 X76.204 Y110.823 E.56815
G1 X75.962 Y110.823 E.01215
G1 X75.962 Y107.43 E.17027
G1 X75.821 Y107.43 E.00708
G1 X75.821 Y122.266 E.74454
G1 X75.438 Y122.388 E.02018
G1 X75.438 Y107.43 E.75067
G1 X75.055 Y107.43 E.01923
G1 X75.055 Y122.51 E.7568
G1 X74.672 Y122.632 E.02018
G1 X74.672 Y107.43 E.76293
G1 X74.288 Y107.43 E.01923
G1 X74.288 Y122.754 E.76905
G1 X73.905 Y122.877 E.02018
G1 X73.905 Y107.43 E.77518
G1 X73.522 Y107.43 E.01923
G1 X73.522 Y122.999 E.78131
G1 X73.139 Y123.121 E.02018
G1 X73.139 Y107.43 E.78744
G1 X72.756 Y107.43 E.01923
G1 X72.756 Y123.243 E.79357
G1 X72.372 Y123.365 E.02018
G1 X72.372 Y100.645 E1.14023
G1 X71.989 Y100.645 E.01923
G1 X71.989 Y123.487 E1.14636
G1 X71.606 Y123.609 E.02018
G1 X71.606 Y100.645 E1.15248
G1 X71.223 Y100.645 E.01923
G1 X71.223 Y123.731 E1.15861
G1 X70.839 Y123.853 E.02018
G1 X70.84 Y100.645 E1.16474
G1 X70.456 Y100.645 E.01923
G1 X70.456 Y119.567 E.94964
G1 X70.073 Y119.567 E.01923
G1 X70.073 Y100.645 E.94964
G1 X69.69 Y100.645 E.01923
G1 X69.69 Y119.567 E.94964
G1 X69.307 Y119.567 E.01923
G1 X69.307 Y100.645 E.94964
G1 X69.177 Y100.645 E.00651
G1 X69.177 Y97.252 E.17027
G1 X68.923 Y97.252 E.01272
G1 X68.923 Y119.567 E1.11991
G1 X68.54 Y119.567 E.01923
G1 X68.54 Y97.252 E1.11991
G1 X68.157 Y97.252 E.01923
G1 X68.157 Y119.567 E1.11991
G1 X67.774 Y119.567 E.01923
G1 X67.774 Y97.252 E1.11991
G1 X67.391 Y97.252 E.01923
G1 X67.391 Y119.567 E1.11991
G1 X67.007 Y119.567 E.01923
G1 X67.007 Y97.252 E1.11991
G1 X66.624 Y97.252 E.01923
G1 X66.624 Y119.567 E1.11991
G1 X66.241 Y119.567 E.01923
G1 X66.241 Y97.252 E1.11991
G1 X65.858 Y97.252 E.01923
G1 X65.858 Y119.567 E1.11991
G1 X65.475 Y119.567 E.01923
G1 X65.475 Y93.86 E1.29017
G1 X65.091 Y93.86 E.01923
G1 X65.091 Y119.567 E1.29017
G1 X64.708 Y119.567 E.01923
G1 X64.708 Y93.86 E1.29017
G1 X64.325 Y93.86 E.01923
G1 X64.325 Y119.567 E1.29017
G1 X63.942 Y119.567 E.01923
G1 X63.942 Y93.86 E1.29017
G1 X63.559 Y93.86 E.01923
G1 X63.559 Y119.567 E1.29017
G1 X63.175 Y119.567 E.01923
G1 X63.175 Y93.86 E1.29017
G1 X62.792 Y93.86 E.01923
G1 X62.792 Y119.567 E1.29017
G1 X62.409 Y119.567 E.01923
G1 X62.409 Y93.86 E1.29017
G1 X62.392 Y93.86 E.00087
G1 X62.392 Y87.074 E.34053
G1 X62.026 Y87.074 E.01836
G1 X62.026 Y119.567 E1.63071
G1 X61.892 Y119.567 E.00673
G1 X61.892 Y123.46 E.19536
G1 X61.642 Y123.46 E.0125
G1 X61.642 Y87.074 E1.82607
G1 X61.259 Y87.074 E.01923
G1 X61.259 Y123.46 E1.82607
G1 X60.876 Y123.46 E.01923
G1 X60.876 Y87.074 E1.82607
G1 X60.493 Y87.074 E.01923
G1 X60.493 Y123.46 E1.82607
G1 X60.11 Y123.46 E.01923
G1 X60.11 Y87.074 E1.82607
G1 X59.726 Y87.074 E.01923
G1 X59.726 Y123.46 E1.82607
G1 X59.343 Y123.46 E.01923
G1 X59.343 Y87.074 E1.82607
G1 X58.96 Y87.074 E.01923
G1 X58.96 Y123.46 E1.82607
G1 X58.577 Y123.46 E.01923
G1 X58.577 Y87.074 E1.82607
G1 X58.194 Y87.074 E.01923
G1 X58.194 Y123.46 E1.82607
G1 X57.81 Y123.46 E.01923
G1 X57.81 Y87.074 E1.82607
G1 X57.427 Y87.074 E.01923
G1 X57.427 Y123.46 E1.82607
G1 X57.044 Y123.46 E.01923
G1 X57.044 Y87.074 E1.82607
G1 X56.661 Y87.074 E.01923
G1 X56.661 Y123.46 E1.82607
G1 X56.278 Y123.46 E.01923
G1 X56.278 Y87.074 E1.82607
G1 X55.894 Y87.074 E.01923
G1 X55.894 Y123.46 E1.82607
G1 X55.511 Y123.46 E.01923
G1 X55.511 Y87.074 E1.82607
G1 X55.128 Y87.074 E.01923
M73 P0 R458
G1 X55.128 Y123.46 E1.82607
G1 X54.745 Y123.46 E.01923
G1 X54.745 Y87.074 E1.82607
G1 X54.361 Y87.074 E.01923
G1 X54.361 Y123.46 E1.82607
G1 X53.978 Y123.46 E.01923
G1 X53.978 Y87.074 E1.82607
G1 X53.595 Y87.074 E.01923
G1 X53.595 Y123.46 E1.82607
G1 X53.212 Y123.46 E.01923
G1 X53.212 Y87.074 E1.82607
G1 X52.829 Y87.074 E.01923
G1 X52.829 Y123.46 E1.82607
G1 X52.445 Y123.46 E.01923
G1 X52.445 Y87.074 E1.82607
G1 X52.062 Y87.074 E.01923
G1 X52.062 Y123.46 E1.82607
G1 X51.679 Y123.46 E.01923
G1 X51.679 Y87.074 E1.82607
G1 X51.296 Y87.074 E.01923
G1 X51.296 Y123.46 E1.82607
G1 X50.913 Y123.46 E.01923
G1 X50.913 Y87.074 E1.82607
G1 X50.529 Y87.074 E.01923
G1 X50.529 Y123.46 E1.82607
G1 X50.146 Y123.46 E.01923
G1 X50.146 Y87.074 E1.82607
G1 X49.763 Y87.074 E.01923
G1 X49.763 Y123.46 E1.82607
G1 X49.754 Y116.675 E.34053
G1 X49.38 Y116.675 E.01881
G1 X49.38 Y90.467 E1.31527
G1 X48.997 Y90.467 E.01923
G1 X48.997 Y116.675 E1.31527
G1 X48.613 Y116.675 E.01923
G1 X48.613 Y90.467 E1.31527
G1 X48.23 Y90.467 E.01923
G1 X48.23 Y116.675 E1.31527
G1 X47.847 Y116.675 E.01923
G1 X47.847 Y90.467 E1.31527
G1 X47.464 Y90.467 E.01923
G1 X47.464 Y116.675 E1.31527
G1 X47.08 Y116.675 E.01923
G1 X47.08 Y90.467 E1.31527
G1 X46.697 Y90.467 E.01923
G1 X46.697 Y116.675 E1.31527
G1 X46.314 Y116.675 E.01923
G1 X46.314 Y93.86 E1.145
G1 X45.931 Y93.86 E.01923
G1 X45.931 Y116.675 E1.145
G1 X45.548 Y116.675 E.01923
G1 X45.548 Y93.86 E1.145
G1 X45.164 Y93.86 E.01923
G1 X45.164 Y116.675 E1.145
G1 X44.781 Y116.675 E.01923
G1 X44.781 Y93.86 E1.145
G1 X44.398 Y93.86 E.01923
G1 X44.398 Y116.675 E1.145
G1 X44.015 Y116.675 E.01923
G1 X44.015 Y93.86 E1.145
G1 X43.632 Y93.86 E.01923
G1 X43.632 Y116.675 E1.145
G1 X43.248 Y116.675 E.01923
G1 X43.248 Y93.86 E1.145
G1 X42.969 Y93.86 E.01402
G1 X42.969 Y97.252 E.17027
G1 X42.865 Y97.252 E.00521
G1 X42.865 Y109.889 E.6342
G1 X42.482 Y109.889 E.01923
G1 X42.482 Y97.252 E.6342
G1 X42.099 Y97.252 E.01923
G1 X42.099 Y109.889 E.6342
G1 X41.716 Y109.889 E.01923
G1 X41.716 Y97.252 E.6342
G1 X41.332 Y97.252 E.01923
G1 X41.332 Y109.889 E.6342
G1 X40.949 Y109.889 E.01923
G1 X40.949 Y97.252 E.6342
G1 X40.566 Y97.252 E.01923
G1 X40.566 Y109.889 E.6342
G1 X40.183 Y109.889 E.01923
G1 X40.183 Y97.252 E.6342
G1 X39.799 Y97.252 E.01923
G1 X39.799 Y109.889 E.6342
G1 X39.416 Y109.889 E.01923
G1 X39.416 Y97.252 E.6342
G1 X39.033 Y97.252 E.01923
G1 X39.033 Y109.889 E.6342
G1 X38.65 Y109.889 E.01923
G1 X38.65 Y97.252 E.6342
G1 X38.267 Y97.252 E.01923
G1 X38.267 Y113.282 E.80447
G1 X37.883 Y113.282 E.01923
G1 X37.883 Y97.252 E.80447
G1 X37.5 Y97.252 E.01923
G1 X37.5 Y113.282 E.80447
G1 X37.117 Y113.282 E.01923
G1 X37.117 Y97.252 E.80447
G1 X36.734 Y97.252 E.01923
G1 X36.734 Y113.282 E.80447
G1 X36.351 Y113.282 E.01923
G1 X36.351 Y97.252 E.80447
G1 X35.967 Y97.252 E.01923
G1 X35.967 Y113.282 E.80447
G1 X35.584 Y113.282 E.01923
G1 X35.584 Y97.252 E.80447
G1 X35.201 Y97.252 E.01923
G1 X35.201 Y150.276 E2.66103
G1 X35.584 Y150.504 E.02238
G1 X35.584 Y148.143 E.11849
G1 X35.967 Y148.143 E.01923
G1 X35.967 Y150.732 E.12993
G1 X36.351 Y150.96 E.02238
G1 X36.351 Y148.143 E.14138
G1 X36.734 Y148.143 E.01923
G1 X36.734 Y151.188 E.15283
G1 X37.117 Y151.416 E.02238
G1 X37.117 Y148.143 E.16427
G1 X37.5 Y148.143 E.01923
G1 X37.5 Y151.644 E.17572
G1 X37.883 Y151.872 E.02238
G1 X37.883 Y148.143 E.18717
G1 X38.267 Y148.143 E.01923
G1 X38.267 Y152.1 E.19861
G1 X38.65 Y152.328 E.02238
G1 X38.65 Y148.143 E.21006
G1 X39.033 Y148.143 E.01923
G1 X39.033 Y152.556 E.22151
G1 X39.416 Y152.785 E.02238
G1 X39.416 Y148.143 E.23295
G1 X39.576 Y148.143 E.00803
G1 X39.576 Y131.179 E.85133
G1 X39.799 Y131.179 E.0112
G1 X39.799 Y153.013 E1.09573
G1 X40.183 Y153.241 E.02238
G1 X40.183 Y131.179 E1.10717
G1 X40.566 Y131.179 E.01923
G1 X40.566 Y153.469 E1.11862
G1 X40.949 Y153.697 E.02238
G1 X40.949 Y131.179 E1.13007
G1 X41.332 Y131.179 E.01923
G1 X41.332 Y153.925 E1.14151
G1 X41.716 Y154.153 E.02238
G1 X41.716 Y131.179 E1.15296
G1 X42.099 Y131.179 E.01923
G1 X42.099 Y154.562 E1.17347
G1 E-.7 F3600
;WIPE_START
G1 F6240
G1 X42.099 Y154.042 E-.285
;WIPE_END
G1 E-.015 F3600
G1 X52.062 Y162.738 F7800
G1 E1 F2400
G1 F1800
G1 X52.062 Y148.143 E.7325
G1 X51.679 Y148.143 E.01923
G1 X51.679 Y162.685 E.72981
G1 X51.597 Y162.708 E.00428
G1 X51.296 Y162.215 E.02898
G1 X51.296 Y148.143 E.70624
G1 X50.913 Y148.143 E.01923
G1 X50.913 Y161.588 E.67475
G1 X50.529 Y160.96 E.0369
G1 X50.529 Y148.143 E.64325
G1 X50.146 Y148.143 E.01923
G1 X50.146 Y160.333 E.61176
G1 X49.763 Y159.709 E.03673
G1 X49.763 Y148.143 E.58047
G1 X49.38 Y148.143 E.01923
G1 X49.38 Y159.089 E.54934
G1 X49.206 Y158.918 E.01223
G1 X48.997 Y158.793 E.01223
G1 X48.997 Y148.143 E.5345
G1 X48.821 Y148.143 E.00882
M73 P0 R457
G1 X48.821 Y131.179 E.85133
G1 X48.613 Y131.179 E.01041
G1 X48.613 Y158.565 E1.37439
G1 X48.23 Y158.337 E.02238
G1 X48.23 Y131.179 E1.36294
G1 X47.847 Y131.179 E.01923
G1 X47.847 Y158.109 E1.3515
G1 X47.464 Y157.881 E.02238
G1 X47.464 Y131.179 E1.34005
G1 X47.08 Y131.179 E.01923
G1 X47.08 Y157.653 E1.32861
G1 X46.697 Y157.425 E.02238
G1 X46.697 Y131.179 E1.31717
G1 X46.314 Y131.179 E.01923
G1 X46.314 Y157.197 E1.30572
G1 X45.931 Y156.969 E.02238
G1 X45.931 Y131.179 E1.29428
G1 X45.548 Y131.179 E.01923
G1 X45.548 Y156.741 E1.28284
G1 X45.164 Y156.513 E.02238
G1 X45.164 Y131.179 E1.27139
G1 X44.781 Y131.179 E.01923
G1 X44.781 Y156.285 E1.25995
G1 X44.398 Y156.057 E.02238
G1 X44.398 Y131.179 E1.24851
G1 X44.015 Y131.179 E.01923
G1 X44.015 Y155.829 E1.23706
G1 X43.632 Y155.601 E.02238
G1 X43.632 Y131.179 E1.22562
G1 X43.248 Y131.179 E.01923
G1 X43.248 Y155.373 E1.21418
G1 X42.865 Y155.145 E.02238
G1 X42.865 Y131.179 E1.20273
G1 X42.482 Y131.179 E.01923
G1 X42.482 Y155.097 E1.20035
G1 X34.818 Y150.228 F7800
G1 F1800
G1 X34.818 Y97.252 E2.65865
G1 X34.435 Y97.252 E.01923
G1 X34.435 Y149.819 E2.63813
G1 X34.051 Y149.591 E.02238
G1 X34.051 Y97.252 E2.62669
G1 X33.668 Y97.252 E.01923
G1 X33.668 Y149.363 E2.61524
G1 X33.285 Y149.135 E.02238
G1 X33.285 Y97.252 E2.6038
G1 X32.902 Y97.252 E.01923
G1 X32.902 Y148.907 E2.59235
G1 X32.518 Y148.679 E.02238
G1 X32.519 Y100.645 E2.41064
G1 X32.135 Y100.645 E.01923
G1 X32.135 Y148.451 E2.39919
G1 X31.752 Y148.223 E.02238
G1 X31.752 Y100.645 E2.38774
G1 X31.369 Y100.645 E.01923
G1 X31.369 Y147.995 E2.3763
G1 X30.986 Y147.767 E.02238
G1 X30.986 Y100.645 E2.36485
G1 X30.602 Y100.645 E.01923
G1 X30.602 Y147.539 E2.3534
G1 X30.219 Y147.311 E.02238
G1 X30.219 Y100.645 E2.34196
G1 X29.836 Y100.645 E.01923
G1 X29.836 Y147.083 E2.33051
G1 X29.453 Y146.854 E.02238
G1 X29.453 Y100.645 E2.31907
G1 X29.398 Y100.645 E.00274
G1 X29.398 Y107.43 E.34053
G1 X29.07 Y107.43 E.01649
G1 X29.07 Y146.626 E1.96709
G1 X28.686 Y146.398 E.02238
G1 X28.686 Y107.43 E1.95564
G1 X28.303 Y107.43 E.01923
G1 X28.303 Y146.17 E1.94419
G1 X27.92 Y145.942 E.02238
G1 X27.92 Y107.43 E1.93275
G1 X27.537 Y107.43 E.01923
G1 X27.537 Y145.714 E1.9213
G1 X27.154 Y145.486 E.02238
G1 X27.154 Y107.43 E1.90985
G1 X26.77 Y107.43 E.01923
G1 X26.77 Y145.258 E1.89841
G1 X26.387 Y145.03 E.02238
G1 X26.387 Y107.43 E1.88696
G1 X26.004 Y107.43 E.01923
G1 X26.004 Y144.802 E1.87552
G1 X25.621 Y144.574 E.02238
G1 X25.621 Y107.43 E1.86407
G1 X25.238 Y107.43 E.01923
G1 X25.238 Y144.346 E1.85262
G1 X24.854 Y144.117 E.02238
G1 X24.854 Y93.86 E2.52224
G1 X24.471 Y93.86 E.01923
G1 X24.471 Y143.889 E2.51079
G1 X24.088 Y143.661 E.02238
M73 P0 R456
G1 X24.088 Y93.86 E2.49935
G1 X23.705 Y93.86 E.01923
G1 X23.705 Y143.433 E2.4879
G1 X23.321 Y143.205 E.02238
G1 X23.321 Y93.86 E2.47645
G1 X22.938 Y93.86 E.01923
G1 X22.938 Y142.977 E2.46501
G1 X22.555 Y142.749 E.02238
G1 X22.555 Y93.86 E2.45356
G1 X22.172 Y93.86 E.01923
G1 X22.172 Y142.521 E2.44211
G1 X21.789 Y142.293 E.02238
G1 X21.789 Y93.86 E2.43067
G1 X21.679 Y93.86 E.00549
G1 X21.679 Y76.896 E.85133
G1 X21.405 Y76.896 E.01374
G1 X21.405 Y142.065 E3.27055
G1 X21.022 Y141.837 E.02238
G1 X21.022 Y76.896 E3.2591
G1 X20.639 Y76.896 E.01923
G1 X20.639 Y141.609 E3.24766
G1 X20.256 Y141.38 E.02238
G1 X20.256 Y76.896 E3.23621
G1 X19.873 Y76.896 E.01923
G1 X19.873 Y141.152 E3.22476
G1 X19.489 Y140.924 E.02238
G1 X19.489 Y76.896 E3.21332
G1 X19.106 Y76.896 E.01923
G1 X19.106 Y140.696 E3.20187
G1 X18.723 Y140.468 E.02238
G1 X18.723 Y76.896 E3.19042
G1 X18.34 Y76.896 E.01923
G1 X18.34 Y140.24 E3.17898
G1 X17.957 Y140.012 E.02238
G1 X17.957 Y76.896 E3.16753
G1 X17.573 Y76.896 E.01923
G1 X17.573 Y139.784 E3.15609
G1 X17.19 Y139.556 E.02238
G1 X17.19 Y76.896 E3.14464
G1 X16.807 Y76.896 E.01923
G1 X16.807 Y139.328 E3.13319
G1 X16.424 Y139.1 E.02238
G1 X16.424 Y76.896 E3.12175
G1 X16.04 Y76.896 E.01923
G1 X16.04 Y138.872 E3.1103
G1 X15.657 Y138.644 E.02238
G1 X15.657 Y76.896 E3.09885
G1 X15.274 Y76.896 E.01923
G1 X15.274 Y138.415 E3.08741
G1 X14.891 Y138.187 E.02238
G1 X14.891 Y76.896 E3.07596
G1 X14.508 Y76.896 E.01923
G1 X14.508 Y137.959 E3.06451
G1 X14.124 Y137.731 E.02238
G1 X14.124 Y76.896 E3.05307
G1 X13.741 Y76.896 E.01923
G1 X13.741 Y137.784 E3.05573
G1 X13.358 Y138.002 E.02212
G1 X13.358 Y76.896 E3.06666
G1 X12.975 Y76.896 E.01923
M73 P0 R455
G1 X12.975 Y138.22 E3.0776
G1 X12.951 Y138.234 E.0014
G1 X12.951 Y143.816 E.28017
G1 X12.592 Y143.816 E.01802
G1 X12.592 Y76.896 E3.35846
G1 X12.208 Y76.896 E.01923
G1 X12.208 Y143.816 E3.35846
G1 X11.825 Y143.816 E.01923
G1 X11.825 Y76.896 E3.35846
G1 X11.442 Y76.896 E.01923
G1 X11.442 Y143.816 E3.35846
G1 X11.059 Y143.816 E.01923
M73 P1 R455
