; generated by PrusaSlicer 2.5.0+win64 on 2022-12-07 at 00:30:00 UTC

; 

; external perimeters extrusion width = 1.00mm
; perimeters extrusion width = 1.00mm
; infill extrusion width = 1.00mm
; solid infill extrusion width = 1.00mm
; top infill extrusion width = 1.00mm
; support material extrusion width = 1.00mm
; first layer extrusion width = 0.42mm

M73 P0 R103
M107
;TYPE:Custom
G90 ; use absolute coordinates
M83 ; extruder relative mode
M140 S60 ; set final bed temp
M104 S150 ; set temporary nozzle temp to prevent oozing during homing and auto bed leveling
G4 S10 ; allow partial nozzle warmup
G28 ; home all axisG1 Z50 F240
G1 X7.6 Y10 F3000
M104 S210 ; set final nozzle temp
M190 S60 ; wait for bed temp to stabilize
M109 S210 ; wait for nozzle temp to stabilize
G1 Z0.28 F240
G92 E0
G1 Y140 E10 F1500 ; prime the nozzle
G1 X4 F5000
G92 E0
G1 Y10 E10 F1200 ; prime the nozzle
G92 E0
G21 ; set units to millimeters
G90 ; use absolute coordinates
M83 ; use relative distances for extrusion
; Filament gcode
M107
;LAYER_CHANGE
;Z:0.35
;HEIGHT:0.35
;BEFORE_LAYER_CHANGE
G92 E0
;0.35


G1 E-1 F3600
G1 Z.35 F7800
;AFTER_LAYER_CHANGE
;0.35
G1 X165.473 Y125.106
G1 E1 F2400
;TYPE:Perimeter
;WIDTH:0.42
G1 F1800
G1 X107.118 Y125.106 E2.92858
G1 X91.821 Y105.974 E1.22933
G1 X91.588 Y105.857 E.01309
G1 X54.923 Y97.93 E1.88256
G1 X54.022 Y97.699 E.04671
G1 X50.857 Y96.987 E.16282
G1 X48.53 Y95.975 E.12732
G1 X15.683 Y73.411 E1.99993
G1 X15.533 Y73.34 E.00834
G1 X14.527 Y73.052 E.05252
G1 X14.527 Y56.705 E.82037
G1 X14.951 Y57.349 E.03869
G1 X15.239 Y57.562 E.01799
G1 X20.695 Y59.137 E.28497
G1 X54.68 Y82.458 E2.06855
G1 X54.852 Y82.534 E.00942
G1 X56.924 Y83.034 E.10696
G1 X97.842 Y91.888 E2.10104
G1 X98.656 Y92.081 E.04198
G1 X120.524 Y119.429 E1.7573
G1 X120.602 Y119.508 E.00559
G1 X120.825 Y119.613 E.01234
G1 X127.494 Y120.963 E.34149
G1 X134.612 Y121.453 E.35806
G1 X165.473 Y123.381 E1.55182
G1 X165.473 Y124.956 E.07903
G1 X165.818 Y125.451 F7800
;TYPE:External perimeter
G1 F1800
G1 X106.952 Y125.451 E2.95422
G1 X91.613 Y106.255 E1.23316
G1 X91.515 Y106.194 E.0058
G1 X54.851 Y98.267 E1.88256
G1 X53.946 Y98.036 E.04685
G1 X50.749 Y97.316 E.16446
G1 X48.362 Y96.279 E.13063
G1 X15.488 Y73.695 E2.0016
G1 X14.182 Y73.311 E.06831
M73 P0 R102
G1 X14.182 Y55.553 E.8912
G1 X15.239 Y57.159 E.09648
G1 X15.335 Y57.23 E.006
G1 X20.844 Y58.821 E.28777
G1 X54.933 Y82.199 E2.07443
G1 X56.999 Y82.698 E.1067
G1 X97.918 Y91.552 E2.10107
G1 X98.851 Y91.773 E.04811
G1 X120.793 Y119.214 E1.76327
G1 X120.893 Y119.275 E.0059
G1 X127.518 Y120.619 E.33922
G1 X134.636 Y121.108 E.35806
G1 X165.818 Y123.057 E1.56797
G1 X165.818 Y125.301 E.1126
G1 X164.819 Y125.405 F7800
G1 E-.7 F3600
;WIPE_START
G1 F6240
G1 X165.298 Y125.302 E-.285
;WIPE_END
G1 E-.015 F3600
G1 X164.622 Y123.432 F7800
G1 E1 F2400
;TYPE:Solid infill
;WIDTH:0.421069
G1 F1800
G1 X165.214 Y124.024 E.04215
G1 X165.214 Y124.513 E.02463
G1 X164.266 Y123.565 E.06749
G1 X163.745 Y123.533 E.02632
G1 X165.059 Y124.847 E.09361
G1 X164.57 Y124.847 E.02463
G1 X163.223 Y123.5 E.09594
G1 X162.701 Y123.467 E.02632
G1 X164.081 Y124.847 E.09826
G1 X163.592 Y124.847 E.02463
G1 X162.179 Y123.435 E.10058
G1 X161.657 Y123.402 E.02632
G1 X163.102 Y124.847 E.1029
G1 X162.613 Y124.847 E.02463
G1 X161.135 Y123.369 E.10522
G1 X160.613 Y123.337 E.02632
G1 X162.124 Y124.847 E.10755
G1 X161.635 Y124.847 E.02463
G1 X160.091 Y123.304 E.10987
G1 X159.57 Y123.272 E.02632
G1 X161.145 Y124.847 E.11219
G1 X160.656 Y124.847 E.02463
G1 X159.048 Y123.239 E.11451
G1 X158.526 Y123.206 E.02632
G1 X160.167 Y124.847 E.11683
G1 X159.678 Y124.847 E.02463
G1 X158.004 Y123.174 E.11916
G1 X157.482 Y123.141 E.02632
G1 X159.188 Y124.847 E.12148
G1 X158.699 Y124.847 E.02463
G1 X156.96 Y123.109 E.1238
G1 X156.438 Y123.076 E.02632
G1 X158.21 Y124.847 E.12612
G1 X157.721 Y124.847 E.02463
G1 X155.916 Y123.043 E.12845
G1 X155.395 Y123.011 E.02632
G1 X157.231 Y124.847 E.13077
G1 X156.742 Y124.847 E.02463
G1 X154.873 Y122.978 E.13309
G1 X154.351 Y122.945 E.02632
G1 X156.253 Y124.847 E.13541
G1 X155.764 Y124.847 E.02463
G1 X153.829 Y122.913 E.13773
G1 X153.307 Y122.88 E.02632
G1 X155.274 Y124.847 E.14006
G1 X154.785 Y124.847 E.02463
G1 X152.785 Y122.848 E.14238
G1 X152.263 Y122.815 E.02632
G1 X154.296 Y124.847 E.1447
G1 X153.807 Y124.847 E.02463
G1 X151.741 Y122.782 E.14702
G1 X151.22 Y122.75 E.02632
G1 X153.317 Y124.847 E.14935
G1 X152.828 Y124.847 E.02463
G1 X150.698 Y122.717 E.15167
G1 X150.176 Y122.684 E.02632
G1 X152.339 Y124.847 E.15399
G1 X151.849 Y124.847 E.02463
G1 X149.654 Y122.652 E.15631
G1 X149.132 Y122.619 E.02632
G1 X151.36 Y124.847 E.15863
G1 X150.871 Y124.847 E.02463
G1 X148.61 Y122.587 E.16096
G1 X148.088 Y122.554 E.02632
G1 X150.382 Y124.847 E.16328
G1 X149.892 Y124.847 E.02463
G1 X147.566 Y122.521 E.1656
G1 X147.045 Y122.489 E.02632
G1 X149.403 Y124.847 E.16792
G1 X148.914 Y124.847 E.02463
G1 X146.523 Y122.456 E.17025
G1 X146.001 Y122.424 E.02632
G1 X148.425 Y124.847 E.17257
G1 X147.935 Y124.847 E.02463
G1 X145.479 Y122.391 E.17489
G1 X144.957 Y122.358 E.02632
G1 X147.446 Y124.847 E.17721
G1 X146.957 Y124.847 E.02463
G1 X144.435 Y122.326 E.17953
G1 X143.913 Y122.293 E.02632
G1 X146.468 Y124.847 E.18186
G1 X145.978 Y124.847 E.02463
G1 X143.391 Y122.26 E.18418
G1 X142.869 Y122.228 E.02632
G1 X145.489 Y124.847 E.1865
G1 X145 Y124.847 E.02463
G1 X142.348 Y122.195 E.18882
G1 X141.826 Y122.163 E.02632
G1 X144.511 Y124.847 E.19115
G1 X144.021 Y124.847 E.02463
G1 X141.304 Y122.13 E.19347
G1 X140.782 Y122.097 E.02632
G1 X143.532 Y124.847 E.19579
G1 X143.043 Y124.847 E.02463
G1 X140.26 Y122.065 E.19811
G1 X139.738 Y122.032 E.02632
G1 X142.554 Y124.847 E.20043
G1 X142.064 Y124.847 E.02463
G1 X139.216 Y121.999 E.20276
G1 X138.694 Y121.967 E.02632
G1 X141.575 Y124.847 E.20508
G1 X141.086 Y124.847 E.02463
G1 X138.173 Y121.934 E.2074
G1 X137.651 Y121.902 E.02632
G1 X140.597 Y124.847 E.20972
G1 X140.107 Y124.847 E.02463
G1 X137.129 Y121.869 E.21205
G1 X136.607 Y121.836 E.02632
G1 X139.618 Y124.847 E.21437
G1 X139.129 Y124.847 E.02463
G1 X136.085 Y121.804 E.21669
G1 X135.563 Y121.771 E.02632
G1 X138.64 Y124.847 E.21901
G1 X138.15 Y124.847 E.02463
G1 X135.041 Y121.739 E.22133
G1 X134.519 Y121.705 E.02635
G1 X137.661 Y124.847 E.22369
G1 X137.172 Y124.847 E.02463
G1 X133.994 Y121.669 E.22627
G1 X133.468 Y121.633 E.02651
G1 X136.682 Y124.847 E.22884
G1 X136.193 Y124.847 E.02463
G1 X132.943 Y121.597 E.23141
G1 X132.417 Y121.561 E.02651
G1 X135.704 Y124.847 E.23398
G1 X135.215 Y124.847 E.02463
G1 X131.892 Y121.525 E.23655
G1 X131.367 Y121.489 E.02651
G1 X134.725 Y124.847 E.23912
G1 X134.236 Y124.847 E.02463
G1 X130.841 Y121.453 E.24169
G1 X130.316 Y121.416 E.02651
G1 X133.747 Y124.847 E.24426
G1 X133.258 Y124.847 E.02463
G1 X129.791 Y121.38 E.24684
G1 X129.265 Y121.344 E.02651
G1 X132.768 Y124.847 E.24941
G1 X132.279 Y124.847 E.02463
G1 X128.74 Y121.308 E.25198
G1 X128.214 Y121.272 E.02651
G1 X131.79 Y124.847 E.25455
G1 X131.301 Y124.847 E.02463
G1 X127.689 Y121.236 E.25712
G1 X127.471 Y121.221 E.01102
G1 X127.112 Y121.148 E.0184
G1 X130.811 Y124.847 E.26335
G1 X130.322 Y124.847 E.02463
G1 X126.499 Y121.024 E.27218
G1 X125.886 Y120.9 E.0315
G1 X129.833 Y124.847 E.28101
G1 X129.344 Y124.847 E.02463
G1 X125.272 Y120.776 E.28984
G1 X124.659 Y120.652 E.0315
G1 X128.854 Y124.847 E.29868
G1 X128.365 Y124.847 E.02463
G1 X124.046 Y120.528 E.30751
G1 X123.432 Y120.404 E.0315
G1 X127.876 Y124.847 E.31634
G1 X127.387 Y124.847 E.02463
G1 X122.819 Y120.28 E.32517
G1 X122.206 Y120.156 E.0315
G1 X126.897 Y124.847 E.334
G1 X126.408 Y124.847 E.02463
G1 X121.394 Y119.833 E.35696
G1 E-.7 F3600
;WIPE_START
G1 F6240
G1 X121.762 Y120.201 E-.285
;WIPE_END
G1 E-.015 F3600
G1 X100.432 Y94.468 F7800
G1 E1 F2400
G1 F1800
G1 X98.204 Y92.24 E.15865
G1 X97.568 Y92.094 E.03282
G1 X101.393 Y95.918 E.27228
G1 X103.345 Y98.36 E.15738
G1 X96.944 Y91.958 E.45573
G1 X96.32 Y91.823 E.03216
G1 X105.298 Y100.802 E.63919
G1 X107.25 Y103.243 E.15738
G1 X95.695 Y91.688 E.82264
G1 X95.071 Y91.553 E.03216
G1 X109.203 Y105.685 E1.00609
G1 X111.155 Y108.127 E.15738
G1 X94.446 Y91.418 E1.18954
G1 X93.822 Y91.283 E.03216
G1 X113.107 Y110.568 E1.37299
G1 X115.06 Y113.01 E.15738
G1 X93.198 Y91.148 E1.55645
G1 X92.573 Y91.013 E.03216
G1 X118.004 Y116.443 E1.8105
G1 E-.7 F3600
;WIPE_START
G1 F6240
G1 X117.636 Y116.076 E-.285
;WIPE_END
G1 E-.015 F3600
G1 X126.074 Y125.003 F7800
G1 E1 F2400
M73 P1 R102
G1 F1800
G1 X120.979 Y119.908 E.36271
G1 X120.592 Y119.806 E.02014
G1 X120.439 Y119.71 E.0091
G1 X120.325 Y119.594 E.0082
G1 X118.965 Y117.893 E.10962
G1 X91.949 Y90.878 E1.92335
G1 X91.325 Y90.743 E.03216
G1 X125.43 Y124.847 E2.42805
G1 X124.94 Y124.847 E.02463
G1 X90.7 Y90.607 E2.43767
G1 X90.076 Y90.472 E.03216
G1 X124.451 Y124.847 E2.44729
G1 X123.962 Y124.847 E.02463
G1 X89.452 Y90.337 E2.4569
G1 X88.827 Y90.202 E.03216
G1 X123.473 Y124.847 E2.46652
G1 X122.983 Y124.847 E.02463
G1 X88.203 Y90.067 E2.47614
G1 X87.578 Y89.932 E.03216
G1 X122.494 Y124.847 E2.48576
G1 X122.005 Y124.847 E.02463
G1 X86.954 Y89.797 E2.49538
G1 X86.33 Y89.662 E.03216
G1 X121.515 Y124.847 E2.505
G1 X121.026 Y124.847 E.02463
G1 X85.705 Y89.527 E2.51462
G1 X85.081 Y89.392 E.03216
G1 X120.537 Y124.847 E2.52423
G1 X120.048 Y124.847 E.02463
G1 X84.457 Y89.256 E2.53385
G1 X83.832 Y89.121 E.03216
G1 X119.558 Y124.847 E2.54347
G1 X119.069 Y124.847 E.02463
G1 X83.208 Y88.986 E2.55309
G1 X82.584 Y88.851 E.03216
G1 X118.58 Y124.847 E2.56271
G1 X118.091 Y124.847 E.02463
G1 X81.959 Y88.716 E2.57233
G1 X81.335 Y88.581 E.03216
M73 P1 R101
G1 X117.601 Y124.847 E2.58194
G1 X117.112 Y124.847 E.02463
G1 X80.71 Y88.446 E2.59156
G1 X80.086 Y88.311 E.03216
G1 X116.623 Y124.847 E2.60118
G1 X116.134 Y124.847 E.02463
G1 X79.462 Y88.176 E2.6108
G1 X78.837 Y88.04 E.03216
G1 X115.644 Y124.847 E2.62042
G1 X115.155 Y124.847 E.02463
G1 X78.213 Y87.905 E2.63004
G1 X77.589 Y87.77 E.03216
G1 X114.666 Y124.847 E2.63966
G1 X114.177 Y124.847 E.02463
G1 X76.964 Y87.635 E2.64927
G1 X76.34 Y87.5 E.03216
G1 X113.687 Y124.847 E2.65889
G1 X113.198 Y124.847 E.02463
G1 X75.716 Y87.365 E2.66851
G1 X75.091 Y87.23 E.03216
G1 X112.709 Y124.847 E2.67813
G1 X112.22 Y124.847 E.02463
G1 X74.467 Y87.095 E2.68775
G1 X73.842 Y86.96 E.03216
G1 X111.73 Y124.847 E2.69737
G1 X111.241 Y124.847 E.02463
G1 X73.218 Y86.825 E2.70698
G1 X72.594 Y86.689 E.03216
G1 X91.471 Y105.567 E1.34396
G1 X91.833 Y105.671 E.01896
G1 X91.969 Y105.761 E.00819
G1 X92.082 Y105.874 E.00806
G1 X93.288 Y107.384 E.09727
G1 X110.752 Y124.847 E1.2433
G1 X110.263 Y124.847 E.02463
G1 X95.234 Y109.819 E1.06994
G1 X97.18 Y112.254 E.15691
G1 X109.773 Y124.847 E.89659
G1 X109.284 Y124.847 E.02463
G1 X99.125 Y114.689 E.72324
G1 X101.071 Y117.124 E.15691
G1 X108.795 Y124.847 E.54989
G1 X108.305 Y124.847 E.02463
G1 X103.017 Y119.559 E.37653
G1 X104.962 Y121.994 E.15691
G1 X107.816 Y124.847 E.20318
G1 X107.327 Y124.847 E.02463
G1 X105.919 Y123.44 E.10022
G1 E-.7 F3600
;WIPE_START
G1 F6240
G1 X106.287 Y123.807 E-.285
;WIPE_END
G1 E-.015 F3600
G1 X91.05 Y105.635 F7800
G1 E1 F2400
G1 F1800
G1 X71.969 Y86.554 E1.35839
G1 X71.345 Y86.419 E.03216
G1 X90.223 Y105.297 E1.34398
G1 X89.599 Y105.162 E.03215
M73 P2 R101
G1 X70.721 Y86.284 E1.34399
G1 X70.096 Y86.149 E.03216
G1 X88.974 Y105.027 E1.344
G1 X88.35 Y104.892 E.03215
G1 X69.472 Y86.014 E1.34401
G1 X68.848 Y85.879 E.03216
G1 X87.726 Y104.757 E1.34402
G1 X87.102 Y104.622 E.03215
G1 X68.223 Y85.744 E1.34403
G1 X67.599 Y85.609 E.03216
G1 X86.478 Y104.487 E1.34404
G1 X85.853 Y104.352 E.03215
G1 X66.975 Y85.474 E1.34405
G1 X66.35 Y85.338 E.03216
G1 X85.229 Y104.217 E1.34406
G1 X84.605 Y104.082 E.03215
G1 X65.726 Y85.203 E1.34407
G1 X65.101 Y85.068 E.03216
G1 X83.981 Y103.947 E1.34408
G1 X83.356 Y103.812 E.03215
G1 X64.477 Y84.933 E1.34409
G1 X63.853 Y84.798 E.03216
G1 X82.732 Y103.678 E1.3441
G1 X82.108 Y103.543 E.03215
G1 X63.228 Y84.663 E1.34411
G1 X62.604 Y84.528 E.03216
G1 X81.484 Y103.408 E1.34412
G1 X80.86 Y103.273 E.03215
G1 X61.98 Y84.393 E1.34413
G1 X61.355 Y84.258 E.03216
G1 X80.235 Y103.138 E1.34414
G1 X79.611 Y103.003 E.03215
G1 X60.731 Y84.122 E1.34415
G1 X60.107 Y83.987 E.03216
G1 X78.987 Y102.868 E1.34416
G1 X78.363 Y102.733 E.03215
G1 X59.482 Y83.852 E1.34417
G1 X58.858 Y83.717 E.03216
G1 X77.738 Y102.598 E1.34418
G1 X77.114 Y102.463 E.03215
G1 X58.233 Y83.582 E1.34419
G1 X57.609 Y83.447 E.03216
G1 X76.49 Y102.328 E1.3442
G1 X75.866 Y102.193 E.03215
G1 X56.985 Y83.312 E1.34421
G1 X56.342 Y83.158 E.03327
G1 X75.242 Y102.058 E1.34554
G1 X74.617 Y101.923 E.03215
G1 X55.695 Y83.001 E1.34716
G1 X55.048 Y82.843 E.03352
G1 X73.993 Y101.788 E1.34877
G1 X73.369 Y101.653 E.03215
G1 X54.066 Y82.35 E1.37425
G1 X52.507 Y81.28 E.0952
G1 X72.745 Y101.518 E1.44082
G1 X72.12 Y101.383 E.03215
G1 X50.947 Y80.21 E1.50738
M73 P2 R100
G1 X49.388 Y79.14 E.0952
G1 X71.496 Y101.248 E1.57395
G1 X70.872 Y101.113 E.03215
G1 X47.829 Y78.07 E1.64052
G1 X46.27 Y77 E.0952
G1 X70.248 Y100.978 E1.70708
G1 X69.624 Y100.843 E.03215
G1 X44.711 Y75.93 E1.77365
G1 X43.151 Y74.86 E.0952
G1 X68.999 Y100.708 E1.84021
G1 X68.375 Y100.573 E.03215
G1 X41.592 Y73.79 E1.90678
G1 X40.033 Y72.72 E.0952
G1 X67.751 Y100.438 E1.97335
G1 X67.127 Y100.303 E.03215
G1 X38.474 Y71.65 E2.03991
G1 X36.914 Y70.58 E.0952
G1 X66.502 Y100.168 E2.10648
G1 X65.878 Y100.034 E.03215
G1 X35.355 Y69.51 E2.17304
G1 X33.796 Y68.441 E.0952
G1 X65.254 Y99.899 E2.23961
G1 X64.63 Y99.764 E.03215
G1 X32.237 Y67.371 E2.30618
G1 X30.678 Y66.301 E.0952
G1 X64.006 Y99.629 E2.37274
G1 X63.381 Y99.494 E.03215
G1 X29.118 Y65.231 E2.43931
G1 X27.559 Y64.161 E.0952
G1 X62.757 Y99.359 E2.50587
G1 X62.133 Y99.224 E.03215
G1 X26 Y63.091 E2.57244
G1 X24.441 Y62.021 E.0952
G1 X61.509 Y99.089 E2.63901
G1 X60.884 Y98.954 E.03215
G1 X22.881 Y60.951 E2.70557
G1 X21.322 Y59.881 E.0952
G1 X60.26 Y98.819 E2.77214
G1 X59.636 Y98.684 E.03215
G1 X20.221 Y59.269 E2.80608
G1 X19.533 Y59.071 E.03604
G1 X59.012 Y98.549 E2.81061
G1 X58.388 Y98.414 E.03215
G1 X18.846 Y58.872 E2.81514
G1 X18.158 Y58.673 E.03604
M73 P3 R100
G1 X57.763 Y98.279 E2.81967
G1 X57.139 Y98.144 E.03215
G1 X17.47 Y58.475 E2.82419
G1 X16.782 Y58.276 E.03604
G1 X56.515 Y98.009 E2.82872
G1 X55.891 Y97.874 E.03215
G1 X16.094 Y58.078 E2.83325
G1 X15.406 Y57.879 E.03604
G1 X55.267 Y97.739 E2.83778
G1 X54.631 Y97.593 E.03283
G1 X14.786 Y57.747 E2.83674
G1 X14.786 Y58.237 E.02463
G1 X53.972 Y97.423 E2.7898
G1 X53.34 Y97.281 E.03258
G1 X14.786 Y58.726 E2.74485
G1 X14.786 Y59.215 E.02463
G1 X52.709 Y97.139 E2.6999
G1 X52.078 Y96.997 E.03258
G1 X14.786 Y59.704 E2.65495
G1 X14.786 Y60.194 E.02463
G1 X51.446 Y96.854 E2.61
G1 X50.937 Y96.74 E.02626
G1 X50.769 Y96.667 E.00921
G1 X14.786 Y60.683 E2.56182
G1 X14.786 Y61.172 E.02463
G1 X49.904 Y96.291 E2.50021
G1 X49.039 Y95.915 E.04751
G1 X14.786 Y61.662 E2.43859
G1 X14.786 Y62.151 E.02463
M73 P3 R99
G1 X47.784 Y95.149 E2.34929
G1 X46.221 Y94.076 E.09546
G1 X14.786 Y62.64 E2.23801
G1 X14.786 Y63.129 E.02463
G1 X44.658 Y93.002 E2.12674
G1 X43.095 Y91.928 E.09546
G1 X14.786 Y63.619 E2.01547
G1 X14.786 Y64.108 E.02463
G1 X41.532 Y90.855 E1.9042
G1 X39.969 Y89.781 E.09546
G1 X14.786 Y64.597 E1.79292
G1 X14.786 Y65.086 E.02463
G1 X38.406 Y88.707 E1.68165
G1 X36.843 Y87.633 E.09546
G1 X14.786 Y65.576 E1.57038
G1 X14.786 Y66.065 E.02463
G1 X35.28 Y86.56 E1.45911
G1 X33.718 Y85.486 E.09546
G1 X14.786 Y66.554 E1.34784
G1 X14.786 Y67.043 E.02463
G1 X32.155 Y84.412 E1.23656
G1 X30.592 Y83.339 E.09546
G1 X14.786 Y67.533 E1.12529
G1 X14.786 Y68.022 E.02463
G1 X29.029 Y82.265 E1.01402
G1 X27.466 Y81.191 E.09546
G1 X14.786 Y68.511 E.90275
G1 X14.786 Y69 E.02463
G1 X25.903 Y80.118 E.79147
G1 X24.34 Y79.044 E.09546
G1 X14.786 Y69.49 E.6802
G1 X14.786 Y69.979 E.02463
G1 X22.777 Y77.97 E.56893
G1 X21.214 Y76.897 E.09546
G1 X14.786 Y70.468 E.45766
G1 X14.786 Y70.957 E.02463
G1 X19.651 Y75.823 E.34639
G1 X18.088 Y74.749 E.09546
G1 X14.786 Y71.447 E.23511
G1 X14.786 Y71.936 E.02463
G1 X16.525 Y73.675 E.12384
G1 X15.824 Y73.194 E.04282
G1 X15.611 Y73.093 E.01186
G1 X15.39 Y73.03 E.01154
G1 X14.63 Y72.27 E.05411
M106 S255
;LAYER_CHANGE
;Z:0.85
;HEIGHT:0.5
