; generated by PrusaSlicer 2.5.0+win64 on 2022-12-07 at 00:30:26 UTC

; 

; external perimeters extrusion width = 1.00mm
; perimeters extrusion width = 1.00mm
; infill extrusion width = 1.00mm
; solid infill extrusion width = 1.00mm
; top infill extrusion width = 1.00mm
; support material extrusion width = 1.00mm
; first layer extrusion width = 0.42mm

M73 P0 R405
M107
;TYPE:Custom
G90 ; use absolute coordinates
M83 ; extruder relative mode
M140 S60 ; set final bed temp
M104 S150 ; set temporary nozzle temp to prevent oozing during homing and auto bed leveling
G4 S10 ; allow partial nozzle warmup
G28 ; home all axisG1 Z50 F240
G1 X7.6 Y10 F3000
M104 S210 ; set final nozzle temp
M190 S60 ; wait for bed temp to stabilize
M109 S210 ; wait for nozzle temp to stabilize
G1 Z0.28 F240
G92 E0
G1 Y140 E10 F1500 ; prime the nozzle
G1 X4 F5000
G92 E0
G1 Y10 E10 F1200 ; prime the nozzle
G92 E0
G21 ; set units to millimeters
G90 ; use absolute coordinates
M83 ; use relative distances for extrusion
; Filament gcode
M107
;LAYER_CHANGE
;Z:0.35
;HEIGHT:0.35
;BEFORE_LAYER_CHANGE
G92 E0
;0.35


G1 E-1 F3600
G1 Z.35 F7800
;AFTER_LAYER_CHANGE
;0.35
G1 X83.058 Y35.436
G1 E1 F2400
;TYPE:Support material
;WIDTH:0.42
G1 F1800
G1 X79.665 Y35.436 E.17027
G1 X79.665 Y59.498 E1.20756
G1 X83.058 Y59.498 E.17027
G1 X83.058 Y82.934 E1.17616
G1 X79.665 Y82.934 E.17027
G1 X79.665 Y100.21 E.86703
G1 X83.058 Y100.21 E.17027
G1 X83.058 Y123.646 E1.17616
G1 X63.015 Y123.646 E1.00589
G1 X63.015 Y120.254 E.17027
G1 X52.837 Y120.254 E.5108
G1 X52.837 Y116.861 E.17027
G1 X42.659 Y116.861 E.5108
G1 X42.659 Y113.468 E.17027
G1 X29.088 Y113.468 E.68106
G1 X29.088 Y110.076 E.17027
G1 X18.91 Y110.076 E.5108
G1 X18.91 Y106.683 E.17027
G1 X8.732 Y106.683 E.5108
G1 X8.732 Y25.571 E4.07067
G1 X83.058 Y25.571 E3.73014
M73 P0 R404
G1 X83.058 Y35.384 E.4925
G1 E-.7 F3600
;WIPE_START
G1 F6240
G1 X83.058 Y34.864 E-.285
;WIPE_END
G1 E-.015 F3600
G1 X82.719 Y123.491 F7800
G1 E1 F2400
G1 F1800
G1 X82.719 Y100.521 E1.15279
G1 X82.336 Y100.521 E.01923
G1 X82.336 Y123.336 E1.145
G1 X81.953 Y123.336 E.01923
G1 X81.953 Y100.521 E1.145
G1 X81.569 Y100.521 E.01923
G1 X81.569 Y123.336 E1.145
G1 X81.186 Y123.336 E.01923
G1 X81.186 Y100.521 E1.145
G1 X80.803 Y100.521 E.01923
G1 X80.803 Y123.336 E1.145
G1 X80.42 Y123.336 E.01923
G1 X80.42 Y100.521 E1.145
G1 X80.037 Y100.521 E.01923
G1 X80.037 Y123.336 E1.145
G1 X79.653 Y123.336 E.01923
G1 X79.653 Y100.521 E1.145
G1 X79.355 Y100.521 E.01497
G1 X79.355 Y82.624 E.89819
G1 X79.653 Y82.624 E.01497
G1 X79.653 Y59.808 E1.145
G1 X80.037 Y59.808 E.01923
G1 X80.037 Y82.624 E1.145
G1 X80.42 Y82.624 E.01923
G1 X80.42 Y59.808 E1.145
G1 X80.803 Y59.808 E.01923
G1 X80.803 Y82.624 E1.145
G1 X81.186 Y82.624 E.01923
G1 X81.186 Y59.808 E1.145
G1 X81.569 Y59.808 E.01923
G1 X81.569 Y82.624 E1.145
G1 X81.953 Y82.624 E.01923
G1 X81.953 Y59.808 E1.145
G1 X82.336 Y59.808 E.01923
G1 X82.336 Y82.624 E1.145
G1 X82.719 Y82.624 E.01923
G1 X82.719 Y59.653 E1.15279
G1 E-.7 F3600
;WIPE_START
G1 F6240
G1 X82.719 Y60.173 E-.285
;WIPE_END
G1 E-.015 F3600
G1 X82.719 Y35.281 F7800
G1 E1 F2400
G1 F1800
G1 X82.719 Y25.881 E.47173
G1 X82.336 Y25.881 E.01923
G1 X82.336 Y35.126 E.46394
G1 X81.953 Y35.126 E.01923
G1 X81.953 Y25.881 E.46394
G1 X81.569 Y25.881 E.01923
G1 X81.569 Y35.126 E.46394
G1 X81.186 Y35.126 E.01923
G1 X81.186 Y25.881 E.46394
G1 X80.803 Y25.881 E.01923
G1 X80.803 Y35.126 E.46394
G1 X80.42 Y35.126 E.01923
G1 X80.42 Y25.881 E.46394
G1 X80.037 Y25.881 E.01923
G1 X80.037 Y35.126 E.46394
G1 X79.653 Y35.126 E.01923
G1 X79.653 Y25.881 E.46394
G1 X79.27 Y25.881 E.01923
G1 X79.27 Y123.336 E4.89085
G1 X78.887 Y123.336 E.01923
G1 X78.887 Y25.881 E4.89085
G1 X78.504 Y25.881 E.01923
G1 X78.504 Y123.336 E4.89085
G1 X78.12 Y123.336 E.01923
G1 X78.121 Y25.881 E4.89085
G1 X77.737 Y25.881 E.01923
G1 X77.737 Y123.336 E4.89085
G1 X77.354 Y123.336 E.01923
G1 X77.354 Y25.881 E4.89085
G1 X76.971 Y25.881 E.01923
G1 X76.971 Y123.336 E4.89085
G1 X76.588 Y123.336 E.01923
G1 X76.588 Y25.881 E4.89085
G1 X76.204 Y25.881 E.01923
G1 X76.204 Y123.336 E4.89085
G1 X75.821 Y123.336 E.01923
G1 X75.821 Y25.881 E4.89085
G1 X75.438 Y25.881 E.01923
G1 X75.438 Y123.336 E4.89085
G1 X75.055 Y123.336 E.01923
M73 P0 R403
G1 X75.055 Y25.881 E4.89085
G1 X74.672 Y25.881 E.01923
G1 X74.672 Y123.336 E4.89085
G1 X74.288 Y123.336 E.01923
G1 X74.288 Y25.881 E4.89085
G1 X73.905 Y25.881 E.01923
G1 X73.905 Y123.336 E4.89085
G1 X73.522 Y123.336 E.01923
G1 X73.522 Y25.881 E4.89085
G1 X73.139 Y25.881 E.01923
G1 X73.139 Y123.336 E4.89085
G1 X72.756 Y123.336 E.01923
G1 X72.756 Y25.881 E4.89085
G1 X72.372 Y25.881 E.01923
G1 X72.372 Y123.336 E4.89085
G1 X71.989 Y123.336 E.01923
G1 X71.989 Y25.881 E4.89085
G1 X71.606 Y25.881 E.01923
G1 X71.606 Y123.336 E4.89085
G1 X71.223 Y123.336 E.01923
G1 X71.223 Y25.881 E4.89085
G1 X70.84 Y25.881 E.01923
G1 X70.84 Y123.336 E4.89085
G1 X70.456 Y123.336 E.01923
G1 X70.456 Y25.881 E4.89085
G1 X70.073 Y25.881 E.01923
G1 X70.073 Y123.336 E4.89085
G1 X69.69 Y123.336 E.01923
G1 X69.69 Y25.881 E4.89085
G1 X69.307 Y25.881 E.01923
G1 X69.307 Y123.336 E4.89085
G1 X68.923 Y123.336 E.01923
G1 X68.923 Y25.881 E4.89085
G1 X68.54 Y25.881 E.01923
G1 X68.54 Y123.336 E4.89085
G1 X68.157 Y123.336 E.01923
M73 P0 R402
G1 X68.157 Y25.881 E4.89085
G1 X67.774 Y25.881 E.01923
G1 X67.774 Y123.336 E4.89085
G1 X67.391 Y123.336 E.01923
G1 X67.391 Y25.881 E4.89085
G1 X67.007 Y25.881 E.01923
G1 X67.007 Y123.336 E4.89085
G1 X66.624 Y123.336 E.01923
G1 X66.624 Y25.881 E4.89085
G1 X66.241 Y25.881 E.01923
G1 X66.241 Y123.336 E4.89085
G1 X65.858 Y123.336 E.01923
G1 X65.858 Y25.881 E4.89085
G1 X65.475 Y25.881 E.01923
G1 X65.475 Y123.336 E4.89085
G1 X65.091 Y123.336 E.01923
G1 X65.091 Y25.881 E4.89085
G1 X64.708 Y25.881 E.01923
G1 X64.708 Y123.336 E4.89085
G1 X64.325 Y123.336 E.01923
G1 X64.325 Y25.881 E4.89085
G1 X63.942 Y25.881 E.01923
G1 X63.942 Y123.336 E4.89085
G1 X63.559 Y123.336 E.01923
G1 X63.559 Y25.881 E4.89085
G1 X63.175 Y25.881 E.01923
G1 X63.175 Y119.943 E4.72058
G1 X62.792 Y119.943 E.01923
G1 X62.792 Y25.881 E4.72058
G1 X62.409 Y25.881 E.01923
G1 X62.409 Y119.943 E4.72058
G1 X62.026 Y119.943 E.01923
G1 X62.026 Y25.881 E4.72058
G1 X61.642 Y25.881 E.01923
G1 X61.642 Y119.943 E4.72058
G1 X61.259 Y119.943 E.01923
G1 X61.259 Y25.881 E4.72058
G1 X60.876 Y25.881 E.01923
M73 P0 R401
G1 X60.876 Y119.943 E4.72058
G1 X60.493 Y119.943 E.01923
G1 X60.493 Y25.881 E4.72058
G1 X60.11 Y25.881 E.01923
G1 X60.11 Y119.943 E4.72058
G1 X59.726 Y119.943 E.01923
G1 X59.726 Y25.881 E4.72058
G1 X59.343 Y25.881 E.01923
G1 X59.343 Y119.943 E4.72058
G1 X58.96 Y119.943 E.01923
G1 X58.96 Y25.881 E4.72058
G1 X58.577 Y25.881 E.01923
G1 X58.577 Y119.943 E4.72058
G1 X58.194 Y119.943 E.01923
G1 X58.194 Y25.881 E4.72058
G1 X57.81 Y25.881 E.01923
G1 X57.81 Y119.943 E4.72058
G1 X57.427 Y119.943 E.01923
G1 X57.427 Y25.881 E4.72058
G1 X57.044 Y25.881 E.01923
G1 X57.044 Y119.943 E4.72058
G1 X56.661 Y119.943 E.01923
G1 X56.661 Y25.881 E4.72058
G1 X56.278 Y25.881 E.01923
G1 X56.278 Y119.943 E4.72058
G1 X55.894 Y119.943 E.01923
M73 P1 R401
G1 X55.894 Y25.881 E4.72058
G1 X55.511 Y25.881 E.01923
G1 X55.511 Y119.943 E4.72058
G1 X55.128 Y119.943 E.01923
G1 X55.128 Y25.881 E4.72058
G1 X54.745 Y25.881 E.01923
G1 X54.745 Y119.943 E4.72058
G1 X54.361 Y119.943 E.01923
G1 X54.361 Y25.881 E4.72058
G1 X53.978 Y25.881 E.01923
M73 P1 R400
G1 X53.978 Y119.943 E4.72058
G1 X53.595 Y119.943 E.01923
G1 X53.595 Y25.881 E4.72058
G1 X53.212 Y25.881 E.01923
G1 X53.212 Y119.943 E4.72058
G1 X53.147 Y119.943 E.00325
G1 X53.147 Y116.551 E.17027
G1 X52.829 Y116.551 E.01599
G1 X52.829 Y25.881 E4.55032
G1 X52.445 Y25.881 E.01923
G1 X52.445 Y116.551 E4.55032
G1 X52.062 Y116.551 E.01923
G1 X52.062 Y25.881 E4.55032
G1 X51.679 Y25.881 E.01923
G1 X51.679 Y116.551 E4.55032
G1 X51.296 Y116.551 E.01923
G1 X51.296 Y25.881 E4.55032
G1 X50.913 Y25.881 E.01923
G1 X50.913 Y116.551 E4.55032
G1 X50.529 Y116.551 E.01923
G1 X50.529 Y25.881 E4.55032
G1 X50.146 Y25.881 E.01923
G1 X50.146 Y116.551 E4.55032
G1 X49.763 Y116.551 E.01923
G1 X49.763 Y25.881 E4.55032
G1 X49.38 Y25.881 E.01923
G1 X49.38 Y116.551 E4.55032
G1 X48.997 Y116.551 E.01923
G1 X48.997 Y25.881 E4.55032
G1 X48.613 Y25.881 E.01923
G1 X48.613 Y116.551 E4.55032
G1 X48.23 Y116.551 E.01923
G1 X48.23 Y25.881 E4.55032
G1 X47.847 Y25.881 E.01923
G1 X47.847 Y116.551 E4.55032
G1 X47.464 Y116.551 E.01923
G1 X47.464 Y25.881 E4.55032
G1 X47.08 Y25.881 E.01923
G1 X47.08 Y116.551 E4.55032
G1 X46.697 Y116.551 E.01923
G1 X46.697 Y25.881 E4.55032
G1 X46.314 Y25.881 E.01923
M73 P1 R399
G1 X46.314 Y116.551 E4.55032
G1 X45.931 Y116.551 E.01923
G1 X45.931 Y25.881 E4.55032
G1 X45.548 Y25.881 E.01923
G1 X45.548 Y116.551 E4.55032
G1 X45.164 Y116.551 E.01923
G1 X45.164 Y25.881 E4.55032
G1 X44.781 Y25.881 E.01923
G1 X44.781 Y116.551 E4.55032
G1 X44.398 Y116.551 E.01923
G1 X44.398 Y25.881 E4.55032
G1 X44.015 Y25.881 E.01923
G1 X44.015 Y116.551 E4.55032
G1 X43.632 Y116.551 E.01923
G1 X43.632 Y25.881 E4.55032
G1 X43.248 Y25.881 E.01923
G1 X43.248 Y116.551 E4.55032
G1 X42.969 Y116.551 E.01402
G1 X42.969 Y113.158 E.17027
G1 X42.865 Y113.158 E.00521
G1 X42.865 Y25.881 E4.38005
G1 X42.482 Y25.881 E.01923
G1 X42.482 Y113.158 E4.38005
G1 X42.099 Y113.158 E.01923
G1 X42.099 Y25.881 E4.38005
G1 X41.716 Y25.881 E.01923
G1 X41.716 Y113.158 E4.38005
G1 X41.332 Y113.158 E.01923
G1 X41.332 Y25.881 E4.38005
G1 X40.949 Y25.881 E.01923
G1 X40.949 Y113.158 E4.38005
G1 X40.566 Y113.158 E.01923
G1 X40.566 Y25.881 E4.38005
G1 X40.183 Y25.881 E.01923
G1 X40.183 Y113.158 E4.38005
G1 X39.799 Y113.158 E.01923
G1 X39.8 Y25.881 E4.38005
G1 X39.416 Y25.881 E.01923
G1 X39.416 Y113.158 E4.38005
G1 X39.033 Y113.158 E.01923
M73 P1 R398
G1 X39.033 Y25.881 E4.38005
G1 X38.65 Y25.881 E.01923
G1 X38.65 Y113.158 E4.38005
G1 X38.267 Y113.158 E.01923
G1 X38.267 Y25.881 E4.38005
G1 X37.883 Y25.881 E.01923
G1 X37.883 Y113.158 E4.38005
G1 X37.5 Y113.158 E.01923
G1 X37.5 Y25.881 E4.38005
G1 X37.117 Y25.881 E.01923
G1 X37.117 Y113.158 E4.38005
G1 X36.734 Y113.158 E.01923
G1 X36.734 Y25.881 E4.38005
G1 X36.351 Y25.881 E.01923
G1 X36.351 Y113.158 E4.38005
G1 X35.967 Y113.158 E.01923
G1 X35.967 Y25.881 E4.38005
G1 X35.584 Y25.881 E.01923
G1 X35.584 Y113.158 E4.38005
G1 X35.201 Y113.158 E.01923
G1 X35.201 Y25.881 E4.38005
G1 X34.818 Y25.881 E.01923
G1 X34.818 Y113.158 E4.38005
G1 X34.435 Y113.158 E.01923
G1 X34.435 Y25.881 E4.38005
G1 X34.051 Y25.881 E.01923
G1 X34.051 Y113.158 E4.38005
G1 X33.668 Y113.158 E.01923
G1 X33.668 Y25.881 E4.38005
G1 X33.285 Y25.881 E.01923
G1 X33.285 Y113.158 E4.38005
G1 X32.902 Y113.158 E.01923
G1 X32.902 Y25.881 E4.38005
G1 X32.519 Y25.881 E.01923
G1 X32.519 Y113.158 E4.38005
G1 X32.135 Y113.158 E.01923
G1 X32.135 Y25.881 E4.38005
G1 X31.752 Y25.881 E.01923
G1 X31.752 Y113.158 E4.38005
G1 X31.369 Y113.158 E.01923
M73 P1 R397
G1 X31.369 Y25.881 E4.38005
G1 X30.986 Y25.881 E.01923
G1 X30.986 Y113.158 E4.38005
G1 X30.602 Y113.158 E.01923
G1 X30.602 Y25.881 E4.38005
G1 X30.219 Y25.881 E.01923
G1 X30.219 Y113.158 E4.38005
G1 X29.836 Y113.158 E.01923
G1 X29.836 Y25.881 E4.38005
G1 X29.453 Y25.881 E.01923
G1 X29.453 Y113.158 E4.38005
G1 X29.398 Y113.158 E.00274
G1 X29.398 Y109.765 E.17027
G1 X29.07 Y109.765 E.01649
G1 X29.07 Y25.881 E4.20978
G1 X28.686 Y25.881 E.01923
G1 X28.686 Y109.765 E4.20978
G1 X28.303 Y109.765 E.01923
G1 X28.303 Y25.881 E4.20978
G1 X27.92 Y25.881 E.01923
G1 X27.92 Y109.765 E4.20978
G1 X27.537 Y109.765 E.01923
G1 X27.537 Y25.881 E4.20978
G1 X27.154 Y25.881 E.01923
G1 X27.154 Y109.765 E4.20978
G1 X26.77 Y109.765 E.01923
G1 X26.77 Y25.881 E4.20978
G1 X26.387 Y25.881 E.01923
G1 X26.387 Y109.765 E4.20978
G1 X26.004 Y109.765 E.01923
G1 X26.004 Y25.881 E4.20978
G1 X25.621 Y25.881 E.01923
G1 X25.621 Y109.765 E4.20978
G1 X25.238 Y109.765 E.01923
M73 P2 R397
G1 X25.238 Y25.881 E4.20978
G1 X24.854 Y25.881 E.01923
G1 X24.854 Y109.765 E4.20978
G1 X24.471 Y109.765 E.01923
G1 X24.471 Y25.881 E4.20978
G1 X24.088 Y25.881 E.01923
G1 X24.088 Y109.765 E4.20978
G1 X23.705 Y109.765 E.01923
G1 X23.705 Y25.881 E4.20978
G1 X23.321 Y25.881 E.01923
M73 P2 R396
G1 X23.321 Y109.765 E4.20978
G1 X22.938 Y109.765 E.01923
G1 X22.938 Y25.881 E4.20978
G1 X22.555 Y25.881 E.01923
G1 X22.555 Y109.765 E4.20978
G1 X22.172 Y109.765 E.01923
G1 X22.172 Y25.881 E4.20978
G1 X21.789 Y25.881 E.01923
G1 X21.789 Y109.765 E4.20978
G1 X21.405 Y109.765 E.01923
G1 X21.405 Y25.881 E4.20978
G1 X21.022 Y25.881 E.01923
G1 X21.022 Y109.765 E4.20978
G1 X20.639 Y109.765 E.01923
G1 X20.639 Y25.881 E4.20978
G1 X20.256 Y25.881 E.01923
G1 X20.256 Y109.765 E4.20978
G1 X19.873 Y109.765 E.01923
G1 X19.873 Y25.881 E4.20978
G1 X19.489 Y25.881 E.01923
G1 X19.489 Y109.765 E4.20978
G1 X19.22 Y109.765 E.01351
G1 X19.22 Y106.372 E.17027
G1 X19.106 Y106.372 E.00572
G1 X19.106 Y25.881 E4.03952
G1 X18.723 Y25.881 E.01923
G1 X18.723 Y106.372 E4.03952
G1 X18.34 Y106.372 E.01923
G1 X18.34 Y25.881 E4.03952
G1 X17.957 Y25.881 E.01923
G1 X17.957 Y106.372 E4.03952
G1 X17.573 Y106.372 E.01923
G1 X17.573 Y25.881 E4.03952
G1 X17.19 Y25.881 E.01923
G1 X17.19 Y106.372 E4.03952
G1 X16.807 Y106.372 E.01923
G1 X16.807 Y25.881 E4.03952
G1 X16.424 Y25.881 E.01923
G1 X16.424 Y106.372 E4.03952
G1 X16.04 Y106.372 E.01923
G1 X16.04 Y25.881 E4.03952
G1 X15.657 Y25.881 E.01923
G1 X15.657 Y106.372 E4.03952
G1 X15.274 Y106.372 E.01923
M73 P2 R395
G1 X15.274 Y25.881 E4.03952
G1 X14.891 Y25.881 E.01923
G1 X14.891 Y106.372 E4.03952
G1 X14.508 Y106.372 E.01923
G1 X14.508 Y25.881 E4.03952
G1 X14.124 Y25.881 E.01923
G1 X14.124 Y106.372 E4.03952
G1 X13.741 Y106.372 E.01923
G1 X13.741 Y25.881 E4.03952
G1 X13.358 Y25.881 E.01923
G1 X13.358 Y106.372 E4.03952
G1 X12.975 Y106.372 E.01923
G1 X12.975 Y25.881 E4.03952
G1 X12.592 Y25.881 E.01923
G1 X12.592 Y106.372 E4.03952
G1 X12.208 Y106.372 E.01923
G1 X12.208 Y25.881 E4.03952
G1 X11.825 Y25.881 E.01923
G1 X11.825 Y106.372 E4.03952
G1 X11.442 Y106.372 E.01923
G1 X11.442 Y25.881 E4.03952
G1 X11.059 Y25.881 E.01923
G1 X11.059 Y106.372 E4.03952
G1 X10.676 Y106.372 E.01923
G1 X10.676 Y25.881 E4.03952
G1 X10.292 Y25.881 E.01923
G1 X10.292 Y106.372 E4.03952
G1 X9.909 Y106.372 E.01923
G1 X9.909 Y25.881 E4.03952
G1 X9.526 Y25.881 E.01923
G1 X9.526 Y106.372 E4.03952
G1 X9.143 Y106.372 E.01923
G1 X9.143 Y25.726 E4.04731
G1 E-.7 F3600
;WIPE_START
G1 F6240
G1 X9.143 Y26.246 E-.285
;WIPE_END
G1 E-.015 F3600
G1 X163.983 Y35.146 F7800
G1 E1 F2400
G1 F1800
G1 X163.983 Y43.034 E.39588
G1 X168.689 Y43.034 E.23616
G1 X168.689 Y40.034 E.15056
G1 X171.268 Y40.034 E.12947
G1 X171.268 Y127.039 E4.3664
G1 X161.403 Y127.039 E.49509
G1 X161.403 Y42.222 E4.25664
G1 X158.01 Y42.222 E.17027
G1 X158.01 Y32.356 E.49509
G1 X163.983 Y32.356 E.29974
G1 X163.983 Y35.094 E.13742
G1 E-.7 F3600
;WIPE_START
G1 F6240
G1 X163.983 Y34.574 E-.285
;WIPE_END
G1 E-.015 F3600
G1 X170.857 Y126.884 F7800
G1 E1 F2400
G1 F1800
G1 X170.857 Y40.345 E4.34304
G1 X170.474 Y40.345 E.01923
M73 P2 R394
G1 X170.474 Y126.729 E4.33525
G1 X170.091 Y126.729 E.01923
G1 X170.091 Y40.345 E4.33525
G1 X169.708 Y40.345 E.01923
G1 X169.708 Y126.729 E4.33525
G1 X169.324 Y126.729 E.01923
G1 X169.324 Y40.345 E4.33525
G1 X168.999 Y40.345 E.01634
G1 X168.999 Y43.345 E.15056
G1 X168.941 Y43.345 E.00289
G1 X168.941 Y126.729 E4.18469
G1 X168.558 Y126.729 E.01923
G1 X168.558 Y43.345 E4.18469
G1 X168.175 Y43.345 E.01923
G1 X168.175 Y126.729 E4.18469
G1 X167.792 Y126.729 E.01923
G1 X167.792 Y43.345 E4.18469
G1 X167.408 Y43.345 E.01923
G1 X167.408 Y126.729 E4.18469
G1 X167.025 Y126.729 E.01923
G1 X167.025 Y43.345 E4.18469
G1 X166.642 Y43.345 E.01923
G1 X166.642 Y126.729 E4.18469
G1 X166.259 Y126.729 E.01923
G1 X166.259 Y43.345 E4.18469
G1 X165.876 Y43.345 E.01923
G1 X165.876 Y126.729 E4.18469
G1 X165.492 Y126.729 E.01923
G1 X165.492 Y43.345 E4.18469
G1 X165.109 Y43.345 E.01923
G1 X165.109 Y126.729 E4.18469
G1 X164.726 Y126.729 E.01923
G1 X164.726 Y43.345 E4.18469
G1 X164.343 Y43.345 E.01923
G1 X164.343 Y126.729 E4.18469
G1 X163.96 Y126.729 E.01923
G1 X163.96 Y43.345 E4.18469
G1 X163.673 Y43.345 E.0144
G1 X163.673 Y32.667 E.53589
G1 X163.576 Y32.667 E.00483
G1 X163.576 Y126.729 E4.72058
