; generated by PrusaSlicer 2.5.0+win64 on 2022-12-07 at 00:30:14 UTC

; 

; external perimeters extrusion width = 1.00mm
; perimeters extrusion width = 1.00mm
; infill extrusion width = 1.00mm
; solid infill extrusion width = 1.00mm
; top infill extrusion width = 1.00mm
; support material extrusion width = 1.00mm
; first layer extrusion width = 0.42mm

M73 P0 R45
M107
;TYPE:Custom
G90 ; use absolute coordinates
M83 ; extruder relative mode
M140 S60 ; set final bed temp
M104 S150 ; set temporary nozzle temp to prevent oozing during homing and auto bed leveling
G4 S10 ; allow partial nozzle warmup
G28 ; home all axisG1 Z50 F240
G1 X7.6 Y10 F3000
M104 S210 ; set final nozzle temp
M190 S60 ; wait for bed temp to stabilize
M109 S210 ; wait for nozzle temp to stabilize
G1 Z0.28 F240
G92 E0
G1 Y140 E10 F1500 ; prime the nozzle
G1 X4 F5000
G92 E0
G1 Y10 E10 F1200 ; prime the nozzle
G92 E0
G21 ; set units to millimeters
G90 ; use absolute coordinates
M83 ; use relative distances for extrusion
; Filament gcode
M107
;LAYER_CHANGE
;Z:0.35
;HEIGHT:0.35
;BEFORE_LAYER_CHANGE
G92 E0
;0.35


G1 E-1 F3600
G1 Z.35 F7800
;AFTER_LAYER_CHANGE
;0.35
G1 X165.474 Y88.027
G1 E1 F2400
;TYPE:Perimeter
;WIDTH:0.42
G1 F1800
G1 X165.474 Y105.718 E.88784
G1 X163.085 Y105.933 E.12035
G1 X61.191 Y99.202 E5.12481
G1 X14.526 Y99.57 E2.34198
G1 X14.526 Y82.786 E.84231
G1 X73.888 Y82.319 E2.97923
G1 X163.119 Y88.226 E4.48791
G1 X165.324 Y88.04 E.11109
G1 X165.819 Y87.651 F7800
;TYPE:External perimeter
G1 F1800
G1 X165.819 Y106.034 E.92254
G1 X163.089 Y106.279 E.13753
G1 X61.168 Y99.546 E5.12616
G1 X14.181 Y99.917 E2.35815
M73 P1 R45
G1 X14.181 Y82.444 E.87693
G1 X73.898 Y81.974 E2.99704
G1 X163.141 Y87.882 E4.48855
G1 X165.669 Y87.664 E.12733
G1 X165.301 Y88.507 F7800
G1 X164.727 Y88.194
;TYPE:Solid infill
;WIDTH:0.420435
G1 F1800
G1 X165.215 Y88.682 E.03467
G1 X165.215 Y89.17 E.02454
G1 X164.42 Y88.375 E.05649
G1 X163.969 Y88.413 E.02273
G1 X165.215 Y89.659 E.08853
G1 X165.215 Y90.147 E.02454
G1 X163.519 Y88.45 E.12057
G1 X163.061 Y88.481 E.02303
G1 X165.215 Y90.635 E.15306
G1 X165.215 Y91.124 E.02454
G1 X162.538 Y88.447 E.19023
G1 X162.015 Y88.412 E.02634
G1 X165.215 Y91.612 E.22739
G1 X165.215 Y92.1 E.02454
G1 X161.492 Y88.378 E.26456
G1 X160.969 Y88.343 E.02634
G1 X165.215 Y92.589 E.30172
G1 X165.215 Y93.077 E.02454
G1 X160.446 Y88.308 E.33889
G1 X159.923 Y88.274 E.02634
G1 X165.215 Y93.566 E.37605
G1 X165.215 Y94.054 E.02454
G1 X159.4 Y88.239 E.41322
G1 X158.877 Y88.204 E.02634
G1 X165.215 Y94.542 E.45038
G1 X165.215 Y95.031 E.02454
G1 X158.354 Y88.17 E.48755
G1 X157.831 Y88.135 E.02634
G1 X165.215 Y95.519 E.52471
G1 X165.215 Y96.007 E.02454
G1 X157.308 Y88.101 E.56188
G1 X156.786 Y88.066 E.02634
G1 X165.215 Y96.496 E.59904
G1 X165.215 Y96.984 E.02454
G1 X156.263 Y88.031 E.63621
G1 X155.74 Y87.997 E.02634
G1 X165.215 Y97.472 E.67337
G1 X165.215 Y97.961 E.02454
G1 X155.217 Y87.962 E.71053
G1 X154.694 Y87.928 E.02634
G1 X165.215 Y98.449 E.7477
G1 X165.215 Y98.938 E.02454
G1 X154.171 Y87.893 E.78486
G1 X153.648 Y87.858 E.02634
G1 X165.215 Y99.426 E.82203
G1 X165.215 Y99.914 E.02454
G1 X153.125 Y87.824 E.85919
G1 X152.602 Y87.789 E.02634
G1 X165.215 Y100.403 E.89636
G1 X165.215 Y100.891 E.02454
G1 X152.079 Y87.754 E.93352
G1 X151.556 Y87.72 E.02634
G1 X165.215 Y101.379 E.97069
G1 X165.215 Y101.868 E.02454
G1 X151.033 Y87.685 E1.00785
G1 X150.51 Y87.651 E.02634
G1 X165.215 Y102.356 E1.04502
G1 X165.215 Y102.844 E.02454
G1 X149.987 Y87.616 E1.08218
G1 X149.464 Y87.581 E.02634
G1 X165.215 Y103.333 E1.11935
G1 X165.215 Y103.821 E.02454
G1 X148.941 Y87.547 E1.15651
G1 X148.418 Y87.512 E.02634
G1 X165.215 Y104.31 E1.19368
G1 X165.215 Y104.798 E.02454
G1 X147.895 Y87.477 E1.23084
G1 X147.372 Y87.443 E.02634
G1 X165.215 Y105.286 E1.26801
M73 P1 R44
G1 X165.215 Y105.482 E.00983
G1 X164.947 Y105.506 E.01355
G1 X146.849 Y87.408 E1.28609
G1 X146.326 Y87.374 E.02634
G1 X164.499 Y105.546 E1.29141
G1 X164.05 Y105.587 E.02261
M73 P2 R44
G1 X145.803 Y87.339 E1.29673
G1 X145.28 Y87.304 E.02634
G1 X163.602 Y105.627 E1.30205
G1 X163.154 Y105.667 E.02261
G1 X144.757 Y87.27 E1.30737
G1 X144.234 Y87.235 E.02634
G1 X162.643 Y105.645 E1.30823
G1 X162.121 Y105.61 E.02633
G1 X143.711 Y87.2 E1.30824
G1 X143.188 Y87.166 E.02634
G1 X161.598 Y105.576 E1.30824
G1 X161.075 Y105.541 E.02633
G1 X142.665 Y87.131 E1.30825
G1 X142.142 Y87.097 E.02634
G1 X160.552 Y105.506 E1.30826
G1 X160.029 Y105.472 E.02633
G1 X141.619 Y87.062 E1.30826
G1 X141.096 Y87.027 E.02634
G1 X159.506 Y105.437 E1.30827
G1 X158.983 Y105.403 E.02633
G1 X140.573 Y86.993 E1.30827
G1 X140.05 Y86.958 E.02634
G1 X158.46 Y105.368 E1.30828
G1 X157.937 Y105.334 E.02633
G1 X139.527 Y86.924 E1.30828
G1 X139.004 Y86.889 E.02634
G1 X157.414 Y105.299 E1.30829
G1 X156.891 Y105.265 E.02633
G1 X138.481 Y86.854 E1.30829
G1 X137.958 Y86.82 E.02634
G1 X156.369 Y105.23 E1.3083
G1 X155.846 Y105.196 E.02633
G1 X137.435 Y86.785 E1.30831
G1 X136.912 Y86.75 E.02634
G1 X155.323 Y105.161 E1.30831
G1 X154.8 Y105.126 E.02633
G1 X136.389 Y86.716 E1.30832
G1 X135.866 Y86.681 E.02634
G1 X154.277 Y105.092 E1.30832
G1 X153.754 Y105.057 E.02633
G1 X135.343 Y86.647 E1.30833
G1 X134.82 Y86.612 E.02634
G1 X153.231 Y105.023 E1.30833
G1 X152.708 Y104.988 E.02633
G1 X134.297 Y86.577 E1.30834
G1 X133.774 Y86.543 E.02634
G1 X152.185 Y104.954 E1.30834
G1 X151.662 Y104.919 E.02633
G1 X133.251 Y86.508 E1.30835
G1 X132.728 Y86.473 E.02634
G1 X151.14 Y104.885 E1.30836
G1 X150.617 Y104.85 E.02633
G1 X132.205 Y86.439 E1.30836
G1 X131.682 Y86.404 E.02634
G1 X150.094 Y104.816 E1.30837
G1 X149.571 Y104.781 E.02633
G1 X131.159 Y86.37 E1.30837
G1 X130.636 Y86.335 E.02634
M73 P3 R44
G1 X149.048 Y104.746 E1.30838
G1 X148.525 Y104.712 E.02633
G1 X130.113 Y86.3 E1.30838
G1 X129.59 Y86.266 E.02634
G1 X148.002 Y104.677 E1.30839
G1 X147.479 Y104.643 E.02633
G1 X129.067 Y86.231 E1.30839
G1 X128.544 Y86.197 E.02634
G1 X146.956 Y104.608 E1.3084
G1 X146.433 Y104.574 E.02633
G1 X128.021 Y86.162 E1.30841
G1 X127.499 Y86.127 E.02634
G1 X145.91 Y104.539 E1.30841
G1 X145.388 Y104.505 E.02633
G1 X126.976 Y86.093 E1.30842
G1 X126.453 Y86.058 E.02634
G1 X144.865 Y104.47 E1.30842
G1 X144.342 Y104.436 E.02633
G1 X125.93 Y86.023 E1.30843
G1 X125.407 Y85.989 E.02634
G1 X143.819 Y104.401 E1.30843
G1 X143.296 Y104.367 E.02633
G1 X124.884 Y85.954 E1.30844
G1 X124.361 Y85.92 E.02634
G1 X142.773 Y104.332 E1.30844
G1 X142.25 Y104.297 E.02633
G1 X123.838 Y85.885 E1.30845
G1 X123.315 Y85.85 E.02634
G1 X141.727 Y104.263 E1.30845
G1 X141.204 Y104.228 E.02633
G1 X122.792 Y85.816 E1.30846
G1 X122.269 Y85.781 E.02634
G1 X140.681 Y104.194 E1.30847
G1 X140.159 Y104.159 E.02633
G1 X121.746 Y85.746 E1.30847
G1 X121.223 Y85.712 E.02634
G1 X139.636 Y104.125 E1.30848
G1 X139.113 Y104.09 E.02633
G1 X120.7 Y85.677 E1.30848
G1 X120.177 Y85.643 E.02634
G1 X138.59 Y104.056 E1.30849
G1 X138.067 Y104.021 E.02633
G1 X119.654 Y85.608 E1.30849
G1 X119.131 Y85.573 E.02634
G1 X137.544 Y103.987 E1.3085
G1 X137.021 Y103.952 E.02633
G1 X118.608 Y85.539 E1.3085
G1 X118.085 Y85.504 E.02634
G1 X136.498 Y103.917 E1.30851
G1 X135.975 Y103.883 E.02633
G1 X117.562 Y85.469 E1.30852
G1 X117.039 Y85.435 E.02634
G1 X135.452 Y103.848 E1.30852
G1 X134.929 Y103.814 E.02633
G1 X116.516 Y85.4 E1.30853
G1 X115.993 Y85.366 E.02634
G1 X134.407 Y103.779 E1.30853
G1 X133.884 Y103.745 E.02633
G1 X115.47 Y85.331 E1.30854
G1 X114.947 Y85.296 E.02634
M73 P4 R44
G1 X133.361 Y103.71 E1.30854
G1 X132.838 Y103.676 E.02633
G1 X114.424 Y85.262 E1.30855
G1 X113.901 Y85.227 E.02634
G1 X132.315 Y103.641 E1.30855
G1 X131.792 Y103.607 E.02633
M73 P4 R43
G1 X113.378 Y85.193 E1.30856
G1 X112.855 Y85.158 E.02634
G1 X131.269 Y103.572 E1.30857
G1 X130.746 Y103.538 E.02633
G1 X112.332 Y85.123 E1.30857
G1 X111.809 Y85.089 E.02634
G1 X130.223 Y103.503 E1.30858
G1 X129.7 Y103.468 E.02633
G1 X111.286 Y85.054 E1.30858
G1 X110.763 Y85.019 E.02634
G1 X129.178 Y103.434 E1.30859
G1 X128.655 Y103.399 E.02633
G1 X110.24 Y84.985 E1.30859
G1 X109.717 Y84.95 E.02634
G1 X128.132 Y103.365 E1.3086
G1 X127.609 Y103.33 E.02633
G1 X109.194 Y84.916 E1.3086
G1 X108.671 Y84.881 E.02634
G1 X127.086 Y103.296 E1.30861
G1 X126.563 Y103.261 E.02633
G1 X108.148 Y84.846 E1.30862
G1 X107.625 Y84.812 E.02634
G1 X126.04 Y103.227 E1.30862
G1 X125.517 Y103.192 E.02633
G1 X107.102 Y84.777 E1.30863
G1 X106.579 Y84.742 E.02634
G1 X124.994 Y103.158 E1.30863
G1 X124.471 Y103.123 E.02633
G1 X106.056 Y84.708 E1.30864
G1 X105.533 Y84.673 E.02634
G1 X123.949 Y103.088 E1.30864
G1 X123.426 Y103.054 E.02633
G1 X105.01 Y84.639 E1.30865
G1 X104.487 Y84.604 E.02634
G1 X122.903 Y103.019 E1.30865
G1 X122.38 Y102.985 E.02633
G1 X103.964 Y84.569 E1.30866
G1 X103.441 Y84.535 E.02634
G1 X121.857 Y102.95 E1.30867
G1 X121.334 Y102.916 E.02633
G1 X102.918 Y84.5 E1.30867
G1 X102.395 Y84.466 E.02634
G1 X120.811 Y102.881 E1.30868
G1 X120.288 Y102.847 E.02633
G1 X101.872 Y84.431 E1.30868
G1 X101.349 Y84.396 E.02634
G1 X119.765 Y102.812 E1.30869
G1 X119.242 Y102.778 E.02633
G1 X100.826 Y84.362 E1.30869
G1 X100.303 Y84.327 E.02634
G1 X118.719 Y102.743 E1.3087
G1 X118.197 Y102.709 E.02633
M73 P5 R43
G1 X99.78 Y84.292 E1.3087
G1 X99.257 Y84.258 E.02634
G1 X117.674 Y102.674 E1.30871
G1 X117.151 Y102.639 E.02633
G1 X98.735 Y84.223 E1.30872
G1 X98.212 Y84.189 E.02634
G1 X116.628 Y102.605 E1.30872
G1 X116.105 Y102.57 E.02633
G1 X97.689 Y84.154 E1.30873
G1 X97.166 Y84.119 E.02634
G1 X115.582 Y102.536 E1.30873
G1 X115.059 Y102.501 E.02633
G1 X96.643 Y84.085 E1.30874
G1 X96.12 Y84.05 E.02634
G1 X114.536 Y102.467 E1.30874
G1 X114.013 Y102.432 E.02633
G1 X95.597 Y84.015 E1.30875
G1 X95.074 Y83.981 E.02634
G1 X113.49 Y102.398 E1.30875
G1 X112.968 Y102.363 E.02633
G1 X94.551 Y83.946 E1.30876
G1 X94.028 Y83.912 E.02634
G1 X112.445 Y102.329 E1.30876
G1 X111.922 Y102.294 E.02633
G1 X93.505 Y83.877 E1.30877
G1 X92.982 Y83.842 E.02634
G1 X111.399 Y102.259 E1.30878
G1 X110.876 Y102.225 E.02633
G1 X92.459 Y83.808 E1.30878
G1 X91.936 Y83.773 E.02634
G1 X110.353 Y102.19 E1.30879
G1 X109.83 Y102.156 E.02633
G1 X91.413 Y83.738 E1.30879
G1 X90.89 Y83.704 E.02634
G1 X109.307 Y102.121 E1.3088
G1 X108.784 Y102.087 E.02633
G1 X90.367 Y83.669 E1.3088
G1 X89.844 Y83.635 E.02634
G1 X108.261 Y102.052 E1.30881
G1 X107.738 Y102.018 E.02633
G1 X89.321 Y83.6 E1.30881
G1 X88.798 Y83.565 E.02634
G1 X107.216 Y101.983 E1.30882
G1 X106.693 Y101.949 E.02633
G1 X88.275 Y83.531 E1.30883
G1 X87.752 Y83.496 E.02634
G1 X106.17 Y101.914 E1.30883
G1 X105.647 Y101.879 E.02633
G1 X87.229 Y83.462 E1.30884
G1 X86.706 Y83.427 E.02634
G1 X105.124 Y101.845 E1.30884
G1 X104.601 Y101.81 E.02633
G1 X86.183 Y83.392 E1.30885
G1 X85.66 Y83.358 E.02634
G1 X104.078 Y101.776 E1.30885
G1 X103.555 Y101.741 E.02633
G1 X85.137 Y83.323 E1.30886
G1 X84.614 Y83.288 E.02634
G1 X103.032 Y101.707 E1.30886
G1 X102.509 Y101.672 E.02633
M73 P6 R43
G1 X84.091 Y83.254 E1.30887
G1 X83.568 Y83.219 E.02634
G1 X101.987 Y101.638 E1.30888
G1 X101.464 Y101.603 E.02633
G1 X83.045 Y83.185 E1.30888
G1 X82.522 Y83.15 E.02634
G1 X100.941 Y101.569 E1.30889
G1 X100.418 Y101.534 E.02633
G1 X81.999 Y83.115 E1.30889
G1 X81.476 Y83.081 E.02634
G1 X99.895 Y101.5 E1.3089
G1 X99.372 Y101.465 E.02633
G1 X80.953 Y83.046 E1.3089
G1 X80.43 Y83.011 E.02634
G1 X98.849 Y101.43 E1.30891
G1 X98.326 Y101.396 E.02633
G1 X79.907 Y82.977 E1.30891
M73 P6 R42
G1 X79.384 Y82.942 E.02634
G1 X97.803 Y101.361 E1.30892
G1 X97.28 Y101.327 E.02633
G1 X78.861 Y82.908 E1.30893
G1 X78.338 Y82.873 E.02634
G1 X96.757 Y101.292 E1.30893
G1 X96.235 Y101.258 E.02633
G1 X77.815 Y82.838 E1.30894
G1 X77.292 Y82.804 E.02634
G1 X95.712 Y101.223 E1.30894
G1 X95.189 Y101.189 E.02633
G1 X76.769 Y82.769 E1.30895
G1 X76.246 Y82.734 E.02634
G1 X94.666 Y101.154 E1.30895
G1 X94.143 Y101.12 E.02633
G1 X75.723 Y82.7 E1.30896
G1 X75.2 Y82.665 E.02634
G1 X93.62 Y101.085 E1.30896
G1 X93.097 Y101.05 E.02633
G1 X74.677 Y82.631 E1.30897
G1 X74.154 Y82.596 E.02634
G1 X92.574 Y101.016 E1.30898
G1 X92.051 Y100.981 E.02633
G1 X73.65 Y82.58 E1.30768
G1 X73.165 Y82.584 E.02435
G1 X91.528 Y100.947 E1.30495
G1 X91.006 Y100.912 E.02633
G1 X72.681 Y82.587 E1.30223
G1 X72.196 Y82.591 E.02435
G1 X90.483 Y100.878 E1.2995
G1 X89.96 Y100.843 E.02633
G1 X71.711 Y82.595 E1.29678
G1 X71.227 Y82.599 E.02435
G1 X89.437 Y100.809 E1.29405
G1 X88.914 Y100.774 E.02633
G1 X70.742 Y82.603 E1.29133
G1 X70.258 Y82.606 E.02435
G1 X88.391 Y100.74 E1.2886
G1 X87.868 Y100.705 E.02633
G1 X69.773 Y82.61 E1.28588
G1 X69.289 Y82.614 E.02435
G1 X87.345 Y100.671 E1.28315
G1 X86.822 Y100.636 E.02633
M73 P7 R42
G1 X68.804 Y82.618 E1.28043
G1 X68.32 Y82.622 E.02435
G1 X86.299 Y100.601 E1.2777
G1 X85.777 Y100.567 E.02633
G1 X67.835 Y82.625 E1.27498
G1 X67.35 Y82.629 E.02435
G1 X85.254 Y100.532 E1.27225
G1 X84.731 Y100.498 E.02633
G1 X66.866 Y82.633 E1.26952
G1 X66.381 Y82.637 E.02435
G1 X84.208 Y100.463 E1.2668
G1 X83.685 Y100.429 E.02633
G1 X65.897 Y82.641 E1.26407
G1 X65.412 Y82.644 E.02435
G1 X83.162 Y100.394 E1.26135
G1 X82.639 Y100.36 E.02633
G1 X64.928 Y82.648 E1.25862
G1 X64.443 Y82.652 E.02435
G1 X82.116 Y100.325 E1.2559
G1 X81.593 Y100.291 E.02633
G1 X63.959 Y82.656 E1.25317
G1 X63.474 Y82.66 E.02435
G1 X81.07 Y100.256 E1.25045
G1 X80.547 Y100.221 E.02633
G1 X62.99 Y82.664 E1.24772
G1 X62.505 Y82.667 E.02435
G1 X80.025 Y100.187 E1.245
G1 X79.502 Y100.152 E.02633
G1 X62.02 Y82.671 E1.24227
G1 X61.536 Y82.675 E.02435
G1 X78.979 Y100.118 E1.23955
G1 X78.456 Y100.083 E.02633
G1 X61.051 Y82.679 E1.23682
G1 X60.567 Y82.683 E.02435
G1 X77.933 Y100.049 E1.23409
G1 X77.41 Y100.014 E.02633
G1 X60.082 Y82.686 E1.23137
G1 X59.598 Y82.69 E.02435
G1 X76.887 Y99.98 E1.22864
G1 X76.364 Y99.945 E.02633
G1 X59.113 Y82.694 E1.22592
G1 X58.629 Y82.698 E.02435
G1 X75.841 Y99.911 E1.22319
G1 X75.318 Y99.876 E.02633
G1 X58.144 Y82.702 E1.22047
G1 X57.659 Y82.705 E.02435
G1 X74.796 Y99.841 E1.21774
G1 X74.273 Y99.807 E.02633
G1 X57.175 Y82.709 E1.21502
G1 X56.69 Y82.713 E.02435
G1 X73.75 Y99.772 E1.21229
G1 X73.227 Y99.738 E.02633
G1 X56.206 Y82.717 E1.20957
G1 X55.721 Y82.721 E.02435
G1 X72.704 Y99.703 E1.20684
G1 X72.181 Y99.669 E.02633
G1 X55.237 Y82.724 E1.20412
G1 X54.752 Y82.728 E.02435
G1 X71.658 Y99.634 E1.20139
G1 X71.135 Y99.6 E.02633
G1 X54.268 Y82.732 E1.19867
G1 X53.783 Y82.736 E.02435
M73 P8 R42
G1 X70.612 Y99.565 E1.19594
G1 X70.089 Y99.531 E.02633
G1 X53.298 Y82.74 E1.19321
G1 X52.814 Y82.743 E.02435
G1 X69.566 Y99.496 E1.19049
G1 X69.044 Y99.462 E.02633
G1 X52.329 Y82.747 E1.18776
G1 X51.845 Y82.751 E.02435
G1 X68.521 Y99.427 E1.18504
G1 X67.998 Y99.392 E.02633
G1 X51.36 Y82.755 E1.18231
G1 X50.876 Y82.759 E.02435
G1 X67.475 Y99.358 E1.17959
G1 X66.952 Y99.323 E.02633
G1 X50.391 Y82.763 E1.17686
G1 X49.907 Y82.766 E.02435
G1 X66.429 Y99.289 E1.17414
G1 X65.906 Y99.254 E.02633
G1 X49.422 Y82.77 E1.17141
G1 X48.937 Y82.774 E.02435
G1 X65.383 Y99.22 E1.16869
G1 X64.86 Y99.185 E.02633
G1 X48.453 Y82.778 E1.16596
G1 X47.968 Y82.782 E.02435
G1 X64.337 Y99.151 E1.16324
G1 X63.815 Y99.116 E.02633
G1 X47.484 Y82.785 E1.16051
G1 X46.999 Y82.789 E.02435
G1 X63.292 Y99.082 E1.15779
G1 X62.769 Y99.047 E.02633
M73 P8 R41
G1 X46.515 Y82.793 E1.15506
G1 X46.03 Y82.797 E.02435
G1 X62.246 Y99.012 E1.15233
G1 X61.723 Y98.978 E.02633
G1 X45.546 Y82.801 E1.14961
G1 X45.061 Y82.804 E.02435
G1 X61.2 Y98.944 E1.14691
G1 X60.716 Y98.948 E.02435
G1 X44.576 Y82.808 E1.14691
G1 X44.092 Y82.812 E.02435
G1 X60.231 Y98.951 E1.14691
G1 X59.747 Y98.955 E.02435
G1 X43.607 Y82.816 E1.14691
G1 X43.123 Y82.82 E.02435
G1 X59.262 Y98.959 E1.14691
G1 X58.778 Y98.963 E.02435
G1 X42.638 Y82.823 E1.14691
G1 X42.154 Y82.827 E.02435
G1 X58.293 Y98.967 E1.14691
G1 X57.809 Y98.97 E.02435
G1 X41.669 Y82.831 E1.14691
G1 X41.185 Y82.835 E.02435
G1 X57.324 Y98.974 E1.14691
G1 X56.839 Y98.978 E.02435
G1 X40.7 Y82.839 E1.14691
G1 X40.216 Y82.843 E.02435
G1 X56.355 Y98.982 E1.14691
G1 X55.87 Y98.986 E.02435
G1 X39.731 Y82.846 E1.14691
G1 X39.246 Y82.85 E.02435
G1 X55.386 Y98.989 E1.14691
G1 X54.901 Y98.993 E.02435
G1 X38.762 Y82.854 E1.14691
G1 X38.277 Y82.858 E.02435
G1 X54.417 Y98.997 E1.14691
G1 X53.932 Y99.001 E.02435
M73 P9 R41
