; generated by PrusaSlicer 2.5.0+win64 on 2022-12-07 at 00:30:28 UTC

; 

; external perimeters extrusion width = 1.00mm
; perimeters extrusion width = 1.00mm
; infill extrusion width = 1.00mm
; solid infill extrusion width = 1.00mm
; top infill extrusion width = 1.00mm
; support material extrusion width = 1.00mm
; first layer extrusion width = 0.42mm

M73 P0 R175
M107
;TYPE:Custom
G90 ; use absolute coordinates
M83 ; extruder relative mode
M140 S60 ; set final bed temp
M104 S150 ; set temporary nozzle temp to prevent oozing during homing and auto bed leveling
G4 S10 ; allow partial nozzle warmup
G28 ; home all axisG1 Z50 F240
G1 X7.6 Y10 F3000
M104 S210 ; set final nozzle temp
M190 S60 ; wait for bed temp to stabilize
M109 S210 ; wait for nozzle temp to stabilize
G1 Z0.28 F240
G92 E0
G1 Y140 E10 F1500 ; prime the nozzle
G1 X4 F5000
G92 E0
G1 Y10 E10 F1200 ; prime the nozzle
G92 E0
G21 ; set units to millimeters
G90 ; use absolute coordinates
M83 ; use relative distances for extrusion
; Filament gcode
M107
;LAYER_CHANGE
;Z:0.35
;HEIGHT:0.35
;BEFORE_LAYER_CHANGE
G92 E0
;0.35


G1 E-1 F3600
G1 Z.35 F7800
;AFTER_LAYER_CHANGE
;0.35
G1 X165.474 Y83.349
G1 E1 F2400
;TYPE:Perimeter
;WIDTH:0.42
G1 F1800
G1 X165.474 Y96.8 E.67507
G1 X14.528 Y96.806 E7.57536
G1 X14.528 Y83.649 E.66032
G1 X165.324 Y83.349 E7.56785
G1 X165.819 Y83.003 F7800
;TYPE:External perimeter
G1 F1800
G1 X165.819 Y97.145 E.70972
G1 X14.183 Y97.151 E7.60998
G1 X14.183 Y83.305 E.69491
G1 X165.669 Y83.004 E7.60247
G1 X165.346 Y83.884 F7800
G1 X165.371 Y84.151
;TYPE:Solid infill
;WIDTH:0.420369
G1 F1800
G1 X164.829 Y83.609 E.03849
G1 X164.342 Y83.61 E.02448
G1 X165.215 Y84.484 E.06208
M73 P0 R174
G1 X165.215 Y84.972 E.02453
G1 X163.854 Y83.611 E.0967
G1 X163.367 Y83.612 E.02448
G1 X165.215 Y85.46 E.13133
G1 X165.215 Y85.948 E.02453
G1 X162.88 Y83.613 E.16595
G1 X162.392 Y83.614 E.02448
G1 X165.215 Y86.437 E.20057
G1 X165.215 Y86.925 E.02453
G1 X161.905 Y83.615 E.23519
G1 X161.418 Y83.616 E.02448
G1 X165.215 Y87.413 E.26982
G1 X165.215 Y87.902 E.02453
G1 X160.931 Y83.617 E.30444
G1 X160.443 Y83.618 E.02448
G1 X165.215 Y88.39 E.33906
G1 X165.215 Y88.878 E.02453
G1 X159.956 Y83.619 E.37368
G1 X159.469 Y83.62 E.02448
G1 X165.215 Y89.366 E.40831
G1 X165.215 Y89.855 E.02453
G1 X158.981 Y83.621 E.44293
G1 X158.494 Y83.621 E.02448
G1 X165.215 Y90.343 E.47755
G1 X165.215 Y90.831 E.02453
G1 X158.007 Y83.622 E.51217
G1 X157.519 Y83.623 E.02448
G1 X165.215 Y91.319 E.5468
G1 X165.215 Y91.808 E.02453
G1 X157.032 Y83.624 E.58142
G1 X156.545 Y83.625 E.02448
G1 X165.215 Y92.296 E.61604
G1 X165.215 Y92.784 E.02453
G1 X156.058 Y83.626 E.65066
G1 X155.57 Y83.627 E.02448
G1 X165.215 Y93.272 E.68529
G1 X165.215 Y93.761 E.02453
G1 X155.083 Y83.628 E.71991
G1 X154.596 Y83.629 E.02448
G1 X165.215 Y94.249 E.75453
G1 X165.215 Y94.737 E.02453
G1 X154.108 Y83.63 E.78915
G1 X153.621 Y83.631 E.02448
G1 X165.215 Y95.226 E.82378
G1 X165.215 Y95.714 E.02453
G1 X153.134 Y83.632 E.8584
G1 X152.646 Y83.633 E.02448
G1 X165.215 Y96.202 E.89302
G1 X165.215 Y96.542 E.01706
G1 X165.067 Y96.542 E.00747
G1 X152.159 Y83.634 E.91708
G1 X151.672 Y83.635 E.02448
G1 X164.579 Y96.542 E.91702
G1 X164.09 Y96.542 E.02453
G1 X151.185 Y83.636 E.91695
G1 X150.697 Y83.637 E.02448
G1 X163.602 Y96.542 E.91688
G1 X163.114 Y96.542 E.02453
G1 X150.21 Y83.638 E.91681
G1 X149.723 Y83.639 E.02448
G1 X162.626 Y96.542 E.91675
G1 X162.137 Y96.542 E.02453
G1 X149.235 Y83.64 E.91668
G1 X148.748 Y83.641 E.02448
G1 X161.649 Y96.542 E.91661
G1 X161.161 Y96.542 E.02453
G1 X148.261 Y83.642 E.91655
G1 X147.773 Y83.643 E.02448
G1 X160.673 Y96.542 E.91648
G1 X160.184 Y96.542 E.02453
G1 X147.286 Y83.644 E.91641
G1 X146.799 Y83.645 E.02448
G1 X159.696 Y96.542 E.91634
G1 X159.208 Y96.542 E.02453
G1 X146.312 Y83.646 E.91628
G1 X145.824 Y83.647 E.02448
G1 X158.72 Y96.542 E.91621
G1 X158.231 Y96.542 E.02453
G1 X145.337 Y83.648 E.91614
G1 X144.85 Y83.649 E.02448
G1 X157.743 Y96.542 E.91607
G1 X157.255 Y96.542 E.02453
G1 X144.362 Y83.65 E.91601
G1 X143.875 Y83.651 E.02448
G1 X156.767 Y96.542 E.91594
G1 X156.278 Y96.542 E.02453
G1 X143.388 Y83.651 E.91587
G1 X142.9 Y83.652 E.02448
G1 X155.79 Y96.542 E.9158
G1 X155.302 Y96.542 E.02453
G1 X142.413 Y83.653 E.91574
G1 X141.926 Y83.654 E.02448
G1 X154.814 Y96.542 E.91567
G1 X154.325 Y96.542 E.02453
G1 X141.439 Y83.655 E.9156
G1 X140.951 Y83.656 E.02448
G1 X153.837 Y96.542 E.91553
G1 X153.349 Y96.542 E.02453
G1 X140.464 Y83.657 E.91547
G1 X139.977 Y83.658 E.02448
G1 X152.861 Y96.542 E.9154
G1 X152.372 Y96.542 E.02453
G1 X139.489 Y83.659 E.91533
G1 X139.002 Y83.66 E.02448
G1 X151.884 Y96.542 E.91526
G1 X151.396 Y96.542 E.02453
G1 X138.515 Y83.661 E.9152
G1 X138.027 Y83.662 E.02448
G1 X150.908 Y96.542 E.91513
G1 X150.419 Y96.542 E.02453
G1 X137.54 Y83.663 E.91506
G1 X137.053 Y83.664 E.02448
G1 X149.931 Y96.542 E.915
G1 X149.443 Y96.542 E.02453
G1 X136.566 Y83.665 E.91493
G1 X136.078 Y83.666 E.02448
G1 X148.955 Y96.542 E.91486
G1 X148.466 Y96.542 E.02453
G1 X135.591 Y83.667 E.91479
G1 X135.104 Y83.668 E.02448
G1 X147.978 Y96.542 E.91473
G1 X147.49 Y96.542 E.02453
G1 X134.616 Y83.669 E.91466
G1 X134.129 Y83.67 E.02448
G1 X147.002 Y96.542 E.91459
G1 X146.513 Y96.542 E.02453
G1 X133.642 Y83.671 E.91452
G1 X133.154 Y83.672 E.02448
G1 X146.025 Y96.542 E.91446
G1 X145.537 Y96.543 E.02453
G1 X132.667 Y83.673 E.91439
G1 X132.18 Y83.674 E.02448
G1 X145.049 Y96.543 E.91432
G1 X144.56 Y96.543 E.02453
G1 X131.693 Y83.675 E.91425
G1 X131.205 Y83.676 E.02448
G1 X144.072 Y96.543 E.91419
G1 X143.584 Y96.543 E.02453
G1 X130.718 Y83.677 E.91412
G1 X130.231 Y83.678 E.02448
G1 X143.096 Y96.543 E.91405
G1 X142.607 Y96.543 E.02453
G1 X129.743 Y83.679 E.91398
G1 X129.256 Y83.68 E.02448
G1 X142.119 Y96.543 E.91392
G1 X141.631 Y96.543 E.02453
G1 X128.769 Y83.681 E.91385
G1 X128.281 Y83.681 E.02448
G1 X141.143 Y96.543 E.91378
G1 X140.654 Y96.543 E.02453
G1 X127.794 Y83.682 E.91371
G1 X127.307 Y83.683 E.02448
G1 X140.166 Y96.543 E.91365
G1 X139.678 Y96.543 E.02453
G1 X126.82 Y83.684 E.91358
G1 X126.332 Y83.685 E.02448
G1 X139.19 Y96.543 E.91351
G1 X138.701 Y96.543 E.02453
G1 X125.845 Y83.686 E.91344
G1 X125.358 Y83.687 E.02448
G1 X138.213 Y96.543 E.91338
G1 X137.725 Y96.543 E.02453
G1 X124.87 Y83.688 E.91331
G1 X124.383 Y83.689 E.02448
G1 X137.237 Y96.543 E.91324
G1 X136.748 Y96.543 E.02453
G1 X123.896 Y83.69 E.91318
G1 X123.408 Y83.691 E.02448
G1 X136.26 Y96.543 E.91311
G1 X135.772 Y96.543 E.02453
G1 X122.921 Y83.692 E.91304
G1 X122.434 Y83.693 E.02448
G1 X135.284 Y96.543 E.91297
G1 X134.795 Y96.543 E.02453
G1 X121.947 Y83.694 E.91291
G1 X121.459 Y83.695 E.02448
G1 X134.307 Y96.543 E.91284
G1 X133.819 Y96.543 E.02453
G1 X120.972 Y83.696 E.91277
G1 X120.485 Y83.697 E.02448
G1 X133.331 Y96.543 E.9127
G1 X132.842 Y96.543 E.02453
G1 X119.997 Y83.698 E.91264
G1 X119.51 Y83.699 E.02448
G1 X132.354 Y96.543 E.91257
G1 X131.866 Y96.543 E.02453
G1 X119.023 Y83.7 E.9125
G1 X118.535 Y83.701 E.02448
G1 X131.378 Y96.543 E.91243
G1 X130.889 Y96.543 E.02453
G1 X118.048 Y83.702 E.91237
G1 X117.561 Y83.703 E.02448
G1 X130.401 Y96.543 E.9123
G1 X129.913 Y96.543 E.02453
G1 X117.074 Y83.704 E.91223
G1 X116.586 Y83.705 E.02448
G1 X129.425 Y96.543 E.91216
G1 X128.936 Y96.543 E.02453
G1 X116.099 Y83.706 E.9121
G1 X115.612 Y83.707 E.02448
G1 X128.448 Y96.543 E.91203
G1 X127.96 Y96.543 E.02453
M73 P0 R173
G1 X115.124 Y83.708 E.91196
G1 X114.637 Y83.709 E.02448
G1 X127.472 Y96.543 E.91189
G1 X126.983 Y96.543 E.02453
G1 X114.15 Y83.71 E.91183
G1 X113.662 Y83.711 E.02448
G1 X126.495 Y96.543 E.91176
G1 X126.007 Y96.543 E.02453
G1 X113.175 Y83.711 E.91169
G1 X112.688 Y83.712 E.02448
G1 X125.519 Y96.543 E.91163
G1 X125.03 Y96.543 E.02453
G1 X112.201 Y83.713 E.91156
G1 X111.713 Y83.714 E.02448
G1 X124.542 Y96.543 E.91149
G1 X124.054 Y96.543 E.02453
G1 X111.226 Y83.715 E.91142
G1 X110.739 Y83.716 E.02448
G1 X123.566 Y96.543 E.91136
G1 X123.077 Y96.543 E.02453
G1 X110.251 Y83.717 E.91129
G1 X109.764 Y83.718 E.02448
G1 X122.589 Y96.543 E.91122
G1 X122.101 Y96.543 E.02453
G1 X109.277 Y83.719 E.91115
G1 X108.789 Y83.72 E.02448
M73 P1 R173
G1 X121.613 Y96.543 E.91109
G1 X121.124 Y96.543 E.02453
G1 X108.302 Y83.721 E.91102
G1 X107.815 Y83.722 E.02448
G1 X120.636 Y96.543 E.91095
G1 X120.148 Y96.544 E.02453
G1 X107.328 Y83.723 E.91088
G1 X106.84 Y83.724 E.02448
G1 X119.66 Y96.544 E.91082
G1 X119.171 Y96.544 E.02453
G1 X106.353 Y83.725 E.91075
G1 X105.866 Y83.726 E.02448
G1 X118.683 Y96.544 E.91068
G1 X118.195 Y96.544 E.02453
G1 X105.378 Y83.727 E.91061
G1 X104.891 Y83.728 E.02448
G1 X117.707 Y96.544 E.91055
G1 X117.218 Y96.544 E.02453
G1 X104.404 Y83.729 E.91048
G1 X103.916 Y83.73 E.02448
G1 X116.73 Y96.544 E.91041
G1 X116.242 Y96.544 E.02453
G1 X103.429 Y83.731 E.91034
G1 X102.942 Y83.732 E.02448
G1 X115.754 Y96.544 E.91028
G1 X115.265 Y96.544 E.02453
G1 X102.455 Y83.733 E.91021
G1 X101.967 Y83.734 E.02448
G1 X114.777 Y96.544 E.91014
G1 X114.289 Y96.544 E.02453
G1 X101.48 Y83.735 E.91008
G1 X100.993 Y83.736 E.02448
G1 X113.801 Y96.544 E.91001
G1 X113.312 Y96.544 E.02453
G1 X100.505 Y83.737 E.90994
G1 X100.018 Y83.738 E.02448
G1 X112.824 Y96.544 E.90987
G1 X112.336 Y96.544 E.02453
G1 X99.531 Y83.739 E.90981
G1 X99.043 Y83.74 E.02448
G1 X111.848 Y96.544 E.90974
G1 X111.359 Y96.544 E.02453
G1 X98.556 Y83.741 E.90967
G1 X98.069 Y83.741 E.02448
G1 X110.871 Y96.544 E.9096
G1 X110.383 Y96.544 E.02453
G1 X97.581 Y83.742 E.90954
G1 X97.094 Y83.743 E.02448
G1 X109.895 Y96.544 E.90947
G1 X109.406 Y96.544 E.02453
G1 X96.607 Y83.744 E.9094
G1 X96.12 Y83.745 E.02448
G1 X108.918 Y96.544 E.90933
G1 X108.43 Y96.544 E.02453
G1 X95.632 Y83.746 E.90927
G1 X95.145 Y83.747 E.02448
G1 X107.942 Y96.544 E.9092
G1 X107.453 Y96.544 E.02453
G1 X94.658 Y83.748 E.90913
G1 X94.17 Y83.749 E.02448
G1 X106.965 Y96.544 E.90906
G1 X106.477 Y96.544 E.02453
G1 X93.683 Y83.75 E.909
G1 X93.196 Y83.751 E.02448
G1 X105.989 Y96.544 E.90893
G1 X105.5 Y96.544 E.02453
G1 X92.708 Y83.752 E.90886
G1 X92.221 Y83.753 E.02448
G1 X105.012 Y96.544 E.90879
G1 X104.524 Y96.544 E.02453
G1 X91.734 Y83.754 E.90873
G1 X91.247 Y83.755 E.02448
G1 X104.036 Y96.544 E.90866
G1 X103.547 Y96.544 E.02453
G1 X90.759 Y83.756 E.90859
G1 X90.272 Y83.757 E.02448
G1 X103.059 Y96.544 E.90853
G1 X102.571 Y96.544 E.02453
G1 X89.785 Y83.758 E.90846
G1 X89.297 Y83.759 E.02448
G1 X102.083 Y96.544 E.90839
G1 X101.594 Y96.544 E.02453
G1 X88.81 Y83.76 E.90832
G1 X88.323 Y83.761 E.02448
G1 X101.106 Y96.544 E.90826
G1 X100.618 Y96.544 E.02453
G1 X87.835 Y83.762 E.90819
G1 X87.348 Y83.763 E.02448
G1 X100.13 Y96.544 E.90812
G1 X99.641 Y96.544 E.02453
G1 X86.861 Y83.764 E.90805
G1 X86.374 Y83.765 E.02448
G1 X99.153 Y96.544 E.90799
G1 X98.665 Y96.544 E.02453
G1 X85.886 Y83.766 E.90792
G1 X85.399 Y83.767 E.02448
G1 X98.177 Y96.544 E.90785
G1 X97.688 Y96.544 E.02453
G1 X84.912 Y83.768 E.90778
G1 X84.424 Y83.769 E.02448
G1 X97.2 Y96.544 E.90772
G1 X96.712 Y96.544 E.02453
G1 X83.937 Y83.77 E.90765
G1 X83.45 Y83.771 E.02448
G1 X96.224 Y96.544 E.90758
G1 X95.735 Y96.544 E.02453
G1 X82.962 Y83.771 E.90751
G1 X82.475 Y83.772 E.02448
G1 X95.247 Y96.544 E.90745
G1 X94.759 Y96.545 E.02453
G1 X81.988 Y83.773 E.90738
G1 X81.501 Y83.774 E.02448
G1 X94.271 Y96.545 E.90731
G1 X93.782 Y96.545 E.02453
G1 X81.013 Y83.775 E.90724
G1 X80.526 Y83.776 E.02448
G1 X93.294 Y96.545 E.90718
G1 X92.806 Y96.545 E.02453
G1 X80.039 Y83.777 E.90711
G1 X79.551 Y83.778 E.02448
G1 X92.318 Y96.545 E.90704
G1 X91.829 Y96.545 E.02453
G1 X79.064 Y83.779 E.90697
G1 X78.577 Y83.78 E.02448
G1 X91.341 Y96.545 E.90691
G1 X90.853 Y96.545 E.02453
G1 X78.089 Y83.781 E.90684
G1 X77.602 Y83.782 E.02448
G1 X90.365 Y96.545 E.90677
G1 X89.876 Y96.545 E.02453
G1 X77.115 Y83.783 E.90671
G1 X76.628 Y83.784 E.02448
G1 X89.388 Y96.545 E.90664
G1 X88.9 Y96.545 E.02453
G1 X76.14 Y83.785 E.90657
G1 X75.653 Y83.786 E.02448
G1 X88.412 Y96.545 E.9065
G1 X87.923 Y96.545 E.02453
G1 X75.166 Y83.787 E.90644
G1 X74.678 Y83.788 E.02448
G1 X87.435 Y96.545 E.90637
G1 X86.947 Y96.545 E.02453
G1 X74.191 Y83.789 E.9063
G1 X73.704 Y83.79 E.02448
G1 X86.459 Y96.545 E.90623
G1 X85.97 Y96.545 E.02453
G1 X73.216 Y83.791 E.90617
G1 X72.729 Y83.792 E.02448
G1 X85.482 Y96.545 E.9061
G1 X84.994 Y96.545 E.02453
G1 X72.242 Y83.793 E.90603
G1 X71.755 Y83.794 E.02448
G1 X84.506 Y96.545 E.90596
G1 X84.017 Y96.545 E.02453
M73 P1 R172
G1 X71.267 Y83.795 E.9059
G1 X70.78 Y83.796 E.02448
G1 X83.529 Y96.545 E.90583
G1 X83.041 Y96.545 E.02453
G1 X70.293 Y83.797 E.90576
G1 X69.805 Y83.798 E.02448
G1 X82.553 Y96.545 E.90569
G1 X82.064 Y96.545 E.02453
G1 X69.318 Y83.799 E.90563
G1 X68.831 Y83.8 E.02448
G1 X81.576 Y96.545 E.90556
G1 X81.088 Y96.545 E.02453
G1 X68.343 Y83.801 E.90549
G1 X67.856 Y83.801 E.02448
G1 X80.6 Y96.545 E.90542
G1 X80.111 Y96.545 E.02453
G1 X67.369 Y83.802 E.90536
G1 X66.882 Y83.803 E.02448
G1 X79.623 Y96.545 E.90529
G1 X79.135 Y96.545 E.02453
G1 X66.394 Y83.804 E.90522
G1 X65.907 Y83.805 E.02448
G1 X78.647 Y96.545 E.90516
G1 X78.158 Y96.545 E.02453
G1 X65.42 Y83.806 E.90509
G1 X64.932 Y83.807 E.02448
G1 X77.67 Y96.545 E.90502
G1 X77.182 Y96.545 E.02453
G1 X64.445 Y83.808 E.90495
G1 X63.958 Y83.809 E.02448
G1 X76.694 Y96.545 E.90489
G1 X76.205 Y96.545 E.02453
G1 X63.47 Y83.81 E.90482
G1 X62.983 Y83.811 E.02448
G1 X75.717 Y96.545 E.90475
G1 X75.229 Y96.545 E.02453
G1 X62.496 Y83.812 E.90468
G1 X62.009 Y83.813 E.02448
G1 X74.741 Y96.545 E.90462
G1 X74.252 Y96.545 E.02453
G1 X61.521 Y83.814 E.90455
G1 X61.034 Y83.815 E.02448
G1 X73.764 Y96.545 E.90448
G1 X73.276 Y96.545 E.02453
G1 X60.547 Y83.816 E.90441
G1 X60.059 Y83.817 E.02448
G1 X72.788 Y96.545 E.90435
G1 X72.299 Y96.545 E.02453
G1 X59.572 Y83.818 E.90428
G1 X59.085 Y83.819 E.02448
G1 X71.811 Y96.545 E.90421
G1 X71.323 Y96.545 E.02453
G1 X58.597 Y83.82 E.90414
G1 X58.11 Y83.821 E.02448
G1 X70.835 Y96.545 E.90408
G1 X70.346 Y96.545 E.02453
G1 X57.623 Y83.822 E.90401
G1 X57.136 Y83.823 E.02448
G1 X69.858 Y96.545 E.90394
G1 X69.37 Y96.546 E.02453
G1 X56.648 Y83.824 E.90387
G1 X56.161 Y83.825 E.02448
G1 X68.882 Y96.546 E.90381
G1 X68.394 Y96.546 E.02453
G1 X55.674 Y83.826 E.90374
G1 X55.186 Y83.827 E.02448
G1 X67.905 Y96.546 E.90367
G1 X67.417 Y96.546 E.02453
G1 X54.699 Y83.828 E.90361
G1 X54.212 Y83.829 E.02448
G1 X66.929 Y96.546 E.90354
G1 X66.441 Y96.546 E.02453
G1 X53.724 Y83.83 E.90347
G1 X53.237 Y83.831 E.02448
G1 X65.952 Y96.546 E.9034
G1 X65.464 Y96.546 E.02453
G1 X52.75 Y83.831 E.90334
G1 X52.263 Y83.832 E.02448
G1 X64.976 Y96.546 E.90327
G1 X64.488 Y96.546 E.02453
G1 X51.775 Y83.833 E.9032
G1 X51.288 Y83.834 E.02448
G1 X63.999 Y96.546 E.90313
G1 X63.511 Y96.546 E.02453
G1 X50.801 Y83.835 E.90307
G1 X50.313 Y83.836 E.02448
G1 X63.023 Y96.546 E.903
G1 X62.535 Y96.546 E.02453
G1 X49.826 Y83.837 E.90293
G1 X49.339 Y83.838 E.02448
G1 X62.046 Y96.546 E.90286
G1 X61.558 Y96.546 E.02453
G1 X48.851 Y83.839 E.9028
G1 X48.364 Y83.84 E.02448
G1 X61.07 Y96.546 E.90273
G1 X60.582 Y96.546 E.02453
G1 X47.877 Y83.841 E.90266
G1 X47.39 Y83.842 E.02448
G1 X60.093 Y96.546 E.90259
G1 X59.605 Y96.546 E.02453
G1 X46.902 Y83.843 E.90253
G1 X46.415 Y83.844 E.02448
G1 X59.117 Y96.546 E.90246
G1 X58.629 Y96.546 E.02453
G1 X45.928 Y83.845 E.90239
G1 X45.44 Y83.846 E.02448
G1 X58.14 Y96.546 E.90232
G1 X57.652 Y96.546 E.02453
G1 X44.953 Y83.847 E.90226
G1 X44.466 Y83.848 E.02448
G1 X57.164 Y96.546 E.90219
G1 X56.676 Y96.546 E.02453
G1 X43.978 Y83.849 E.90212
G1 X43.491 Y83.85 E.02448
G1 X56.187 Y96.546 E.90205
G1 X55.699 Y96.546 E.02453
G1 X43.004 Y83.851 E.90199
G1 X42.517 Y83.852 E.02448
G1 X55.211 Y96.546 E.90192
G1 X54.723 Y96.546 E.02453
G1 X42.029 Y83.853 E.90185
G1 X41.542 Y83.854 E.02448
G1 X54.234 Y96.546 E.90179
G1 X53.746 Y96.546 E.02453
G1 X41.055 Y83.855 E.90172
G1 X40.567 Y83.856 E.02448
G1 X53.258 Y96.546 E.90165
G1 X52.77 Y96.546 E.02453
G1 X40.08 Y83.857 E.90158
G1 X39.593 Y83.858 E.02448
G1 X52.281 Y96.546 E.90152
G1 X51.793 Y96.546 E.02453
G1 X39.105 Y83.859 E.90145
G1 X38.618 Y83.86 E.02448
G1 X51.305 Y96.546 E.90138
G1 X50.817 Y96.546 E.02453
G1 X38.131 Y83.861 E.90131
G1 X37.644 Y83.861 E.02448
G1 X50.328 Y96.546 E.90125
G1 X49.84 Y96.546 E.02453
