; generated by PrusaSlicer 2.5.0+win64 on 2022-12-07 at 00:30:38 UTC

; 

; external perimeters extrusion width = 1.00mm
; perimeters extrusion width = 1.00mm
; infill extrusion width = 1.00mm
; solid infill extrusion width = 1.00mm
; top infill extrusion width = 1.00mm
; support material extrusion width = 1.00mm
; first layer extrusion width = 0.42mm

M73 P0 R596
M107
;TYPE:Custom
G90 ; use absolute coordinates
M83 ; extruder relative mode
M140 S60 ; set final bed temp
M104 S150 ; set temporary nozzle temp to prevent oozing during homing and auto bed leveling
G4 S10 ; allow partial nozzle warmup
G28 ; home all axisG1 Z50 F240
G1 X7.6 Y10 F3000
M104 S210 ; set final nozzle temp
M190 S60 ; wait for bed temp to stabilize
M109 S210 ; wait for nozzle temp to stabilize
G1 Z0.28 F240
G92 E0
G1 Y140 E10 F1500 ; prime the nozzle
G1 X4 F5000
G92 E0
G1 Y10 E10 F1200 ; prime the nozzle
G92 E0
G21 ; set units to millimeters
G90 ; use absolute coordinates
M83 ; use relative distances for extrusion
; Filament gcode
M107
;LAYER_CHANGE
;Z:0.35
;HEIGHT:0.35
;BEFORE_LAYER_CHANGE
G92 E0
;0.35


G1 E-1 F3600
G1 Z.35 F7800
;AFTER_LAYER_CHANGE
;0.35
G1 X18.597 Y25.695
G1 E1 F2400
;TYPE:Support material
;WIDTH:0.42
G1 F1800
G1 X21.99 Y25.695 E.17027
G1 X21.99 Y49.444 E1.19186
G1 X25.382 Y49.444 E.17027
G1 X25.382 Y52.837 E.17027
G1 X28.775 Y52.837 E.17027
G1 X28.775 Y56.229 E.17027
G1 X32.168 Y56.229 E.17027
G1 X32.168 Y59.622 E.17027
G1 X35.56 Y59.622 E.17027
G1 X35.56 Y63.015 E.17027
G1 X38.953 Y63.015 E.17027
G1 X38.953 Y66.408 E.17027
G1 X42.346 Y66.408 E.17027
G1 X42.346 Y69.8 E.17027
G1 X45.738 Y69.8 E.17027
G1 X45.738 Y73.193 E.17027
G1 X49.131 Y73.193 E.17027
G1 X49.131 Y76.586 E.17027
G1 X52.524 Y76.586 E.17027
G1 X52.524 Y79.978 E.17027
G1 X55.917 Y79.978 E.17027
G1 X55.917 Y83.371 E.17027
G1 X59.309 Y83.371 E.17027
G1 X59.309 Y86.764 E.17027
G1 X62.702 Y86.764 E.17027
G1 X62.702 Y90.156 E.17027
G1 X66.095 Y90.156 E.17027
G1 X66.095 Y93.549 E.17027
G1 X69.487 Y93.549 E.17027
G1 X69.487 Y96.942 E.17027
G1 X72.88 Y96.942 E.17027
G1 X72.88 Y100.335 E.17027
G1 X76.273 Y100.335 E.17027
G1 X76.273 Y103.727 E.17027
G1 X79.665 Y103.727 E.17027
G1 X79.665 Y107.12 E.17027
G1 X86.451 Y107.12 E.34053
G1 X86.451 Y110.513 E.17027
G1 X89.844 Y110.513 E.17027
G1 X89.844 Y113.905 E.17027
G1 X93.236 Y113.905 E.17027
G1 X93.236 Y117.298 E.17027
G1 X106.807 Y117.298 E.68106
G1 X106.807 Y120.691 E.17027
G1 X123.771 Y120.691 E.85133
G1 X123.771 Y124.083 E.17027
G1 X140.734 Y124.083 E.85133
G1 X140.734 Y127.476 E.17027
G1 X171.268 Y127.476 E1.53239
G1 X171.268 Y178.054 E2.53828
G1 X8.732 Y178.054 E8.15705
G1 X8.732 Y22.303 E7.81652
G1 X18.597 Y22.303 E.49509
G1 X18.597 Y25.643 E.16767
G1 E-.7 F3600
;WIPE_START
G1 F6240
G1 X18.597 Y25.123 E-.285
;WIPE_END
G1 E-.015 F3600
G1 X170.857 Y177.899 F7800
G1 E1 F2400
G1 F1800
G1 X170.857 Y127.787 E2.51492
G1 X170.474 Y127.787 E.01923
G1 X170.474 Y177.743 E2.50713
G1 X170.091 Y177.743 E.01923
G1 X170.091 Y127.787 E2.50713
G1 X169.708 Y127.787 E.01923
G1 X169.708 Y177.743 E2.50713
G1 X169.324 Y177.743 E.01923
G1 X169.324 Y127.787 E2.50713
G1 X168.941 Y127.787 E.01923
G1 X168.941 Y177.743 E2.50713
G1 X168.558 Y177.743 E.01923
G1 X168.558 Y127.787 E2.50713
G1 X168.175 Y127.787 E.01923
G1 X168.175 Y177.743 E2.50713
G1 X167.792 Y177.743 E.01923
G1 X167.792 Y127.787 E2.50713
G1 X167.408 Y127.787 E.01923
G1 X167.408 Y177.743 E2.50713
G1 X167.025 Y177.743 E.01923
G1 X167.025 Y127.787 E2.50713
G1 X166.642 Y127.787 E.01923
M73 P0 R595
G1 X166.642 Y177.743 E2.50713
G1 X166.259 Y177.743 E.01923
G1 X166.259 Y127.787 E2.50713
G1 X165.876 Y127.787 E.01923
G1 X165.876 Y177.743 E2.50713
G1 X165.492 Y177.743 E.01923
G1 X165.492 Y127.787 E2.50713
G1 X165.109 Y127.787 E.01923
G1 X165.109 Y177.743 E2.50713
G1 X164.726 Y177.743 E.01923
G1 X164.726 Y127.787 E2.50713
G1 X164.343 Y127.787 E.01923
G1 X164.343 Y177.743 E2.50713
G1 X163.96 Y177.743 E.01923
G1 X163.96 Y127.787 E2.50713
G1 X163.576 Y127.787 E.01923
G1 X163.576 Y177.743 E2.50713
G1 X163.193 Y177.743 E.01923
G1 X163.193 Y127.787 E2.50713
G1 X162.81 Y127.787 E.01923
G1 X162.81 Y177.743 E2.50713
G1 X162.427 Y177.743 E.01923
G1 X162.427 Y127.787 E2.50713
G1 X162.043 Y127.787 E.01923
G1 X162.043 Y177.743 E2.50713
G1 X161.66 Y177.743 E.01923
G1 X161.66 Y127.787 E2.50713
G1 X161.277 Y127.787 E.01923
G1 X161.277 Y177.743 E2.50713
G1 X160.894 Y177.743 E.01923
G1 X160.894 Y127.787 E2.50713
G1 X160.511 Y127.787 E.01923
G1 X160.511 Y177.743 E2.50713
G1 X160.127 Y177.743 E.01923
G1 X160.127 Y127.787 E2.50713
G1 X159.744 Y127.787 E.01923
G1 X159.744 Y177.743 E2.50713
G1 X159.361 Y177.743 E.01923
G1 X159.361 Y127.787 E2.50713
G1 X158.978 Y127.787 E.01923
G1 X158.978 Y177.743 E2.50713
G1 X158.595 Y177.743 E.01923
G1 X158.595 Y127.787 E2.50713
G1 X158.211 Y127.787 E.01923
G1 X158.211 Y177.743 E2.50713
G1 X157.828 Y177.743 E.01923
G1 X157.828 Y127.787 E2.50713
G1 X157.445 Y127.787 E.01923
G1 X157.445 Y177.743 E2.50713
G1 X157.062 Y177.743 E.01923
G1 X157.062 Y127.787 E2.50713
G1 X156.679 Y127.787 E.01923
G1 X156.679 Y177.743 E2.50713
G1 X156.295 Y177.743 E.01923
G1 X156.295 Y127.787 E2.50713
G1 X155.912 Y127.787 E.01923
G1 X155.912 Y177.743 E2.50713
G1 X155.529 Y177.743 E.01923
G1 X155.529 Y127.787 E2.50713
G1 X155.146 Y127.787 E.01923
G1 X155.146 Y177.743 E2.50713
G1 X154.762 Y177.743 E.01923
G1 X154.762 Y127.787 E2.50713
G1 X154.379 Y127.787 E.01923
G1 X154.379 Y177.743 E2.50713
G1 X153.996 Y177.743 E.01923
G1 X153.996 Y127.787 E2.50713
G1 X153.613 Y127.787 E.01923
G1 X153.613 Y177.743 E2.50713
G1 X153.23 Y177.743 E.01923
M73 P0 R594
G1 X153.23 Y127.787 E2.50713
G1 X152.846 Y127.787 E.01923
G1 X152.846 Y177.743 E2.50713
G1 X152.463 Y177.743 E.01923
G1 X152.463 Y127.787 E2.50713
G1 X152.08 Y127.787 E.01923
G1 X152.08 Y177.743 E2.50713
G1 X151.697 Y177.743 E.01923
G1 X151.697 Y127.787 E2.50713
G1 X151.314 Y127.787 E.01923
G1 X151.314 Y177.743 E2.50713
G1 X150.93 Y177.743 E.01923
G1 X150.93 Y127.787 E2.50713
G1 X150.547 Y127.787 E.01923
G1 X150.547 Y177.743 E2.50713
G1 X150.164 Y177.743 E.01923
G1 X150.164 Y127.787 E2.50713
G1 X149.781 Y127.787 E.01923
G1 X149.781 Y177.743 E2.50713
G1 X149.398 Y177.743 E.01923
G1 X149.398 Y127.787 E2.50713
G1 X149.014 Y127.787 E.01923
G1 X149.014 Y177.743 E2.50713
G1 X148.631 Y177.743 E.01923
G1 X148.631 Y127.787 E2.50713
G1 X148.248 Y127.787 E.01923
G1 X148.248 Y177.743 E2.50713
G1 X147.865 Y177.743 E.01923
G1 X147.865 Y127.787 E2.50713
G1 X147.482 Y127.787 E.01923
G1 X147.482 Y177.743 E2.50713
G1 X147.098 Y177.743 E.01923
G1 X147.098 Y127.787 E2.50713
G1 X146.715 Y127.787 E.01923
G1 X146.715 Y177.743 E2.50713
G1 X146.332 Y177.743 E.01923
G1 X146.332 Y127.787 E2.50713
G1 X145.949 Y127.787 E.01923
G1 X145.949 Y177.743 E2.50713
G1 X145.565 Y177.743 E.01923
G1 X145.565 Y127.787 E2.50713
G1 X145.182 Y127.787 E.01923
G1 X145.182 Y177.743 E2.50713
G1 X144.799 Y177.743 E.01923
G1 X144.799 Y127.787 E2.50713
G1 X144.416 Y127.787 E.01923
G1 X144.416 Y177.743 E2.50713
G1 X144.033 Y177.743 E.01923
G1 X144.033 Y127.787 E2.50713
G1 X143.649 Y127.787 E.01923
G1 X143.649 Y177.743 E2.50713
G1 X143.266 Y177.743 E.01923
G1 X143.266 Y127.787 E2.50713
G1 X142.883 Y127.787 E.01923
G1 X142.883 Y177.743 E2.50713
G1 X142.5 Y177.743 E.01923
G1 X142.5 Y127.787 E2.50713
G1 X142.117 Y127.787 E.01923
G1 X142.117 Y177.743 E2.50713
G1 X141.733 Y177.743 E.01923
G1 X141.733 Y127.787 E2.50713
G1 X141.35 Y127.787 E.01923
G1 X141.35 Y177.743 E2.50713
G1 X140.967 Y177.743 E.01923
G1 X140.967 Y127.787 E2.50713
G1 X140.584 Y127.787 E.01923
G1 X140.584 Y177.743 E2.50713
G1 X140.201 Y177.743 E.01923
G1 X140.201 Y124.394 E2.67739
G1 X139.817 Y124.394 E.01923
M73 P0 R593
G1 X139.817 Y177.743 E2.67739
G1 X139.434 Y177.743 E.01923
G1 X139.434 Y124.394 E2.67739
G1 X139.051 Y124.394 E.01923
G1 X139.051 Y177.743 E2.67739
G1 X138.668 Y177.743 E.01923
G1 X138.668 Y124.394 E2.67739
G1 X138.284 Y124.394 E.01923
G1 X138.284 Y177.743 E2.67739
G1 X137.901 Y177.743 E.01923
G1 X137.901 Y124.394 E2.67739
G1 X137.518 Y124.394 E.01923
G1 X137.518 Y177.743 E2.67739
G1 X137.135 Y177.743 E.01923
G1 X137.135 Y124.394 E2.67739
G1 X136.752 Y124.394 E.01923
G1 X136.752 Y177.743 E2.67739
G1 X136.368 Y177.743 E.01923
G1 X136.368 Y124.394 E2.67739
G1 X135.985 Y124.394 E.01923
G1 X135.985 Y177.743 E2.67739
G1 X135.602 Y177.743 E.01923
G1 X135.602 Y124.394 E2.67739
G1 X135.219 Y124.394 E.01923
G1 X135.219 Y177.743 E2.67739
G1 X134.836 Y177.743 E.01923
G1 X134.836 Y124.394 E2.67739
G1 X134.452 Y124.394 E.01923
G1 X134.452 Y177.743 E2.67739
G1 X134.069 Y177.743 E.01923
G1 X134.069 Y124.394 E2.67739
G1 X133.686 Y124.394 E.01923
G1 X133.686 Y177.743 E2.67739
G1 X133.303 Y177.743 E.01923
G1 X133.303 Y124.394 E2.67739
G1 X132.92 Y124.394 E.01923
G1 X132.92 Y177.743 E2.67739
G1 X132.536 Y177.743 E.01923
G1 X132.536 Y124.394 E2.67739
G1 X132.153 Y124.394 E.01923
G1 X132.153 Y177.743 E2.67739
G1 X131.77 Y177.743 E.01923
G1 X131.77 Y124.394 E2.67739
G1 X131.387 Y124.394 E.01923
G1 X131.387 Y177.743 E2.67739
G1 X131.003 Y177.743 E.01923
G1 X131.003 Y124.394 E2.67739
G1 X130.62 Y124.394 E.01923
G1 X130.62 Y177.743 E2.67739
G1 X130.237 Y177.743 E.01923
G1 X130.237 Y124.394 E2.67739
G1 X129.854 Y124.394 E.01923
G1 X129.854 Y177.743 E2.67739
G1 X129.471 Y177.743 E.01923
G1 X129.471 Y124.394 E2.67739
G1 X129.087 Y124.394 E.01923
G1 X129.087 Y177.743 E2.67739
G1 X128.704 Y177.743 E.01923
G1 X128.704 Y124.394 E2.67739
G1 X128.321 Y124.394 E.01923
G1 X128.321 Y177.743 E2.67739
G1 X127.938 Y177.743 E.01923
G1 X127.938 Y124.394 E2.67739
G1 X127.555 Y124.394 E.01923
M73 P0 R592
G1 X127.555 Y177.743 E2.67739
G1 X127.171 Y177.743 E.01923
G1 X127.171 Y124.394 E2.67739
G1 X126.788 Y124.394 E.01923
G1 X126.788 Y177.743 E2.67739
G1 X126.405 Y177.743 E.01923
G1 X126.405 Y124.394 E2.67739
G1 X126.022 Y124.394 E.01923
G1 X126.022 Y177.743 E2.67739
G1 X125.639 Y177.743 E.01923
G1 X125.639 Y124.394 E2.67739
G1 X125.255 Y124.394 E.01923
G1 X125.255 Y177.743 E2.67739
G1 X124.872 Y177.743 E.01923
G1 X124.872 Y124.394 E2.67739
G1 X124.489 Y124.394 E.01923
G1 X124.489 Y177.743 E2.67739
G1 X124.106 Y177.743 E.01923
G1 X124.106 Y124.394 E2.67739
G1 X123.722 Y124.394 E.01923
G1 X123.722 Y177.743 E2.67739
G1 X123.339 Y177.743 E.01923
G1 X123.339 Y121.001 E2.84766
G1 X122.956 Y121.001 E.01923
G1 X122.956 Y177.743 E2.84766
G1 X122.573 Y177.743 E.01923
G1 X122.573 Y121.001 E2.84766
G1 X122.19 Y121.001 E.01923
G1 X122.19 Y177.743 E2.84766
G1 X121.806 Y177.743 E.01923
G1 X121.806 Y121.001 E2.84766
G1 X121.423 Y121.001 E.01923
G1 X121.423 Y177.743 E2.84766
G1 X121.04 Y177.743 E.01923
G1 X121.04 Y121.001 E2.84766
G1 X120.657 Y121.001 E.01923
G1 X120.657 Y177.743 E2.84766
G1 X120.274 Y177.743 E.01923
G1 X120.274 Y121.001 E2.84766
G1 X119.89 Y121.001 E.01923
G1 X119.89 Y177.743 E2.84766
G1 X119.507 Y177.743 E.01923
G1 X119.507 Y121.001 E2.84766
G1 X119.124 Y121.001 E.01923
G1 X119.124 Y177.743 E2.84766
G1 X118.741 Y177.743 E.01923
G1 X118.741 Y121.001 E2.84766
G1 X118.358 Y121.001 E.01923
G1 X118.358 Y177.743 E2.84766
G1 X117.974 Y177.743 E.01923
G1 X117.974 Y121.001 E2.84766
G1 X117.591 Y121.001 E.01923
G1 X117.591 Y177.743 E2.84766
G1 X117.208 Y177.743 E.01923
G1 X117.208 Y121.001 E2.84766
G1 X116.825 Y121.001 E.01923
G1 X116.825 Y177.743 E2.84766
G1 X116.441 Y177.743 E.01923
G1 X116.441 Y121.001 E2.84766
G1 X116.058 Y121.001 E.01923
G1 X116.058 Y177.743 E2.84766
G1 X115.675 Y177.743 E.01923
G1 X115.675 Y121.001 E2.84766
G1 X115.292 Y121.001 E.01923
M73 P0 R591
G1 X115.292 Y177.743 E2.84766
G1 X114.909 Y177.743 E.01923
G1 X114.909 Y121.001 E2.84766
G1 X114.525 Y121.001 E.01923
G1 X114.525 Y177.743 E2.84766
G1 X114.142 Y177.743 E.01923
G1 X114.142 Y121.001 E2.84766
G1 X113.759 Y121.001 E.01923
G1 X113.759 Y177.743 E2.84766
G1 X113.376 Y177.743 E.01923
G1 X113.376 Y121.001 E2.84766
G1 X112.993 Y121.001 E.01923
G1 X112.993 Y177.743 E2.84766
G1 X112.609 Y177.743 E.01923
G1 X112.609 Y121.001 E2.84766
G1 X112.226 Y121.001 E.01923
G1 X112.226 Y177.743 E2.84766
G1 X111.843 Y177.743 E.01923
G1 X111.843 Y121.001 E2.84766
G1 X111.46 Y121.001 E.01923
G1 X111.46 Y177.743 E2.84766
G1 X111.077 Y177.743 E.01923
G1 X111.077 Y121.001 E2.84766
G1 X110.693 Y121.001 E.01923
G1 X110.693 Y177.743 E2.84766
G1 X110.31 Y177.743 E.01923
G1 X110.31 Y121.001 E2.84766
G1 X109.927 Y121.001 E.01923
G1 X109.927 Y177.743 E2.84766
G1 X109.544 Y177.743 E.01923
G1 X109.544 Y121.001 E2.84766
G1 X109.161 Y121.001 E.01923
G1 X109.161 Y177.743 E2.84766
G1 X108.777 Y177.743 E.01923
G1 X108.777 Y121.001 E2.84766
G1 X108.394 Y121.001 E.01923
G1 X108.394 Y177.743 E2.84766
G1 X108.011 Y177.743 E.01923
G1 X108.011 Y121.001 E2.84766
G1 X107.628 Y121.001 E.01923
G1 X107.628 Y177.743 E2.84766
G1 X107.244 Y177.743 E.01923
G1 X107.244 Y121.001 E2.84766
G1 X106.861 Y121.001 E.01923
G1 X106.861 Y177.743 E2.84766
G1 X106.478 Y177.743 E.01923
G1 X106.478 Y117.608 E3.01792
G1 X106.095 Y117.608 E.01923
G1 X106.095 Y177.743 E3.01792
G1 X105.712 Y177.743 E.01923
G1 X105.712 Y117.608 E3.01792
G1 X105.328 Y117.608 E.01923
G1 X105.328 Y177.743 E3.01792
G1 X104.945 Y177.743 E.01923
G1 X104.945 Y117.608 E3.01792
G1 X104.562 Y117.608 E.01923
G1 X104.562 Y177.743 E3.01792
G1 X104.179 Y177.743 E.01923
G1 X104.179 Y117.608 E3.01792
G1 X103.796 Y117.608 E.01923
M73 P0 R590
G1 X103.796 Y177.743 E3.01792
G1 X103.412 Y177.743 E.01923
M73 P1 R590
G1 X103.412 Y117.608 E3.01792
G1 X103.029 Y117.608 E.01923
G1 X103.029 Y177.743 E3.01792
G1 X102.646 Y177.743 E.01923
G1 X102.646 Y117.608 E3.01792
G1 X102.263 Y117.608 E.01923
G1 X102.263 Y177.743 E3.01792
G1 X101.88 Y177.743 E.01923
G1 X101.88 Y117.608 E3.01792
G1 X101.496 Y117.608 E.01923
G1 X101.496 Y177.743 E3.01792
G1 X101.113 Y177.743 E.01923
G1 X101.113 Y117.608 E3.01792
G1 X100.73 Y117.608 E.01923
G1 X100.73 Y177.743 E3.01792
G1 X100.347 Y177.743 E.01923
G1 X100.347 Y117.608 E3.01792
G1 X99.963 Y117.608 E.01923
G1 X99.963 Y177.743 E3.01792
G1 X99.58 Y177.743 E.01923
G1 X99.58 Y117.608 E3.01792
G1 X99.197 Y117.608 E.01923
G1 X99.197 Y177.743 E3.01792
G1 X98.814 Y177.743 E.01923
G1 X98.814 Y117.608 E3.01792
G1 X98.431 Y117.608 E.01923
G1 X98.431 Y177.743 E3.01792
G1 X98.047 Y177.743 E.01923
G1 X98.047 Y117.608 E3.01792
G1 X97.664 Y117.608 E.01923
G1 X97.664 Y177.743 E3.01792
G1 X97.281 Y177.743 E.01923
G1 X97.281 Y117.608 E3.01792
G1 X96.898 Y117.608 E.01923
G1 X96.898 Y177.743 E3.01792
G1 X96.515 Y177.743 E.01923
G1 X96.515 Y117.608 E3.01792
G1 X96.131 Y117.608 E.01923
G1 X96.131 Y177.743 E3.01792
G1 X95.748 Y177.743 E.01923
G1 X95.748 Y117.608 E3.01792
G1 X95.365 Y117.608 E.01923
G1 X95.365 Y177.743 E3.01792
G1 X94.982 Y177.743 E.01923
G1 X94.982 Y117.608 E3.01792
G1 X94.599 Y117.608 E.01923
G1 X94.599 Y177.743 E3.01792
G1 X94.215 Y177.743 E.01923
G1 X94.215 Y117.608 E3.01792
G1 X93.832 Y117.608 E.01923
G1 X93.832 Y177.743 E3.01792
G1 X93.449 Y177.743 E.01923
G1 X93.449 Y117.608 E3.01792
G1 X93.066 Y117.608 E.01923
G1 X93.066 Y177.743 E3.01792
G1 X92.682 Y177.743 E.01923
M73 P1 R589
G1 X92.682 Y114.216 E3.18819
G1 X92.299 Y114.216 E.01923
G1 X92.299 Y177.743 E3.18819
G1 X91.916 Y177.743 E.01923
G1 X91.916 Y114.216 E3.18819
G1 X91.533 Y114.216 E.01923
G1 X91.533 Y177.743 E3.18819
G1 X91.15 Y177.743 E.01923
G1 X91.15 Y114.216 E3.18819
G1 X90.766 Y114.216 E.01923
G1 X90.766 Y177.743 E3.18819
G1 X90.383 Y177.743 E.01923
G1 X90.383 Y114.216 E3.18819
G1 X90 Y114.216 E.01923
G1 X90 Y177.743 E3.18819
G1 X89.617 Y177.743 E.01923
G1 X89.617 Y114.216 E3.18819
G1 X89.533 Y114.216 E.0042
G1 X89.533 Y110.823 E.17027
G1 X89.234 Y110.823 E.01503
G1 X89.234 Y177.743 E3.35846
G1 X88.85 Y177.743 E.01923
G1 X88.85 Y110.823 E3.35846
G1 X88.467 Y110.823 E.01923
G1 X88.467 Y177.743 E3.35846
G1 X88.084 Y177.743 E.01923
G1 X88.084 Y110.823 E3.35846
G1 X87.701 Y110.823 E.01923
G1 X87.701 Y177.743 E3.35846
G1 X87.318 Y177.743 E.01923
G1 X87.318 Y110.823 E3.35846
G1 X86.934 Y110.823 E.01923
G1 X86.934 Y177.743 E3.35846
G1 X86.551 Y177.743 E.01923
G1 X86.551 Y110.823 E3.35846
G1 X86.168 Y110.823 E.01923
G1 X86.168 Y177.743 E3.35846
G1 X85.785 Y177.743 E.01923
G1 X85.785 Y107.43 E3.52872
