; generated by PrusaSlicer 2.5.0+win64 on 2022-12-07 at 00:30:34 UTC

; 

; external perimeters extrusion width = 1.00mm
; perimeters extrusion width = 1.00mm
; infill extrusion width = 1.00mm
; solid infill extrusion width = 1.00mm
; top infill extrusion width = 1.00mm
; support material extrusion width = 1.00mm
; first layer extrusion width = 0.42mm

M73 P0 R931
M107
;TYPE:Custom
G90 ; use absolute coordinates
M83 ; extruder relative mode
M140 S60 ; set final bed temp
M104 S150 ; set temporary nozzle temp to prevent oozing during homing and auto bed leveling
G4 S10 ; allow partial nozzle warmup
G28 ; home all axisG1 Z50 F240
G1 X7.6 Y10 F3000
M104 S210 ; set final nozzle temp
M190 S60 ; wait for bed temp to stabilize
M109 S210 ; wait for nozzle temp to stabilize
G1 Z0.28 F240
G92 E0
G1 Y140 E10 F1500 ; prime the nozzle
G1 X4 F5000
G92 E0
M73 P0 R930
G1 Y10 E10 F1200 ; prime the nozzle
G92 E0
G21 ; set units to millimeters
G90 ; use absolute coordinates
M83 ; use relative distances for extrusion
; Filament gcode
M107
;LAYER_CHANGE
;Z:0.35
;HEIGHT:0.35
;BEFORE_LAYER_CHANGE
G92 E0
;0.35


G1 E-1 F3600
G1 Z.35 F7800
;AFTER_LAYER_CHANGE
;0.35
G1 X113.592 Y5.207
G1 E1 F2400
;TYPE:Support material
;WIDTH:0.42
G1 F1800
G1 X103.709 Y5.207 E.49599
G1 X103.283 Y5.774 E.03559
G1 X113.592 Y41.387 E1.86067
G1 X113.592 Y42.659 E.0638
G1 X113.96 Y42.659 E.01846
G1 X120.378 Y64.839 E1.15879
G1 X120.378 Y66.408 E.07873
G1 X120.832 Y66.408 E.02277
G1 X123.684 Y76.273 E.51537
G1 X120.378 Y76.273 E.16592
G1 X120.378 Y83.371 E.35623
G1 X125.735 Y83.371 E.26884
G1 X127.163 Y88.309 E.25796
G1 X127.163 Y93.236 E.2473
G1 X123.771 Y93.236 E.17027
G1 X123.771 Y100.022 E.34053
G1 X120.378 Y100.022 E.17027
G1 X120.378 Y103.414 E.17027
G1 X116.985 Y103.414 E.17027
G1 X116.985 Y106.807 E.17027
G1 X113.592 Y106.807 E.17027
G1 X113.592 Y113.592 E.34053
G1 X110.2 Y113.592 E.17027
G1 X110.2 Y116.985 E.17027
G1 X106.807 Y116.985 E.17027
G1 X106.807 Y120.378 E.17027
G1 X103.414 Y120.378 E.17027
G1 X103.414 Y124.083 E.18597
G1 X140.734 Y124.083 E1.87292
G1 X140.734 Y140.734 E.83563
G1 X137.341 Y140.734 E.17027
G1 X137.341 Y147.519 E.34053
G1 X133.949 Y147.519 E.17027
G1 X133.949 Y150.912 E.17027
G1 X130.556 Y150.912 E.17027
G1 X130.556 Y157.698 E.34053
G1 X127.163 Y157.698 E.17027
G1 X127.163 Y161.09 E.17027
G1 X123.771 Y161.09 E.17027
G1 X123.771 Y164.796 E.18597
G1 X161.09 Y164.796 E1.87292
G1 X161.09 Y178.054 E.66536
G1 X18.91 Y178.054 E7.13546
G1 X18.91 Y171.268 E.34053
G1 X8.732 Y171.268 E.5108
G1 X8.732 Y151.225 E1.00589
G1 X12.124 Y151.225 E.17027
G1 X12.124 Y123.771 E1.37783
G1 X8.732 Y123.771 E.17027
G1 X8.732 Y69.8 E2.70855
G1 X12.124 Y69.8 E.17027
G1 X12.124 Y66.095 E.18597
G1 X8.732 Y66.095 E.17027
G1 X8.732 Y1.946 E3.21935
G1 X113.592 Y1.946 E5.26253
G1 X113.592 Y5.155 E.16105
G1 E-.7 F3600
;WIPE_START
G1 F6240
G1 X113.592 Y4.635 E-.285
;WIPE_END
G1 E-.015 F3600
G1 X160.511 Y177.899 F7800
G1 E1 F2400
G1 F1800
G1 X160.511 Y165.106 E.64199
G1 X160.127 Y165.106 E.01923
G1 X160.127 Y177.743 E.6342
G1 X159.744 Y177.743 E.01923
G1 X159.744 Y165.106 E.6342
G1 X159.361 Y165.106 E.01923
G1 X159.361 Y177.743 E.6342
G1 X158.978 Y177.743 E.01923
G1 X158.978 Y165.106 E.6342
G1 X158.595 Y165.106 E.01923
G1 X158.595 Y177.743 E.6342
G1 X158.211 Y177.743 E.01923
G1 X158.211 Y165.106 E.6342
G1 X157.828 Y165.106 E.01923
G1 X157.828 Y177.743 E.6342
G1 X157.445 Y177.743 E.01923
G1 X157.445 Y165.106 E.6342
G1 X157.062 Y165.106 E.01923
G1 X157.062 Y177.743 E.6342
G1 X156.679 Y177.743 E.01923
G1 X156.679 Y165.106 E.6342
G1 X156.295 Y165.106 E.01923
G1 X156.295 Y177.743 E.6342
G1 X155.912 Y177.743 E.01923
G1 X155.912 Y165.106 E.6342
G1 X155.529 Y165.106 E.01923
G1 X155.529 Y177.743 E.6342
G1 X155.146 Y177.743 E.01923
G1 X155.146 Y165.106 E.6342
G1 X154.762 Y165.106 E.01923
G1 X154.762 Y177.743 E.6342
G1 X154.379 Y177.743 E.01923
G1 X154.379 Y165.106 E.6342
G1 X153.996 Y165.106 E.01923
G1 X153.996 Y177.743 E.6342
G1 X153.613 Y177.743 E.01923
G1 X153.613 Y165.106 E.6342
G1 X153.23 Y165.106 E.01923
G1 X153.23 Y177.743 E.6342
G1 X152.846 Y177.743 E.01923
G1 X152.846 Y165.106 E.6342
G1 X152.463 Y165.106 E.01923
G1 X152.463 Y177.743 E.6342
G1 X152.08 Y177.743 E.01923
G1 X152.08 Y165.106 E.6342
G1 X151.697 Y165.106 E.01923
G1 X151.697 Y177.743 E.6342
G1 X151.314 Y177.743 E.01923
G1 X151.314 Y165.106 E.6342
G1 X150.93 Y165.106 E.01923
G1 X150.93 Y177.743 E.6342
G1 X150.547 Y177.743 E.01923
G1 X150.547 Y165.106 E.6342
G1 X150.164 Y165.106 E.01923
G1 X150.164 Y177.743 E.6342
G1 X149.781 Y177.743 E.01923
G1 X149.781 Y165.106 E.6342
G1 X149.398 Y165.106 E.01923
G1 X149.398 Y177.743 E.6342
G1 X149.014 Y177.743 E.01923
G1 X149.014 Y165.106 E.6342
G1 X148.631 Y165.106 E.01923
G1 X148.631 Y177.743 E.6342
G1 X148.248 Y177.743 E.01923
G1 X148.248 Y165.106 E.6342
G1 X147.865 Y165.106 E.01923
G1 X147.865 Y177.743 E.6342
G1 X147.481 Y177.743 E.01923
G1 X147.481 Y165.106 E.6342
G1 X147.098 Y165.106 E.01923
G1 X147.098 Y177.743 E.6342
G1 X146.715 Y177.743 E.01923
G1 X146.715 Y165.106 E.6342
G1 X146.332 Y165.106 E.01923
G1 X146.332 Y177.743 E.6342
G1 X145.949 Y177.743 E.01923
G1 X145.949 Y165.106 E.6342
G1 X145.565 Y165.106 E.01923
G1 X145.565 Y177.743 E.6342
G1 X145.182 Y177.743 E.01923
G1 X145.182 Y165.106 E.6342
G1 X144.799 Y165.106 E.01923
G1 X144.799 Y177.743 E.6342
G1 X144.416 Y177.743 E.01923
G1 X144.416 Y165.106 E.6342
G1 X144.033 Y165.106 E.01923
G1 X144.033 Y177.743 E.6342
G1 X143.649 Y177.743 E.01923
M73 P0 R929
G1 X143.649 Y165.106 E.6342
G1 X143.266 Y165.106 E.01923
G1 X143.266 Y177.743 E.6342
G1 X142.883 Y177.743 E.01923
G1 X142.883 Y165.106 E.6342
G1 X142.5 Y165.106 E.01923
G1 X142.5 Y177.743 E.6342
G1 X142.117 Y177.743 E.01923
G1 X142.117 Y165.106 E.6342
G1 X141.733 Y165.106 E.01923
G1 X141.733 Y177.743 E.6342
G1 X141.35 Y177.743 E.01923
G1 X141.35 Y165.106 E.6342
G1 X140.967 Y165.106 E.01923
G1 X140.967 Y177.743 E.6342
G1 X140.584 Y177.743 E.01923
G1 X140.584 Y165.106 E.6342
G1 X140.201 Y165.106 E.01923
G1 X140.201 Y177.743 E.6342
G1 X139.817 Y177.743 E.01923
G1 X139.817 Y165.106 E.6342
G1 X139.434 Y165.106 E.01923
G1 X139.434 Y177.743 E.6342
G1 X139.051 Y177.743 E.01923
G1 X139.051 Y165.106 E.6342
G1 X138.668 Y165.106 E.01923
G1 X138.668 Y177.743 E.6342
G1 X138.284 Y177.743 E.01923
G1 X138.284 Y165.106 E.6342
G1 X137.901 Y165.106 E.01923
G1 X137.901 Y177.743 E.6342
G1 X137.518 Y177.743 E.01923
G1 X137.518 Y165.106 E.6342
G1 X137.135 Y165.106 E.01923
G1 X137.135 Y177.743 E.6342
G1 X136.752 Y177.743 E.01923
G1 X136.752 Y165.106 E.6342
G1 X136.368 Y165.106 E.01923
G1 X136.368 Y177.743 E.6342
G1 X135.985 Y177.743 E.01923
G1 X135.985 Y165.106 E.6342
G1 X135.602 Y165.106 E.01923
G1 X135.602 Y177.743 E.6342
G1 X135.219 Y177.743 E.01923
G1 X135.219 Y165.106 E.6342
G1 X134.836 Y165.106 E.01923
G1 X134.836 Y177.743 E.6342
G1 X134.452 Y177.743 E.01923
G1 X134.452 Y165.106 E.6342
G1 X134.069 Y165.106 E.01923
G1 X134.069 Y177.743 E.6342
G1 X133.686 Y177.743 E.01923
G1 X133.686 Y165.106 E.6342
G1 X133.303 Y165.106 E.01923
G1 X133.303 Y177.743 E.6342
G1 X132.92 Y177.743 E.01923
G1 X132.92 Y165.106 E.6342
G1 X132.536 Y165.106 E.01923
G1 X132.536 Y177.743 E.6342
G1 X132.153 Y177.743 E.01923
G1 X132.153 Y165.106 E.6342
G1 X131.77 Y165.106 E.01923
G1 X131.77 Y177.743 E.6342
G1 X131.387 Y177.743 E.01923
G1 X131.387 Y165.106 E.6342
G1 X131.003 Y165.106 E.01923
G1 X131.003 Y177.743 E.6342
G1 X130.62 Y177.743 E.01923
G1 X130.62 Y165.106 E.6342
G1 X130.237 Y165.106 E.01923
G1 X130.237 Y177.743 E.6342
G1 X129.854 Y177.743 E.01923
G1 X129.854 Y165.106 E.6342
G1 X129.471 Y165.106 E.01923
G1 X129.471 Y177.743 E.6342
G1 X129.087 Y177.743 E.01923
G1 X129.087 Y165.106 E.6342
G1 X128.704 Y165.106 E.01923
G1 X128.704 Y177.743 E.6342
G1 X128.321 Y177.743 E.01923
G1 X128.321 Y165.106 E.6342
G1 X127.938 Y165.106 E.01923
G1 X127.938 Y177.743 E.6342
G1 X127.555 Y177.743 E.01923
G1 X127.555 Y165.106 E.6342
G1 X127.171 Y165.106 E.01923
G1 X127.171 Y177.743 E.6342
G1 X126.788 Y177.743 E.01923
G1 X126.788 Y165.106 E.6342
G1 X126.405 Y165.106 E.01923
G1 X126.405 Y177.743 E.6342
G1 X126.022 Y177.743 E.01923
G1 X126.022 Y165.106 E.6342
G1 X125.639 Y165.106 E.01923
G1 X125.639 Y177.743 E.6342
G1 X125.255 Y177.743 E.01923
G1 X125.255 Y165.106 E.6342
G1 X124.872 Y165.106 E.01923
G1 X124.872 Y177.743 E.6342
G1 X124.489 Y177.743 E.01923
G1 X124.489 Y165.106 E.6342
G1 X124.106 Y165.106 E.01923
G1 X124.106 Y177.743 E.6342
G1 X123.722 Y177.743 E.01923
G1 X123.722 Y165.106 E.6342
G1 X123.46 Y165.106 E.01316
G1 X123.46 Y160.78 E.21712
G1 X123.722 Y160.78 E.01316
G1 X123.722 Y124.394 E1.82606
G1 X124.106 Y124.394 E.01923
G1 X124.106 Y160.78 E1.82606
G1 X124.489 Y160.78 E.01923
G1 X124.489 Y124.394 E1.82606
G1 X124.872 Y124.394 E.01923
G1 X124.872 Y160.78 E1.82606
G1 X125.255 Y160.78 E.01923
G1 X125.255 Y124.394 E1.82606
G1 X125.639 Y124.394 E.01923
G1 X125.639 Y160.78 E1.82606
G1 X126.022 Y160.78 E.01923
G1 X126.022 Y124.394 E1.82606
G1 X126.405 Y124.394 E.01923
G1 X126.405 Y160.78 E1.82606
G1 X126.788 Y160.78 E.01923
G1 X126.788 Y124.394 E1.82606
G1 X127.171 Y124.394 E.01923
G1 X127.171 Y157.387 E1.6558
G1 X127.555 Y157.387 E.01923
G1 X127.555 Y124.394 E1.6558
G1 X127.938 Y124.394 E.01923
G1 X127.938 Y157.387 E1.6558
G1 X128.321 Y157.387 E.01923
G1 X128.321 Y124.394 E1.6558
G1 X128.704 Y124.394 E.01923
G1 X128.704 Y157.387 E1.6558
G1 X129.087 Y157.387 E.01923
G1 X129.087 Y124.394 E1.6558
G1 X129.471 Y124.394 E.01923
G1 X129.471 Y157.387 E1.6558
G1 X129.854 Y157.387 E.01923
G1 X129.854 Y124.394 E1.6558
G1 X130.237 Y124.394 E.01923
G1 X130.237 Y157.387 E1.6558
G1 X130.246 Y150.602 E.34053
G1 X130.62 Y150.602 E.0188
G1 X130.62 Y124.394 E1.31527
G1 X131.003 Y124.394 E.01923
G1 X131.003 Y150.602 E1.31527
G1 X131.387 Y150.602 E.01923
G1 X131.387 Y124.394 E1.31527
G1 X131.77 Y124.394 E.01923
G1 X131.77 Y150.602 E1.31527
G1 X132.153 Y150.602 E.01923
G1 X132.153 Y124.394 E1.31527
G1 X132.536 Y124.394 E.01923
G1 X132.536 Y150.602 E1.31527
G1 X132.92 Y150.602 E.01923
G1 X132.92 Y124.394 E1.31527
G1 X133.303 Y124.394 E.01923
G1 X133.303 Y150.602 E1.31527
G1 X133.638 Y150.602 E.01684
G1 X133.638 Y147.209 E.17027
G1 X133.686 Y147.209 E.00239
G1 X133.686 Y124.394 E1.145
G1 X134.069 Y124.394 E.01923
G1 X134.069 Y147.209 E1.145
G1 X134.452 Y147.209 E.01923
G1 X134.452 Y124.394 E1.145
G1 X134.836 Y124.394 E.01923
G1 X134.836 Y147.209 E1.145
G1 X135.219 Y147.209 E.01923
G1 X135.219 Y124.394 E1.145
G1 X135.602 Y124.394 E.01923
M73 P0 R928
G1 X135.602 Y147.209 E1.145
G1 X135.985 Y147.209 E.01923
G1 X135.985 Y124.394 E1.145
G1 X136.368 Y124.394 E.01923
G1 X136.368 Y147.209 E1.145
G1 X136.752 Y147.209 E.01923
G1 X136.752 Y124.394 E1.145
G1 X137.135 Y124.394 E.01923
G1 X137.135 Y140.424 E.80447
G1 X137.518 Y140.424 E.01923
G1 X137.518 Y124.394 E.80447
G1 X137.901 Y124.394 E.01923
G1 X137.901 Y140.424 E.80447
G1 X138.284 Y140.424 E.01923
G1 X138.284 Y124.394 E.80447
G1 X138.668 Y124.394 E.01923
G1 X138.668 Y140.424 E.80447
G1 X139.051 Y140.424 E.01923
G1 X139.051 Y124.394 E.80447
G1 X139.434 Y124.394 E.01923
G1 X139.434 Y140.424 E.80447
G1 X139.817 Y140.424 E.01923
G1 X139.817 Y124.394 E.80447
G1 X140.201 Y124.394 E.01923
G1 X140.201 Y140.579 E.81226
G1 E-.7 F3600
;WIPE_START
G1 F6240
G1 X140.201 Y140.059 E-.285
;WIPE_END
G1 E-.015 F3600
G1 X126.788 Y93.081 F7800
G1 E1 F2400
G1 F1800
G1 X126.788 Y88.129 E.24852
G1 X126.405 Y86.805 E.06916
G1 X126.405 Y92.926 E.30716
G1 X126.022 Y92.926 E.01923
G1 X126.022 Y85.481 E.37361
G1 X125.639 Y84.156 E.06924
G1 X125.639 Y92.926 E.44013
G1 X125.255 Y92.926 E.01923
G1 X125.255 Y83.681 E.46394
G1 X124.872 Y83.681 E.01923
G1 X124.872 Y92.926 E.46394
G1 X124.489 Y92.926 E.01923
G1 X124.489 Y83.681 E.46394
G1 X124.106 Y83.681 E.01923
G1 X124.106 Y92.926 E.46394
G1 X123.722 Y92.926 E.01923
G1 X123.722 Y83.681 E.46394
G1 X123.339 Y83.681 E.01923
G1 X123.339 Y99.711 E.80447
G1 X122.956 Y99.711 E.01923
G1 X122.956 Y83.681 E.80447
G1 X122.573 Y83.681 E.01923
G1 X122.573 Y99.711 E.80447
G1 X122.19 Y99.711 E.01923
G1 X122.19 Y83.681 E.80447
G1 X121.806 Y83.681 E.01923
G1 X121.806 Y99.711 E.80447
G1 X121.423 Y99.711 E.01923
G1 X121.423 Y83.681 E.80447
G1 X121.04 Y83.681 E.01923
G1 X121.04 Y99.711 E.80447
G1 X120.657 Y99.711 E.01923
G1 X120.657 Y83.681 E.80447
G1 X120.274 Y83.681 E.01923
G1 X120.274 Y99.711 E.80447
G1 X120.067 Y99.711 E.01035
G1 X120.067 Y103.104 E.17027
G1 X119.89 Y103.104 E.00889
G1 X119.89 Y64.271 E1.94888
G1 X119.507 Y62.946 E.06921
G1 X119.507 Y103.104 E2.01537
G1 X119.124 Y103.104 E.01923
G1 X119.124 Y61.621 E2.08186
G1 X118.741 Y60.297 E.06919
G1 X118.741 Y103.104 E2.14833
G1 X118.358 Y103.104 E.01923
G1 X118.358 Y58.972 E2.21479
G1 X117.974 Y57.648 E.06919
G1 X117.974 Y103.104 E2.28125
G1 X117.591 Y103.104 E.01923
G1 X117.591 Y56.324 E2.34772
G1 X117.208 Y54.999 E.06919
G1 X117.208 Y103.104 E2.41418
G1 X116.825 Y103.104 E.01923
G1 X116.825 Y53.675 E2.48065
G1 X116.441 Y52.35 E.06919
G1 X116.441 Y106.497 E2.71738
G1 X116.058 Y106.497 E.01923
G1 X116.058 Y51.026 E2.78384
G1 X115.675 Y49.702 E.06919
G1 X115.675 Y106.497 E2.8503
G1 X115.292 Y106.497 E.01923
G1 X115.292 Y48.377 E2.91677
G1 X114.909 Y47.053 E.06919
G1 X114.909 Y106.497 E2.98323
G1 X114.525 Y106.497 E.01923
G1 X114.525 Y45.729 E3.0497
G1 X114.142 Y44.404 E.06919
G1 X114.142 Y106.497 E3.11616
G1 X113.759 Y106.497 E.01923
G1 X113.759 Y43.08 E3.18263
G1 X113.727 Y42.969 E.00579
G1 X113.376 Y42.969 E.01762
G1 X113.376 Y106.497 E3.18819
G1 X113.282 Y106.497 E.00471
G1 X113.282 Y113.282 E.34053
G1 X112.993 Y113.282 E.01453
G1 X112.993 Y40.431 E3.65609
G1 X112.609 Y39.107 E.06919
G1 X112.609 Y113.282 E3.72256
G1 X112.226 Y113.282 E.01923
G1 X112.226 Y37.782 E3.78903
G1 X111.843 Y36.458 E.06919
G1 X111.843 Y113.282 E3.85549
G1 X111.46 Y113.282 E.01923
M73 P0 R927
G1 X111.46 Y35.133 E3.92196
G1 X111.077 Y33.809 E.06919
G1 X111.077 Y113.282 E3.98842
G1 X110.693 Y113.282 E.01923
G1 X110.693 Y32.485 E4.05489
G1 X110.31 Y31.16 E.06919
G1 X110.31 Y113.282 E4.12136
G1 X109.927 Y113.282 E.01923
G1 X109.927 Y29.836 E4.18782
G1 X109.544 Y28.511 E.06919
G1 X109.544 Y116.675 E4.42455
G1 X109.16 Y116.675 E.01923
G1 X109.161 Y27.187 E4.49102
G1 X108.777 Y25.863 E.06918
G1 X108.777 Y116.675 E4.55748
G1 X108.394 Y116.675 E.01923
G1 X108.394 Y24.54 E4.62389
G1 X108.011 Y23.216 E.06914
G1 X108.011 Y116.675 E4.6903
G1 X107.628 Y116.675 E.01923
G1 X107.628 Y21.893 E4.75671
G1 X107.244 Y20.57 E.06914
G1 X107.244 Y116.675 E4.82312
G1 X106.861 Y116.675 E.01923
G1 X106.861 Y19.246 E4.88953
G1 X106.478 Y17.923 E.06915
G1 X106.478 Y120.067 E5.12622
G1 X106.095 Y120.067 E.01923
G1 X106.095 Y16.599 E5.19263
G1 X105.712 Y15.276 E.06915
G1 X105.712 Y120.067 E5.25905
G1 X105.328 Y120.067 E.01923
G1 X105.328 Y13.953 E5.32547
G1 X104.945 Y12.629 E.06915
G1 X104.945 Y120.067 E5.39189
G1 X104.562 Y120.067 E.01923
G1 X104.562 Y11.306 E5.45831
G1 X104.179 Y9.982 E.06915
M73 P0 R926
G1 X104.179 Y120.067 E5.52473
G1 X103.796 Y120.067 E.01923
G1 X103.796 Y8.659 E5.59115
G1 X103.412 Y7.335 E.06915
G1 X103.412 Y120.067 E5.65757
G1 X103.104 Y120.067 E.01548
G1 X103.104 Y124.394 E.21712
G1 X103.412 Y124.394 E.01548
G1 X103.412 Y177.743 E2.67739
G1 X103.796 Y177.743 E.01923
G1 X103.796 Y124.394 E2.67739
G1 X104.179 Y124.394 E.01923
G1 X104.179 Y177.743 E2.67739
G1 X104.562 Y177.743 E.01923
G1 X104.562 Y124.394 E2.67739
G1 X104.945 Y124.394 E.01923
G1 X104.945 Y177.743 E2.67739
G1 X105.328 Y177.743 E.01923
G1 X105.328 Y124.394 E2.67739
G1 X105.712 Y124.394 E.01923
G1 X105.712 Y177.743 E2.67739
G1 X106.095 Y177.743 E.01923
G1 X106.095 Y124.394 E2.67739
G1 X106.478 Y124.394 E.01923
G1 X106.478 Y177.743 E2.67739
G1 X106.861 Y177.743 E.01923
G1 X106.861 Y124.394 E2.67739
G1 X107.244 Y124.394 E.01923
G1 X107.244 Y177.743 E2.67739
G1 X107.628 Y177.743 E.01923
G1 X107.628 Y124.394 E2.67739
G1 X108.011 Y124.394 E.01923
G1 X108.011 Y177.743 E2.67739
G1 X108.394 Y177.743 E.01923
G1 X108.394 Y124.394 E2.67739
G1 X108.777 Y124.394 E.01923
G1 X108.777 Y177.743 E2.67739
G1 X109.16 Y177.743 E.01923
G1 X109.16 Y124.394 E2.67739
G1 X109.544 Y124.394 E.01923
