; generated by PrusaSlicer 2.5.0+win64 on 2022-12-07 at 00:09:43 UTC

; 

; external perimeters extrusion width = 1.00mm
; perimeters extrusion width = 1.00mm
; infill extrusion width = 1.00mm
; solid infill extrusion width = 1.00mm
; top infill extrusion width = 1.00mm
; support material extrusion width = 1.00mm
; first layer extrusion width = 0.42mm

M73 P0 R269
M107
;TYPE:Custom
G90 ; use absolute coordinates
M83 ; extruder relative mode
M140 S60 ; set final bed temp
M104 S150 ; set temporary nozzle temp to prevent oozing during homing and auto bed leveling
G4 S10 ; allow partial nozzle warmup
G28 ; home all axisG1 Z50 F240
G1 X7.6 Y10 F3000
M104 S210 ; set final nozzle temp
M190 S60 ; wait for bed temp to stabilize
M109 S210 ; wait for nozzle temp to stabilize
G1 Z0.28 F240
G92 E0
G1 Y140 E10 F1500 ; prime the nozzle
G1 X4 F5000
G92 E0
G1 Y10 E10 F1200 ; prime the nozzle
G92 E0
G21 ; set units to millimeters
G90 ; use absolute coordinates
M83 ; use relative distances for extrusion
; Filament gcode
M107
;LAYER_CHANGE
;Z:0.35
;HEIGHT:0.35
;BEFORE_LAYER_CHANGE
G92 E0
;0.35


G1 E-1 F3600
G1 Z.35 F7800
;AFTER_LAYER_CHANGE
;0.35
G1 X31.275 Y41.846
G1 E1 F2400
;TYPE:Support material
;WIDTH:0.42
G1 F1800
G1 X28.275 Y41.846 E.15056
G1 X28.275 Y48.631 E.34053
G1 X24.882 Y48.631 E.17027
G1 X24.882 Y72.38 E1.19186
G1 X21.49 Y72.38 E.17027
G1 X21.49 Y96.129 E1.19186
G1 X18.097 Y96.129 E.17027
G1 X18.097 Y119.878 E1.19186
G1 X14.704 Y119.878 E.17027
G1 X14.704 Y122.878 E.15056
G1 X12.124 Y122.878 E.12947
G1 X12.124 Y39.266 E4.19614
G1 X31.275 Y39.266 E.96109
G1 X31.275 Y41.794 E.12687
G1 X30.602 Y41.691 F7800
G1 F1800
G1 X30.602 Y39.576 E.1061
G1 X30.219 Y39.576 E.01923
G1 X30.219 Y41.535 E.09831
G1 X29.836 Y41.535 E.01923
G1 X29.836 Y39.576 E.09831
G1 X29.453 Y39.576 E.01923
G1 X29.453 Y41.535 E.09831
G1 X29.07 Y41.535 E.01923
G1 X29.07 Y39.576 E.09831
G1 X28.686 Y39.576 E.01923
G1 X28.686 Y41.535 E.09831
G1 X28.303 Y41.535 E.01923
G1 X28.303 Y39.576 E.09831
G1 X27.92 Y39.576 E.01923
G1 X27.92 Y48.321 E.43885
G1 X27.537 Y48.321 E.01923
G1 X27.537 Y39.576 E.43885
G1 X27.154 Y39.576 E.01923
G1 X27.154 Y48.321 E.43885
G1 X26.77 Y48.321 E.01923
G1 X26.77 Y39.576 E.43885
G1 X26.387 Y39.576 E.01923
G1 X26.387 Y48.321 E.43885
G1 X26.004 Y48.321 E.01923
G1 X26.004 Y39.576 E.43885
G1 X25.621 Y39.576 E.01923
G1 X25.621 Y48.321 E.43885
G1 X25.238 Y48.321 E.01923
G1 X25.238 Y39.576 E.43885
G1 X24.854 Y39.576 E.01923
G1 X24.854 Y48.321 E.43885
G1 X24.572 Y48.321 E.01417
G1 X24.572 Y72.07 E1.19186
G1 X24.471 Y72.07 E.00506
G1 X24.471 Y39.576 E1.63071
G1 X24.088 Y39.576 E.01923
G1 X24.088 Y72.07 E1.63071
G1 X23.705 Y72.07 E.01923
G1 X23.705 Y39.576 E1.63071
G1 X23.321 Y39.576 E.01923
G1 X23.321 Y72.07 E1.63071
G1 X22.938 Y72.07 E.01923
G1 X22.938 Y39.576 E1.63071
G1 X22.555 Y39.576 E.01923
G1 X22.555 Y72.07 E1.63071
G1 X22.172 Y72.07 E.01923
G1 X22.172 Y39.576 E1.63071
G1 X21.789 Y39.576 E.01923
G1 X21.789 Y72.07 E1.63071
G1 X21.405 Y72.07 E.01923
G1 X21.405 Y39.576 E1.63071
G1 X21.022 Y39.576 E.01923
G1 X21.022 Y95.819 E2.82257
G1 X20.639 Y95.819 E.01923
G1 X20.639 Y39.576 E2.82257
G1 X20.256 Y39.576 E.01923
G1 X20.256 Y95.819 E2.82257
G1 X19.873 Y95.819 E.01923
G1 X19.873 Y39.576 E2.82257
G1 X19.489 Y39.576 E.01923
G1 X19.489 Y95.819 E2.82257
G1 X19.106 Y95.819 E.01923
G1 X19.106 Y39.576 E2.82257
G1 X18.723 Y39.576 E.01923
G1 X18.723 Y95.819 E2.82257
G1 X18.34 Y95.819 E.01923
G1 X18.34 Y39.576 E2.82257
G1 X17.957 Y39.576 E.01923
G1 X17.957 Y95.819 E2.82257
G1 X17.786 Y95.819 E.00853
G1 X17.786 Y119.567 E1.19186
G1 X17.573 Y119.567 E.0107
G1 X17.573 Y39.576 E4.01443
G1 X17.19 Y39.576 E.01923
G1 X17.19 Y119.567 E4.01443
G1 X16.807 Y119.567 E.01923
M73 P0 R268
G1 X16.807 Y39.576 E4.01443
G1 X16.424 Y39.576 E.01923
G1 X16.424 Y119.567 E4.01443
G1 X16.04 Y119.567 E.01923
G1 X16.04 Y39.576 E4.01443
G1 X15.657 Y39.576 E.01923
G1 X15.657 Y119.567 E4.01443
G1 X15.274 Y119.567 E.01923
G1 X15.274 Y39.576 E4.01443
G1 X14.891 Y39.576 E.01923
G1 X14.891 Y119.567 E4.01443
G1 X14.508 Y119.567 E.01923
G1 X14.508 Y39.576 E4.01443
G1 X14.124 Y39.576 E.01923
G1 X14.124 Y122.567 E4.16498
G1 X13.741 Y122.567 E.01923
G1 X13.741 Y39.576 E4.16498
G1 X13.358 Y39.576 E.01923
G1 X13.358 Y122.567 E4.16498
G1 X12.975 Y122.567 E.01923
G1 X12.975 Y39.576 E4.16498
G1 X12.592 Y39.576 E.01923
G1 X12.592 Y122.723 E4.17277
G1 E-.7 F3600
;WIPE_START
G1 F6240
G1 X12.592 Y122.203 E-.285
;WIPE_END
G1 E-.015 F3600
G1 X15.46 Y137.9 F7800
G1 E1 F2400
;TYPE:Support material interface
;WIDTH:1
G1 F1800
G1 X15.46 Y120.534 E2.33708
G1 X16.352 Y120.534 E.12014
G1 X16.352 Y137.498 E2.28301
G1 X17.245 Y137.498 E.12014
G1 X17.245 Y120.534 E2.28301
G1 X18.138 Y120.534 E.12014
G1 X18.138 Y137.498 E2.28301
G1 X19.03 Y137.498 E.12014
G1 X19.03 Y96.785 E5.47922
G1 X19.923 Y96.785 E.12014
G1 X19.923 Y137.498 E5.47922
G1 X20.816 Y137.498 E.12014
G1 X20.816 Y96.785 E5.47922
G1 X21.708 Y96.785 E.12014
G1 X21.708 Y137.9 E5.53329
G1 E-.7 F3600
;WIPE_START
G1 F6240
G1 X21.708 Y137.38 E-.285
;WIPE_END
G1 E-.015 F3600
G1 X56.524 Y137.9 F7800
G1 E1 F2400
G1 F1800
G1 X56.524 Y130.712 E.96727
G1 X57.416 Y130.712 E.12014
G1 X57.416 Y137.498 E.91321
G1 X58.309 Y137.498 E.12014
G1 X58.309 Y130.712 E.91321
G1 X59.202 Y130.712 E.12014
G1 X59.202 Y137.498 E.91321
G1 X60.095 Y137.498 E.12014
G1 X60.095 Y130.712 E.91321
G1 X60.987 Y130.712 E.12014
G1 X60.987 Y137.498 E.91321
G1 X61.88 Y137.498 E.12014
G1 X61.88 Y130.712 E.91321
G1 X62.773 Y130.712 E.12014
G1 X62.773 Y137.498 E.91321
G1 X63.665 Y137.498 E.12014
G1 X63.665 Y130.712 E.91321
G1 X64.558 Y130.712 E.12014
G1 X64.558 Y137.498 E.91321
G1 X65.451 Y137.498 E.12014
G1 X65.451 Y130.712 E.91321
G1 X66.343 Y130.712 E.12014
G1 X66.343 Y137.498 E.91321
G1 X67.236 Y137.498 E.12014
G1 X67.236 Y130.712 E.91321
G1 X68.129 Y130.712 E.12014
G1 X68.129 Y137.498 E.91321
G1 X69.022 Y137.498 E.12014
G1 X69.022 Y130.712 E.91321
G1 X69.914 Y130.712 E.12014
G1 X69.914 Y137.498 E.91321
G1 X70.807 Y137.498 E.12014
G1 X70.807 Y130.712 E.91321
G1 X71.7 Y130.712 E.12014
G1 X71.7 Y137.498 E.91321
G1 X72.592 Y137.498 E.12014
G1 X72.592 Y130.712 E.91321
G1 X73.485 Y130.712 E.12014
G1 X73.485 Y137.498 E.91321
G1 X74.378 Y137.498 E.12014
G1 X74.378 Y130.712 E.91321
G1 X75.27 Y130.712 E.12014
G1 X75.27 Y137.498 E.91321
G1 X76.163 Y137.498 E.12014
G1 X76.163 Y130.712 E.91321
G1 X77.056 Y130.712 E.12014
G1 X77.056 Y137.498 E.91321
G1 X77.949 Y137.498 E.12014
G1 X77.949 Y130.712 E.91321
G1 X78.841 Y130.712 E.12014
G1 X78.841 Y137.498 E.91321
G1 X79.734 Y137.498 E.12014
G1 X79.734 Y130.712 E.91321
G1 X80.627 Y130.712 E.12014
G1 X80.627 Y137.498 E.91321
G1 X81.519 Y137.498 E.12014
G1 X81.519 Y130.712 E.91321
G1 X82.412 Y130.712 E.12014
G1 X82.412 Y137.498 E.91321
G1 X83.305 Y137.498 E.12014
G1 X83.305 Y130.712 E.91321
G1 X84.197 Y130.712 E.12014
G1 X84.197 Y137.498 E.91321
G1 X85.09 Y137.498 E.12014
G1 X85.09 Y130.712 E.91321
G1 X85.846 Y130.712 E.10172
G1 X85.223 Y136.157 E.73758
G1 X85.983 Y137.009 E.15357
G1 X85.983 Y137.498 E.06581
G1 X86.875 Y137.498 E.12014
G1 X86.875 Y137.124 E.05026
G1 X87.768 Y137.124 E.12014
G1 X87.768 Y137.498 E.05026
G1 X88.661 Y137.498 E.12014
G1 X88.661 Y137.124 E.05026
G1 X89.554 Y137.124 E.12014
G1 X89.554 Y137.498 E.05026
G1 X90.446 Y137.498 E.12014
G1 X90.446 Y137.124 E.05026
G1 X91.339 Y137.124 E.12014
G1 X91.339 Y137.498 E.05026
G1 X92.232 Y137.498 E.12014
G1 X92.232 Y137.124 E.05026
G1 X93.124 Y137.124 E.12014
G1 X93.124 Y137.498 E.05026
G1 X94.017 Y137.498 E.12014
G1 X94.017 Y137.124 E.05026
G1 X94.91 Y137.124 E.12014
G1 X94.91 Y137.498 E.05026
G1 X95.802 Y137.498 E.12014
G1 X95.802 Y137.124 E.05026
G1 X96.695 Y137.124 E.12014
G1 X96.695 Y137.498 E.05026
G1 X97.588 Y137.498 E.12014
G1 X97.588 Y137.124 E.05026
G1 X98.481 Y137.124 E.12014
G1 X98.481 Y137.498 E.05026
G1 X99.373 Y137.498 E.12014
G1 X99.373 Y137.124 E.05026
G1 X100.266 Y137.124 E.12014
G1 X100.266 Y137.498 E.05026
G1 X101.159 Y137.498 E.12014
G1 X101.159 Y137.124 E.05026
G1 X102.051 Y137.124 E.12014
G1 X102.051 Y137.498 E.05026
G1 X102.944 Y137.498 E.12014
G1 X102.944 Y137.124 E.05026
G1 X103.837 Y137.124 E.12014
G1 X103.837 Y137.498 E.05026
G1 X104.729 Y137.498 E.12014
G1 X104.729 Y137.124 E.05026
G1 X105.622 Y137.124 E.12014
G1 X105.622 Y137.498 E.05026
G1 X106.515 Y137.498 E.12014
G1 X106.515 Y137.124 E.05026
G1 X107.408 Y137.124 E.12014
G1 X107.408 Y137.498 E.05026
G1 X108.3 Y137.498 E.12014
G1 X108.3 Y137.124 E.05026
G1 X109.193 Y137.124 E.12014
G1 X109.193 Y137.498 E.05026
G1 X110.086 Y137.498 E.12014
G1 X110.086 Y137.124 E.05026
G1 X110.978 Y137.124 E.12014
G1 X110.978 Y137.498 E.05026
G1 X111.871 Y137.498 E.12014
G1 X111.871 Y137.124 E.05026
G1 X112.764 Y137.124 E.12014
G1 X112.764 Y137.498 E.05026
G1 X113.656 Y137.498 E.12014
G1 X113.656 Y137.124 E.05026
G1 X114.549 Y137.124 E.12014
G1 X114.549 Y137.498 E.05026
G1 X115.442 Y137.498 E.12014
G1 X115.442 Y137.124 E.05026
G1 X116.335 Y137.124 E.12014
G1 X116.335 Y137.498 E.05026
G1 X117.227 Y137.498 E.12014
G1 X117.227 Y137.124 E.05026
G1 X118.12 Y137.124 E.12014
G1 X118.12 Y137.498 E.05026
G1 X119.013 Y137.498 E.12014
G1 X119.013 Y137.124 E.05026
G1 X119.905 Y137.124 E.12014
G1 X119.905 Y137.9 E.10433
G1 E-.7 F3600
;WIPE_START
G1 F6240
G1 X119.905 Y137.38 E-.285
;WIPE_END
G1 E-.015 F3600
G1 X127.163 Y140.734 F7800
G1 E1 F2400
;TYPE:Support material
;WIDTH:0.42
G1 F1800
G1 X118.191 Y140.734 E.45029
G1 X118.191 Y138.154 E.12947
G1 X121.191 Y138.154 E.15056
G1 X121.191 Y136.468 E.08463
G1 X120.577 Y136.468 E.03082
G1 X120.049 Y135.878 E.03971
G1 X120.049 Y136.468 E.02961
G1 X118.191 Y136.468 E.09327
G1 X118.191 Y133.888 E.12947
G1 X127.163 Y133.888 E.45029
G1 X127.163 Y140.682 E.34097
G1 X126.788 Y140.579 F7800
M73 P0 R267
G1 F1800
G1 X126.788 Y134.199 E.3202
G1 X126.405 Y134.199 E.01923
G1 X126.405 Y140.424 E.31242
G1 X126.022 Y140.424 E.01923
G1 X126.022 Y134.199 E.31242
G1 X125.639 Y134.199 E.01923
G1 X125.639 Y140.424 E.31242
G1 X125.255 Y140.424 E.01923
G1 X125.255 Y134.199 E.31242
G1 X124.872 Y134.199 E.01923
G1 X124.872 Y140.424 E.31242
G1 X124.489 Y140.424 E.01923
G1 X124.489 Y134.199 E.31242
G1 X124.106 Y134.199 E.01923
G1 X124.106 Y140.424 E.31242
G1 X123.722 Y140.424 E.01923
G1 X123.722 Y134.199 E.31242
G1 X123.339 Y134.199 E.01923
G1 X123.339 Y140.424 E.31242
G1 X122.956 Y140.424 E.01923
G1 X122.956 Y134.199 E.31242
G1 X122.573 Y134.199 E.01923
G1 X122.573 Y140.424 E.31242
G1 X122.19 Y140.424 E.01923
G1 X122.19 Y134.199 E.31242
G1 X121.806 Y134.199 E.01923
G1 X121.806 Y140.424 E.31242
G1 X121.423 Y140.424 E.01923
G1 X121.423 Y134.199 E.31242
G1 X121.04 Y134.199 E.01923
G1 X121.04 Y136.158 E.09831
G1 X120.715 Y136.157 E.01629
G1 X120.657 Y136.092 E.00442
G1 X120.657 Y134.199 E.09502
G1 X120.274 Y134.199 E.01923
G1 X120.274 Y135.663 E.0735
G1 X119.89 Y135.234 E.02886
G1 X119.89 Y134.199 E.05199
G1 X119.507 Y134.199 E.01923
G1 X119.507 Y136.158 E.09831
G1 X119.124 Y136.158 E.01923
G1 X119.124 Y134.199 E.09831
G1 X118.741 Y134.199 E.01923
G1 X118.741 Y136.313 E.1061
G1 E-.7 F3600
;WIPE_START
G1 F6240
G1 X118.741 Y135.793 E-.285
;WIPE_END
G1 E-.015 F3600
G1 X121.04 Y140.579 F7800
G1 E1 F2400
G1 F1800
G1 X121.04 Y138.465 E.1061
G1 X120.657 Y138.465 E.01923
G1 X120.657 Y140.424 E.09831
G1 X120.274 Y140.424 E.01923
G1 X120.274 Y138.465 E.09831
G1 X119.89 Y138.465 E.01923
G1 X119.89 Y140.424 E.09831
G1 X119.507 Y140.424 E.01923
G1 X119.507 Y138.465 E.09831
G1 X119.124 Y138.465 E.01923
G1 X119.124 Y140.424 E.09831
G1 X118.741 Y140.424 E.01923
G1 X118.741 Y138.309 E.1061
G1 E-.7 F3600
;WIPE_START
G1 F6240
G1 X118.741 Y138.829 E-.285
;WIPE_END
G1 E-.015 F3600
G1 X88.661 Y109.637 F7800
G1 E1 F2400
;TYPE:Support material interface
;WIDTH:1
G1 F1800
G1 X88.661 Y100.178 E1.27295
G1 X87.768 Y100.178 E.12014
G1 X87.768 Y113.906 E1.84758
G1 X86.875 Y121.711 E1.05725
G1 X86.875 Y99.776 E2.95205
G1 E-.7 F3600
;WIPE_START
G1 F6240
G1 X86.875 Y100.296 E-.285
;WIPE_END
G1 E-.015 F3600
G1 X92.232 Y78.417 F7800
G1 E1 F2400
G1 F1800
G1 X92.232 Y69.644 E1.18076
G1 X91.339 Y69.644 E.12014
G1 X91.339 Y82.687 E1.7554
G1 X90.446 Y90.492 E1.05725
G1 X90.446 Y69.242 E2.85986
G1 E-.7 F3600
;WIPE_START
G1 F6240
G1 X90.446 Y69.762 E-.285
;WIPE_END
G1 E-.015 F3600
G1 X130.618 Y43.435 F7800
G1 E1 F2400
G1 F1800
G1 X130.618 Y42.502 E.12556
G1 X129.725 Y42.502 E.12014
G1 X129.725 Y44.99 E.33484
G1 X128.832 Y44.961 E.12021
G1 X128.832 Y42.502 E.33096
G1 X127.94 Y42.502 E.12014
G1 X127.94 Y44.933 E.32708
G1 X127.047 Y44.904 E.12021
G1 X127.047 Y42.502 E.3232
G1 X126.154 Y42.502 E.12014
G1 X126.154 Y44.875 E.31932
G1 X125.262 Y44.846 E.12021
G1 X125.262 Y42.502 E.31544
G1 X124.369 Y42.502 E.12014
G1 X124.369 Y44.817 E.31156
G1 X123.476 Y44.788 E.12021
G1 X123.476 Y42.502 E.30768
G1 X122.583 Y42.502 E.12014
G1 X122.583 Y44.76 E.3038
G1 X121.691 Y44.731 E.12021
G1 X121.691 Y42.502 E.29992
G1 X120.798 Y42.502 E.12014
G1 X120.798 Y44.702 E.29604
G1 X119.905 Y44.673 E.12021
G1 X119.905 Y42.502 E.29216
G1 X119.013 Y42.502 E.12014
G1 X119.013 Y44.644 E.28828
G1 X118.12 Y44.615 E.12021
G1 X118.12 Y42.502 E.28439
G1 X117.227 Y42.502 E.12014
G1 X117.227 Y44.587 E.28051
G1 X116.335 Y44.558 E.12021
G1 X116.335 Y42.502 E.27663
G1 X115.442 Y42.502 E.12014
G1 X115.442 Y44.529 E.27275
G1 X114.549 Y44.5 E.12021
G1 X114.549 Y42.502 E.26887
G1 X113.656 Y42.502 E.12014
G1 X113.656 Y44.471 E.26499
G1 X112.764 Y44.442 E.12021
G1 X112.764 Y42.502 E.26111
G1 X111.871 Y42.502 E.12014
G1 X111.871 Y44.414 E.25723
G1 X110.978 Y44.385 E.12021
G1 X110.978 Y42.502 E.25335
G1 X110.086 Y42.502 E.12014
G1 X110.086 Y44.356 E.24947
G1 X109.193 Y44.327 E.12021
G1 X109.193 Y42.502 E.24559
G1 X108.3 Y42.502 E.12014
G1 X108.3 Y44.298 E.24171
G1 X107.408 Y44.269 E.12021
G1 X107.408 Y42.502 E.23783
G1 X106.515 Y42.502 E.12014
G1 X106.515 Y44.241 E.23395
G1 X105.622 Y44.212 E.12021
G1 X105.622 Y42.502 E.23007
G1 X104.729 Y42.502 E.12014
G1 X104.729 Y44.183 E.22619
G1 X103.837 Y44.154 E.12021
G1 X103.837 Y42.502 E.22231
G1 X102.944 Y42.502 E.12014
G1 X102.944 Y44.125 E.21843
G1 X102.051 Y44.096 E.12021
G1 X102.051 Y42.502 E.21455
G1 X101.159 Y42.502 E.12014
G1 X101.159 Y44.068 E.21067
G1 X100.266 Y44.039 E.12021
G1 X100.266 Y42.502 E.20679
G1 X99.373 Y42.502 E.12014
G1 X99.373 Y44.01 E.2029
G1 X98.481 Y43.981 E.12021
G1 X98.481 Y42.502 E.19902
G1 X97.588 Y42.502 E.12014
G1 X97.588 Y43.952 E.19514
G1 X97.282 Y43.942 E.04119
G1 X96.695 Y44.36 E.09691
G1 X96.695 Y42.502 E.24997
G1 X95.802 Y42.502 E.12014
G1 X95.802 Y45.6 E.41688
G1 X95.668 Y45.774 E.02961
G1 X95.519 Y46.14 E.05326
G1 X94.91 Y51.468 E.72164
G1 X94.91 Y42.502 E1.20661
G1 X94.017 Y42.502 E.12014
G1 X94.017 Y59.273 E2.25701
G1 X93.393 Y64.732 E.73951
G1 X93.393 Y49.288 E2.07852
G1 X93.124 Y49.288 E.03611
G1 X93.124 Y42.502 E.91321
G1 X92.232 Y42.502 E.12014
G1 X92.232 Y49.288 E.91321
G1 X91.339 Y49.288 E.12014
G1 X91.339 Y42.502 E.91321
G1 X90.446 Y42.502 E.12014
G1 X90.446 Y49.288 E.91321
G1 X89.554 Y49.288 E.12014
G1 X89.554 Y42.502 E.91321
G1 X88.661 Y42.502 E.12014
G1 X88.661 Y49.288 E.91321
G1 X87.768 Y49.288 E.12014
G1 X87.768 Y42.502 E.91321
G1 X86.876 Y42.502 E.12014
G1 X86.876 Y49.288 E.91321
G1 X85.983 Y49.288 E.12014
G1 X85.983 Y42.502 E.91321
G1 X85.09 Y42.502 E.12014
G1 X85.09 Y49.288 E.91321
G1 X84.197 Y49.288 E.12014
G1 X84.197 Y42.502 E.91321
G1 X83.305 Y42.502 E.12014
G1 X83.305 Y49.288 E.91321
G1 X82.412 Y49.288 E.12014
G1 X82.412 Y42.502 E.91321
G1 X81.519 Y42.502 E.12014
G1 X81.519 Y49.288 E.91321
G1 X80.627 Y49.288 E.12014
G1 X80.627 Y42.502 E.91321
G1 X79.734 Y42.502 E.12014
G1 X79.734 Y49.288 E.91321
G1 X78.841 Y49.288 E.12014
G1 X78.841 Y42.502 E.91321
G1 X77.949 Y42.502 E.12014
G1 X77.949 Y49.288 E.91321
G1 X77.056 Y49.288 E.12014
G1 X77.056 Y42.502 E.91321
G1 X76.163 Y42.502 E.12014
G1 X76.163 Y49.288 E.91321
G1 X75.27 Y49.288 E.12014
G1 X75.27 Y42.502 E.91321
G1 X74.378 Y42.502 E.12014
G1 X74.378 Y49.288 E.91321
G1 X73.485 Y49.288 E.12014
G1 X73.485 Y42.502 E.91321
G1 X72.592 Y42.502 E.12014
G1 X72.592 Y49.288 E.91321
G1 X71.7 Y49.288 E.12014
G1 X71.7 Y42.502 E.91321
G1 X70.807 Y42.502 E.12014
