; generated by PrusaSlicer 2.5.0+win64 on 2022-12-07 at 00:09:40 UTC

; 

; external perimeters extrusion width = 1.00mm
; perimeters extrusion width = 1.00mm
; infill extrusion width = 1.00mm
; solid infill extrusion width = 1.00mm
; top infill extrusion width = 1.00mm
; support material extrusion width = 1.00mm
; first layer extrusion width = 0.42mm

M73 P0 R255
M107
;TYPE:Custom
G90 ; use absolute coordinates
M83 ; extruder relative mode
M140 S60 ; set final bed temp
M104 S150 ; set temporary nozzle temp to prevent oozing during homing and auto bed leveling
G4 S10 ; allow partial nozzle warmup
G28 ; home all axisG1 Z50 F240
G1 X7.6 Y10 F3000
M104 S210 ; set final nozzle temp
M190 S60 ; wait for bed temp to stabilize
M109 S210 ; wait for nozzle temp to stabilize
G1 Z0.28 F240
G92 E0
G1 Y140 E10 F1500 ; prime the nozzle
G1 X4 F5000
G92 E0
G1 Y10 E10 F1200 ; prime the nozzle
G92 E0
G21 ; set units to millimeters
G90 ; use absolute coordinates
M83 ; use relative distances for extrusion
; Filament gcode
M107
;LAYER_CHANGE
;Z:0.35
;HEIGHT:0.35
;BEFORE_LAYER_CHANGE
G92 E0
;0.35


G1 E-1 F3600
M73 P0 R254
G1 Z.35 F7800
;AFTER_LAYER_CHANGE
;0.35
G1 X53.846 Y22.548
G1 E1 F2400
;TYPE:Support material interface
;WIDTH:1
G1 F1800
G1 X53.846 Y15.361 E.96727
G1 X54.738 Y15.361 E.12014
G1 X54.738 Y22.146 E.91321
G1 X55.631 Y22.146 E.12014
G1 X55.631 Y15.361 E.91321
G1 X56.524 Y15.361 E.12014
G1 X56.524 Y22.146 E.91321
G1 X57.416 Y22.146 E.12014
G1 X57.416 Y15.361 E.91321
G1 X58.309 Y15.361 E.12014
G1 X58.309 Y22.146 E.91321
G1 X59.202 Y22.146 E.12014
G1 X59.202 Y15.361 E.91321
G1 X60.094 Y15.361 E.12014
G1 X60.094 Y22.146 E.91321
G1 X60.987 Y22.146 E.12014
G1 X60.987 Y15.361 E.91321
G1 X61.88 Y15.361 E.12014
G1 X61.88 Y22.146 E.91321
G1 X62.773 Y22.146 E.12014
G1 X62.773 Y15.361 E.91321
G1 X63.665 Y15.361 E.12014
G1 X63.665 Y22.146 E.91321
G1 X64.558 Y22.146 E.12014
G1 X64.558 Y15.361 E.91321
G1 X65.451 Y15.361 E.12014
G1 X65.451 Y22.146 E.91321
G1 X66.343 Y22.146 E.12014
G1 X66.343 Y15.361 E.91321
G1 X67.236 Y15.361 E.12014
G1 X67.236 Y22.146 E.91321
G1 X68.129 Y22.146 E.12014
G1 X68.129 Y15.361 E.91321
G1 X69.021 Y15.361 E.12014
G1 X69.021 Y22.146 E.91321
G1 X69.914 Y22.146 E.12014
G1 X69.914 Y15.361 E.91321
G1 X70.807 Y15.361 E.12014
G1 X70.807 Y22.146 E.91321
G1 X71.7 Y22.146 E.12014
G1 X71.7 Y15.361 E.91321
G1 X72.592 Y15.361 E.12014
G1 X72.592 Y22.146 E.91321
G1 X73.036 Y22.146 E.05978
G1 X73.036 Y26.013 E.52049
G1 X73.485 Y23.999 E.27774
G1 X73.485 Y15.361 E1.1626
G1 X74.378 Y15.361 E.12014
G1 X74.378 Y18.997 E.4894
G1 X74.764 Y16.383 E.35559
G1 X75.27 Y15.947 E.08993
G1 X75.27 Y15.361 E.07889
G1 X76.163 Y15.361 E.12014
G1 X76.163 Y15.681 E.04308
G1 X77.056 Y15.681 E.12014
G1 X77.056 Y15.361 E.04308
G1 X77.948 Y15.361 E.12014
G1 X77.948 Y15.681 E.04308
G1 X78.841 Y15.681 E.12014
G1 X78.841 Y15.361 E.04308
G1 X79.734 Y15.361 E.12014
G1 X79.734 Y15.681 E.04308
G1 X80.627 Y15.681 E.12014
G1 X80.627 Y15.361 E.04308
G1 X81.519 Y15.361 E.12014
G1 X81.519 Y15.681 E.04308
G1 X82.412 Y15.681 E.12014
G1 X82.412 Y15.361 E.04308
G1 X83.305 Y15.361 E.12014
G1 X83.305 Y15.681 E.04308
G1 X84.197 Y15.681 E.12014
G1 X84.197 Y15.361 E.04308
G1 X85.09 Y15.361 E.12014
G1 X85.09 Y15.681 E.04308
G1 X85.983 Y15.681 E.12014
G1 X85.983 Y15.361 E.04308
G1 X86.875 Y15.361 E.12014
G1 X86.875 Y15.681 E.04308
G1 X87.768 Y15.681 E.12014
G1 X87.768 Y15.361 E.04308
G1 X88.661 Y15.361 E.12014
G1 X88.661 Y15.681 E.04308
G1 X89.554 Y15.681 E.12014
G1 X89.554 Y15.361 E.04308
G1 X90.446 Y15.361 E.12014
G1 X90.446 Y15.681 E.04308
G1 X91.339 Y15.681 E.12014
G1 X91.339 Y15.361 E.04308
G1 X92.232 Y15.361 E.12014
G1 X92.232 Y15.681 E.04308
G1 X93.124 Y15.681 E.12014
G1 X93.124 Y15.361 E.04308
G1 X94.017 Y15.361 E.12014
G1 X94.017 Y15.681 E.04308
G1 X94.91 Y15.681 E.12014
G1 X94.91 Y15.361 E.04308
G1 X95.802 Y15.361 E.12014
G1 X95.802 Y15.681 E.04308
G1 X96.695 Y15.681 E.12014
G1 X96.695 Y15.361 E.04308
G1 X97.588 Y15.361 E.12014
G1 X97.588 Y15.681 E.04308
G1 X98.481 Y15.681 E.12014
G1 X98.481 Y15.361 E.04308
G1 X99.373 Y15.361 E.12014
G1 X99.373 Y15.681 E.04308
G1 X100.266 Y15.681 E.12014
G1 X100.266 Y15.361 E.04308
G1 X101.159 Y15.361 E.12014
G1 X101.159 Y15.681 E.04308
G1 X102.051 Y15.681 E.12014
G1 X102.051 Y15.361 E.04308
G1 X102.944 Y15.361 E.12014
G1 X102.944 Y15.681 E.04308
G1 X103.837 Y15.681 E.12014
G1 X103.837 Y15.361 E.04308
G1 X104.729 Y15.361 E.12014
G1 X104.729 Y15.681 E.04308
G1 X105.622 Y15.681 E.12014
G1 X105.622 Y15.361 E.04308
G1 X106.515 Y15.361 E.12014
G1 X106.515 Y15.681 E.04308
G1 X107.408 Y15.681 E.12014
G1 X107.408 Y15.361 E.04308
G1 X108.3 Y15.361 E.12014
G1 X108.3 Y15.681 E.04308
G1 X109.193 Y15.681 E.12014
G1 X109.193 Y15.361 E.04308
G1 X110.086 Y15.361 E.12014
G1 X110.086 Y16.082 E.09714
G1 E-.7 F3600
;WIPE_START
G1 F6240
G1 X110.086 Y15.562 E-.285
;WIPE_END
G1 E-.015 F3600
G1 X69.914 Y28.53 F7800
G1 E1 F2400
G1 F1800
G1 X69.914 Y39.832 E1.52104
G1 X70.807 Y35.851 E.54902
G1 X70.807 Y28.931 E.93126
G1 X71.7 Y28.931 E.12014
G1 X71.7 Y33.749 E.64843
G1 E-.7 F3600
;WIPE_START
G1 F6240
G1 X71.7 Y33.229 E-.285
;WIPE_END
G1 E-.015 F3600
G1 X69.021 Y45.648 F7800
G1 E1 F2400
G1 F1800
G1 X69.021 Y42.502 E.42335
G1 X68.129 Y42.502 E.12014
G1 X68.129 Y47.793 E.71201
G1 X67.236 Y51.773 E.54902
G1 X67.236 Y42.502 E1.24773
G1 X66.343 Y42.502 E.12014
G1 X66.343 Y57.59 E2.03051
G1 E-.7 F3600
;WIPE_START
G1 F6240
G1 X66.343 Y57.07 E-.285
;WIPE_END
G1 E-.015 F3600
G1 X63.665 Y59.064 F7800
G1 E1 F2400
G1 F1800
G1 X63.665 Y67.695 E1.16166
G1 X64.558 Y63.715 E.54902
G1 X64.558 Y59.466 E.57187
G1 X65.451 Y59.466 E.12014
G1 X65.451 Y61.57 E.28322
G1 E-.7 F3600
;WIPE_START
G1 F6240
G1 X65.451 Y61.05 E-.285
;WIPE_END
G1 E-.015 F3600
G1 X60.094 Y72.635 F7800
G1 E1 F2400
G1 F1800
G1 X60.094 Y83.618 E1.47812
G1 X60.987 Y79.637 E.54902
G1 X60.987 Y73.036 E.88834
G1 X61.88 Y73.036 E.12014
G1 X61.88 Y77.492 E.59968
G1 E-.7 F3600
;WIPE_START
G1 F6240
G1 X61.88 Y76.972 E-.285
;WIPE_END
G1 E-.015 F3600
G1 X56.524 Y89.598 F7800
G1 E1 F2400
G1 F1800
G1 X56.524 Y99.256 E1.29976
G1 X57.416 Y95.479 E.52234
G1 X57.416 Y90 E.73736
G1 X58.309 Y90 E.12014
G1 X58.309 Y93.448 E.46408
G1 E-.7 F3600
;WIPE_START
G1 F6240
G1 X58.309 Y92.928 E-.285
;WIPE_END
G1 E-.015 F3600
G1 X54.738 Y108.557 F7800
G1 E1 F2400
G1 F1800
G1 X54.738 Y103.571 E.67102
G1 X53.846 Y103.571 E.12014
G1 X53.846 Y110.587 E.9443
G1 X52.953 Y114.373 E.52348
G1 X52.953 Y15.361 E13.32545
G1 X52.06 Y15.361 E.12014
G1 X52.06 Y118.321 E13.85682
G1 X51.167 Y122.27 E.54479
G1 X51.167 Y15.361 E14.3882
G1 X50.275 Y15.361 E.12014
G1 X50.275 Y126.218 E14.91958
G1 X49.382 Y130.166 E.54479
G1 X49.382 Y15.361 E15.45096
G1 X48.489 Y15.361 E.12014
G1 X48.489 Y134.115 E15.98234
G1 X47.597 Y138.063 E.54479
G1 X47.597 Y15.361 E16.51372
G1 X46.704 Y15.361 E.12014
G1 X46.704 Y143.833 E17.29025
G1 E-.7 F3600
;WIPE_START
G1 F6240
G1 X46.704 Y143.313 E-.285
;WIPE_END
G1 E-.015 F3600
G1 X46.704 Y165.041 F7800
G1 E1 F2400
G1 F1800
G1 X46.704 Y164.321 E.09687
G1 X47.597 Y164.321 E.12014
G1 X47.597 Y164.639 E.0428
G1 X48.489 Y164.639 E.12014
G1 X48.489 Y164.321 E.0428
G1 X49.382 Y164.321 E.12014
G1 X49.382 Y164.639 E.0428
G1 X50.275 Y164.639 E.12014
G1 X50.275 Y164.321 E.0428
G1 X51.167 Y164.321 E.12014
G1 X51.167 Y164.639 E.0428
G1 X52.06 Y164.639 E.12014
G1 X52.06 Y164.321 E.0428
G1 X52.953 Y164.321 E.12014
G1 X52.953 Y164.639 E.0428
G1 X53.846 Y164.639 E.12014
G1 X53.846 Y164.321 E.0428
G1 X54.738 Y164.321 E.12014
G1 X54.738 Y164.639 E.0428
G1 X55.631 Y164.639 E.12014
G1 X55.631 Y164.321 E.0428
G1 X56.524 Y164.321 E.12014
G1 X56.524 Y164.639 E.0428
G1 X57.416 Y164.639 E.12014
G1 X57.416 Y164.321 E.0428
G1 X58.309 Y164.321 E.12014
G1 X58.309 Y164.639 E.0428
G1 X59.202 Y164.639 E.12014
G1 X59.202 Y164.321 E.0428
G1 X60.094 Y164.321 E.12014
G1 X60.094 Y164.639 E.0428
G1 X60.987 Y164.639 E.12014
G1 X60.987 Y164.321 E.0428
G1 X61.88 Y164.321 E.12014
G1 X61.88 Y164.639 E.0428
G1 X62.773 Y164.639 E.12014
G1 X62.773 Y164.321 E.04281
G1 X63.665 Y164.321 E.12014
G1 X63.665 Y164.639 E.0428
G1 X64.558 Y164.639 E.12014
G1 X64.558 Y164.321 E.0428
G1 X65.451 Y164.321 E.12014
G1 X65.451 Y164.639 E.0428
G1 X66.343 Y164.639 E.12014
G1 X66.343 Y164.321 E.0428
G1 X67.236 Y164.321 E.12014
G1 X67.236 Y164.639 E.0428
G1 X68.129 Y164.639 E.12014
G1 X68.129 Y164.321 E.0428
G1 X69.021 Y164.321 E.12014
G1 X69.021 Y164.639 E.0428
G1 X69.914 Y164.639 E.12014
G1 X69.914 Y164.321 E.0428
G1 X70.807 Y164.321 E.12014
G1 X70.807 Y164.639 E.0428
G1 X71.7 Y164.639 E.12014
G1 X71.7 Y164.321 E.0428
G1 X72.592 Y164.321 E.12014
G1 X72.592 Y164.639 E.0428
G1 X73.485 Y164.639 E.12014
G1 X73.485 Y164.321 E.0428
M73 P0 R253
G1 X74.378 Y164.321 E.12014
G1 X74.378 Y164.639 E.0428
G1 X75.27 Y164.639 E.12014
G1 X75.27 Y164.321 E.0428
G1 X76.163 Y164.321 E.12014
G1 X76.163 Y164.639 E.0428
G1 X77.056 Y164.639 E.12014
G1 X77.056 Y164.321 E.0428
G1 X77.948 Y164.321 E.12014
G1 X77.948 Y164.639 E.0428
G1 X78.841 Y164.639 E.12014
G1 X78.841 Y164.321 E.0428
G1 X79.734 Y164.321 E.12014
G1 X79.734 Y165.041 E.09687
G1 E-.7 F3600
;WIPE_START
G1 F6240
G1 X79.734 Y164.521 E-.285
;WIPE_END
G1 E-.015 F3600
G1 X130.552 Y63.549 F7800
G1 E1 F2400
;TYPE:Perimeter
;WIDTH:0.760473
G1 F1800
G1 X130.577 Y63.716 E.01678
;WIDTH:0.711327
G1 X130.601 Y63.882 E.01558
;WIDTH:0.662181
G1 X130.626 Y64.049 E.01438
;WIDTH:0.613035
G1 X130.65 Y64.215 E.01317
;WIDTH:0.563889
G1 X130.675 Y64.382 E.01197
;WIDTH:0.514743
G1 X130.7 Y64.548 E.01077
;WIDTH:0.506052
G1 X130.679 Y65.394 E.05302
;WIDTH:0.546506
G1 X130.659 Y66.239 E.05799
;WIDTH:0.58696
G1 X130.639 Y67.084 E.06297
G1 X130.66 Y67.334 E.01866
;WIDTH:0.54522
G1 X130.681 Y67.583 E.01714
;WIDTH:0.50348
G1 X130.702 Y67.833 E.01562
;WIDTH:0.46174
G1 X130.723 Y68.083 E.0141
;WIDTH:0.42
G1 X130.725 Y162.82 E4.75447
G1 X120.859 Y162.82 E.49512
G1 X129.95 Y68.046 E4.77816
;WIDTH:0.46174
G1 X129.994 Y67.799 E.0141
;WIDTH:0.50348
G1 X130.039 Y67.553 E.01562
;WIDTH:0.54522
G1 X130.084 Y67.306 E.01714
;WIDTH:0.58696
G1 X130.128 Y67.059 E.01866
G1 X130.189 Y66.216 E.06297
;WIDTH:0.546506
G1 X130.249 Y65.373 E.05799
;WIDTH:0.506052
G1 X130.31 Y64.53 E.05302
;WIDTH:0.514743
G1 X130.35 Y64.366 E.01077
;WIDTH:0.563889
G1 X130.391 Y64.203 E.01197
;WIDTH:0.613035
G1 X130.431 Y64.04 E.01317
;WIDTH:0.662181
G1 X130.471 Y63.876 E.01438
;WIDTH:0.711327
G1 X130.512 Y63.713 E.01558
;WIDTH:0.760473
G1 X130.516 Y63.695 E.00182
G1 E-.7 F3600
;WIPE_START
G1 F6240
G1 X130.577 Y63.716 E-.0351
G1 X130.601 Y63.882 E-.09223
G1 X130.626 Y64.049 E-.09223
G1 X130.643 Y64.167 E-.06544
;WIPE_END
G1 E-.015 F3600
G1 X130.897 Y56.344 F7800
G1 E1 F2400
;TYPE:External perimeter
;WIDTH:0.801635
G1 F1800
G1 X130.951 Y55.209 E.12008
;WIDTH:0.842794
G1 X131.005 Y54.074 E.12689
;WIDTH:0.883952
G1 X131.06 Y52.94 E.13369
;WIDTH:0.925111
G1 X131.114 Y51.805 E.14049
G1 E-.7 F3600
;WIPE_START
G1 F6240
G1 X131.089 Y52.325 E-.285
;WIPE_END
G1 E-.015 F3600
G1 X130.897 Y56.344 F7800
G1 E1 F2400
;WIDTH:0.760477
G1 F1800
G1 X130.921 Y56.51 E.01678
;WIDTH:0.711331
G1 X130.946 Y56.677 E.01558
;WIDTH:0.662185
G1 X130.971 Y56.843 E.01438
;WIDTH:0.613039
G1 X130.995 Y57.009 E.01317
;WIDTH:0.563893
G1 X131.02 Y57.176 E.01197
;WIDTH:0.514747
G1 X131.044 Y57.342 E.01077
;WIDTH:0.507146
G1 X131.024 Y58.21 E.05459
;WIDTH:0.548692
G1 X131.003 Y59.078 E.05983
;WIDTH:0.590238
G1 X130.982 Y59.947 E.06508
G1 X131.003 Y60.196 E.01879
;WIDTH:0.547678
G1 X131.025 Y60.446 E.01723
;WIDTH:0.505119
G1 X131.046 Y60.696 E.01568
;WIDTH:0.462559
G1 X131.067 Y60.945 E.01413
;WIDTH:0.42
G1 X131.07 Y163.165 E5.12998
G1 X120.479 Y163.165 E.53148
G1 X130.288 Y60.908 E5.1554
;WIDTH:0.462559
G1 X130.333 Y60.662 E.01413
;WIDTH:0.505119
G1 X130.378 Y60.415 E.01568
;WIDTH:0.547678
G1 X130.423 Y60.168 E.01723
;WIDTH:0.590238
G1 X130.468 Y59.922 E.01879
G1 X130.53 Y59.056 E.06508
;WIDTH:0.548692
G1 X130.593 Y58.19 E.05983
;WIDTH:0.507146
G1 X130.655 Y57.324 E.05459
;WIDTH:0.514747
G1 X130.695 Y57.16 E.01077
;WIDTH:0.563893
G1 X130.735 Y56.997 E.01197
;WIDTH:0.613039
G1 X130.776 Y56.834 E.01317
;WIDTH:0.662185
G1 X130.816 Y56.67 E.01438
;WIDTH:0.711331
G1 X130.857 Y56.507 E.01558
;WIDTH:0.760477
G1 X130.861 Y56.489 E.00182
G1 E-.7 F3600
;WIPE_START
G1 F6240
G1 X130.921 Y56.51 E-.0351
G1 X130.946 Y56.677 E-.09223
G1 X130.971 Y56.843 E-.09223
G1 X130.988 Y56.961 E-.06544
;WIPE_END
G1 E-.015 F3600
G1 X130.552 Y63.549 F7800
G1 E1 F2400
;TYPE:Perimeter
;WIDTH:0.760473
G1 F1800
G1 X130.577 Y63.029 E.052
;WIDTH:0.710618
G1 X130.602 Y62.508 E.04822
;WIDTH:0.660764
G1 X130.627 Y61.987 E.04443
;WIDTH:0.610909
G1 X130.652 Y61.466 E.04065
;WIDTH:0.561055
G1 X130.677 Y60.945 E.03687
G1 E-.7 F3600
;WIPE_START
G1 F6240
G1 X130.652 Y61.465 E-.285
;WIPE_END
G1 E-.015 F3600
G1 X130.619 Y68.219 F7800
G1 E1 F2400
;TYPE:Solid infill
;WIDTH:0.420152
G1 F1800
G1 X130.264 Y67.864 E.02522
G1 X130.207 Y68.078 E.01111
G1 X130.188 Y68.276 E.00999
G1 X130.464 Y68.552 E.01961
G1 X130.464 Y69.04 E.0245
G1 X130.145 Y68.721 E.02265
G1 X130.102 Y69.166 E.02246
G1 X130.464 Y69.528 E.02568
G1 X130.464 Y70.016 E.0245
G1 X130.06 Y69.611 E.02871
G1 X130.017 Y70.057 E.02246
G1 X130.464 Y70.504 E.03175
G1 X130.464 Y70.992 E.0245
G1 X129.974 Y70.502 E.03478
G1 X129.931 Y70.947 E.02246
G1 X130.464 Y71.48 E.03781
G1 X130.464 Y71.968 E.0245
G1 X129.889 Y71.392 E.04085
G1 X129.846 Y71.838 E.02246
G1 X130.464 Y72.456 E.04388
G1 X130.464 Y72.944 E.0245
G1 X129.803 Y72.283 E.04691
G1 X129.761 Y72.728 E.02246
G1 X130.464 Y73.432 E.04995
G1 X130.464 Y73.92 E.0245
G1 X129.718 Y73.173 E.05298
G1 X129.675 Y73.619 E.02246
G1 X130.464 Y74.408 E.05601
G1 X130.464 Y74.896 E.0245
G1 X129.632 Y74.064 E.05905
G1 X129.59 Y74.509 E.02246
G1 X130.464 Y75.383 E.06208
G1 X130.464 Y75.871 E.0245
G1 X129.547 Y74.954 E.06511
G1 X129.504 Y75.4 E.02246
G1 X130.464 Y76.359 E.06815
G1 X130.464 Y76.847 E.0245
G1 X129.462 Y75.845 E.07118
G1 X129.419 Y76.29 E.02246
G1 X130.464 Y77.335 E.07421
G1 X130.464 Y77.823 E.0245
G1 X129.376 Y76.735 E.07725
G1 X129.333 Y77.181 E.02246
G1 X130.464 Y78.311 E.08028
G1 X130.464 Y78.799 E.0245
G1 X129.291 Y77.626 E.08331
G1 X129.248 Y78.071 E.02246
G1 X130.464 Y79.287 E.08635
G1 X130.464 Y79.775 E.0245
G1 X129.205 Y78.516 E.08938
G1 X129.163 Y78.962 E.02246
G1 X130.464 Y80.263 E.09241
G1 X130.464 Y80.751 E.0245
G1 X129.12 Y79.407 E.09545
G1 X129.077 Y79.852 E.02246
G1 X130.464 Y81.239 E.09848
G1 X130.464 Y81.727 E.0245
G1 X129.034 Y80.297 E.10151
G1 X128.992 Y80.743 E.02246
G1 X130.464 Y82.215 E.10455
G1 X130.464 Y82.703 E.0245
G1 X128.949 Y81.188 E.10758
G1 X128.906 Y81.633 E.02246
G1 X130.464 Y83.191 E.11061
G1 X130.464 Y83.679 E.0245
G1 X128.864 Y82.078 E.11365
G1 X128.821 Y82.524 E.02246
G1 X130.464 Y84.167 E.11668
G1 X130.464 Y84.655 E.0245
G1 X128.778 Y82.969 E.11971
G1 X128.736 Y83.414 E.02246
G1 X130.464 Y85.143 E.12275
G1 X130.464 Y85.631 E.0245
G1 X128.693 Y83.859 E.12578
G1 X128.65 Y84.305 E.02246
G1 X130.464 Y86.119 E.12881
G1 X130.464 Y86.607 E.0245
G1 X128.607 Y84.75 E.13185
G1 X128.565 Y85.195 E.02246
G1 X130.464 Y87.095 E.13488
G1 X130.464 Y87.583 E.0245
G1 X128.522 Y85.64 E.13791
G1 X128.479 Y86.086 E.02246
G1 X130.464 Y88.071 E.14095
G1 X130.464 Y88.559 E.0245
G1 X128.437 Y86.531 E.14398
G1 X128.394 Y86.976 E.02246
G1 X130.464 Y89.047 E.14701
G1 X130.464 Y89.535 E.0245
G1 X128.351 Y87.422 E.15005
G1 X128.308 Y87.867 E.02246
G1 X130.464 Y90.023 E.15308
G1 X130.464 Y90.511 E.0245
G1 X128.266 Y88.312 E.15611
G1 X128.223 Y88.757 E.02246
G1 X130.464 Y90.999 E.15915
G1 X130.464 Y91.487 E.0245
G1 X128.18 Y89.203 E.16218
G1 X128.138 Y89.648 E.02246
G1 X130.464 Y91.975 E.16521
G1 X130.464 Y92.463 E.0245
G1 X128.095 Y90.093 E.16825
G1 X128.052 Y90.538 E.02246
G1 X130.464 Y92.951 E.17128
G1 X130.464 Y93.438 E.0245
G1 X128.009 Y90.984 E.17431
G1 X127.967 Y91.429 E.02246
G1 X130.464 Y93.926 E.17735
G1 X130.464 Y94.414 E.0245
G1 X127.924 Y91.874 E.18038
G1 X127.881 Y92.319 E.02246
G1 X130.464 Y94.902 E.18341
G1 X130.464 Y95.39 E.0245
G1 X127.839 Y92.765 E.18645
G1 X127.796 Y93.21 E.02246
G1 X130.464 Y95.878 E.18948
G1 X130.464 Y96.366 E.0245
G1 X127.753 Y93.655 E.19251
