; generated by PrusaSlicer 2.5.0+win64 on 2022-12-07 at 00:09:36 UTC

; 

; external perimeters extrusion width = 1.00mm
; perimeters extrusion width = 1.00mm
; infill extrusion width = 1.00mm
; solid infill extrusion width = 1.00mm
; top infill extrusion width = 1.00mm
; support material extrusion width = 1.00mm
; first layer extrusion width = 0.42mm

M73 P0 R175
M107
;TYPE:Custom
G90 ; use absolute coordinates
M83 ; extruder relative mode
M140 S60 ; set final bed temp
M104 S150 ; set temporary nozzle temp to prevent oozing during homing and auto bed leveling
G4 S10 ; allow partial nozzle warmup
G28 ; home all axisG1 Z50 F240
G1 X7.6 Y10 F3000
M104 S210 ; set final nozzle temp
M190 S60 ; wait for bed temp to stabilize
M109 S210 ; wait for nozzle temp to stabilize
G1 Z0.28 F240
G92 E0
G1 Y140 E10 F1500 ; prime the nozzle
G1 X4 F5000
G92 E0
G1 Y10 E10 F1200 ; prime the nozzle
G92 E0
G21 ; set units to millimeters
G90 ; use absolute coordinates
M83 ; use relative distances for extrusion
; Filament gcode
M107
;LAYER_CHANGE
;Z:0.35
;HEIGHT:0.35
;BEFORE_LAYER_CHANGE
G92 E0
;0.35


G1 E-1 F3600
G1 Z.35 F7800
;AFTER_LAYER_CHANGE
;0.35
G1 X38.06 Y14.704
G1 E1 F2400
;TYPE:Support material
;WIDTH:0.42
G1 F1800
G1 X35.06 Y14.704 E.15056
G1 X35.06 Y25.382 E.53589
G1 X25.382 Y25.382 E.4857
G1 X25.382 Y89.344 E3.20996
G1 X24.882 Y89.344 E.02509
G1 X24.882 Y116.485 E1.36213
G1 X21.49 Y116.485 E.17027
G1 X21.49 Y143.627 E1.36213
G1 X18.097 Y143.627 E.17027
G1 X18.097 Y165.296 E1.08748
G1 X21.097 Y165.296 E.15056
G1 X21.097 Y167.876 E.12947
G1 X12.124 Y167.876 E.45029
G1 X12.124 Y12.124 E7.81652
G1 X38.06 Y12.124 E1.30162
G1 X38.06 Y14.652 E.12687
G1 X37.5 Y14.549 F7800
G1 F1800
G1 X37.5 Y12.435 E.1061
G1 X37.117 Y12.435 E.01923
G1 X37.117 Y14.394 E.09831
G1 X36.734 Y14.394 E.01923
G1 X36.734 Y12.435 E.09831
G1 X36.351 Y12.435 E.01923
G1 X36.351 Y14.394 E.09831
G1 X35.967 Y14.394 E.01923
G1 X35.967 Y12.435 E.09831
G1 X35.584 Y12.435 E.01923
G1 X35.584 Y14.394 E.09831
G1 X35.201 Y14.394 E.01923
G1 X35.201 Y12.435 E.09831
G1 X34.818 Y12.435 E.01923
G1 X34.818 Y14.394 E.09831
G1 X34.75 Y14.394 E.0034
G1 X34.75 Y25.072 E.53589
G1 X34.435 Y25.072 E.01583
G1 X34.435 Y12.435 E.6342
G1 X34.051 Y12.435 E.01923
G1 X34.051 Y25.072 E.6342
G1 X33.668 Y25.072 E.01923
G1 X33.668 Y12.435 E.6342
G1 X33.285 Y12.435 E.01923
G1 X33.285 Y25.072 E.6342
G1 X32.902 Y25.072 E.01923
G1 X32.902 Y12.435 E.6342
G1 X32.519 Y12.435 E.01923
G1 X32.519 Y25.072 E.6342
G1 X32.135 Y25.072 E.01923
G1 X32.135 Y12.435 E.6342
G1 X31.752 Y12.435 E.01923
G1 X31.752 Y25.072 E.6342
G1 X31.369 Y25.072 E.01923
G1 X31.369 Y12.435 E.6342
G1 X30.986 Y12.435 E.01923
G1 X30.986 Y25.072 E.6342
G1 X30.602 Y25.072 E.01923
G1 X30.602 Y12.435 E.6342
G1 X30.219 Y12.435 E.01923
G1 X30.219 Y25.072 E.6342
G1 X29.836 Y25.072 E.01923
G1 X29.836 Y12.435 E.6342
G1 X29.453 Y12.435 E.01923
G1 X29.453 Y25.072 E.6342
G1 X29.07 Y25.072 E.01923
G1 X29.07 Y12.435 E.6342
G1 X28.686 Y12.435 E.01923
G1 X28.686 Y25.072 E.6342
G1 X28.303 Y25.072 E.01923
G1 X28.303 Y12.435 E.6342
G1 X27.92 Y12.435 E.01923
G1 X27.92 Y25.072 E.6342
G1 X27.537 Y25.072 E.01923
G1 X27.537 Y12.435 E.6342
G1 X27.154 Y12.435 E.01923
G1 X27.154 Y25.072 E.6342
G1 X26.77 Y25.072 E.01923
G1 X26.77 Y12.435 E.6342
G1 X26.387 Y12.435 E.01923
G1 X26.387 Y25.072 E.6342
G1 X26.004 Y25.072 E.01923
G1 X26.004 Y12.435 E.6342
G1 X25.621 Y12.435 E.01923
G1 X25.621 Y25.072 E.6342
G1 X25.238 Y25.072 E.01923
G1 X25.238 Y12.435 E.6342
G1 X24.854 Y12.435 E.01923
G1 X24.854 Y89.033 E3.84416
G1 X24.572 Y89.033 E.01417
M73 P0 R174
G1 X24.572 Y116.175 E1.36213
G1 X24.471 Y116.175 E.00506
G1 X24.471 Y12.435 E5.20629
G1 X24.088 Y12.435 E.01923
G1 X24.088 Y116.175 E5.20629
G1 X23.705 Y116.175 E.01923
G1 X23.705 Y12.435 E5.20629
G1 X23.321 Y12.435 E.01923
G1 X23.321 Y116.175 E5.20629
G1 X22.938 Y116.175 E.01923
G1 X22.938 Y12.435 E5.20629
G1 X22.555 Y12.435 E.01923
G1 X22.555 Y116.175 E5.20629
G1 X22.172 Y116.175 E.01923
G1 X22.172 Y12.435 E5.20629
G1 X21.789 Y12.435 E.01923
G1 X21.789 Y116.175 E5.20629
G1 X21.405 Y116.175 E.01923
G1 X21.405 Y12.435 E5.20628
G1 X21.022 Y12.435 E.01923
G1 X21.022 Y143.316 E6.56841
G1 X20.639 Y143.316 E.01923
G1 X20.639 Y12.435 E6.56841
G1 X20.256 Y12.435 E.01923
G1 X20.256 Y143.316 E6.56841
G1 X19.873 Y143.316 E.01923
G1 X19.873 Y12.435 E6.56841
G1 X19.489 Y12.435 E.01923
G1 X19.489 Y143.316 E6.56841
G1 X19.106 Y143.316 E.01923
G1 X19.106 Y12.435 E6.56841
G1 X18.723 Y12.435 E.01923
M73 P0 R173
G1 X18.723 Y143.316 E6.56841
G1 X18.34 Y143.316 E.01923
M73 P1 R173
G1 X18.34 Y12.435 E6.56841
G1 X17.957 Y12.435 E.01923
G1 X17.957 Y143.316 E6.56841
G1 X17.786 Y143.316 E.00853
G1 X17.786 Y165.606 E1.11864
G1 X17.957 Y165.606 E.00853
G1 X17.957 Y167.565 E.09831
G1 X18.34 Y167.565 E.01923
G1 X18.34 Y165.606 E.09831
G1 X18.723 Y165.606 E.01923
G1 X18.723 Y167.565 E.09831
G1 X19.106 Y167.565 E.01923
G1 X19.106 Y165.606 E.09831
G1 X19.489 Y165.606 E.01923
G1 X19.489 Y167.565 E.09831
G1 X19.873 Y167.565 E.01923
G1 X19.873 Y165.606 E.09831
G1 X20.256 Y165.606 E.01923
G1 X20.256 Y167.565 E.09831
G1 X20.639 Y167.565 E.01923
G1 X20.639 Y165.451 E.1061
G1 X17.573 Y167.72 F7800
G1 F1800
G1 X17.573 Y12.435 E7.79315
G1 X17.19 Y12.435 E.01923
G1 X17.19 Y167.565 E7.78536
G1 X16.807 Y167.565 E.01923
G1 X16.807 Y12.435 E7.78536
G1 X16.424 Y12.435 E.01923
G1 X16.424 Y167.565 E7.78536
G1 X16.04 Y167.565 E.01923
G1 X16.04 Y12.435 E7.78536
G1 X15.657 Y12.435 E.01923
G1 X15.657 Y167.565 E7.78536
G1 X15.274 Y167.565 E.01923
G1 X15.274 Y12.435 E7.78536
G1 X14.891 Y12.435 E.01923
G1 X14.891 Y167.565 E7.78536
G1 X14.508 Y167.565 E.01923
G1 X14.508 Y12.435 E7.78536
G1 X14.124 Y12.435 E.01923
M73 P1 R172
G1 X14.124 Y167.565 E7.78536
G1 X13.741 Y167.565 E.01923
G1 X13.741 Y12.435 E7.78536
G1 X13.358 Y12.435 E.01923
G1 X13.358 Y167.565 E7.78536
G1 X12.975 Y167.565 E.01923
G1 X12.975 Y12.435 E7.78536
G1 X12.592 Y12.435 E.01923
G1 X12.592 Y167.72 E7.79315
G1 E-.7 F3600
;WIPE_START
G1 F6240
G1 X12.592 Y167.2 E-.285
;WIPE_END
G1 E-.015 F3600
G1 X19.03 Y165.041 F7800
G1 E1 F2400
;TYPE:Support material interface
;WIDTH:1
G1 F1800
G1 X19.03 Y144.283 E2.79368
G1 X19.923 Y144.283 E.12014
G1 X19.923 Y164.639 E2.73961
G1 X20.816 Y164.639 E.12014
G1 X20.816 Y144.283 E2.73961
G1 X21.708 Y144.283 E.12014
G1 X21.708 Y164.639 E2.73961
G1 X22.601 Y164.639 E.12014
G1 X22.601 Y117.142 E6.39242
G1 X23.494 Y117.142 E.12014
G1 X23.494 Y164.639 E6.39242
G1 X24.387 Y164.639 E.12014
G1 X24.387 Y117.142 E6.39242
G1 X25.279 Y117.142 E.12014
G1 X25.279 Y165.041 E6.44649
G1 E-.7 F3600
;WIPE_START
G1 F6240
G1 X25.279 Y164.521 E-.285
;WIPE_END
G1 E-.015 F3600
G1 X123.476 Y165.041 F7800
G1 E1 F2400
G1 F1800
G1 X123.476 Y164.321 E.09692
G1 X122.583 Y164.321 E.12014
G1 X122.583 Y164.639 E.04286
G1 X121.691 Y164.639 E.12014
G1 X121.691 Y164.321 E.04286
G1 X120.798 Y164.321 E.12014
G1 X120.798 Y164.639 E.04286
G1 X119.905 Y164.639 E.12014
G1 X119.905 Y164.321 E.04286
G1 X119.013 Y164.321 E.12014
G1 X119.013 Y164.639 E.04286
G1 X118.12 Y164.639 E.12014
G1 X118.12 Y164.321 E.04286
G1 X117.227 Y164.321 E.12014
G1 X117.227 Y164.639 E.04286
G1 X116.335 Y164.639 E.12014
G1 X116.335 Y164.321 E.04286
G1 X115.442 Y164.321 E.12014
G1 X115.442 Y164.639 E.04286
G1 X114.549 Y164.639 E.12014
G1 X114.549 Y164.321 E.04286
G1 X113.656 Y164.321 E.12014
G1 X113.656 Y164.639 E.04286
G1 X112.764 Y164.639 E.12014
G1 X112.764 Y164.321 E.04286
G1 X111.871 Y164.321 E.12014
G1 X111.871 Y164.639 E.04286
G1 X110.978 Y164.639 E.12014
G1 X110.978 Y164.321 E.04286
G1 X110.086 Y164.321 E.12014
G1 X110.086 Y164.639 E.04286
G1 X109.193 Y164.639 E.12014
G1 X109.193 Y164.321 E.04286
G1 X108.3 Y164.321 E.12014
G1 X108.3 Y164.639 E.04286
G1 X107.408 Y164.639 E.12014
G1 X107.408 Y164.321 E.04286
G1 X106.515 Y164.321 E.12014
G1 X106.515 Y164.639 E.04286
G1 X105.622 Y164.639 E.12014
G1 X105.622 Y164.321 E.04286
G1 X104.729 Y164.321 E.12014
G1 X104.729 Y164.639 E.04286
G1 X103.837 Y164.639 E.12014
G1 X103.837 Y164.321 E.04286
G1 X102.944 Y164.321 E.12014
G1 X102.944 Y164.639 E.04286
G1 X102.051 Y164.639 E.12014
G1 X102.051 Y164.321 E.04286
G1 X101.159 Y164.321 E.12014
G1 X101.159 Y164.639 E.04286
G1 X100.266 Y164.639 E.12014
G1 X100.266 Y164.321 E.04286
G1 X99.373 Y164.321 E.12014
G1 X99.373 Y164.639 E.04286
G1 X98.481 Y164.639 E.12014
G1 X98.481 Y164.321 E.04286
G1 X97.588 Y164.321 E.12014
G1 X97.588 Y164.639 E.04286
G1 X96.695 Y164.639 E.12014
G1 X96.695 Y164.321 E.04286
G1 X95.802 Y164.321 E.12014
G1 X95.802 Y164.639 E.04286
G1 X94.91 Y164.639 E.12014
G1 X94.91 Y164.321 E.04286
G1 X94.017 Y164.321 E.12014
G1 X94.017 Y164.639 E.04286
G1 X93.124 Y164.639 E.12014
G1 X93.124 Y164.321 E.04286
G1 X92.232 Y164.321 E.12014
G1 X92.232 Y164.639 E.04286
G1 X91.339 Y164.639 E.12014
G1 X91.339 Y164.321 E.04286
G1 X90.446 Y164.321 E.12014
G1 X90.446 Y164.639 E.04286
G1 X89.554 Y164.639 E.12014
G1 X89.554 Y164.321 E.04286
G1 X88.661 Y164.321 E.12014
G1 X88.661 Y164.639 E.04286
G1 X87.768 Y164.639 E.12014
G1 X87.768 Y163.919 E.09692
G1 X86.875 Y165.041 F7800
G1 F1800
G1 X86.876 Y140.89 E3.25028
G1 X86.607 Y140.89 E.0361
G1 X86.607 Y157.854 E2.28301
G1 X85.983 Y157.854 E.08405
G1 X85.983 Y164.639 E.91321
G1 X85.09 Y164.639 E.12014
G1 X85.09 Y157.854 E.91321
G1 X84.197 Y157.854 E.12014
G1 X84.197 Y164.639 E.91321
G1 X83.305 Y164.639 E.12014
G1 X83.305 Y157.854 E.91321
G1 X82.412 Y157.854 E.12014
G1 X82.412 Y164.639 E.91321
G1 X81.519 Y164.639 E.12014
G1 X81.519 Y157.854 E.91321
G1 X80.627 Y157.854 E.12014
G1 X80.627 Y164.639 E.91321
G1 X79.734 Y164.639 E.12014
G1 X79.734 Y157.854 E.91321
G1 X78.841 Y157.854 E.12014
G1 X78.841 Y164.639 E.91321
G1 X77.949 Y164.639 E.12014
G1 X77.949 Y157.854 E.91321
G1 X77.056 Y157.854 E.12014
G1 X77.056 Y164.639 E.91321
G1 X76.163 Y164.639 E.12014
G1 X76.163 Y157.854 E.91321
G1 X75.27 Y157.854 E.12014
G1 X75.27 Y164.639 E.91321
G1 X74.378 Y164.639 E.12014
G1 X74.378 Y157.854 E.91321
G1 X73.485 Y157.854 E.12014
G1 X73.485 Y164.639 E.91321
G1 X72.592 Y164.639 E.12014
G1 X72.592 Y157.854 E.91321
G1 X71.7 Y157.854 E.12014
M73 P2 R172
G1 X71.7 Y164.639 E.91321
G1 X70.807 Y164.639 E.12014
G1 X70.807 Y157.854 E.91321
G1 X69.914 Y157.854 E.12014
G1 X69.914 Y164.639 E.91321
G1 X69.022 Y164.639 E.12014
G1 X69.022 Y157.854 E.91321
G1 X68.129 Y157.854 E.12014
G1 X68.129 Y164.639 E.91321
G1 X67.236 Y164.639 E.12014
G1 X67.236 Y157.854 E.91321
G1 X66.343 Y157.854 E.12014
G1 X66.343 Y164.639 E.91321
G1 X65.451 Y164.639 E.12014
G1 X65.451 Y157.854 E.91321
G1 X64.558 Y157.854 E.12014
G1 X64.558 Y164.639 E.91321
G1 X63.665 Y164.639 E.12014
G1 X63.665 Y157.854 E.91321
G1 X62.773 Y157.854 E.12014
G1 X62.773 Y164.639 E.91321
G1 X61.88 Y164.639 E.12014
G1 X61.88 Y157.854 E.91321
G1 X60.987 Y157.854 E.12014
G1 X60.987 Y164.639 E.91321
G1 X60.095 Y164.639 E.12014
G1 X60.095 Y157.452 E.96727
G1 E-.7 F3600
;WIPE_START
G1 F6240
G1 X60.095 Y157.972 E-.285
;WIPE_END
G1 E-.015 F3600
G1 X87.768 Y157.061 F7800
G1 E1 F2400
G1 F1800
G1 X87.768 Y140.89 E2.17632
G1 X88.661 Y140.89 E.12014
G1 X88.661 Y150.084 E1.23727
G1 E-.7 F3600
;WIPE_START
G1 F6240
G1 X88.661 Y149.564 E-.285
;WIPE_END
G1 E-.015 F3600
G1 X92.232 Y122.174 F7800
G1 E1 F2400
G1 F1800
G1 X92.232 Y117.142 E.67728
G1 X91.339 Y117.142 E.12014
G1 X91.339 Y125.986 E1.19031
G1 X90.446 Y132.963 E.9467
G1 X90.446 Y116.74 E2.18343
G1 E-.7 F3600
;WIPE_START
G1 F6240
G1 X90.446 Y117.26 E-.285
;WIPE_END
G1 E-.015 F3600
G1 X95.802 Y93.647 F7800
G1 E1 F2400
G1 F1800
G1 X95.802 Y86.607 E.94737
G1 X94.91 Y86.607 E.12014
G1 X94.91 Y98.076 E1.54353
G1 X94.017 Y105.054 E.9467
G1 X94.017 Y86.206 E2.53664
G1 E-.7 F3600
;WIPE_START
M73 P2 R171
G1 F6240
G1 X94.017 Y86.726 E-.285
;WIPE_END
G1 E-.015 F3600
G1 X99.373 Y60.305 F7800
G1 E1 F2400
G1 F1800
G1 X99.373 Y56.073 E.56954
G1 X98.481 Y56.073 E.12014
G1 X98.481 Y64.151 E1.08714
G1 X97.588 Y71.19 E.95489
G1 X97.588 Y55.671 E2.0885
G1 E-.7 F3600
;WIPE_START
G1 F6240
G1 X97.588 Y56.191 E-.285
;WIPE_END
G1 E-.015 F3600
G1 X100.266 Y53.266 F7800
G1 E1 F2400
G1 F1800
G1 X100.266 Y28.931 E3.27505
G1 X101.159 Y28.931 E.12014
G1 X101.159 Y43.035 E1.89805
G1 X102.051 Y35.996 E.95489
G1 X102.051 Y28.931 E.95075
G1 X102.944 Y28.931 E.12014
G1 X102.944 Y32.15 E.43315
G1 E-.7 F3600
;WIPE_START
G1 F6240
G1 X102.944 Y31.63 E-.285
;WIPE_END
G1 E-.015 F3600
G1 X69.022 Y14.959 F7800
G1 E1 F2400
G1 F1800
G1 X69.022 Y22.146 E.96727
G1 X68.129 Y22.146 E.12014
G1 X68.129 Y15.361 E.91321
G1 X67.236 Y15.361 E.12014
G1 X67.236 Y22.146 E.91321
G1 X66.343 Y22.146 E.12014
G1 X66.343 Y15.361 E.91321
G1 X65.451 Y15.361 E.12014
G1 X65.451 Y22.146 E.91321
G1 X64.558 Y22.146 E.12014
G1 X64.558 Y15.361 E.91321
G1 X63.665 Y15.361 E.12014
G1 X63.665 Y22.146 E.91321
G1 X62.773 Y22.146 E.12014
G1 X62.773 Y15.361 E.91321
G1 X61.88 Y15.361 E.12014
G1 X61.88 Y22.146 E.91321
G1 X60.987 Y22.146 E.12014
G1 X60.987 Y15.361 E.91321
G1 X60.095 Y15.361 E.12014
G1 X60.095 Y22.146 E.91321
G1 X59.202 Y22.146 E.12014
G1 X59.202 Y15.361 E.91321
G1 X58.309 Y15.361 E.12014
G1 X58.309 Y22.146 E.91321
G1 X57.416 Y22.146 E.12014
G1 X57.416 Y15.361 E.91321
G1 X56.524 Y15.361 E.12014
G1 X56.524 Y22.146 E.91321
G1 X55.631 Y22.146 E.12014
G1 X55.631 Y15.361 E.91321
G1 X54.738 Y15.361 E.12014
G1 X54.738 Y22.146 E.91321
G1 X53.846 Y22.146 E.12014
G1 X53.846 Y15.361 E.91321
G1 X52.953 Y15.361 E.12014
G1 X52.953 Y22.146 E.91321
G1 X52.06 Y22.146 E.12014
G1 X52.06 Y15.361 E.91321
G1 X51.168 Y15.361 E.12014
G1 X51.168 Y22.146 E.91321
G1 X50.275 Y22.146 E.12014
G1 X50.275 Y15.361 E.91321
G1 X49.382 Y15.361 E.12014
G1 X49.382 Y22.146 E.91321
G1 X48.489 Y22.146 E.12014
G1 X48.489 Y15.361 E.91321
G1 X47.597 Y15.361 E.12014
G1 X47.597 Y22.146 E.91321
G1 X46.704 Y22.146 E.12014
G1 X46.704 Y15.361 E.91321
G1 X45.811 Y15.361 E.12014
G1 X45.811 Y22.146 E.91321
G1 X44.919 Y22.146 E.12014
G1 X44.919 Y15.361 E.91321
G1 X44.026 Y15.361 E.12014
G1 X44.026 Y22.146 E.91321
G1 X43.133 Y22.146 E.12014
G1 X43.133 Y15.361 E.91321
G1 X42.241 Y15.361 E.12014
G1 X42.241 Y28.931 E1.82641
G1 X41.348 Y28.931 E.12014
G1 X41.348 Y15.361 E1.82641
G1 X40.455 Y15.361 E.12014
G1 X40.455 Y28.931 E1.82641
G1 X39.562 Y28.931 E.12014
G1 X39.562 Y15.361 E1.82641
G1 X38.67 Y15.361 E.12014
G1 X38.67 Y59.466 E5.93582
G1 X37.777 Y59.466 E.12014
G1 X37.777 Y15.361 E5.93582
G1 X36.884 Y15.361 E.12014
G1 X36.884 Y59.466 E5.93582
G1 X35.992 Y59.466 E.12014
G1 X35.992 Y15.361 E5.93582
G1 X35.717 Y15.361 E.03699
G1 X35.717 Y28.931 E1.82641
G1 X35.099 Y28.931 E.08315
G1 X35.099 Y93.393 E8.67543
G1 X34.206 Y93.393 E.12014
G1 X34.206 Y28.931 E8.67543
G1 X33.314 Y28.931 E.12014
G1 X33.314 Y93.393 E8.67543
G1 X32.421 Y93.393 E.12014
G1 X32.421 Y28.931 E8.67543
G1 X32.324 Y28.931 E.01302
G1 X32.324 Y59.466 E4.10941
G1 X31.528 Y59.466 E.10712
G1 X31.528 Y120.534 E8.21883
G1 X30.635 Y120.534 E.12014
G1 X30.635 Y59.466 E8.21883
G1 X29.743 Y59.466 E.12014
G1 X29.743 Y120.534 E8.21883
G1 X28.931 Y120.534 E.10919
G1 X28.931 Y147.676 E3.65281
G1 X28.85 Y147.676 E.01095
G1 X28.85 Y90 E7.76223
G1 X27.957 Y90 E.12014
G1 X27.957 Y147.676 E7.76223
G1 X27.065 Y147.676 E.12014
G1 X27.065 Y90 E7.76223
G1 X26.172 Y90 E.12014
G1 X26.172 Y147.676 E7.76223
G1 X25.539 Y147.676 E.08522
G1 X25.539 Y157.854 E1.3698
G1 X26.172 Y157.854 E.08522
G1 X26.172 Y164.639 E.91321
G1 X27.065 Y164.639 E.12014
G1 X27.065 Y157.854 E.91321
G1 X27.957 Y157.854 E.12014
G1 X27.957 Y164.639 E.91321
G1 X28.85 Y164.639 E.12014
G1 X28.85 Y157.854 E.91321
G1 X29.743 Y157.854 E.12014
G1 X29.743 Y164.639 E.91321
G1 X30.635 Y164.639 E.12014
G1 X30.635 Y157.854 E.91321
G1 X31.528 Y157.854 E.12014
G1 X31.528 Y164.639 E.91321
G1 X32.421 Y164.639 E.12014
G1 X32.421 Y157.854 E.91321
G1 X33.314 Y157.854 E.12014
G1 X33.314 Y164.639 E.91321
G1 X34.206 Y164.639 E.12014
G1 X34.206 Y157.854 E.91321
G1 X35.099 Y157.854 E.12014
G1 X35.099 Y164.639 E.91321
G1 X35.992 Y164.639 E.12014
G1 X35.992 Y157.854 E.91321
G1 X36.884 Y157.854 E.12014
G1 X36.884 Y164.639 E.91321
G1 X37.777 Y164.639 E.12014
G1 X37.777 Y157.854 E.91321
G1 X38.67 Y157.854 E.12014
G1 X38.67 Y164.639 E.91321
G1 X39.562 Y164.639 E.12014
