; generated by PrusaSlicer 2.5.0+win64 on 2022-12-07 at 00:09:35 UTC

; 

; external perimeters extrusion width = 1.00mm
; perimeters extrusion width = 1.00mm
; infill extrusion width = 1.00mm
; solid infill extrusion width = 1.00mm
; top infill extrusion width = 1.00mm
; support material extrusion width = 1.00mm
; first layer extrusion width = 0.42mm

M73 P0 R175
M107
;TYPE:Custom
G90 ; use absolute coordinates
M83 ; extruder relative mode
M140 S60 ; set final bed temp
M104 S150 ; set temporary nozzle temp to prevent oozing during homing and auto bed leveling
G4 S10 ; allow partial nozzle warmup
G28 ; home all axisG1 Z50 F240
G1 X7.6 Y10 F3000
M104 S210 ; set final nozzle temp
M190 S60 ; wait for bed temp to stabilize
M109 S210 ; wait for nozzle temp to stabilize
G1 Z0.28 F240
G92 E0
G1 Y140 E10 F1500 ; prime the nozzle
G1 X4 F5000
G92 E0
G1 Y10 E10 F1200 ; prime the nozzle
G92 E0
G21 ; set units to millimeters
G90 ; use absolute coordinates
M83 ; use relative distances for extrusion
; Filament gcode
M107
;LAYER_CHANGE
;Z:0.35
;HEIGHT:0.35
;BEFORE_LAYER_CHANGE
G92 E0
;0.35


G1 E-1 F3600
G1 Z.35 F7800
;AFTER_LAYER_CHANGE
;0.35
G1 X38.06 Y14.704
G1 E1 F2400
;TYPE:Support material
;WIDTH:0.42
G1 F1800
G1 X35.06 Y14.704 E.15056
G1 X35.06 Y25.382 E.53589
G1 X25.382 Y25.382 E.4857
G1 X25.382 Y79.165 E2.69916
G1 X24.882 Y79.165 E.02509
M73 P0 R174
G1 X24.882 Y106.307 E1.36213
G1 X21.49 Y106.307 E.17027
G1 X21.49 Y136.841 E1.53239
G1 X18.097 Y136.841 E.17027
G1 X18.097 Y164.483 E1.38722
G1 X12.124 Y164.483 E.29974
G1 X12.124 Y12.124 E7.64625
G1 X38.06 Y12.124 E1.30162
G1 X38.06 Y14.652 E.12687
G1 X37.5 Y14.549 F7800
G1 F1800
G1 X37.5 Y12.435 E.1061
G1 X37.117 Y12.435 E.01923
G1 X37.117 Y14.394 E.09831
G1 X36.734 Y14.394 E.01923
G1 X36.734 Y12.435 E.09831
G1 X36.351 Y12.435 E.01923
G1 X36.351 Y14.394 E.09831
G1 X35.967 Y14.394 E.01923
G1 X35.967 Y12.435 E.09831
G1 X35.584 Y12.435 E.01923
G1 X35.584 Y14.394 E.09831
G1 X35.201 Y14.394 E.01923
G1 X35.201 Y12.435 E.09831
G1 X34.818 Y12.435 E.01923
G1 X34.818 Y14.394 E.09831
G1 X34.75 Y14.394 E.0034
G1 X34.75 Y25.072 E.53589
G1 X34.435 Y25.072 E.01583
G1 X34.435 Y12.435 E.6342
G1 X34.051 Y12.435 E.01923
G1 X34.051 Y25.072 E.6342
G1 X33.668 Y25.072 E.01923
G1 X33.668 Y12.435 E.6342
G1 X33.285 Y12.435 E.01923
G1 X33.285 Y25.072 E.6342
G1 X32.902 Y25.072 E.01923
G1 X32.902 Y12.435 E.6342
G1 X32.519 Y12.435 E.01923
G1 X32.519 Y25.072 E.6342
G1 X32.135 Y25.072 E.01923
G1 X32.135 Y12.435 E.6342
G1 X31.752 Y12.435 E.01923
G1 X31.752 Y25.072 E.6342
G1 X31.369 Y25.072 E.01923
G1 X31.369 Y12.435 E.6342
G1 X30.986 Y12.435 E.01923
G1 X30.986 Y25.072 E.6342
G1 X30.602 Y25.072 E.01923
G1 X30.602 Y12.435 E.6342
G1 X30.219 Y12.435 E.01923
G1 X30.219 Y25.072 E.6342
G1 X29.836 Y25.072 E.01923
G1 X29.836 Y12.435 E.6342
G1 X29.453 Y12.435 E.01923
G1 X29.453 Y25.072 E.6342
G1 X29.07 Y25.072 E.01923
G1 X29.07 Y12.435 E.6342
G1 X28.686 Y12.435 E.01923
G1 X28.686 Y25.072 E.6342
G1 X28.303 Y25.072 E.01923
G1 X28.303 Y12.435 E.6342
G1 X27.92 Y12.435 E.01923
G1 X27.92 Y25.072 E.6342
G1 X27.537 Y25.072 E.01923
G1 X27.537 Y12.435 E.6342
G1 X27.154 Y12.435 E.01923
G1 X27.154 Y25.072 E.6342
G1 X26.77 Y25.072 E.01923
G1 X26.77 Y12.435 E.6342
G1 X26.387 Y12.435 E.01923
G1 X26.387 Y25.072 E.6342
G1 X26.004 Y25.072 E.01923
G1 X26.004 Y12.435 E.6342
G1 X25.621 Y12.435 E.01923
G1 X25.621 Y25.072 E.6342
G1 X25.238 Y25.072 E.01923
G1 X25.238 Y12.435 E.6342
G1 X24.854 Y12.435 E.01923
G1 X24.854 Y78.855 E3.33336
G1 X24.572 Y78.855 E.01417
G1 X24.572 Y105.997 E1.36213
G1 X24.471 Y105.997 E.00506
G1 X24.471 Y12.435 E4.69549
G1 X24.088 Y12.435 E.01923
G1 X24.088 Y105.997 E4.69549
G1 X23.705 Y105.997 E.01923
G1 X23.705 Y12.435 E4.69549
G1 X23.321 Y12.435 E.01923
G1 X23.321 Y105.997 E4.69549
G1 X22.938 Y105.997 E.01923
G1 X22.938 Y12.435 E4.69549
G1 X22.555 Y12.435 E.01923
G1 X22.555 Y105.997 E4.69549
G1 X22.172 Y105.997 E.01923
G1 X22.172 Y12.435 E4.69549
G1 X21.789 Y12.435 E.01923
G1 X21.789 Y105.997 E4.69549
G1 X21.405 Y105.997 E.01923
G1 X21.405 Y12.435 E4.69549
G1 X21.022 Y12.435 E.01923
G1 X21.022 Y136.531 E6.22788
G1 X20.639 Y136.531 E.01923
M73 P0 R173
G1 X20.639 Y12.435 E6.22788
G1 X20.256 Y12.435 E.01923
G1 X20.256 Y136.531 E6.22788
G1 X19.873 Y136.531 E.01923
G1 X19.873 Y12.435 E6.22788
G1 X19.489 Y12.435 E.01923
G1 X19.489 Y136.531 E6.22788
G1 X19.106 Y136.531 E.01923
G1 X19.106 Y12.435 E6.22788
G1 X18.723 Y12.435 E.01923
G1 X18.723 Y136.531 E6.22788
G1 X18.34 Y136.531 E.01923
G1 X18.34 Y12.435 E6.22788
G1 X17.957 Y12.435 E.01923
G1 X17.957 Y136.531 E6.22788
G1 X17.786 Y136.531 E.00853
M73 P1 R173
G1 X17.786 Y164.173 E1.38722
G1 X17.573 Y164.173 E.0107
G1 X17.573 Y12.435 E7.6151
G1 X17.19 Y12.435 E.01923
G1 X17.19 Y164.173 E7.6151
G1 X16.807 Y164.173 E.01923
G1 X16.807 Y12.435 E7.6151
G1 X16.424 Y12.435 E.01923
G1 X16.424 Y164.173 E7.6151
G1 X16.04 Y164.173 E.01923
G1 X16.04 Y12.435 E7.6151
G1 X15.657 Y12.435 E.01923
M73 P1 R172
G1 X15.657 Y164.173 E7.6151
G1 X15.274 Y164.173 E.01923
G1 X15.274 Y12.435 E7.6151
G1 X14.891 Y12.435 E.01923
G1 X14.891 Y164.173 E7.6151
G1 X14.508 Y164.173 E.01923
G1 X14.508 Y12.435 E7.6151
G1 X14.124 Y12.435 E.01923
G1 X14.124 Y164.173 E7.6151
G1 X13.741 Y164.173 E.01923
G1 X13.741 Y12.435 E7.6151
G1 X13.358 Y12.435 E.01923
G1 X13.358 Y164.173 E7.6151
G1 X12.975 Y164.173 E.01923
G1 X12.975 Y12.435 E7.6151
G1 X12.592 Y12.435 E.01923
G1 X12.592 Y164.328 E7.62289
G1 E-.7 F3600
;WIPE_START
G1 F6240
G1 X12.592 Y163.808 E-.285
;WIPE_END
G1 E-.015 F3600
G1 X19.03 Y165.041 F7800
G1 E1 F2400
;TYPE:Support material interface
;WIDTH:1
G1 F1800
G1 X19.03 Y137.498 E3.70688
G1 X19.923 Y137.498 E.12014
G1 X19.923 Y164.639 E3.65282
G1 X20.816 Y164.639 E.12014
G1 X20.816 Y137.498 E3.65282
G1 X21.708 Y137.498 E.12014
G1 X21.708 Y164.639 E3.65282
G1 X22.601 Y164.639 E.12014
G1 X22.601 Y106.963 E7.76223
G1 X23.494 Y106.963 E.12014
G1 X23.494 Y164.639 E7.76223
G1 X24.387 Y164.639 E.12014
G1 X24.387 Y106.963 E7.76223
G1 X25.279 Y106.964 E.12014
G1 X25.279 Y165.041 E7.81629
G1 E-.7 F3600
;WIPE_START
G1 F6240
G1 X25.279 Y164.521 E-.285
;WIPE_END
G1 E-.015 F3600
G1 X60.095 Y165.041 F7800
G1 E1 F2400
G1 F1800
G1 X60.095 Y157.854 E.96727
G1 X60.987 Y157.854 E.12014
G1 X60.987 Y164.639 E.91321
G1 X61.88 Y164.639 E.12014
G1 X61.88 Y157.854 E.91321
M73 P1 R171
G1 X62.773 Y157.854 E.12014
G1 X62.773 Y164.639 E.91321
G1 X63.665 Y164.639 E.12014
G1 X63.665 Y157.854 E.91321
G1 X64.558 Y157.854 E.12014
G1 X64.558 Y164.639 E.91321
G1 X65.451 Y164.639 E.12014
G1 X65.451 Y157.854 E.91321
G1 X66.343 Y157.854 E.12014
G1 X66.343 Y164.639 E.91321
G1 X67.236 Y164.639 E.12014
G1 X67.236 Y157.854 E.91321
G1 X68.129 Y157.854 E.12014
G1 X68.129 Y164.639 E.91321
G1 X69.022 Y164.639 E.12014
G1 X69.022 Y157.854 E.91321
G1 X69.914 Y157.854 E.12014
G1 X69.914 Y164.639 E.91321
G1 X70.807 Y164.639 E.12014
G1 X70.807 Y157.854 E.91321
G1 X71.7 Y157.854 E.12014
G1 X71.7 Y164.639 E.91321
G1 X72.592 Y164.639 E.12014
G1 X72.592 Y157.854 E.91321
G1 X73.485 Y157.854 E.12014
G1 X73.485 Y164.639 E.91321
G1 X74.378 Y164.639 E.12014
G1 X74.378 Y157.854 E.91321
G1 X75.27 Y157.854 E.12014
G1 X75.27 Y164.639 E.91321
G1 X76.163 Y164.639 E.12014
G1 X76.163 Y157.854 E.91321
G1 X77.056 Y157.854 E.12014
G1 X77.056 Y164.639 E.91321
G1 X77.949 Y164.639 E.12014
G1 X77.949 Y157.854 E.91321
G1 X78.841 Y157.854 E.12014
G1 X78.841 Y164.639 E.91321
G1 X79.734 Y164.639 E.12014
G1 X79.734 Y157.854 E.91321
G1 X80.627 Y157.854 E.12014
G1 X80.627 Y164.639 E.91321
G1 X81.519 Y164.639 E.12014
G1 X81.519 Y157.854 E.91321
G1 X82.412 Y157.854 E.12014
G1 X82.412 Y164.639 E.91321
G1 X83.305 Y164.639 E.12014
G1 X83.305 Y157.854 E.91321
G1 X84.197 Y157.854 E.12014
G1 X84.197 Y164.639 E.91321
G1 X85.09 Y164.639 E.12014
G1 X85.09 Y157.854 E.91321
G1 X85.983 Y157.854 E.12014
G1 X85.983 Y164.639 E.91321
G1 X86.875 Y164.639 E.12014
G1 X86.876 Y164.321 E.04286
G1 X87.768 Y164.321 E.12014
G1 X87.768 Y164.639 E.04286
G1 X88.661 Y164.639 E.12014
G1 X88.661 Y164.321 E.04286
G1 X89.554 Y164.321 E.12014
G1 X89.554 Y164.639 E.04286
G1 X90.446 Y164.639 E.12014
G1 X90.446 Y164.321 E.04286
G1 X91.339 Y164.321 E.12014
G1 X91.339 Y164.639 E.04286
G1 X92.232 Y164.639 E.12014
G1 X92.232 Y164.321 E.04286
G1 X93.124 Y164.321 E.12014
G1 X93.124 Y164.639 E.04286
G1 X94.017 Y164.639 E.12014
G1 X94.017 Y164.321 E.04286
G1 X94.91 Y164.321 E.12014
G1 X94.91 Y164.639 E.04286
G1 X95.802 Y164.639 E.12014
G1 X95.802 Y164.321 E.04286
G1 X96.695 Y164.321 E.12014
G1 X96.695 Y164.639 E.04286
G1 X97.588 Y164.639 E.12014
G1 X97.588 Y164.321 E.04286
G1 X98.481 Y164.321 E.12014
G1 X98.481 Y164.639 E.04286
G1 X99.373 Y164.639 E.12014
G1 X99.373 Y164.321 E.04286
G1 X100.266 Y164.321 E.12014
G1 X100.266 Y164.639 E.04286
G1 X101.159 Y164.639 E.12014
G1 X101.159 Y164.321 E.04286
G1 X102.051 Y164.321 E.12014
G1 X102.051 Y164.639 E.04286
G1 X102.944 Y164.639 E.12014
G1 X102.944 Y164.321 E.04286
G1 X103.837 Y164.321 E.12014
G1 X103.837 Y164.639 E.04286
G1 X104.729 Y164.639 E.12014
G1 X104.729 Y164.321 E.04286
G1 X105.622 Y164.321 E.12014
G1 X105.622 Y164.639 E.04286
G1 X106.515 Y164.639 E.12014
G1 X106.515 Y164.321 E.04286
G1 X107.408 Y164.321 E.12014
G1 X107.408 Y164.639 E.04286
G1 X108.3 Y164.639 E.12014
G1 X108.3 Y164.321 E.04286
G1 X109.193 Y164.321 E.12014
G1 X109.193 Y164.639 E.04286
G1 X110.086 Y164.639 E.12014
G1 X110.086 Y164.321 E.04286
G1 X110.978 Y164.321 E.12014
G1 X110.978 Y164.639 E.04286
G1 X111.871 Y164.639 E.12014
G1 X111.871 Y164.321 E.04286
G1 X112.764 Y164.321 E.12014
G1 X112.764 Y164.639 E.04286
G1 X113.656 Y164.639 E.12014
G1 X113.656 Y164.321 E.04286
G1 X114.549 Y164.321 E.12014
G1 X114.549 Y164.639 E.04286
G1 X115.442 Y164.639 E.12014
G1 X115.442 Y164.321 E.04286
G1 X116.335 Y164.321 E.12014
G1 X116.335 Y164.639 E.04286
G1 X117.227 Y164.639 E.12014
G1 X117.227 Y164.321 E.04286
G1 X118.12 Y164.321 E.12014
G1 X118.12 Y164.639 E.04286
G1 X119.013 Y164.639 E.12014
G1 X119.013 Y164.321 E.04286
G1 X119.905 Y164.321 E.12014
G1 X119.905 Y164.639 E.04286
G1 X120.798 Y164.639 E.12014
G1 X120.798 Y164.321 E.04286
G1 X121.691 Y164.321 E.12014
G1 X121.691 Y164.639 E.04286
G1 X122.583 Y164.639 E.12014
G1 X122.583 Y164.321 E.04286
G1 X123.476 Y164.321 E.12014
G1 X123.476 Y165.041 E.09692
G1 E-.7 F3600
;WIPE_START
G1 F6240
G1 X123.476 Y164.521 E-.285
;WIPE_END
G1 E-.015 F3600
G1 X88.661 Y144.941 F7800
G1 E1 F2400
G1 F1800
G1 X88.661 Y137.498 E1.00176
G1 X87.768 Y137.498 E.12014
G1 X87.768 Y148.934 E1.53907
G1 X86.876 Y156.237 E.99024
G1 X86.876 Y137.096 E2.57606
G1 E-.7 F3600
;WIPE_START
G1 F6240
G1 X86.876 Y137.616 E-.285
;WIPE_END
G1 E-.015 F3600
G1 X92.232 Y115.727 F7800
G1 E1 F2400
G1 F1800
G1 X92.232 Y110.356 E.72287
G1 X91.339 Y110.356 E.12014
M73 P2 R171
G1 X91.339 Y119.72 E1.26019
G1 X90.446 Y127.023 E.99024
G1 X90.446 Y109.954 E2.29718
G1 E-.7 F3600
;WIPE_START
G1 F6240
G1 X90.446 Y110.474 E-.285
;WIPE_END
G1 E-.015 F3600
G1 X95.802 Y86.514 F7800
G1 E1 F2400
G1 F1800
G1 X95.802 Y79.822 E.90059
G1 X94.91 Y79.822 E.12014
G1 X94.91 Y90.506 E1.43791
G1 X94.017 Y97.809 E.99024
G1 X94.017 Y79.42 E2.4749
G1 E-.7 F3600
;WIPE_START
G1 F6240
G1 X94.017 Y79.94 E-.285
;WIPE_END
G1 E-.015 F3600
G1 X99.373 Y57.3 F7800
G1 E1 F2400
G1 F1800
G1 X99.373 Y52.68 E.62171
G1 X98.481 Y52.68 E.12014
G1 X98.481 Y61.292 E1.15902
G1 X97.588 Y68.596 E.99024
G1 X97.588 Y52.279 E2.19601
G1 E-.7 F3600
;WIPE_START
G1 F6240
G1 X97.588 Y52.799 E-.285
;WIPE_END
G1 E-.015 F3600
G1 X102.051 Y36.957 F7800
G1 E1 F2400
G1 F1800
G1 X102.051 Y28.931 E1.0801
G1 X101.159 Y28.931 E.12014
G1 X101.159 Y40.392 E1.54235
G1 X100.266 Y46.688 E.85586
G1 X100.266 Y28.53 E2.4438
G1 E-.7 F3600
;WIPE_START
G1 F6240
G1 X100.266 Y29.05 E-.285
;WIPE_END
G1 E-.015 F3600
G1 X69.022 Y14.959 F7800
G1 E1 F2400
G1 F1800
G1 X69.022 Y22.146 E.96727
G1 X68.129 Y22.146 E.12014
G1 X68.129 Y15.361 E.91321
G1 X67.236 Y15.361 E.12014
G1 X67.236 Y22.146 E.91321
G1 X66.343 Y22.146 E.12014
G1 X66.343 Y15.361 E.91321
G1 X65.451 Y15.361 E.12014
G1 X65.451 Y22.146 E.91321
G1 X64.558 Y22.146 E.12014
G1 X64.558 Y15.361 E.91321
G1 X63.665 Y15.361 E.12014
G1 X63.665 Y22.146 E.91321
G1 X62.773 Y22.146 E.12014
G1 X62.773 Y15.361 E.91321
G1 X61.88 Y15.361 E.12014
G1 X61.88 Y22.146 E.91321
G1 X60.987 Y22.146 E.12014
G1 X60.987 Y15.361 E.91321
G1 X60.095 Y15.361 E.12014
G1 X60.095 Y22.146 E.91321
G1 X59.202 Y22.146 E.12014
G1 X59.202 Y15.361 E.91321
G1 X58.309 Y15.361 E.12014
G1 X58.309 Y22.146 E.91321
G1 X57.416 Y22.146 E.12014
G1 X57.416 Y15.361 E.91321
G1 X56.524 Y15.361 E.12014
G1 X56.524 Y22.146 E.91321
G1 X55.631 Y22.146 E.12014
G1 X55.631 Y15.361 E.91321
G1 X54.738 Y15.361 E.12014
G1 X54.738 Y22.146 E.91321
G1 X53.846 Y22.146 E.12014
G1 X53.846 Y15.361 E.91321
G1 X52.953 Y15.361 E.12014
G1 X52.953 Y22.146 E.91321
G1 X52.06 Y22.146 E.12014
G1 X52.06 Y15.361 E.91321
G1 X51.168 Y15.361 E.12014
G1 X51.168 Y22.146 E.91321
G1 X50.275 Y22.146 E.12014
G1 X50.275 Y15.361 E.91321
G1 X49.382 Y15.361 E.12014
G1 X49.382 Y22.146 E.91321
G1 X48.489 Y22.146 E.12014
G1 X48.489 Y15.361 E.91321
G1 X47.597 Y15.361 E.12014
G1 X47.597 Y22.146 E.91321
G1 X46.704 Y22.146 E.12014
G1 X46.704 Y15.361 E.91321
G1 X45.811 Y15.361 E.12014
G1 X45.811 Y22.146 E.91321
G1 X44.919 Y22.146 E.12014
G1 X44.919 Y15.361 E.91321
G1 X44.026 Y15.361 E.12014
G1 X44.026 Y22.146 E.91321
G1 X43.133 Y22.146 E.12014
G1 X43.133 Y15.361 E.91321
G1 X42.241 Y15.361 E.12014
G1 X42.241 Y28.931 E1.82641
G1 X41.348 Y28.931 E.12014
G1 X41.348 Y15.361 E1.82641
G1 X40.455 Y15.361 E.12014
G1 X40.455 Y28.931 E1.82641
G1 X39.562 Y28.931 E.12014
G1 X39.562 Y15.361 E1.82641
G1 X38.67 Y15.361 E.12014
G1 X38.67 Y56.073 E5.47922
G1 X37.777 Y56.073 E.12014
G1 X37.777 Y15.361 E5.47922
G1 X36.884 Y15.361 E.12014
G1 X36.884 Y56.073 E5.47922
G1 X35.992 Y56.073 E.12014
G1 X35.992 Y15.361 E5.47922
G1 X35.717 Y15.361 E.03699
G1 X35.717 Y28.931 E1.82641
G1 X35.099 Y28.931 E.08315
G1 X35.099 Y83.215 E7.30563
G1 X34.206 Y83.215 E.12014
G1 X34.206 Y28.931 E7.30563
G1 X33.314 Y28.931 E.12014
G1 X33.314 Y83.215 E7.30563
G1 X32.421 Y83.215 E.12014
G1 X32.421 Y28.931 E7.30563
G1 X32.324 Y28.931 E.01302
G1 X32.324 Y52.68 E3.19621
G1 X31.528 Y52.68 E.10712
G1 X31.528 Y110.356 E7.76223
G1 X30.635 Y110.356 E.12014
G1 X30.635 Y52.68 E7.76223
G1 X29.743 Y52.68 E.12014
G1 X29.743 Y110.356 E7.76223
G1 X28.931 Y110.356 E.10919
G1 X28.931 Y137.498 E3.65281
G1 X28.85 Y137.498 E.01095
G1 X28.85 Y79.822 E7.76223
G1 X27.957 Y79.822 E.12014
G1 X27.957 Y137.498 E7.76223
G1 X27.065 Y137.498 E.12014
M73 P2 R170
G1 X27.065 Y79.822 E7.76223
G1 X26.172 Y79.822 E.12014
G1 X26.172 Y137.498 E7.76223
G1 X25.539 Y137.498 E.08522
G1 X25.539 Y157.854 E2.7396
G1 X26.172 Y157.854 E.08522
G1 X26.172 Y164.639 E.91321
G1 X27.065 Y164.639 E.12014
G1 X27.065 Y157.854 E.91321
G1 X27.957 Y157.854 E.12014
G1 X27.957 Y164.639 E.91321
G1 X28.85 Y164.639 E.12014
G1 X28.85 Y157.854 E.91321
G1 X29.743 Y157.854 E.12014
G1 X29.743 Y164.639 E.91321
G1 X30.635 Y164.639 E.12014
G1 X30.635 Y157.854 E.91321
G1 X31.528 Y157.854 E.12014
G1 X31.528 Y164.639 E.91321
G1 X32.421 Y164.639 E.12014
G1 X32.421 Y157.854 E.91321
G1 X33.314 Y157.854 E.12014
G1 X33.314 Y164.639 E.91321
G1 X34.206 Y164.639 E.12014
G1 X34.206 Y157.854 E.91321
G1 X35.099 Y157.854 E.12014
G1 X35.099 Y164.639 E.91321
G1 X35.992 Y164.639 E.12014
G1 X35.992 Y157.854 E.91321
G1 X36.884 Y157.854 E.12014
G1 X36.884 Y164.639 E.91321
G1 X37.777 Y164.639 E.12014
G1 X37.777 Y157.854 E.91321
G1 X38.67 Y157.854 E.12014
G1 X38.67 Y164.639 E.91321
G1 X39.562 Y164.639 E.12014
G1 X39.562 Y157.854 E.91321
G1 X40.455 Y157.854 E.12014
G1 X40.455 Y164.639 E.91321
G1 X41.348 Y164.639 E.12014
G1 X41.348 Y157.854 E.91321
G1 X42.241 Y157.854 E.12014
G1 X42.241 Y164.639 E.91321
G1 X43.133 Y164.639 E.12014
G1 X43.133 Y157.854 E.91321
G1 X44.026 Y157.854 E.12014
G1 X44.026 Y164.639 E.91321
G1 X44.919 Y164.639 E.12014
G1 X44.919 Y157.854 E.91321
G1 X45.811 Y157.854 E.12014
G1 X45.811 Y164.639 E.91321
G1 X46.704 Y164.639 E.12014
G1 X46.704 Y157.854 E.91321
G1 X47.597 Y157.854 E.12014
G1 X47.597 Y164.639 E.91321
G1 X48.489 Y164.639 E.12014
