; generated by PrusaSlicer 2.5.0+win64 on 2022-12-07 at 00:09:48 UTC

; 

; external perimeters extrusion width = 1.00mm
; perimeters extrusion width = 1.00mm
; infill extrusion width = 1.00mm
; solid infill extrusion width = 1.00mm
; top infill extrusion width = 1.00mm
; support material extrusion width = 1.00mm
; first layer extrusion width = 0.42mm

M73 P0 R180
M107
;TYPE:Custom
G90 ; use absolute coordinates
M83 ; extruder relative mode
M140 S60 ; set final bed temp
M104 S150 ; set temporary nozzle temp to prevent oozing during homing and auto bed leveling
G4 S10 ; allow partial nozzle warmup
G28 ; home all axisG1 Z50 F240
G1 X7.6 Y10 F3000
M104 S210 ; set final nozzle temp
M190 S60 ; wait for bed temp to stabilize
M109 S210 ; wait for nozzle temp to stabilize
G1 Z0.28 F240
G92 E0
G1 Y140 E10 F1500 ; prime the nozzle
G1 X4 F5000
G92 E0
G1 Y10 E10 F1200 ; prime the nozzle
G92 E0
G21 ; set units to millimeters
G90 ; use absolute coordinates
M83 ; use relative distances for extrusion
; Filament gcode
M107
;LAYER_CHANGE
;Z:0.35
;HEIGHT:0.35
;BEFORE_LAYER_CHANGE
G92 E0
;0.35


G1 E-1 F3600
G1 Z.35 F7800
;AFTER_LAYER_CHANGE
;0.35
G1 X81.782 Y162.82
G1 E1 F2400
;TYPE:Perimeter
;WIDTH:0.42
G1 F1800
G1 X81.796 Y17.18 E7.30908
G1 X95.705 Y17.18 E.69804
G1 X95.705 Y162.82 E7.30908
G1 X81.932 Y162.82 E.69121
G1 X81.437 Y163.165 F7800
;TYPE:External perimeter
G1 F1800
G1 X81.451 Y16.835 E7.3437
G1 X96.05 Y16.835 E.73266
G1 X96.05 Y163.165 E7.3437
G1 X81.587 Y163.165 E.72583
G1 X81.47 Y162.166 F7800
G1 E-.7 F3600
;WIPE_START
G1 F6240
G1 X81.586 Y162.645 E-.285
;WIPE_END
G1 E-.015 F3600
G1 X95.601 Y17.982 F7800
G1 E1 F2400
;TYPE:Solid infill
;WIDTH:0.420461
G1 F1800
G1 X95.058 Y17.439 E.03859
G1 X94.57 Y17.439 E.02454
G1 X95.446 Y18.315 E.06227
G1 X95.446 Y18.803 E.02454
G1 X94.081 Y17.439 E.09698
G1 X93.593 Y17.439 E.02454
G1 X95.446 Y19.292 E.13169
G1 X95.446 Y19.78 E.02454
G1 X93.105 Y17.439 E.1664
G1 X92.616 Y17.439 E.02454
G1 X95.446 Y20.268 E.20111
G1 X95.446 Y20.757 E.02454
G1 X92.128 Y17.439 E.23582
G1 X91.639 Y17.439 E.02454
G1 X95.446 Y21.245 E.27053
G1 X95.446 Y21.734 E.02454
G1 X91.151 Y17.439 E.30524
G1 X90.663 Y17.439 E.02454
G1 X95.446 Y22.222 E.33995
G1 X95.446 Y22.71 E.02454
G1 X90.174 Y17.439 E.37466
G1 X89.686 Y17.439 E.02454
G1 X95.446 Y23.199 E.40937
G1 X95.446 Y23.687 E.02454
G1 X89.197 Y17.439 E.44408
G1 X88.709 Y17.439 E.02454
G1 X95.446 Y24.176 E.47879
G1 X95.446 Y24.664 E.02454
G1 X88.221 Y17.439 E.51349
G1 X87.732 Y17.439 E.02454
G1 X95.446 Y25.152 E.5482
G1 X95.446 Y25.641 E.02454
G1 X87.244 Y17.439 E.58291
G1 X86.755 Y17.439 E.02454
G1 X95.446 Y26.129 E.61762
G1 X95.446 Y26.618 E.02454
G1 X86.267 Y17.439 E.65233
G1 X85.779 Y17.439 E.02454
G1 X95.446 Y27.106 E.68704
G1 X95.446 Y27.594 E.02454
G1 X85.29 Y17.439 E.72175
G1 X84.802 Y17.439 E.02454
G1 X95.446 Y28.083 E.75646
G1 X95.446 Y28.571 E.02454
G1 X84.313 Y17.439 E.79117
G1 X83.825 Y17.439 E.02454
G1 X95.446 Y29.059 E.82588
G1 X95.446 Y29.548 E.02454
G1 X83.337 Y17.439 E.86059
G1 X82.848 Y17.439 E.02454
G1 X95.446 Y30.036 E.8953
G1 X95.446 Y30.525 E.02454
G1 X82.36 Y17.439 E.93001
G1 X82.054 Y17.439 E.01536
M73 P0 R179
G1 X82.054 Y17.621 E.00918
G1 X95.446 Y31.013 E.95174
G1 X95.446 Y31.501 E.02454
G1 X82.054 Y18.11 E.95174
G1 X82.054 Y18.598 E.02454
G1 X95.446 Y31.99 E.95174
G1 X95.446 Y32.478 E.02454
G1 X82.054 Y19.086 E.95175
G1 X82.054 Y19.575 E.02454
G1 X95.446 Y32.967 E.95175
G1 X95.446 Y33.455 E.02454
G1 X82.054 Y20.063 E.95175
G1 X82.054 Y20.551 E.02454
G1 X95.446 Y33.943 E.95176
G1 X95.446 Y34.432 E.02454
G1 X82.054 Y21.04 E.95176
G1 X82.054 Y21.528 E.02454
G1 X95.446 Y34.92 E.95176
G1 X95.446 Y35.409 E.02454
G1 X82.054 Y22.016 E.95177
G1 X82.054 Y22.505 E.02454
G1 X95.446 Y35.897 E.95177
G1 X95.446 Y36.385 E.02454
G1 X82.054 Y22.993 E.95177
G1 X82.054 Y23.481 E.02454
G1 X95.446 Y36.874 E.95178
G1 X95.446 Y37.362 E.02454
G1 X82.054 Y23.97 E.95178
G1 X82.054 Y24.458 E.02454
G1 X95.446 Y37.851 E.95178
G1 X95.446 Y38.339 E.02454
G1 X82.053 Y24.947 E.95179
G1 X82.053 Y25.435 E.02454
G1 X95.446 Y38.827 E.95179
G1 X95.446 Y39.316 E.02454
G1 X82.053 Y25.923 E.95179
G1 X82.053 Y26.412 E.02454
G1 X95.446 Y39.804 E.9518
G1 X95.446 Y40.293 E.02454
G1 X82.053 Y26.9 E.9518
G1 X82.053 Y27.388 E.02454
G1 X95.446 Y40.781 E.9518
G1 X95.446 Y41.269 E.02454
G1 X82.053 Y27.877 E.95181
G1 X82.053 Y28.365 E.02454
G1 X95.446 Y41.758 E.95181
G1 X95.446 Y42.246 E.02454
G1 X82.053 Y28.853 E.95181
G1 X82.053 Y29.342 E.02454
G1 X95.446 Y42.735 E.95182
G1 X95.446 Y43.223 E.02454
G1 X82.053 Y29.83 E.95182
G1 X82.053 Y30.318 E.02454
G1 X95.446 Y43.711 E.95182
G1 X95.446 Y44.2 E.02454
G1 X82.053 Y30.807 E.95183
G1 X82.053 Y31.295 E.02454
G1 X95.446 Y44.688 E.95183
G1 X95.446 Y45.177 E.02454
G1 X82.053 Y31.783 E.95183
G1 X82.053 Y32.272 E.02454
G1 X95.446 Y45.665 E.95184
G1 X95.446 Y46.153 E.02454
G1 X82.053 Y32.76 E.95184
G1 X82.053 Y33.248 E.02454
G1 X95.446 Y46.642 E.95184
G1 X95.446 Y47.13 E.02454
G1 X82.053 Y33.737 E.95185
G1 X82.053 Y34.225 E.02454
G1 X95.446 Y47.619 E.95185
G1 X95.446 Y48.107 E.02454
G1 X82.053 Y34.714 E.95185
G1 X82.052 Y35.202 E.02454
G1 X95.446 Y48.595 E.95186
G1 X95.446 Y49.084 E.02454
G1 X82.052 Y35.69 E.95186
G1 X82.052 Y36.179 E.02454
G1 X95.446 Y49.572 E.95186
G1 X95.446 Y50.061 E.02454
G1 X82.052 Y36.667 E.95187
G1 X82.052 Y37.155 E.02454
G1 X95.446 Y50.549 E.95187
G1 X95.446 Y51.037 E.02454
G1 X82.052 Y37.644 E.95187
G1 X82.052 Y38.132 E.02454
G1 X95.446 Y51.526 E.95188
G1 X95.446 Y52.014 E.02454
G1 X82.052 Y38.62 E.95188
G1 X82.052 Y39.109 E.02454
G1 X95.446 Y52.503 E.95188
G1 X95.446 Y52.991 E.02454
G1 X82.052 Y39.597 E.95189
G1 X82.052 Y40.085 E.02454
G1 X95.446 Y53.479 E.95189
G1 X95.446 Y53.968 E.02454
G1 X82.052 Y40.574 E.95189
G1 X82.052 Y41.062 E.02454
G1 X95.446 Y54.456 E.9519
G1 X95.446 Y54.945 E.02454
G1 X82.052 Y41.55 E.9519
G1 X82.052 Y42.039 E.02454
G1 X95.446 Y55.433 E.9519
G1 X95.446 Y55.921 E.02454
G1 X82.052 Y42.527 E.95191
G1 X82.052 Y43.016 E.02454
G1 X95.446 Y56.41 E.95191
G1 X95.446 Y56.898 E.02454
G1 X82.052 Y43.504 E.95191
G1 X82.052 Y43.992 E.02454
G1 X95.446 Y57.387 E.95192
G1 X95.446 Y57.875 E.02454
G1 X82.052 Y44.481 E.95192
G1 X82.052 Y44.969 E.02454
G1 X95.446 Y58.363 E.95192
G1 X95.446 Y58.852 E.02454
G1 X82.052 Y45.457 E.95193
G1 X82.051 Y45.946 E.02454
G1 X95.446 Y59.34 E.95193
G1 X95.446 Y59.829 E.02454
G1 X82.051 Y46.434 E.95193
G1 X82.051 Y46.922 E.02454
G1 X95.446 Y60.317 E.95194
G1 X95.446 Y60.805 E.02454
G1 X82.051 Y47.411 E.95194
G1 X82.051 Y47.899 E.02454
G1 X95.446 Y61.294 E.95194
G1 X95.446 Y61.782 E.02454
G1 X82.051 Y48.387 E.95195
G1 X82.051 Y48.876 E.02454
G1 X95.446 Y62.271 E.95195
G1 X95.446 Y62.759 E.02454
G1 X82.051 Y49.364 E.95195
G1 X82.051 Y49.852 E.02454
G1 X95.446 Y63.247 E.95196
G1 X95.446 Y63.736 E.02454
G1 X82.051 Y50.341 E.95196
G1 X82.051 Y50.829 E.02454
G1 X95.446 Y64.224 E.95196
G1 X95.446 Y64.713 E.02454
G1 X82.051 Y51.318 E.95197
G1 X82.051 Y51.806 E.02454
G1 X95.446 Y65.201 E.95197
G1 X95.446 Y65.689 E.02454
G1 X82.051 Y52.294 E.95197
G1 X82.051 Y52.783 E.02454
G1 X95.446 Y66.178 E.95198
G1 X95.446 Y66.666 E.02454
G1 X82.051 Y53.271 E.95198
G1 X82.051 Y53.759 E.02454
G1 X95.446 Y67.155 E.95198
G1 X95.446 Y67.643 E.02454
G1 X82.051 Y54.248 E.95199
G1 X82.051 Y54.736 E.02454
G1 X95.446 Y68.131 E.95199
G1 X95.446 Y68.62 E.02454
G1 X82.051 Y55.224 E.95199
G1 X82.051 Y55.713 E.02454
G1 X95.446 Y69.108 E.952
G1 X95.446 Y69.597 E.02454
G1 X82.05 Y56.201 E.952
G1 X82.05 Y56.689 E.02454
G1 X95.446 Y70.085 E.952
G1 X95.446 Y70.573 E.02454
G1 X82.05 Y57.178 E.95201
G1 X82.05 Y57.666 E.02454
G1 X95.446 Y71.062 E.95201
G1 X95.446 Y71.55 E.02454
G1 X82.05 Y58.154 E.95201
G1 X82.05 Y58.643 E.02454
G1 X95.446 Y72.039 E.95202
G1 X95.446 Y72.527 E.02454
G1 X82.05 Y59.131 E.95202
G1 X82.05 Y59.62 E.02454
G1 X95.446 Y73.015 E.95202
G1 X95.446 Y73.504 E.02454
M73 P0 R178
G1 X82.05 Y60.108 E.95203
G1 X82.05 Y60.596 E.02454
M73 P1 R178
G1 X95.446 Y73.992 E.95203
G1 X95.446 Y74.481 E.02454
G1 X82.05 Y61.085 E.95203
G1 X82.05 Y61.573 E.02454
G1 X95.446 Y74.969 E.95204
G1 X95.446 Y75.457 E.02454
G1 X82.05 Y62.061 E.95204
G1 X82.05 Y62.55 E.02454
G1 X95.446 Y75.946 E.95204
G1 X95.446 Y76.434 E.02454
G1 X82.05 Y63.038 E.95205
G1 X82.05 Y63.526 E.02454
G1 X95.446 Y76.923 E.95205
G1 X95.446 Y77.411 E.02454
G1 X82.05 Y64.015 E.95205
G1 X82.05 Y64.503 E.02454
G1 X95.446 Y77.899 E.95206
G1 X95.446 Y78.388 E.02454
G1 X82.05 Y64.991 E.95206
G1 X82.05 Y65.48 E.02454
G1 X95.446 Y78.876 E.95206
G1 X95.446 Y79.365 E.02454
G1 X82.05 Y65.968 E.95207
G1 X82.05 Y66.456 E.02454
G1 X95.446 Y79.853 E.95207
G1 X95.446 Y80.341 E.02454
G1 X82.049 Y66.945 E.95207
G1 X82.049 Y67.433 E.02454
G1 X95.446 Y80.83 E.95208
G1 X95.446 Y81.318 E.02454
G1 X82.049 Y67.922 E.95208
G1 X82.049 Y68.41 E.02454
G1 X95.446 Y81.807 E.95208
G1 X95.446 Y82.295 E.02454
G1 X82.049 Y68.898 E.95209
G1 X82.049 Y69.387 E.02454
G1 X95.446 Y82.783 E.95209
G1 X95.446 Y83.272 E.02454
G1 X82.049 Y69.875 E.95209
G1 X82.049 Y70.363 E.02454
G1 X95.446 Y83.76 E.9521
G1 X95.446 Y84.249 E.02454
G1 X82.049 Y70.852 E.9521
G1 X82.049 Y71.34 E.02454
G1 X95.446 Y84.737 E.9521
G1 X95.446 Y85.225 E.02454
G1 X82.049 Y71.828 E.95211
G1 X82.049 Y72.317 E.02454
G1 X95.446 Y85.714 E.95211
G1 X95.446 Y86.202 E.02454
G1 X82.049 Y72.805 E.95211
G1 X82.049 Y73.293 E.02454
G1 X95.446 Y86.691 E.95211
G1 X95.446 Y87.179 E.02454
G1 X82.049 Y73.782 E.95212
G1 X82.049 Y74.27 E.02454
G1 X95.446 Y87.667 E.95212
G1 X95.446 Y88.156 E.02454
G1 X82.049 Y74.758 E.95212
G1 X82.049 Y75.247 E.02454
G1 X95.446 Y88.644 E.95213
G1 X95.446 Y89.133 E.02454
G1 X82.049 Y75.735 E.95213
G1 X82.049 Y76.223 E.02454
G1 X95.446 Y89.621 E.95213
G1 X95.446 Y90.109 E.02454
G1 X82.049 Y76.712 E.95214
G1 X82.048 Y77.2 E.02454
G1 X95.446 Y90.598 E.95214
G1 X95.446 Y91.086 E.02454
G1 X82.048 Y77.689 E.95214
G1 X82.048 Y78.177 E.02454
G1 X95.446 Y91.575 E.95215
G1 X95.446 Y92.063 E.02454
G1 X82.048 Y78.665 E.95215
G1 X82.048 Y79.154 E.02454
G1 X95.446 Y92.551 E.95215
G1 X95.446 Y93.04 E.02454
G1 X82.048 Y79.642 E.95216
G1 X82.048 Y80.13 E.02454
G1 X95.446 Y93.528 E.95216
G1 X95.446 Y94.017 E.02454
G1 X82.048 Y80.619 E.95216
G1 X82.048 Y81.107 E.02454
G1 X95.446 Y94.505 E.95217
G1 X95.446 Y94.993 E.02454
G1 X82.048 Y81.595 E.95217
G1 X82.048 Y82.084 E.02454
G1 X95.446 Y95.482 E.95217
G1 X95.446 Y95.97 E.02454
G1 X82.048 Y82.572 E.95218
G1 X82.048 Y83.06 E.02454
G1 X95.446 Y96.459 E.95218
G1 X95.446 Y96.947 E.02454
G1 X82.048 Y83.549 E.95218
G1 X82.048 Y84.037 E.02454
G1 X95.446 Y97.435 E.95219
G1 X95.446 Y97.924 E.02454
G1 X82.048 Y84.525 E.95219
G1 X82.048 Y85.014 E.02454
G1 X95.446 Y98.412 E.95219
G1 X95.446 Y98.901 E.02454
G1 X82.048 Y85.502 E.9522
G1 X82.048 Y85.991 E.02454
G1 X95.446 Y99.389 E.9522
G1 X95.446 Y99.877 E.02454
G1 X82.048 Y86.479 E.9522
G1 X82.048 Y86.967 E.02454
G1 X95.446 Y100.366 E.95221
G1 X95.446 Y100.854 E.02454
G1 X82.048 Y87.456 E.95221
G1 X82.047 Y87.944 E.02454
G1 X95.446 Y101.343 E.95221
G1 X95.446 Y101.831 E.02454
G1 X82.047 Y88.432 E.95222
G1 X82.047 Y88.921 E.02454
G1 X95.446 Y102.319 E.95222
G1 X95.446 Y102.808 E.02454
G1 X82.047 Y89.409 E.95222
G1 X82.047 Y89.897 E.02454
G1 X95.446 Y103.296 E.95223
G1 X95.446 Y103.784 E.02454
G1 X82.047 Y90.386 E.95223
G1 X82.047 Y90.874 E.02454
G1 X95.446 Y104.273 E.95223
G1 X95.446 Y104.761 E.02454
G1 X82.047 Y91.362 E.95224
G1 X82.047 Y91.851 E.02454
G1 X95.446 Y105.25 E.95224
G1 X95.446 Y105.738 E.02454
G1 X82.047 Y92.339 E.95224
G1 X82.047 Y92.827 E.02454
G1 X95.446 Y106.226 E.95225
G1 X95.446 Y106.715 E.02454
G1 X82.047 Y93.316 E.95225
G1 X82.047 Y93.804 E.02454
G1 X95.446 Y107.203 E.95225
G1 X95.446 Y107.692 E.02454
G1 X82.047 Y94.293 E.95226
G1 X82.047 Y94.781 E.02454
G1 X95.446 Y108.18 E.95226
G1 X95.446 Y108.668 E.02454
G1 X82.047 Y95.269 E.95226
G1 X82.047 Y95.758 E.02454
G1 X95.446 Y109.157 E.95227
G1 X95.446 Y109.645 E.02454
G1 X82.047 Y96.246 E.95227
G1 X82.047 Y96.734 E.02454
G1 X95.446 Y110.134 E.95227
G1 X95.446 Y110.622 E.02454
G1 X82.047 Y97.223 E.95228
G1 X82.047 Y97.711 E.02454
G1 X95.446 Y111.11 E.95228
G1 X95.446 Y111.599 E.02454
G1 X82.046 Y98.199 E.95228
G1 X82.046 Y98.688 E.02454
G1 X95.446 Y112.087 E.95229
G1 X95.446 Y112.576 E.02454
G1 X82.046 Y99.176 E.95229
G1 X82.046 Y99.664 E.02454
G1 X95.446 Y113.064 E.95229
G1 X95.446 Y113.552 E.02454
G1 X82.046 Y100.153 E.9523
G1 X82.046 Y100.641 E.02454
G1 X95.446 Y114.041 E.9523
G1 X95.446 Y114.529 E.02454
G1 X82.046 Y101.129 E.9523
G1 X82.046 Y101.618 E.02454
G1 X95.446 Y115.018 E.95231
G1 X95.446 Y115.506 E.02454
M73 P1 R177
G1 X82.046 Y102.106 E.95231
G1 X82.046 Y102.595 E.02454
G1 X95.446 Y115.994 E.95231
G1 X95.446 Y116.483 E.02454
G1 X82.046 Y103.083 E.95232
G1 X82.046 Y103.571 E.02454
G1 X95.446 Y116.971 E.95232
G1 X95.446 Y117.46 E.02454
G1 X82.046 Y104.06 E.95232
G1 X82.046 Y104.548 E.02454
G1 X95.446 Y117.948 E.95233
G1 X95.446 Y118.436 E.02454
G1 X82.046 Y105.036 E.95233
G1 X82.046 Y105.525 E.02454
G1 X95.446 Y118.925 E.95233
G1 X95.446 Y119.413 E.02454
G1 X82.046 Y106.013 E.95234
G1 X82.046 Y106.501 E.02454
G1 X95.446 Y119.902 E.95234
G1 X95.446 Y120.39 E.02454
G1 X82.046 Y106.99 E.95234
G1 X82.046 Y107.478 E.02454
G1 X95.446 Y120.878 E.95235
G1 X95.446 Y121.367 E.02454
G1 X82.046 Y107.966 E.95235
G1 X82.046 Y108.455 E.02454
G1 X95.446 Y121.855 E.95235
G1 X95.446 Y122.344 E.02454
G1 X82.045 Y108.943 E.95236
G1 X82.045 Y109.431 E.02454
G1 X95.446 Y122.832 E.95236
G1 X95.446 Y123.32 E.02454
G1 X82.045 Y109.92 E.95236
G1 X82.045 Y110.408 E.02454
G1 X95.446 Y123.809 E.95237
G1 X95.446 Y124.297 E.02454
G1 X82.045 Y110.896 E.95237
G1 X82.045 Y111.385 E.02454
G1 X95.446 Y124.786 E.95237
G1 X95.446 Y125.274 E.02454
G1 X82.045 Y111.873 E.95238
G1 X82.045 Y112.362 E.02454
G1 X95.446 Y125.762 E.95238
G1 X95.446 Y126.251 E.02454
G1 X82.045 Y112.85 E.95238
G1 X82.045 Y113.338 E.02454
G1 X95.446 Y126.739 E.95239
G1 X95.446 Y127.228 E.02454
G1 X82.045 Y113.827 E.95239
G1 X82.045 Y114.315 E.02454
G1 X95.446 Y127.716 E.95239
G1 X95.446 Y128.204 E.02454
G1 X82.045 Y114.803 E.9524
G1 X82.045 Y115.292 E.02454
G1 X95.446 Y128.693 E.9524
G1 X95.446 Y129.181 E.02454
G1 X82.045 Y115.78 E.9524
G1 X82.045 Y116.268 E.02454
G1 X95.446 Y129.67 E.95241
G1 X95.446 Y130.158 E.02454
G1 X82.045 Y116.757 E.95241
G1 X82.045 Y117.245 E.02454
G1 X95.446 Y130.646 E.95241
G1 X95.446 Y131.135 E.02454
G1 X82.045 Y117.733 E.95242
G1 X82.045 Y118.222 E.02454
G1 X95.446 Y131.623 E.95242
G1 X95.446 Y132.112 E.02454
G1 X82.045 Y118.71 E.95242
G1 X82.044 Y119.198 E.02454
G1 X95.446 Y132.6 E.95243
G1 X95.446 Y133.088 E.02454
G1 X82.044 Y119.687 E.95243
G1 X82.044 Y120.175 E.02454
G1 X95.446 Y133.577 E.95243
G1 X95.446 Y134.065 E.02454
G1 X82.044 Y120.664 E.95244
G1 X82.044 Y121.152 E.02454
G1 X95.446 Y134.554 E.95244
G1 X95.446 Y135.042 E.02454
G1 X82.044 Y121.64 E.95244
G1 X82.044 Y122.129 E.02454
G1 X95.446 Y135.53 E.95245
G1 X95.446 Y136.019 E.02454
G1 X82.044 Y122.617 E.95245
G1 X82.044 Y123.105 E.02454
G1 X95.446 Y136.507 E.95245
G1 X95.446 Y136.996 E.02454
G1 X82.044 Y123.594 E.95246
G1 X82.044 Y124.082 E.02454
G1 X95.446 Y137.484 E.95246
G1 X95.446 Y137.972 E.02454
G1 X82.044 Y124.57 E.95246
G1 X82.044 Y125.059 E.02454
G1 X95.446 Y138.461 E.95247
G1 X95.446 Y138.949 E.02454
G1 X82.044 Y125.547 E.95247
G1 X82.044 Y126.035 E.02454
G1 X95.446 Y139.438 E.95247
G1 X95.446 Y139.926 E.02454
G1 X82.044 Y126.524 E.95248
G1 X82.044 Y127.012 E.02454
G1 X95.446 Y140.414 E.95248
G1 X95.446 Y140.903 E.02454
G1 X82.044 Y127.5 E.95248
G1 X82.044 Y127.989 E.02454
G1 X95.446 Y141.391 E.95248
G1 X95.446 Y141.88 E.02454
G1 X82.044 Y128.477 E.95249
G1 X82.044 Y128.966 E.02454
G1 X95.446 Y142.368 E.95249
G1 X95.446 Y142.856 E.02454
G1 X82.044 Y129.454 E.95249
G1 X82.043 Y129.942 E.02454
G1 X95.446 Y143.345 E.9525
G1 X95.446 Y143.833 E.02454
G1 X82.043 Y130.431 E.9525
G1 X82.043 Y130.919 E.02454
G1 X95.446 Y144.322 E.9525
G1 X95.446 Y144.81 E.02454
G1 X82.043 Y131.407 E.95251
G1 X82.043 Y131.896 E.02454
G1 X95.446 Y145.298 E.95251
G1 X95.446 Y145.787 E.02454
G1 X82.043 Y132.384 E.95251
