; generated by PrusaSlicer 2.5.0+win64 on 2022-12-07 at 00:09:57 UTC

; 

; external perimeters extrusion width = 1.00mm
; perimeters extrusion width = 1.00mm
; infill extrusion width = 1.00mm
; solid infill extrusion width = 1.00mm
; top infill extrusion width = 1.00mm
; support material extrusion width = 1.00mm
; first layer extrusion width = 0.42mm

M73 P0 R183
M107
;TYPE:Custom
G90 ; use absolute coordinates
M83 ; extruder relative mode
M140 S60 ; set final bed temp
M104 S150 ; set temporary nozzle temp to prevent oozing during homing and auto bed leveling
G4 S10 ; allow partial nozzle warmup
G28 ; home all axisG1 Z50 F240
G1 X7.6 Y10 F3000
M104 S210 ; set final nozzle temp
M190 S60 ; wait for bed temp to stabilize
M109 S210 ; wait for nozzle temp to stabilize
G1 Z0.28 F240
G92 E0
G1 Y140 E10 F1500 ; prime the nozzle
G1 X4 F5000
G92 E0
G1 Y10 E10 F1200 ; prime the nozzle
G92 E0
G21 ; set units to millimeters
G90 ; use absolute coordinates
M83 ; use relative distances for extrusion
; Filament gcode
M107
;LAYER_CHANGE
;Z:0.35
;HEIGHT:0.35
;BEFORE_LAYER_CHANGE
G92 E0
;0.35


G1 E-1 F3600
G1 Z.35 F7800
;AFTER_LAYER_CHANGE
;0.35
G1 X70.107 Y141.881
G1 E1 F2400
;TYPE:Perimeter
;WIDTH:0.42
G1 F1800
G1 X70.181 Y142.081 E.01069
G1 X70.354 Y142.236 E.01166
G1 X70.605 Y142.3 E.01298
G1 X123.837 Y142.225 E2.6715
G1 X123.837 Y156.124 E.69754
G1 X64.636 Y156.203 E2.97108
G1 X56.167 Y147.765 E.59995
G1 X56.218 Y23.78 E6.22227
G1 X70.115 Y23.78 E.69739
G1 X70.087 Y141.734 E5.91963
G1 X70.432 Y141.783 F7800
;TYPE:External perimeter
G1 F1800
G1 X70.475 Y141.898 E.00616
G1 X70.604 Y141.955 E.00709
G1 X124.182 Y141.88 E2.68884
G1 X124.182 Y156.468 E.73216
G1 X64.493 Y156.548 E2.99553
G1 X55.822 Y147.908 E.6143
G1 X55.874 Y23.435 E6.24677
G1 X70.46 Y23.435 E.73201
G1 X70.432 Y141.633 E5.93185
G1 X70.347 Y141.872 F7800
G1 E-.7 F3600
;WIPE_START
G1 F6240
G1 X70.475 Y141.898 E-.14706
G1 X70.604 Y141.955 E-.07745
G1 X70.715 Y141.955 E-.06048
;WIPE_END
G1 E-.015 F3600
G1 X69.314 Y23.884 F7800
G1 E1 F2400
;TYPE:Solid infill
;WIDTH:0.420232
G1 F1800
G1 X69.856 Y24.426 E.03852
G1 X69.856 Y24.914 E.02451
G1 X68.981 Y24.039 E.06215
G1 X68.493 Y24.039 E.02451
G1 X69.856 Y25.402 E.09681
G1 X69.856 Y25.89 E.02451
G1 X68.005 Y24.039 E.13146
G1 X67.516 Y24.039 E.02451
G1 X69.855 Y26.378 E.16612
G1 X69.855 Y26.866 E.02451
G1 X67.028 Y24.039 E.20077
G1 X66.54 Y24.039 E.02451
G1 X69.855 Y27.354 E.23543
G1 X69.855 Y27.842 E.02451
G1 X66.052 Y24.039 E.27009
G1 X65.564 Y24.039 E.02451
G1 X69.855 Y28.33 E.30474
G1 X69.855 Y28.818 E.02451
G1 X65.076 Y24.039 E.3394
G1 X64.588 Y24.039 E.02451
G1 X69.855 Y29.306 E.37405
G1 X69.855 Y29.794 E.02451
G1 X64.1 Y24.039 E.40871
G1 X63.612 Y24.039 E.02451
G1 X69.855 Y30.282 E.44336
G1 X69.854 Y30.769 E.02451
G1 X63.124 Y24.039 E.47802
G1 X62.636 Y24.039 E.02451
G1 X69.854 Y31.257 E.51267
G1 X69.854 Y31.745 E.02451
G1 X62.148 Y24.039 E.54733
G1 X61.66 Y24.039 E.02451
G1 X69.854 Y32.233 E.58199
G1 X69.854 Y32.721 E.02451
G1 X61.171 Y24.039 E.61664
G1 X60.683 Y24.039 E.02451
G1 X69.854 Y33.209 E.6513
G1 X69.854 Y33.697 E.02451
G1 X60.195 Y24.039 E.68595
G1 X59.707 Y24.039 E.02451
G1 X69.854 Y34.185 E.72061
G1 X69.853 Y34.673 E.02451
G1 X59.219 Y24.039 E.75526
G1 X58.731 Y24.039 E.02451
G1 X69.853 Y35.161 E.78992
G1 X69.853 Y35.649 E.02451
G1 X58.243 Y24.039 E.82457
G1 X57.755 Y24.039 E.02451
G1 X69.853 Y36.137 E.85923
G1 X69.853 Y36.625 E.02451
G1 X57.267 Y24.039 E.89388
G1 X56.779 Y24.039 E.02451
G1 X69.853 Y37.113 E.92854
G1 X69.853 Y37.601 E.02451
G1 X56.477 Y24.225 E.94997
G1 X56.477 Y24.713 E.0245
M73 P0 R182
G1 X69.853 Y38.089 E.94998
G1 X69.853 Y38.577 E.02451
G1 X56.477 Y25.201 E.94998
G1 X56.476 Y25.689 E.0245
G1 X69.852 Y39.065 E.94999
G1 X69.852 Y39.553 E.02451
G1 X56.476 Y26.177 E.94999
G1 X56.476 Y26.664 E.0245
G1 X69.852 Y40.041 E.95
G1 X69.852 Y40.529 E.02451
G1 X56.476 Y27.152 E.95001
G1 X56.476 Y27.64 E.0245
G1 X69.852 Y41.017 E.95001
G1 X69.852 Y41.505 E.02451
G1 X56.475 Y28.128 E.95002
G1 X56.475 Y28.616 E.0245
G1 X69.852 Y41.993 E.95002
G1 X69.852 Y42.481 E.02451
G1 X56.475 Y29.104 E.95003
G1 X56.475 Y29.592 E.0245
G1 X69.852 Y42.968 E.95004
G1 X69.851 Y43.456 E.02451
G1 X56.475 Y30.08 E.95004
G1 X56.474 Y30.567 E.0245
G1 X69.851 Y43.944 E.95005
G1 X69.851 Y44.432 E.02451
G1 X56.474 Y31.055 E.95006
G1 X56.474 Y31.543 E.0245
G1 X69.851 Y44.92 E.95006
G1 X69.851 Y45.408 E.02451
G1 X56.474 Y32.031 E.95007
G1 X56.474 Y32.519 E.0245
G1 X69.851 Y45.896 E.95007
G1 X69.851 Y46.384 E.02451
G1 X56.473 Y33.007 E.95008
G1 X56.473 Y33.495 E.0245
G1 X69.851 Y46.872 E.95009
G1 X69.851 Y47.36 E.02451
G1 X56.473 Y33.983 E.95009
G1 X56.473 Y34.47 E.0245
G1 X69.85 Y47.848 E.9501
G1 X69.85 Y48.336 E.02451
G1 X56.473 Y34.958 E.9501
G1 X56.472 Y35.446 E.0245
G1 X69.85 Y48.824 E.95011
G1 X69.85 Y49.312 E.02451
G1 X56.472 Y35.934 E.95012
G1 X56.472 Y36.422 E.0245
G1 X69.85 Y49.8 E.95012
G1 X69.85 Y50.288 E.02451
G1 X56.472 Y36.91 E.95013
G1 X56.472 Y37.398 E.0245
G1 X69.85 Y50.776 E.95013
G1 X69.85 Y51.264 E.02451
G1 X56.471 Y37.886 E.95014
G1 X56.471 Y38.373 E.0245
G1 X69.849 Y51.752 E.95015
G1 X69.849 Y52.24 E.02451
G1 X56.471 Y38.861 E.95015
G1 X56.471 Y39.349 E.0245
G1 X69.849 Y52.728 E.95016
G1 X69.849 Y53.216 E.02451
G1 X56.471 Y39.837 E.95017
G1 X56.47 Y40.325 E.0245
G1 X69.849 Y53.704 E.95017
G1 X69.849 Y54.192 E.02451
G1 X56.47 Y40.813 E.95018
G1 X56.47 Y41.301 E.0245
G1 X69.849 Y54.679 E.95018
G1 X69.849 Y55.167 E.02451
G1 X56.47 Y41.789 E.95019
G1 X56.47 Y42.276 E.0245
G1 X69.849 Y55.655 E.9502
G1 X69.848 Y56.143 E.02451
G1 X56.469 Y42.764 E.9502
G1 X56.469 Y43.252 E.0245
G1 X69.848 Y56.631 E.95021
G1 X69.848 Y57.119 E.02451
G1 X56.469 Y43.74 E.95021
G1 X56.469 Y44.228 E.0245
G1 X69.848 Y57.607 E.95022
G1 X69.848 Y58.095 E.02451
G1 X56.469 Y44.716 E.95023
G1 X56.468 Y45.204 E.0245
G1 X69.848 Y58.583 E.95023
G1 X69.848 Y59.071 E.02451
G1 X56.468 Y45.691 E.95024
G1 X56.468 Y46.179 E.0245
G1 X69.848 Y59.559 E.95024
G1 X69.848 Y60.047 E.02451
G1 X56.468 Y46.667 E.95025
G1 X56.468 Y47.155 E.0245
G1 X69.847 Y60.535 E.95026
G1 X69.847 Y61.023 E.02451
G1 X56.467 Y47.643 E.95026
G1 X56.467 Y48.131 E.0245
G1 X69.847 Y61.511 E.95027
G1 X69.847 Y61.999 E.02451
G1 X56.467 Y48.619 E.95028
G1 X56.467 Y49.107 E.0245
G1 X69.847 Y62.487 E.95028
G1 X69.847 Y62.975 E.02451
G1 X56.466 Y49.594 E.95029
G1 X56.466 Y50.082 E.0245
G1 X69.847 Y63.463 E.95029
G1 X69.847 Y63.951 E.02451
G1 X56.466 Y50.57 E.9503
G1 X56.466 Y51.058 E.0245
G1 X69.846 Y64.439 E.95031
G1 X69.846 Y64.927 E.02451
G1 X56.466 Y51.546 E.95031
G1 X56.465 Y52.034 E.0245
G1 X69.846 Y65.415 E.95032
G1 X69.846 Y65.903 E.02451
G1 X56.465 Y52.522 E.95032
G1 X56.465 Y53.01 E.0245
G1 X69.846 Y66.391 E.95033
G1 X69.846 Y66.878 E.02451
G1 X56.465 Y53.497 E.95034
G1 X56.465 Y53.985 E.0245
G1 X69.846 Y67.366 E.95034
G1 X69.846 Y67.854 E.02451
G1 X56.464 Y54.473 E.95035
G1 X56.464 Y54.961 E.0245
G1 X69.846 Y68.342 E.95035
G1 X69.845 Y68.83 E.02451
G1 X56.464 Y55.449 E.95036
G1 X56.464 Y55.937 E.0245
G1 X69.845 Y69.318 E.95037
G1 X69.845 Y69.806 E.02451
G1 X56.464 Y56.425 E.95037
G1 X56.463 Y56.913 E.0245
G1 X69.845 Y70.294 E.95038
G1 X69.845 Y70.782 E.02451
G1 X56.463 Y57.4 E.95039
G1 X56.463 Y57.888 E.0245
G1 X69.845 Y71.27 E.95039
G1 X69.845 Y71.758 E.02451
G1 X56.463 Y58.376 E.9504
G1 X56.463 Y58.864 E.0245
G1 X69.845 Y72.246 E.9504
G1 X69.845 Y72.734 E.02451
G1 X56.462 Y59.352 E.95041
G1 X56.462 Y59.84 E.0245
G1 X69.844 Y73.222 E.95042
G1 X69.844 Y73.71 E.02451
G1 X56.462 Y60.328 E.95042
G1 X56.462 Y60.816 E.0245
G1 X69.844 Y74.198 E.95043
G1 X69.844 Y74.686 E.02451
G1 X56.462 Y61.303 E.95043
G1 X56.461 Y61.791 E.0245
G1 X69.844 Y75.174 E.95044
G1 X69.844 Y75.662 E.02451
G1 X56.461 Y62.279 E.95045
G1 X56.461 Y62.767 E.0245
G1 X69.844 Y76.15 E.95045
G1 X69.844 Y76.638 E.02451
G1 X56.461 Y63.255 E.95046
G1 X56.461 Y63.743 E.0245
G1 X69.843 Y77.126 E.95046
G1 X69.843 Y77.614 E.02451
G1 X56.46 Y64.231 E.95047
G1 X56.46 Y64.719 E.0245
G1 X69.843 Y78.102 E.95048
G1 X69.843 Y78.59 E.02451
M73 P1 R182
G1 X56.46 Y65.206 E.95048
G1 X56.46 Y65.694 E.0245
G1 X69.843 Y79.077 E.95049
G1 X69.843 Y79.565 E.02451
G1 X56.46 Y66.182 E.9505
G1 X56.459 Y66.67 E.0245
M73 P1 R181
G1 X69.843 Y80.053 E.9505
G1 X69.843 Y80.541 E.02451
G1 X56.459 Y67.158 E.95051
G1 X56.459 Y67.646 E.0245
G1 X69.843 Y81.029 E.95051
G1 X69.842 Y81.517 E.02451
G1 X56.459 Y68.134 E.95052
G1 X56.459 Y68.622 E.0245
G1 X69.842 Y82.005 E.95053
G1 X69.842 Y82.493 E.02451
G1 X56.458 Y69.109 E.95053
G1 X56.458 Y69.597 E.0245
G1 X69.842 Y82.981 E.95054
G1 X69.842 Y83.469 E.02451
G1 X56.458 Y70.085 E.95054
G1 X56.458 Y70.573 E.0245
G1 X69.842 Y83.957 E.95055
G1 X69.842 Y84.445 E.02451
G1 X56.458 Y71.061 E.95056
G1 X56.457 Y71.549 E.0245
G1 X69.842 Y84.933 E.95056
G1 X69.842 Y85.421 E.02451
G1 X56.457 Y72.037 E.95057
G1 X56.457 Y72.525 E.0245
G1 X69.841 Y85.909 E.95057
G1 X69.841 Y86.397 E.02451
G1 X56.457 Y73.012 E.95058
G1 X56.457 Y73.5 E.0245
G1 X69.841 Y86.885 E.95059
G1 X69.841 Y87.373 E.02451
G1 X56.456 Y73.988 E.95059
G1 X56.456 Y74.476 E.0245
G1 X69.841 Y87.861 E.9506
G1 X69.841 Y88.349 E.02451
G1 X56.456 Y74.964 E.95061
G1 X56.456 Y75.452 E.0245
G1 X69.841 Y88.837 E.95061
G1 X69.841 Y89.325 E.02451
G1 X56.456 Y75.94 E.95062
G1 X56.455 Y76.428 E.0245
G1 X69.84 Y89.813 E.95062
G1 X69.84 Y90.301 E.02451
G1 X56.455 Y76.915 E.95063
G1 X56.455 Y77.403 E.0245
G1 X69.84 Y90.789 E.95064
G1 X69.84 Y91.276 E.02451
G1 X56.455 Y77.891 E.95064
G1 X56.455 Y78.379 E.0245
G1 X69.84 Y91.764 E.95065
G1 X69.84 Y92.252 E.02451
G1 X56.454 Y78.867 E.95065
G1 X56.454 Y79.355 E.0245
G1 X69.84 Y92.74 E.95066
G1 X69.84 Y93.228 E.02451
G1 X56.454 Y79.843 E.95067
G1 X56.454 Y80.331 E.0245
G1 X69.84 Y93.716 E.95067
G1 X69.839 Y94.204 E.02451
G1 X56.454 Y80.818 E.95068
G1 X56.453 Y81.306 E.0245
G1 X69.839 Y94.692 E.95068
G1 X69.839 Y95.18 E.02451
G1 X56.453 Y81.794 E.95069
G1 X56.453 Y82.282 E.0245
G1 X69.839 Y95.668 E.9507
G1 X69.839 Y96.156 E.02451
G1 X56.453 Y82.77 E.9507
G1 X56.453 Y83.258 E.0245
G1 X69.839 Y96.644 E.95071
G1 X69.839 Y97.132 E.02451
G1 X56.452 Y83.746 E.95072
G1 X56.452 Y84.234 E.0245
G1 X69.839 Y97.62 E.95072
G1 X69.839 Y98.108 E.02451
G1 X56.452 Y84.721 E.95073
G1 X56.452 Y85.209 E.0245
G1 X69.838 Y98.596 E.95073
G1 X69.838 Y99.084 E.02451
G1 X56.452 Y85.697 E.95074
G1 X56.451 Y86.185 E.0245
G1 X69.838 Y99.572 E.95075
G1 X69.838 Y100.06 E.02451
G1 X56.451 Y86.673 E.95075
G1 X56.451 Y87.161 E.0245
G1 X69.838 Y100.548 E.95076
G1 X69.838 Y101.036 E.02451
G1 X56.451 Y87.649 E.95076
G1 X56.451 Y88.136 E.0245
G1 X69.838 Y101.524 E.95077
G1 X69.838 Y102.012 E.02451
G1 X56.45 Y88.624 E.95078
G1 X56.45 Y89.112 E.0245
G1 X69.837 Y102.5 E.95078
G1 X69.837 Y102.988 E.02451
G1 X56.45 Y89.6 E.95079
G1 X56.45 Y90.088 E.0245
G1 X69.837 Y103.475 E.95079
G1 X69.837 Y103.963 E.02451
G1 X56.45 Y90.576 E.9508
G1 X56.449 Y91.064 E.0245
G1 X69.837 Y104.451 E.95081
G1 X69.837 Y104.939 E.02451
G1 X56.449 Y91.552 E.95081
G1 X56.449 Y92.039 E.0245
G1 X69.837 Y105.427 E.95082
G1 X69.837 Y105.915 E.02451
G1 X56.449 Y92.527 E.95083
G1 X56.449 Y93.015 E.0245
G1 X69.837 Y106.403 E.95083
G1 X69.836 Y106.891 E.02451
G1 X56.448 Y93.503 E.95084
G1 X56.448 Y93.991 E.0245
G1 X69.836 Y107.379 E.95084
G1 X69.836 Y107.867 E.02451
G1 X56.448 Y94.479 E.95085
G1 X56.448 Y94.967 E.0245
G1 X69.836 Y108.355 E.95086
G1 X69.836 Y108.843 E.02451
G1 X56.448 Y95.455 E.95086
G1 X56.447 Y95.942 E.0245
G1 X69.836 Y109.331 E.95087
G1 X69.836 Y109.819 E.02451
G1 X56.447 Y96.43 E.95087
G1 X56.447 Y96.918 E.0245
G1 X69.836 Y110.307 E.95088
G1 X69.836 Y110.795 E.02451
G1 X56.447 Y97.406 E.95089
G1 X56.447 Y97.894 E.0245
G1 X69.835 Y111.283 E.95089
G1 X69.835 Y111.771 E.02451
G1 X56.446 Y98.382 E.9509
G1 X56.446 Y98.87 E.0245
G1 X69.835 Y112.259 E.9509
G1 X69.835 Y112.747 E.02451
G1 X56.446 Y99.358 E.95091
G1 X56.446 Y99.845 E.0245
G1 X69.835 Y113.235 E.95092
G1 X69.835 Y113.723 E.02451
G1 X56.446 Y100.333 E.95092
G1 X56.445 Y100.821 E.0245
G1 X69.835 Y114.211 E.95093
G1 X69.835 Y114.699 E.02451
G1 X56.445 Y101.309 E.95094
G1 X56.445 Y101.797 E.0245
G1 X69.834 Y115.186 E.95094
G1 X69.834 Y115.674 E.02451
G1 X56.445 Y102.285 E.95095
G1 X56.445 Y102.773 E.0245
G1 X69.834 Y116.162 E.95095
G1 X69.834 Y116.65 E.02451
G1 X56.444 Y103.261 E.95096
G1 X56.444 Y103.748 E.0245
G1 X69.834 Y117.138 E.95097
G1 X69.834 Y117.626 E.02451
G1 X56.444 Y104.236 E.95097
G1 X56.444 Y104.724 E.0245
G1 X69.834 Y118.114 E.95098
G1 X69.834 Y118.602 E.02451
G1 X56.444 Y105.212 E.95098
G1 X56.443 Y105.7 E.0245
G1 X69.834 Y119.09 E.95099
G1 X69.833 Y119.578 E.02451
G1 X56.443 Y106.188 E.951
G1 X56.443 Y106.676 E.0245
G1 X69.833 Y120.066 E.951
G1 X69.833 Y120.554 E.02451
G1 X56.443 Y107.164 E.95101
G1 X56.443 Y107.651 E.0245
G1 X69.833 Y121.042 E.95101
G1 X69.833 Y121.53 E.02451
G1 X56.442 Y108.139 E.95102
G1 X56.442 Y108.627 E.0245
G1 X69.833 Y122.018 E.95103
G1 X69.833 Y122.506 E.02451
M73 P1 R180
G1 X56.442 Y109.115 E.95103
G1 X56.442 Y109.603 E.0245
G1 X69.833 Y122.994 E.95104
G1 X69.833 Y123.482 E.02451
G1 X56.442 Y110.091 E.95105
G1 X56.441 Y110.579 E.0245
G1 X69.832 Y123.97 E.95105
G1 X69.832 Y124.458 E.02451
G1 X56.441 Y111.067 E.95106
G1 X56.441 Y111.554 E.0245
G1 X69.832 Y124.946 E.95106
G1 X69.832 Y125.434 E.02451
G1 X56.441 Y112.042 E.95107
G1 X56.441 Y112.53 E.0245
G1 X69.832 Y125.922 E.95108
G1 X69.832 Y126.41 E.02451
G1 X56.44 Y113.018 E.95108
G1 X56.44 Y113.506 E.0245
G1 X69.832 Y126.898 E.95109
G1 X69.832 Y127.385 E.02451
G1 X56.44 Y113.994 E.95109
G1 X56.44 Y114.482 E.0245
G1 X69.832 Y127.873 E.9511
G1 X69.831 Y128.361 E.02451
G1 X56.44 Y114.97 E.95111
G1 X56.439 Y115.457 E.0245
G1 X69.831 Y128.849 E.95111
G1 X69.831 Y129.337 E.02451
G1 X56.439 Y115.945 E.95112
G1 X56.439 Y116.433 E.0245
G1 X69.831 Y129.825 E.95112
G1 X69.831 Y130.313 E.02451
G1 X56.439 Y116.921 E.95113
G1 X56.439 Y117.409 E.0245
G1 X69.831 Y130.801 E.95114
G1 X69.831 Y131.289 E.02451
G1 X56.438 Y117.897 E.95114
G1 X56.438 Y118.385 E.0245
G1 X69.831 Y131.777 E.95115
G1 X69.83 Y132.265 E.02451
G1 X56.438 Y118.873 E.95116
G1 X56.438 Y119.36 E.0245
G1 X69.83 Y132.753 E.95116
G1 X69.83 Y133.241 E.02451
G1 X56.438 Y119.848 E.95117
G1 X56.437 Y120.336 E.0245
G1 X69.83 Y133.729 E.95117
G1 X69.83 Y134.217 E.02451
G1 X56.437 Y120.824 E.95118
G1 X56.437 Y121.312 E.0245
G1 X69.83 Y134.705 E.95119
G1 X69.83 Y135.193 E.02451
G1 X56.437 Y121.8 E.95119
G1 X56.437 Y122.288 E.0245
G1 X69.83 Y135.681 E.9512
G1 X69.83 Y136.169 E.02451
G1 X56.436 Y122.776 E.9512
G1 X56.436 Y123.263 E.0245
G1 X69.829 Y136.657 E.95121
G1 X69.829 Y137.145 E.02451
G1 X56.436 Y123.751 E.95122
G1 X56.436 Y124.239 E.0245
G1 X69.829 Y137.633 E.95122
G1 X69.829 Y138.121 E.02451
G1 X56.436 Y124.727 E.95123
G1 X56.435 Y125.215 E.0245
G1 X69.829 Y138.609 E.95123
G1 X69.829 Y139.097 E.02451
G1 X56.435 Y125.703 E.95124
G1 X56.435 Y126.191 E.0245
G1 X69.829 Y139.584 E.95125
G1 X69.829 Y140.072 E.02451
G1 X56.435 Y126.679 E.95125
G1 X56.435 Y127.166 E.0245
G1 X69.829 Y140.56 E.95126
G1 X69.828 Y141.048 E.02451
G1 X56.434 Y127.654 E.95127
G1 X56.434 Y128.142 E.0245
G1 X69.983 Y141.691 E.96229
G1 E-.7 F3600
;WIPE_START
G1 F6240
G1 X69.616 Y141.324 E-.285
;WIPE_END
G1 E-.015 F3600
G1 X123.333 Y142.329 F7800
G1 E1 F2400
G1 F1800
G1 X123.578 Y142.574 E.01742
G1 X123.578 Y143.062 E.02451
G1 X123.001 Y142.485 E.04103
G1 X122.513 Y142.485 E.02448
G1 X123.578 Y143.551 E.07564
G1 X123.578 Y144.039 E.02451
G1 X122.026 Y142.486 E.11026
G1 X121.539 Y142.487 E.02448
G1 X123.578 Y144.527 E.14487
G1 X123.578 Y145.015 E.02451
G1 X121.051 Y142.488 E.17949
G1 X120.564 Y142.488 E.02448
G1 X123.578 Y145.503 E.2141
G1 X123.578 Y145.991 E.02451
G1 X120.076 Y142.489 E.24872
G1 X119.589 Y142.49 E.02448
G1 X123.578 Y146.479 E.28333
G1 X123.578 Y146.967 E.02451
G1 X119.102 Y142.49 E.31794
G1 X118.614 Y142.491 E.02448
G1 X123.578 Y147.455 E.35256
G1 X123.578 Y147.943 E.02451
G1 X118.127 Y142.492 E.38717
G1 X117.639 Y142.492 E.02448
G1 X123.578 Y148.431 E.42179
G1 X123.578 Y148.919 E.02451
G1 X117.152 Y142.493 E.4564
G1 X116.665 Y142.494 E.02448
G1 X123.578 Y149.407 E.49102
