; generated by PrusaSlicer 2.5.0+win64 on 2022-12-07 at 00:09:53 UTC

; 

; external perimeters extrusion width = 1.00mm
; perimeters extrusion width = 1.00mm
; infill extrusion width = 1.00mm
; solid infill extrusion width = 1.00mm
; top infill extrusion width = 1.00mm
; support material extrusion width = 1.00mm
; first layer extrusion width = 0.42mm

M73 P0 R180
M107
;TYPE:Custom
G90 ; use absolute coordinates
M83 ; extruder relative mode
M140 S60 ; set final bed temp
M104 S150 ; set temporary nozzle temp to prevent oozing during homing and auto bed leveling
G4 S10 ; allow partial nozzle warmup
G28 ; home all axisG1 Z50 F240
G1 X7.6 Y10 F3000
M104 S210 ; set final nozzle temp
M190 S60 ; wait for bed temp to stabilize
M109 S210 ; wait for nozzle temp to stabilize
G1 Z0.28 F240
G92 E0
G1 Y140 E10 F1500 ; prime the nozzle
G1 X4 F5000
G92 E0
G1 Y10 E10 F1200 ; prime the nozzle
G92 E0
G21 ; set units to millimeters
G90 ; use absolute coordinates
M83 ; use relative distances for extrusion
; Filament gcode
M107
;LAYER_CHANGE
;Z:0.35
;HEIGHT:0.35
;BEFORE_LAYER_CHANGE
G92 E0
;0.35


G1 E-1 F3600
G1 Z.35 F7800
;AFTER_LAYER_CHANGE
;0.35
G1 X81.798 Y17.185
G1 E1 F2400
;TYPE:Perimeter
;WIDTH:0.42
G1 F1800
G1 X95.69 Y17.185 E.69714
G1 X95.69 Y162.819 E7.30878
G1 X81.797 Y162.819 E.69722
G1 X81.798 Y17.335 E7.30125
G1 X81.454 Y16.84 F7800
;TYPE:External perimeter
G1 F1800
G1 X96.035 Y16.84 E.73176
G1 X96.035 Y163.164 E7.3434
G1 X81.452 Y163.164 E.73184
G1 X81.454 Y16.99 E7.33587
G1 X82.336 Y17.311 F7800
G1 E-.7 F3600
;WIPE_START
G1 F6240
G1 X81.974 Y16.985 E-.285
;WIPE_END
G1 E-.015 F3600
G1 X94.888 Y17.288 F7800
G1 E1 F2400
;TYPE:Solid infill
;WIDTH:0.420383
G1 F1800
G1 X95.431 Y17.831 E.03857
G1 X95.431 Y18.319 E.02453
G1 X94.555 Y17.444 E.06224
G1 X94.067 Y17.444 E.02453
G1 X95.431 Y18.808 E.09693
G1 X95.431 Y19.296 E.02453
G1 X93.579 Y17.444 E.13162
G1 X93.09 Y17.444 E.02453
G1 X95.431 Y19.784 E.16632
G1 X95.431 Y20.273 E.02453
G1 X92.602 Y17.444 E.20101
G1 X92.114 Y17.444 E.02453
M73 P0 R179
G1 X95.431 Y20.761 E.23571
G1 X95.431 Y21.249 E.02453
G1 X91.625 Y17.444 E.2704
G1 X91.137 Y17.444 E.02453
G1 X95.431 Y21.737 E.30509
G1 X95.431 Y22.226 E.02453
G1 X90.649 Y17.444 E.33979
G1 X90.161 Y17.444 E.02453
G1 X95.431 Y22.714 E.37448
G1 X95.431 Y23.202 E.02453
G1 X89.672 Y17.444 E.40918
G1 X89.184 Y17.444 E.02453
G1 X95.431 Y23.691 E.44387
G1 X95.431 Y24.179 E.02453
G1 X88.696 Y17.444 E.47856
G1 X88.207 Y17.444 E.02453
G1 X95.431 Y24.667 E.51326
G1 X95.431 Y25.155 E.02453
G1 X87.719 Y17.444 E.54795
G1 X87.231 Y17.444 E.02453
G1 X95.431 Y25.644 E.58265
G1 X95.431 Y26.132 E.02453
G1 X86.743 Y17.444 E.61734
G1 X86.254 Y17.444 E.02453
G1 X95.431 Y26.62 E.65203
G1 X95.431 Y27.109 E.02453
G1 X85.766 Y17.444 E.68673
G1 X85.278 Y17.444 E.02453
G1 X95.431 Y27.597 E.72142
G1 X95.431 Y28.085 E.02453
G1 X84.789 Y17.444 E.75612
G1 X84.301 Y17.444 E.02453
G1 X95.431 Y28.574 E.79081
G1 X95.431 Y29.062 E.02453
G1 X83.813 Y17.444 E.8255
G1 X83.325 Y17.444 E.02453
G1 X95.431 Y29.55 E.8602
G1 X95.431 Y30.038 E.02453
G1 X82.836 Y17.444 E.89489
G1 X82.348 Y17.444 E.02453
G1 X95.431 Y30.527 E.92959
G1 X95.431 Y31.015 E.02453
G1 X82.057 Y17.641 E.95025
G1 X82.057 Y18.129 E.02453
G1 X95.431 Y31.503 E.95025
G1 X95.431 Y31.992 E.02453
G1 X82.057 Y18.618 E.95025
G1 X82.057 Y19.106 E.02453
G1 X95.431 Y32.48 E.95025
G1 X95.431 Y32.968 E.02453
G1 X82.057 Y19.594 E.95025
G1 X82.057 Y20.082 E.02453
G1 X95.431 Y33.456 E.95025
G1 X95.431 Y33.945 E.02453
G1 X82.057 Y20.571 E.95025
G1 X82.057 Y21.059 E.02453
G1 X95.431 Y34.433 E.95025
G1 X95.431 Y34.921 E.02453
G1 X82.057 Y21.547 E.95025
G1 X82.057 Y22.036 E.02453
G1 X95.431 Y35.41 E.95025
G1 X95.431 Y35.898 E.02453
G1 X82.057 Y22.524 E.95025
G1 X82.057 Y23.012 E.02453
G1 X95.431 Y36.386 E.95025
G1 X95.431 Y36.874 E.02453
G1 X82.057 Y23.5 E.95025
G1 X82.057 Y23.989 E.02453
G1 X95.431 Y37.363 E.95025
G1 X95.431 Y37.851 E.02453
G1 X82.057 Y24.477 E.95026
G1 X82.057 Y24.965 E.02453
G1 X95.431 Y38.339 E.95026
G1 X95.431 Y38.828 E.02453
G1 X82.057 Y25.454 E.95026
G1 X82.057 Y25.942 E.02453
G1 X95.431 Y39.316 E.95026
G1 X95.431 Y39.804 E.02453
G1 X82.057 Y26.43 E.95026
G1 X82.057 Y26.918 E.02453
G1 X95.431 Y40.292 E.95026
G1 X95.431 Y40.781 E.02453
G1 X82.057 Y27.407 E.95026
G1 X82.057 Y27.895 E.02453
G1 X95.431 Y41.269 E.95026
G1 X95.431 Y41.757 E.02453
G1 X82.057 Y28.383 E.95026
G1 X82.057 Y28.872 E.02453
G1 X95.431 Y42.246 E.95026
G1 X95.431 Y42.734 E.02453
G1 X82.057 Y29.36 E.95026
G1 X82.057 Y29.848 E.02453
G1 X95.431 Y43.222 E.95026
G1 X95.431 Y43.71 E.02453
G1 X82.057 Y30.336 E.95026
G1 X82.057 Y30.825 E.02453
G1 X95.431 Y44.199 E.95026
G1 X95.431 Y44.687 E.02453
G1 X82.057 Y31.313 E.95026
G1 X82.057 Y31.801 E.02453
G1 X95.431 Y45.175 E.95026
G1 X95.431 Y45.664 E.02453
G1 X82.057 Y32.289 E.95026
G1 X82.057 Y32.778 E.02453
G1 X95.431 Y46.152 E.95026
G1 X95.431 Y46.64 E.02453
G1 X82.057 Y33.266 E.95026
G1 X82.057 Y33.754 E.02453
G1 X95.431 Y47.128 E.95026
G1 X95.431 Y47.617 E.02453
G1 X82.057 Y34.243 E.95026
G1 X82.057 Y34.731 E.02453
G1 X95.431 Y48.105 E.95026
G1 X95.431 Y48.593 E.02453
G1 X82.057 Y35.219 E.95026
G1 X82.057 Y35.707 E.02453
G1 X95.431 Y49.082 E.95026
G1 X95.431 Y49.57 E.02453
G1 X82.057 Y36.196 E.95026
G1 X82.057 Y36.684 E.02453
G1 X95.431 Y50.058 E.95026
G1 X95.431 Y50.546 E.02453
G1 X82.057 Y37.172 E.95026
G1 X82.057 Y37.661 E.02453
G1 X95.431 Y51.035 E.95026
G1 X95.431 Y51.523 E.02453
G1 X82.057 Y38.149 E.95027
G1 X82.057 Y38.637 E.02453
G1 X95.431 Y52.011 E.95027
G1 X95.431 Y52.5 E.02453
G1 X82.057 Y39.125 E.95027
G1 X82.057 Y39.614 E.02453
G1 X95.431 Y52.988 E.95027
G1 X95.431 Y53.476 E.02453
G1 X82.057 Y40.102 E.95027
G1 X82.057 Y40.59 E.02453
G1 X95.431 Y53.964 E.95027
G1 X95.431 Y54.453 E.02453
G1 X82.057 Y41.079 E.95027
G1 X82.057 Y41.567 E.02453
G1 X95.431 Y54.941 E.95027
G1 X95.431 Y55.429 E.02453
G1 X82.057 Y42.055 E.95027
G1 X82.057 Y42.543 E.02453
G1 X95.431 Y55.918 E.95027
G1 X95.431 Y56.406 E.02453
G1 X82.057 Y43.032 E.95027
G1 X82.057 Y43.52 E.02453
G1 X95.431 Y56.894 E.95027
G1 X95.431 Y57.383 E.02453
G1 X82.057 Y44.008 E.95027
G1 X82.057 Y44.497 E.02453
G1 X95.431 Y57.871 E.95027
G1 X95.431 Y58.359 E.02453
G1 X82.057 Y44.985 E.95027
G1 X82.057 Y45.473 E.02453
G1 X95.431 Y58.847 E.95027
G1 X95.431 Y59.336 E.02453
G1 X82.057 Y45.961 E.95027
G1 X82.057 Y46.45 E.02453
G1 X95.431 Y59.824 E.95027
G1 X95.431 Y60.312 E.02453
G1 X82.057 Y46.938 E.95027
G1 X82.057 Y47.426 E.02453
G1 X95.431 Y60.801 E.95027
G1 X95.431 Y61.289 E.02453
G1 X82.057 Y47.915 E.95027
G1 X82.057 Y48.403 E.02453
G1 X95.431 Y61.777 E.95027
G1 X95.431 Y62.265 E.02453
G1 X82.057 Y48.891 E.95027
G1 X82.057 Y49.379 E.02453
G1 X95.431 Y62.754 E.95027
G1 X95.431 Y63.242 E.02453
G1 X82.057 Y49.868 E.95027
G1 X82.057 Y50.356 E.02453
G1 X95.431 Y63.73 E.95027
G1 X95.431 Y64.219 E.02453
G1 X82.057 Y50.844 E.95027
G1 X82.057 Y51.333 E.02453
G1 X95.431 Y64.707 E.95028
G1 X95.431 Y65.195 E.02453
G1 X82.057 Y51.821 E.95028
G1 X82.057 Y52.309 E.02453
G1 X95.431 Y65.683 E.95028
G1 X95.431 Y66.172 E.02453
G1 X82.057 Y52.797 E.95028
G1 X82.057 Y53.286 E.02453
M73 P0 R178
G1 X95.431 Y66.66 E.95028
G1 X95.431 Y67.148 E.02453
G1 X82.057 Y53.774 E.95028
G1 X82.057 Y54.262 E.02453
G1 X95.431 Y67.637 E.95028
G1 X95.431 Y68.125 E.02453
G1 X82.057 Y54.751 E.95028
G1 X82.057 Y55.239 E.02453
G1 X95.431 Y68.613 E.95028
G1 X95.431 Y69.101 E.02453
G1 X82.057 Y55.727 E.95028
G1 X82.057 Y56.215 E.02453
G1 X95.431 Y69.59 E.95028
G1 X95.431 Y70.078 E.02453
G1 X82.057 Y56.704 E.95028
G1 X82.057 Y57.192 E.02453
G1 X95.431 Y70.566 E.95028
G1 X95.431 Y71.055 E.02453
G1 X82.057 Y57.68 E.95028
G1 X82.057 Y58.169 E.02453
G1 X95.431 Y71.543 E.95028
G1 X95.431 Y72.031 E.02453
G1 X82.057 Y58.657 E.95028
G1 X82.057 Y59.145 E.02453
G1 X95.431 Y72.519 E.95028
G1 X95.431 Y73.008 E.02453
G1 X82.057 Y59.633 E.95028
G1 X82.057 Y60.122 E.02453
G1 X95.431 Y73.496 E.95028
G1 X95.431 Y73.984 E.02453
G1 X82.057 Y60.61 E.95028
G1 X82.057 Y61.098 E.02453
G1 X95.431 Y74.473 E.95028
G1 X95.431 Y74.961 E.02453
G1 X82.057 Y61.586 E.95028
G1 X82.057 Y62.075 E.02453
M73 P1 R178
G1 X95.431 Y75.449 E.95028
G1 X95.431 Y75.937 E.02453
G1 X82.057 Y62.563 E.95028
G1 X82.057 Y63.051 E.02453
G1 X95.431 Y76.426 E.95028
G1 X95.431 Y76.914 E.02453
G1 X82.057 Y63.54 E.95028
G1 X82.057 Y64.028 E.02453
G1 X95.431 Y77.402 E.95028
G1 X95.431 Y77.891 E.02453
G1 X82.057 Y64.516 E.95029
G1 X82.057 Y65.004 E.02453
G1 X95.431 Y78.379 E.95029
G1 X95.431 Y78.867 E.02453
G1 X82.057 Y65.493 E.95029
G1 X82.057 Y65.981 E.02453
G1 X95.431 Y79.355 E.95029
G1 X95.431 Y79.844 E.02453
G1 X82.057 Y66.469 E.95029
G1 X82.057 Y66.958 E.02453
G1 X95.431 Y80.332 E.95029
G1 X95.431 Y80.82 E.02453
G1 X82.057 Y67.446 E.95029
G1 X82.057 Y67.934 E.02453
G1 X95.431 Y81.309 E.95029
G1 X95.431 Y81.797 E.02453
G1 X82.057 Y68.422 E.95029
G1 X82.057 Y68.911 E.02453
G1 X95.431 Y82.285 E.95029
G1 X95.431 Y82.774 E.02453
G1 X82.057 Y69.399 E.95029
G1 X82.057 Y69.887 E.02453
G1 X95.431 Y83.262 E.95029
G1 X95.431 Y83.75 E.02453
G1 X82.057 Y70.376 E.95029
G1 X82.057 Y70.864 E.02453
G1 X95.431 Y84.238 E.95029
G1 X95.431 Y84.727 E.02453
G1 X82.057 Y71.352 E.95029
G1 X82.057 Y71.84 E.02453
G1 X95.431 Y85.215 E.95029
G1 X95.431 Y85.703 E.02453
G1 X82.057 Y72.329 E.95029
G1 X82.057 Y72.817 E.02453
G1 X95.431 Y86.192 E.95029
G1 X95.431 Y86.68 E.02453
G1 X82.057 Y73.305 E.95029
G1 X82.057 Y73.794 E.02453
G1 X95.431 Y87.168 E.95029
G1 X95.431 Y87.656 E.02453
G1 X82.057 Y74.282 E.95029
G1 X82.057 Y74.77 E.02453
G1 X95.431 Y88.145 E.95029
G1 X95.431 Y88.633 E.02453
G1 X82.056 Y75.258 E.95029
G1 X82.056 Y75.747 E.02453
G1 X95.431 Y89.121 E.95029
G1 X95.431 Y89.61 E.02453
G1 X82.056 Y76.235 E.95029
G1 X82.056 Y76.723 E.02453
G1 X95.431 Y90.098 E.95029
G1 X95.431 Y90.586 E.02453
G1 X82.056 Y77.212 E.95029
G1 X82.056 Y77.7 E.02453
G1 X95.431 Y91.074 E.9503
G1 X95.431 Y91.563 E.02453
G1 X82.056 Y78.188 E.9503
G1 X82.056 Y78.676 E.02453
G1 X95.431 Y92.051 E.9503
G1 X95.431 Y92.539 E.02453
G1 X82.056 Y79.165 E.9503
G1 X82.056 Y79.653 E.02453
G1 X95.431 Y93.028 E.9503
G1 X95.431 Y93.516 E.02453
G1 X82.056 Y80.141 E.9503
G1 X82.056 Y80.63 E.02453
G1 X95.431 Y94.004 E.9503
G1 X95.431 Y94.492 E.02453
G1 X82.056 Y81.118 E.9503
G1 X82.056 Y81.606 E.02453
G1 X95.431 Y94.981 E.9503
G1 X95.431 Y95.469 E.02453
G1 X82.056 Y82.094 E.9503
G1 X82.056 Y82.583 E.02453
G1 X95.431 Y95.957 E.9503
G1 X95.431 Y96.446 E.02453
G1 X82.056 Y83.071 E.9503
G1 X82.056 Y83.559 E.02453
G1 X95.431 Y96.934 E.9503
G1 X95.431 Y97.422 E.02453
G1 X82.056 Y84.048 E.9503
G1 X82.056 Y84.536 E.02453
G1 X95.431 Y97.91 E.9503
G1 X95.431 Y98.399 E.02453
G1 X82.056 Y85.024 E.9503
G1 X82.056 Y85.512 E.02453
G1 X95.431 Y98.887 E.9503
G1 X95.431 Y99.375 E.02453
G1 X82.056 Y86.001 E.9503
G1 X82.056 Y86.489 E.02453
G1 X95.431 Y99.864 E.9503
G1 X95.431 Y100.352 E.02453
G1 X82.056 Y86.977 E.9503
G1 X82.056 Y87.465 E.02453
G1 X95.431 Y100.84 E.9503
G1 X95.431 Y101.328 E.02453
G1 X82.056 Y87.954 E.9503
G1 X82.056 Y88.442 E.02453
G1 X95.431 Y101.817 E.9503
G1 X95.431 Y102.305 E.02453
G1 X82.056 Y88.93 E.9503
G1 X82.056 Y89.419 E.02453
G1 X95.431 Y102.793 E.9503
G1 X95.431 Y103.282 E.02453
G1 X82.056 Y89.907 E.9503
G1 X82.056 Y90.395 E.02453
G1 X95.431 Y103.77 E.9503
G1 X95.431 Y104.258 E.02453
G1 X82.056 Y90.883 E.95031
G1 X82.056 Y91.372 E.02453
G1 X95.431 Y104.746 E.95031
G1 X95.431 Y105.235 E.02453
G1 X82.056 Y91.86 E.95031
G1 X82.056 Y92.348 E.02453
G1 X95.431 Y105.723 E.95031
G1 X95.431 Y106.211 E.02453
G1 X82.056 Y92.837 E.95031
G1 X82.056 Y93.325 E.02453
G1 X95.431 Y106.7 E.95031
G1 X95.431 Y107.188 E.02453
G1 X82.056 Y93.813 E.95031
G1 X82.056 Y94.301 E.02453
G1 X95.431 Y107.676 E.95031
G1 X95.431 Y108.164 E.02453
G1 X82.056 Y94.79 E.95031
G1 X82.056 Y95.278 E.02453
G1 X95.431 Y108.653 E.95031
G1 X95.431 Y109.141 E.02453
M73 P1 R177
G1 X82.056 Y95.766 E.95031
G1 X82.056 Y96.255 E.02453
G1 X95.431 Y109.629 E.95031
G1 X95.431 Y110.118 E.02453
G1 X82.056 Y96.743 E.95031
G1 X82.056 Y97.231 E.02453
G1 X95.431 Y110.606 E.95031
G1 X95.431 Y111.094 E.02453
G1 X82.056 Y97.719 E.95031
G1 X82.056 Y98.208 E.02453
G1 X95.431 Y111.583 E.95031
G1 X95.431 Y112.071 E.02453
G1 X82.056 Y98.696 E.95031
G1 X82.056 Y99.184 E.02453
G1 X95.431 Y112.559 E.95031
G1 X95.431 Y113.047 E.02453
G1 X82.056 Y99.673 E.95031
G1 X82.056 Y100.161 E.02453
G1 X95.431 Y113.536 E.95031
G1 X95.431 Y114.024 E.02453
G1 X82.056 Y100.649 E.95031
G1 X82.056 Y101.137 E.02453
G1 X95.431 Y114.512 E.95031
G1 X95.431 Y115.001 E.02453
G1 X82.056 Y101.626 E.95031
G1 X82.056 Y102.114 E.02453
G1 X95.431 Y115.489 E.95031
G1 X95.431 Y115.977 E.02453
G1 X82.056 Y102.602 E.95031
G1 X82.056 Y103.091 E.02453
G1 X95.431 Y116.465 E.95031
G1 X95.431 Y116.954 E.02453
G1 X82.056 Y103.579 E.95031
G1 X82.056 Y104.067 E.02453
G1 X95.431 Y117.442 E.95032
G1 X95.431 Y117.93 E.02453
G1 X82.056 Y104.555 E.95032
G1 X82.056 Y105.044 E.02453
G1 X95.431 Y118.419 E.95032
G1 X95.431 Y118.907 E.02453
G1 X82.056 Y105.532 E.95032
G1 X82.056 Y106.02 E.02453
G1 X95.431 Y119.395 E.95032
G1 X95.431 Y119.883 E.02453
G1 X82.056 Y106.509 E.95032
G1 X82.056 Y106.997 E.02453
G1 X95.431 Y120.372 E.95032
G1 X95.431 Y120.86 E.02453
G1 X82.056 Y107.485 E.95032
G1 X82.056 Y107.973 E.02453
G1 X95.431 Y121.348 E.95032
G1 X95.431 Y121.837 E.02453
G1 X82.056 Y108.462 E.95032
G1 X82.056 Y108.95 E.02453
G1 X95.431 Y122.325 E.95032
G1 X95.431 Y122.813 E.02453
G1 X82.056 Y109.438 E.95032
G1 X82.056 Y109.927 E.02453
G1 X95.431 Y123.301 E.95032
G1 X95.431 Y123.79 E.02453
G1 X82.056 Y110.415 E.95032
G1 X82.056 Y110.903 E.02453
G1 X95.431 Y124.278 E.95032
G1 X95.431 Y124.766 E.02453
G1 X82.056 Y111.391 E.95032
G1 X82.056 Y111.88 E.02453
G1 X95.431 Y125.255 E.95032
G1 X95.431 Y125.743 E.02453
G1 X82.056 Y112.368 E.95032
G1 X82.056 Y112.856 E.02453
G1 X95.431 Y126.231 E.95032
G1 X95.431 Y126.719 E.02453
G1 X82.056 Y113.344 E.95032
G1 X82.056 Y113.833 E.02453
G1 X95.431 Y127.208 E.95032
G1 X95.431 Y127.696 E.02453
G1 X82.056 Y114.321 E.95032
G1 X82.056 Y114.809 E.02453
G1 X95.431 Y128.184 E.95032
G1 X95.431 Y128.673 E.02453
G1 X82.056 Y115.298 E.95032
G1 X82.056 Y115.786 E.02453
G1 X95.431 Y129.161 E.95032
G1 X95.431 Y129.649 E.02453
G1 X82.056 Y116.274 E.95032
G1 X82.056 Y116.762 E.02453
G1 X95.431 Y130.137 E.95032
G1 X95.431 Y130.626 E.02453
G1 X82.056 Y117.251 E.95032
G1 X82.056 Y117.739 E.02453
G1 X95.431 Y131.114 E.95033
G1 X95.431 Y131.602 E.02453
G1 X82.056 Y118.227 E.95033
G1 X82.056 Y118.716 E.02453
G1 X95.431 Y132.091 E.95033
G1 X95.431 Y132.579 E.02453
G1 X82.056 Y119.204 E.95033
G1 X82.056 Y119.692 E.02453
G1 X95.431 Y133.067 E.95033
G1 X95.431 Y133.555 E.02453
G1 X82.056 Y120.18 E.95033
G1 X82.056 Y120.669 E.02453
G1 X95.431 Y134.044 E.95033
G1 X95.431 Y134.532 E.02453
G1 X82.056 Y121.157 E.95033
G1 X82.056 Y121.645 E.02453
G1 X95.431 Y135.02 E.95033
G1 X95.431 Y135.509 E.02453
G1 X82.056 Y122.134 E.95033
G1 X82.056 Y122.622 E.02453
G1 X95.431 Y135.997 E.95033
G1 X95.431 Y136.485 E.02453
G1 X82.056 Y123.11 E.95033
G1 X82.056 Y123.598 E.02453
G1 X95.431 Y136.974 E.95033
G1 X95.431 Y137.462 E.02453
G1 X82.056 Y124.087 E.95033
G1 X82.056 Y124.575 E.02453
G1 X95.431 Y137.95 E.95033
G1 X95.431 Y138.438 E.02453
G1 X82.056 Y125.063 E.95033
G1 X82.056 Y125.552 E.02453
G1 X95.431 Y138.927 E.95033
G1 X95.431 Y139.415 E.02453
G1 X82.056 Y126.04 E.95033
G1 X82.056 Y126.528 E.02453
G1 X95.431 Y139.903 E.95033
G1 X95.431 Y140.392 E.02453
G1 X82.056 Y127.016 E.95033
G1 X82.056 Y127.505 E.02453
G1 X95.431 Y140.88 E.95033
G1 X95.431 Y141.368 E.02453
G1 X82.056 Y127.993 E.95033
G1 X82.056 Y128.481 E.02453
G1 X95.431 Y141.856 E.95033
G1 X95.431 Y142.345 E.02453
G1 X82.056 Y128.97 E.95033
G1 X82.056 Y129.458 E.02453
G1 X95.431 Y142.833 E.95033
G1 X95.431 Y143.321 E.02453
G1 X82.056 Y129.946 E.95033
G1 X82.056 Y130.434 E.02453
G1 X95.431 Y143.81 E.95033
G1 X95.431 Y144.298 E.02453
G1 X82.056 Y130.923 E.95034
G1 X82.056 Y131.411 E.02453
G1 X95.431 Y144.786 E.95034
G1 X95.431 Y145.274 E.02453
G1 X82.056 Y131.899 E.95034
G1 X82.056 Y132.388 E.02453
G1 X95.431 Y145.763 E.95034
