; generated by PrusaSlicer 2.5.0+win64 on 2022-12-07 at 00:09:54 UTC

; 

; external perimeters extrusion width = 1.00mm
; perimeters extrusion width = 1.00mm
; infill extrusion width = 1.00mm
; solid infill extrusion width = 1.00mm
; top infill extrusion width = 1.00mm
; support material extrusion width = 1.00mm
; first layer extrusion width = 0.42mm

M73 P0 R180
M107
;TYPE:Custom
G90 ; use absolute coordinates
M83 ; extruder relative mode
M140 S60 ; set final bed temp
M104 S150 ; set temporary nozzle temp to prevent oozing during homing and auto bed leveling
G4 S10 ; allow partial nozzle warmup
G28 ; home all axisG1 Z50 F240
G1 X7.6 Y10 F3000
M104 S210 ; set final nozzle temp
M190 S60 ; wait for bed temp to stabilize
M109 S210 ; wait for nozzle temp to stabilize
G1 Z0.28 F240
G92 E0
G1 Y140 E10 F1500 ; prime the nozzle
G1 X4 F5000
G92 E0
G1 Y10 E10 F1200 ; prime the nozzle
G92 E0
G21 ; set units to millimeters
G90 ; use absolute coordinates
M83 ; use relative distances for extrusion
; Filament gcode
M107
;LAYER_CHANGE
;Z:0.35
;HEIGHT:0.35
;BEFORE_LAYER_CHANGE
G92 E0
;0.35


G1 E-1 F3600
G1 Z.35 F7800
;AFTER_LAYER_CHANGE
;0.35
G1 X81.796 Y162.82
G1 E1 F2400
;TYPE:Perimeter
;WIDTH:0.42
G1 F1800
G1 X81.799 Y17.18 E7.30904
G1 X95.693 Y17.18 E.69731
G1 X95.694 Y162.82 E7.30904
G1 X81.946 Y162.82 E.68993
G1 X81.452 Y163.165 F7800
;TYPE:External perimeter
G1 F1800
G1 X81.454 Y16.835 E7.34366
G1 X96.038 Y16.835 E.73192
G1 X96.039 Y163.165 E7.34366
G1 X81.602 Y163.165 E.72455
G1 X81.485 Y162.165 F7800
G1 E-.7 F3600
;WIPE_START
G1 F6240
G1 X81.601 Y162.645 E-.285
;WIPE_END
G1 E-.015 F3600
G1 X94.892 Y17.284 F7800
G1 E1 F2400
;TYPE:Solid infill
;WIDTH:0.420402
G1 F1800
G1 X95.434 Y17.827 E.03857
G1 X95.434 Y18.315 E.02454
G1 X94.558 Y17.439 E.06224
G1 X94.07 Y17.439 E.02454
M73 P0 R179
G1 X95.434 Y18.803 E.09694
G1 X95.434 Y19.292 E.02454
G1 X93.582 Y17.439 E.13164
G1 X93.094 Y17.439 E.02454
G1 X95.434 Y19.78 E.16634
G1 X95.434 Y20.268 E.02454
G1 X92.605 Y17.439 E.20104
G1 X92.117 Y17.439 E.02454
G1 X95.434 Y20.757 E.23573
G1 X95.434 Y21.245 E.02454
G1 X91.629 Y17.439 E.27043
G1 X91.14 Y17.439 E.02454
G1 X95.434 Y21.733 E.30513
G1 X95.434 Y22.221 E.02454
G1 X90.652 Y17.439 E.33983
G1 X90.164 Y17.439 E.02454
G1 X95.434 Y22.71 E.37453
G1 X95.434 Y23.198 E.02454
G1 X89.675 Y17.439 E.40922
G1 X89.187 Y17.439 E.02454
G1 X95.434 Y23.686 E.44392
G1 X95.434 Y24.175 E.02454
G1 X88.699 Y17.439 E.47862
G1 X88.21 Y17.439 E.02454
G1 X95.434 Y24.663 E.51332
G1 X95.434 Y25.151 E.02454
G1 X87.722 Y17.439 E.54802
G1 X87.234 Y17.439 E.02454
G1 X95.434 Y25.64 E.58271
G1 X95.434 Y26.128 E.02454
G1 X86.745 Y17.439 E.61741
G1 X86.257 Y17.439 E.02454
G1 X95.434 Y26.616 E.65211
G1 X95.434 Y27.105 E.02454
G1 X85.769 Y17.439 E.68681
G1 X85.28 Y17.439 E.02454
G1 X95.434 Y27.593 E.72151
G1 X95.434 Y28.081 E.02454
G1 X84.792 Y17.439 E.7562
G1 X84.304 Y17.439 E.02454
G1 X95.435 Y28.57 E.7909
G1 X95.435 Y29.058 E.02454
G1 X83.816 Y17.439 E.8256
G1 X83.327 Y17.439 E.02454
G1 X95.435 Y29.546 E.8603
G1 X95.435 Y30.035 E.02454
G1 X82.839 Y17.439 E.895
G1 X82.351 Y17.439 E.02454
G1 X95.435 Y30.523 E.92969
G1 X95.435 Y31.011 E.02454
G1 X82.057 Y17.634 E.95054
G1 X82.057 Y18.122 E.02453
G1 X95.435 Y31.5 E.95054
G1 X95.435 Y31.988 E.02454
G1 X82.057 Y18.611 E.95054
G1 X82.057 Y19.099 E.02453
G1 X95.435 Y32.476 E.95054
G1 X95.435 Y32.964 E.02454
G1 X82.057 Y19.587 E.95054
G1 X82.057 Y20.075 E.02453
G1 X95.435 Y33.453 E.95054
G1 X95.435 Y33.941 E.02454
G1 X82.057 Y20.564 E.95054
G1 X82.057 Y21.052 E.02453
G1 X95.435 Y34.429 E.95054
G1 X95.435 Y34.918 E.02454
G1 X82.057 Y21.54 E.95054
G1 X82.057 Y22.029 E.02453
G1 X95.435 Y35.406 E.95054
G1 X95.435 Y35.894 E.02454
G1 X82.057 Y22.517 E.95054
G1 X82.057 Y23.005 E.02453
G1 X95.435 Y36.383 E.95055
G1 X95.435 Y36.871 E.02454
G1 X82.057 Y23.494 E.95055
G1 X82.057 Y23.982 E.02453
G1 X95.435 Y37.359 E.95055
G1 X95.435 Y37.848 E.02454
G1 X82.057 Y24.47 E.95055
G1 X82.057 Y24.959 E.02453
G1 X95.435 Y38.336 E.95055
G1 X95.435 Y38.824 E.02454
G1 X82.057 Y25.447 E.95055
G1 X82.057 Y25.935 E.02453
G1 X95.435 Y39.313 E.95055
G1 X95.435 Y39.801 E.02454
G1 X82.057 Y26.423 E.95055
G1 X82.057 Y26.912 E.02453
G1 X95.435 Y40.289 E.95055
G1 X95.435 Y40.778 E.02454
G1 X82.057 Y27.4 E.95055
G1 X82.057 Y27.888 E.02453
G1 X95.435 Y41.266 E.95055
G1 X95.435 Y41.754 E.02454
G1 X82.057 Y28.377 E.95055
G1 X82.057 Y28.865 E.02453
G1 X95.435 Y42.243 E.95055
G1 X95.435 Y42.731 E.02454
G1 X82.057 Y29.353 E.95056
G1 X82.057 Y29.842 E.02453
G1 X95.435 Y43.219 E.95056
G1 X95.435 Y43.707 E.02454
G1 X82.057 Y30.33 E.95056
G1 X82.057 Y30.818 E.02453
G1 X95.435 Y44.196 E.95056
G1 X95.435 Y44.684 E.02454
G1 X82.057 Y31.307 E.95056
G1 X82.057 Y31.795 E.02453
G1 X95.435 Y45.172 E.95056
G1 X95.435 Y45.661 E.02454
G1 X82.057 Y32.283 E.95056
G1 X82.057 Y32.771 E.02453
G1 X95.435 Y46.149 E.95056
G1 X95.435 Y46.637 E.02454
G1 X82.057 Y33.26 E.95056
G1 X82.057 Y33.748 E.02453
G1 X95.435 Y47.126 E.95056
G1 X95.435 Y47.614 E.02454
G1 X82.057 Y34.236 E.95056
G1 X82.057 Y34.725 E.02453
G1 X95.435 Y48.102 E.95056
G1 X95.435 Y48.591 E.02454
G1 X82.057 Y35.213 E.95056
G1 X82.057 Y35.701 E.02453
G1 X95.435 Y49.079 E.95056
G1 X95.435 Y49.567 E.02454
G1 X82.057 Y36.19 E.95057
G1 X82.057 Y36.678 E.02453
G1 X95.435 Y50.056 E.95057
G1 X95.435 Y50.544 E.02454
G1 X82.057 Y37.166 E.95057
G1 X82.057 Y37.655 E.02453
G1 X95.435 Y51.032 E.95057
G1 X95.435 Y51.521 E.02454
G1 X82.057 Y38.143 E.95057
G1 X82.057 Y38.631 E.02453
G1 X95.435 Y52.009 E.95057
G1 X95.435 Y52.497 E.02454
G1 X82.057 Y39.119 E.95057
G1 X82.057 Y39.608 E.02453
G1 X95.435 Y52.986 E.95057
G1 X95.435 Y53.474 E.02454
G1 X82.057 Y40.096 E.95057
G1 X82.057 Y40.584 E.02453
G1 X95.435 Y53.962 E.95057
G1 X95.435 Y54.45 E.02454
G1 X82.057 Y41.073 E.95057
G1 X82.057 Y41.561 E.02453
G1 X95.435 Y54.939 E.95057
G1 X95.435 Y55.427 E.02454
G1 X82.057 Y42.049 E.95057
G1 X82.057 Y42.538 E.02453
G1 X95.435 Y55.915 E.95057
G1 X95.435 Y56.404 E.02454
G1 X82.057 Y43.026 E.95058
G1 X82.057 Y43.514 E.02453
G1 X95.435 Y56.892 E.95058
G1 X95.435 Y57.38 E.02454
G1 X82.057 Y44.003 E.95058
G1 X82.057 Y44.491 E.02453
G1 X95.435 Y57.869 E.95058
G1 X95.435 Y58.357 E.02454
G1 X82.057 Y44.979 E.95058
G1 X82.057 Y45.468 E.02453
G1 X95.435 Y58.845 E.95058
G1 X95.435 Y59.334 E.02454
G1 X82.057 Y45.956 E.95058
G1 X82.057 Y46.444 E.02453
G1 X95.435 Y59.822 E.95058
G1 X95.435 Y60.31 E.02454
G1 X82.057 Y46.932 E.95058
G1 X82.057 Y47.421 E.02453
G1 X95.435 Y60.799 E.95058
G1 X95.435 Y61.287 E.02454
G1 X82.057 Y47.909 E.95058
G1 X82.057 Y48.397 E.02453
G1 X95.435 Y61.775 E.95058
G1 X95.435 Y62.264 E.02454
G1 X82.057 Y48.886 E.95058
G1 X82.057 Y49.374 E.02453
G1 X95.435 Y62.752 E.95058
G1 X95.435 Y63.24 E.02454
G1 X82.057 Y49.862 E.95059
G1 X82.057 Y50.351 E.02453
G1 X95.435 Y63.729 E.95059
G1 X95.435 Y64.217 E.02454
G1 X82.057 Y50.839 E.95059
G1 X82.057 Y51.327 E.02453
G1 X95.435 Y64.705 E.95059
G1 X95.435 Y65.193 E.02454
G1 X82.057 Y51.816 E.95059
G1 X82.057 Y52.304 E.02453
G1 X95.435 Y65.682 E.95059
G1 X95.435 Y66.17 E.02454
M73 P0 R178
G1 X82.057 Y52.792 E.95059
G1 X82.057 Y53.28 E.02453
G1 X95.435 Y66.658 E.95059
G1 X95.435 Y67.147 E.02454
G1 X82.057 Y53.769 E.95059
G1 X82.057 Y54.257 E.02453
G1 X95.435 Y67.635 E.95059
G1 X95.435 Y68.123 E.02454
G1 X82.057 Y54.745 E.95059
G1 X82.057 Y55.234 E.02453
G1 X95.435 Y68.612 E.95059
G1 X95.435 Y69.1 E.02454
G1 X82.057 Y55.722 E.95059
G1 X82.057 Y56.21 E.02453
G1 X95.435 Y69.588 E.95059
G1 X95.435 Y70.077 E.02454
G1 X82.057 Y56.699 E.9506
G1 X82.057 Y57.187 E.02453
G1 X95.435 Y70.565 E.9506
G1 X95.435 Y71.053 E.02454
G1 X82.057 Y57.675 E.9506
G1 X82.057 Y58.164 E.02453
G1 X95.435 Y71.542 E.9506
G1 X95.435 Y72.03 E.02454
G1 X82.057 Y58.652 E.9506
G1 X82.057 Y59.14 E.02453
G1 X95.435 Y72.518 E.9506
G1 X95.435 Y73.007 E.02454
G1 X82.057 Y59.628 E.9506
G1 X82.057 Y60.117 E.02453
G1 X95.435 Y73.495 E.9506
G1 X95.435 Y73.983 E.02454
M73 P1 R178
G1 X82.057 Y60.605 E.9506
G1 X82.057 Y61.093 E.02453
G1 X95.435 Y74.472 E.9506
G1 X95.435 Y74.96 E.02454
G1 X82.057 Y61.582 E.9506
G1 X82.057 Y62.07 E.02453
G1 X95.435 Y75.448 E.9506
G1 X95.435 Y75.936 E.02454
G1 X82.057 Y62.558 E.9506
G1 X82.057 Y63.047 E.02453
G1 X95.435 Y76.425 E.9506
G1 X95.435 Y76.913 E.02454
G1 X82.057 Y63.535 E.95061
G1 X82.057 Y64.023 E.02453
G1 X95.435 Y77.401 E.95061
G1 X95.435 Y77.89 E.02454
G1 X82.057 Y64.512 E.95061
G1 X82.057 Y65 E.02453
G1 X95.435 Y78.378 E.95061
G1 X95.435 Y78.866 E.02454
G1 X82.057 Y65.488 E.95061
G1 X82.057 Y65.976 E.02453
G1 X95.435 Y79.355 E.95061
G1 X95.435 Y79.843 E.02454
G1 X82.057 Y66.465 E.95061
G1 X82.057 Y66.953 E.02453
G1 X95.435 Y80.331 E.95061
G1 X95.435 Y80.82 E.02454
G1 X82.057 Y67.441 E.95061
G1 X82.057 Y67.93 E.02453
G1 X95.435 Y81.308 E.95061
G1 X95.435 Y81.796 E.02454
G1 X82.057 Y68.418 E.95061
G1 X82.056 Y68.906 E.02453
G1 X95.435 Y82.285 E.95061
G1 X95.435 Y82.773 E.02454
G1 X82.056 Y69.395 E.95061
G1 X82.056 Y69.883 E.02453
G1 X95.435 Y83.261 E.95061
G1 X95.435 Y83.75 E.02454
G1 X82.056 Y70.371 E.95062
G1 X82.056 Y70.86 E.02453
G1 X95.435 Y84.238 E.95062
G1 X95.435 Y84.726 E.02454
G1 X82.056 Y71.348 E.95062
G1 X82.056 Y71.836 E.02453
G1 X95.435 Y85.215 E.95062
G1 X95.435 Y85.703 E.02454
G1 X82.056 Y72.324 E.95062
G1 X82.056 Y72.813 E.02453
G1 X95.435 Y86.191 E.95062
G1 X95.435 Y86.679 E.02454
G1 X82.056 Y73.301 E.95062
G1 X82.056 Y73.789 E.02453
G1 X95.435 Y87.168 E.95062
G1 X95.435 Y87.656 E.02454
G1 X82.056 Y74.278 E.95062
G1 X82.056 Y74.766 E.02453
G1 X95.435 Y88.144 E.95062
G1 X95.435 Y88.633 E.02454
G1 X82.056 Y75.254 E.95062
G1 X82.056 Y75.743 E.02453
G1 X95.435 Y89.121 E.95062
G1 X95.435 Y89.609 E.02454
G1 X82.056 Y76.231 E.95062
G1 X82.056 Y76.719 E.02453
G1 X95.435 Y90.098 E.95062
G1 X95.435 Y90.586 E.02454
G1 X82.056 Y77.208 E.95063
G1 X82.056 Y77.696 E.02453
G1 X95.435 Y91.074 E.95063
G1 X95.435 Y91.563 E.02454
G1 X82.056 Y78.184 E.95063
G1 X82.056 Y78.672 E.02453
G1 X95.435 Y92.051 E.95063
G1 X95.435 Y92.539 E.02454
G1 X82.056 Y79.161 E.95063
G1 X82.056 Y79.649 E.02453
G1 X95.435 Y93.028 E.95063
G1 X95.435 Y93.516 E.02454
G1 X82.056 Y80.137 E.95063
G1 X82.056 Y80.626 E.02453
G1 X95.435 Y94.004 E.95063
G1 X95.435 Y94.493 E.02454
G1 X82.056 Y81.114 E.95063
G1 X82.056 Y81.602 E.02453
G1 X95.435 Y94.981 E.95063
G1 X95.435 Y95.469 E.02454
G1 X82.056 Y82.091 E.95063
G1 X82.056 Y82.579 E.02453
G1 X95.435 Y95.958 E.95063
G1 X95.435 Y96.446 E.02454
G1 X82.056 Y83.067 E.95063
G1 X82.056 Y83.556 E.02453
G1 X95.435 Y96.934 E.95063
G1 X95.435 Y97.422 E.02454
G1 X82.056 Y84.044 E.95064
G1 X82.056 Y84.532 E.02453
G1 X95.435 Y97.911 E.95064
G1 X95.435 Y98.399 E.02454
G1 X82.056 Y85.02 E.95064
G1 X82.056 Y85.509 E.02453
G1 X95.435 Y98.887 E.95064
G1 X95.435 Y99.376 E.02454
G1 X82.056 Y85.997 E.95064
G1 X82.056 Y86.485 E.02453
G1 X95.435 Y99.864 E.95064
G1 X95.435 Y100.352 E.02454
G1 X82.056 Y86.974 E.95064
G1 X82.056 Y87.462 E.02453
G1 X95.435 Y100.841 E.95064
G1 X95.435 Y101.329 E.02454
G1 X82.056 Y87.95 E.95064
G1 X82.056 Y88.439 E.02453
G1 X95.435 Y101.817 E.95064
G1 X95.435 Y102.306 E.02454
G1 X82.056 Y88.927 E.95064
G1 X82.056 Y89.415 E.02453
G1 X95.435 Y102.794 E.95064
G1 X95.435 Y103.282 E.02454
G1 X82.056 Y89.904 E.95064
G1 X82.056 Y90.392 E.02453
G1 X95.435 Y103.771 E.95064
G1 X95.435 Y104.259 E.02454
G1 X82.056 Y90.88 E.95065
G1 X82.056 Y91.368 E.02453
G1 X95.435 Y104.747 E.95065
G1 X95.435 Y105.236 E.02454
G1 X82.056 Y91.857 E.95065
G1 X82.056 Y92.345 E.02453
G1 X95.435 Y105.724 E.95065
G1 X95.435 Y106.212 E.02454
G1 X82.056 Y92.833 E.95065
G1 X82.056 Y93.322 E.02453
G1 X95.435 Y106.701 E.95065
G1 X95.435 Y107.189 E.02454
G1 X82.056 Y93.81 E.95065
G1 X82.056 Y94.298 E.02453
G1 X95.435 Y107.677 E.95065
G1 X95.435 Y108.165 E.02454
G1 X82.056 Y94.787 E.95065
G1 X82.056 Y95.275 E.02453
M73 P1 R177
G1 X95.435 Y108.654 E.95065
G1 X95.435 Y109.142 E.02454
G1 X82.056 Y95.763 E.95065
G1 X82.056 Y96.252 E.02453
G1 X95.435 Y109.63 E.95065
G1 X95.435 Y110.119 E.02454
G1 X82.056 Y96.74 E.95065
G1 X82.056 Y97.228 E.02453
G1 X95.435 Y110.607 E.95066
G1 X95.435 Y111.095 E.02454
G1 X82.056 Y97.716 E.95066
G1 X82.056 Y98.205 E.02453
G1 X95.435 Y111.584 E.95066
G1 X95.435 Y112.072 E.02454
G1 X82.056 Y98.693 E.95066
G1 X82.056 Y99.181 E.02453
G1 X95.435 Y112.56 E.95066
G1 X95.435 Y113.049 E.02454
G1 X82.056 Y99.67 E.95066
G1 X82.056 Y100.158 E.02453
G1 X95.435 Y113.537 E.95066
G1 X95.435 Y114.025 E.02454
G1 X82.056 Y100.646 E.95066
G1 X82.056 Y101.135 E.02453
G1 X95.435 Y114.514 E.95066
G1 X95.435 Y115.002 E.02454
G1 X82.056 Y101.623 E.95066
G1 X82.056 Y102.111 E.02453
G1 X95.435 Y115.49 E.95066
G1 X95.435 Y115.979 E.02454
G1 X82.056 Y102.6 E.95066
G1 X82.056 Y103.088 E.02453
G1 X95.435 Y116.467 E.95066
G1 X95.435 Y116.955 E.02454
G1 X82.056 Y103.576 E.95066
G1 X82.056 Y104.064 E.02453
G1 X95.435 Y117.444 E.95067
G1 X95.435 Y117.932 E.02454
G1 X82.056 Y104.553 E.95067
G1 X82.056 Y105.041 E.02453
G1 X95.435 Y118.42 E.95067
G1 X95.435 Y118.908 E.02454
G1 X82.056 Y105.529 E.95067
G1 X82.056 Y106.018 E.02453
G1 X95.435 Y119.397 E.95067
G1 X95.435 Y119.885 E.02454
G1 X82.056 Y106.506 E.95067
G1 X82.056 Y106.994 E.02453
G1 X95.435 Y120.373 E.95067
G1 X95.435 Y120.862 E.02454
G1 X82.056 Y107.483 E.95067
G1 X82.056 Y107.971 E.02453
G1 X95.435 Y121.35 E.95067
G1 X95.435 Y121.838 E.02454
G1 X82.056 Y108.459 E.95067
G1 X82.056 Y108.948 E.02453
G1 X95.435 Y122.327 E.95067
G1 X95.435 Y122.815 E.02454
G1 X82.056 Y109.436 E.95067
G1 X82.056 Y109.924 E.02453
G1 X95.435 Y123.303 E.95067
G1 X95.435 Y123.792 E.02454
G1 X82.056 Y110.412 E.95067
G1 X82.056 Y110.901 E.02453
G1 X95.435 Y124.28 E.95068
G1 X95.435 Y124.768 E.02454
G1 X82.056 Y111.389 E.95068
G1 X82.056 Y111.877 E.02453
G1 X95.435 Y125.257 E.95068
G1 X95.435 Y125.745 E.02454
G1 X82.056 Y112.366 E.95068
G1 X82.056 Y112.854 E.02453
G1 X95.435 Y126.233 E.95068
G1 X95.435 Y126.722 E.02454
G1 X82.056 Y113.342 E.95068
G1 X82.056 Y113.831 E.02453
G1 X95.435 Y127.21 E.95068
G1 X95.435 Y127.698 E.02454
G1 X82.056 Y114.319 E.95068
G1 X82.056 Y114.807 E.02453
G1 X95.435 Y128.187 E.95068
G1 X95.435 Y128.675 E.02454
G1 X82.056 Y115.296 E.95068
G1 X82.056 Y115.784 E.02453
G1 X95.435 Y129.163 E.95068
G1 X95.435 Y129.651 E.02454
G1 X82.056 Y116.272 E.95068
G1 X82.056 Y116.76 E.02453
G1 X95.435 Y130.14 E.95068
G1 X95.435 Y130.628 E.02454
G1 X82.056 Y117.249 E.95068
G1 X82.056 Y117.737 E.02453
G1 X95.435 Y131.116 E.95069
G1 X95.435 Y131.605 E.02454
G1 X82.056 Y118.225 E.95069
G1 X82.056 Y118.714 E.02453
G1 X95.435 Y132.093 E.95069
G1 X95.435 Y132.581 E.02454
G1 X82.056 Y119.202 E.95069
G1 X82.056 Y119.69 E.02453
G1 X95.435 Y133.07 E.95069
G1 X95.435 Y133.558 E.02454
G1 X82.056 Y120.179 E.95069
G1 X82.056 Y120.667 E.02453
G1 X95.435 Y134.046 E.95069
G1 X95.435 Y134.535 E.02454
G1 X82.056 Y121.155 E.95069
G1 X82.056 Y121.644 E.02453
G1 X95.435 Y135.023 E.95069
G1 X95.435 Y135.511 E.02454
G1 X82.056 Y122.132 E.95069
G1 X82.056 Y122.62 E.02453
G1 X95.435 Y136 E.95069
G1 X95.435 Y136.488 E.02454
G1 X82.056 Y123.108 E.95069
G1 X82.056 Y123.597 E.02453
G1 X95.435 Y136.976 E.95069
G1 X95.435 Y137.465 E.02454
G1 X82.056 Y124.085 E.95069
G1 X82.056 Y124.573 E.02453
G1 X95.435 Y137.953 E.9507
G1 X95.435 Y138.441 E.02454
G1 X82.056 Y125.062 E.9507
G1 X82.056 Y125.55 E.02453
G1 X95.435 Y138.929 E.9507
G1 X95.435 Y139.418 E.02454
G1 X82.056 Y126.038 E.9507
G1 X82.056 Y126.527 E.02453
G1 X95.435 Y139.906 E.9507
G1 X95.435 Y140.394 E.02454
G1 X82.056 Y127.015 E.9507
G1 X82.056 Y127.503 E.02453
G1 X95.435 Y140.883 E.9507
G1 X95.435 Y141.371 E.02454
G1 X82.056 Y127.992 E.9507
G1 X82.056 Y128.48 E.02453
G1 X95.435 Y141.859 E.9507
G1 X95.435 Y142.348 E.02454
G1 X82.056 Y128.968 E.9507
G1 X82.056 Y129.456 E.02453
G1 X95.435 Y142.836 E.9507
G1 X95.435 Y143.324 E.02454
G1 X82.056 Y129.945 E.9507
G1 X82.056 Y130.433 E.02453
G1 X95.435 Y143.813 E.9507
G1 X95.435 Y144.301 E.02454
G1 X82.056 Y130.921 E.9507
G1 X82.056 Y131.41 E.02453
G1 X95.435 Y144.789 E.95071
G1 X95.435 Y145.278 E.02454
G1 X82.056 Y131.898 E.95071
G1 X82.056 Y132.386 E.02453
G1 X95.435 Y145.766 E.95071
