; generated by PrusaSlicer 2.5.0+win64 on 2022-12-07 at 00:10:06 UTC

; 

; external perimeters extrusion width = 1.00mm
; perimeters extrusion width = 1.00mm
; infill extrusion width = 1.00mm
; solid infill extrusion width = 1.00mm
; top infill extrusion width = 1.00mm
; support material extrusion width = 1.00mm
; first layer extrusion width = 0.42mm

M73 P0 R180
M107
;TYPE:Custom
G90 ; use absolute coordinates
M83 ; extruder relative mode
M140 S60 ; set final bed temp
M104 S150 ; set temporary nozzle temp to prevent oozing during homing and auto bed leveling
G4 S10 ; allow partial nozzle warmup
G28 ; home all axisG1 Z50 F240
G1 X7.6 Y10 F3000
M104 S210 ; set final nozzle temp
M190 S60 ; wait for bed temp to stabilize
M109 S210 ; wait for nozzle temp to stabilize
G1 Z0.28 F240
G92 E0
G1 Y140 E10 F1500 ; prime the nozzle
G1 X4 F5000
G92 E0
G1 Y10 E10 F1200 ; prime the nozzle
G92 E0
G21 ; set units to millimeters
G90 ; use absolute coordinates
M83 ; use relative distances for extrusion
; Filament gcode
M107
;LAYER_CHANGE
;Z:0.35
;HEIGHT:0.35
;BEFORE_LAYER_CHANGE
G92 E0
;0.35


G1 E-1 F3600
G1 Z.35 F7800
;AFTER_LAYER_CHANGE
;0.35
G1 X95.682 Y17.18
G1 E1 F2400
;TYPE:Perimeter
;WIDTH:0.42
G1 F1800
G1 X95.683 Y162.82 E7.30904
G1 X82.115 Y162.82 E.68093
G1 X81.978 Y17.18 E7.30904
G1 X95.532 Y17.18 E.68019
M73 P0 R179
G1 X96.027 Y16.835 F7800
;TYPE:External perimeter
G1 F1800
G1 X96.028 Y163.165 E7.34366
G1 X81.771 Y163.165 E.71553
G1 X81.633 Y16.835 E7.34366
G1 X95.877 Y16.835 E.71483
G1 X95.994 Y17.835 F7800
G1 X95.578 Y17.983
;TYPE:Solid infill
;WIDTH:0.420747
G1 F1800
G1 X95.035 Y17.439 E.03866
G1 X94.546 Y17.439 E.02458
G1 X95.423 Y18.316 E.06239
G1 X95.423 Y18.805 E.02458
G1 X94.057 Y17.439 E.09716
G1 X93.568 Y17.439 E.02458
G1 X95.423 Y19.294 E.13193
G1 X95.423 Y19.783 E.02458
G1 X93.08 Y17.439 E.1667
G1 X92.591 Y17.439 E.02458
G1 X95.423 Y20.271 E.20146
G1 X95.423 Y20.76 E.02458
G1 X92.102 Y17.439 E.23623
G1 X91.613 Y17.439 E.02458
G1 X95.423 Y21.249 E.271
G1 X95.423 Y21.738 E.02458
G1 X91.124 Y17.439 E.30577
G1 X90.636 Y17.439 E.02458
G1 X95.423 Y22.227 E.34053
G1 X95.423 Y22.715 E.02458
G1 X90.147 Y17.439 E.3753
G1 X89.658 Y17.439 E.02458
G1 X95.423 Y23.204 E.41007
G1 X95.423 Y23.693 E.02458
G1 X89.169 Y17.439 E.44484
G1 X88.68 Y17.439 E.02458
G1 X95.423 Y24.182 E.4796
G1 X95.423 Y24.671 E.02458
G1 X88.191 Y17.439 E.51437
G1 X87.703 Y17.439 E.02458
G1 X95.423 Y25.159 E.54914
G1 X95.423 Y25.648 E.02458
G1 X87.214 Y17.439 E.58391
G1 X86.725 Y17.439 E.02458
G1 X95.423 Y26.137 E.61868
G1 X95.423 Y26.626 E.02458
G1 X86.236 Y17.439 E.65344
G1 X85.747 Y17.439 E.02458
G1 X95.423 Y27.115 E.68821
G1 X95.423 Y27.604 E.02458
G1 X85.259 Y17.439 E.72298
G1 X84.77 Y17.439 E.02458
G1 X95.423 Y28.092 E.75775
G1 X95.423 Y28.581 E.02458
G1 X84.281 Y17.439 E.79251
G1 X83.792 Y17.439 E.02458
G1 X95.423 Y29.07 E.82728
G1 X95.423 Y29.559 E.02458
G1 X83.303 Y17.439 E.86205
G1 X82.815 Y17.439 E.02458
G1 X95.423 Y30.048 E.89682
G1 X95.423 Y30.536 E.02458
G1 X82.326 Y17.439 E.93158
G1 X82.237 Y17.439 E.00446
G1 X82.238 Y17.839 E.02014
G1 X95.423 Y31.025 E.93786
G1 X95.423 Y31.514 E.02458
G1 X82.238 Y18.329 E.93783
G1 X82.239 Y18.818 E.02461
G1 X95.423 Y32.003 E.9378
G1 X95.423 Y32.492 E.02458
G1 X82.239 Y19.307 E.93777
G1 X82.239 Y19.797 E.02461
G1 X95.423 Y32.98 E.93773
G1 X95.423 Y33.469 E.02458
G1 X82.24 Y20.286 E.9377
G1 X82.24 Y20.775 E.02461
G1 X95.423 Y33.958 E.93767
G1 X95.423 Y34.447 E.02458
G1 X82.241 Y21.264 E.93764
G1 X82.241 Y21.754 E.02461
G1 X95.423 Y34.936 E.9376
G1 X95.423 Y35.424 E.02458
G1 X82.242 Y22.243 E.93757
G1 X82.242 Y22.732 E.02461
G1 X95.423 Y35.913 E.93754
G1 X95.423 Y36.402 E.02458
G1 X82.243 Y23.221 E.93751
G1 X82.243 Y23.711 E.02461
G1 X95.423 Y36.891 E.93747
G1 X95.423 Y37.38 E.02458
G1 X82.244 Y24.2 E.93744
G1 X82.244 Y24.689 E.02461
G1 X95.423 Y37.869 E.93741
G1 X95.423 Y38.357 E.02458
G1 X82.244 Y25.178 E.93738
G1 X82.245 Y25.668 E.02461
G1 X95.423 Y38.846 E.93735
G1 X95.423 Y39.335 E.02458
G1 X82.245 Y26.157 E.93731
G1 X82.246 Y26.646 E.02461
G1 X95.423 Y39.824 E.93728
G1 X95.423 Y40.313 E.02458
G1 X82.246 Y27.135 E.93725
G1 X82.247 Y27.625 E.02461
G1 X95.423 Y40.801 E.93722
G1 X95.423 Y41.29 E.02458
G1 X82.247 Y28.114 E.93718
G1 X82.248 Y28.603 E.02461
G1 X95.423 Y41.779 E.93715
G1 X95.423 Y42.268 E.02458
G1 X82.248 Y29.093 E.93712
G1 X82.249 Y29.582 E.02461
G1 X95.423 Y42.757 E.93709
G1 X95.423 Y43.245 E.02458
G1 X82.249 Y30.071 E.93705
G1 X82.25 Y30.56 E.02461
G1 X95.423 Y43.734 E.93702
G1 X95.423 Y44.223 E.02458
G1 X82.25 Y31.05 E.93699
G1 X82.25 Y31.539 E.02461
G1 X95.423 Y44.712 E.93696
G1 X95.423 Y45.201 E.02458
G1 X82.251 Y32.028 E.93693
G1 X82.251 Y32.517 E.02461
G1 X95.423 Y45.689 E.93689
G1 X95.423 Y46.178 E.02458
G1 X82.252 Y33.007 E.93686
G1 X82.252 Y33.496 E.02461
G1 X95.423 Y46.667 E.93683
G1 X95.423 Y47.156 E.02458
G1 X82.253 Y33.985 E.9368
G1 X82.253 Y34.474 E.02461
G1 X95.423 Y47.645 E.93676
G1 X95.423 Y48.133 E.02458
G1 X82.254 Y34.964 E.93673
G1 X82.254 Y35.453 E.02461
G1 X95.423 Y48.622 E.9367
G1 X95.423 Y49.111 E.02458
G1 X82.255 Y35.942 E.93667
G1 X82.255 Y36.431 E.02461
G1 X95.423 Y49.6 E.93663
G1 X95.423 Y50.089 E.02458
G1 X82.256 Y36.921 E.9366
G1 X82.256 Y37.41 E.02461
G1 X95.424 Y50.578 E.93657
G1 X95.424 Y51.066 E.02458
G1 X82.256 Y37.899 E.93654
G1 X82.257 Y38.389 E.02461
G1 X95.424 Y51.555 E.93651
G1 X95.424 Y52.044 E.02458
G1 X82.257 Y38.878 E.93647
G1 X82.258 Y39.367 E.02461
G1 X95.424 Y52.533 E.93644
G1 X95.424 Y53.022 E.02458
G1 X82.258 Y39.856 E.93641
G1 X82.259 Y40.346 E.02461
G1 X95.424 Y53.51 E.93638
G1 X95.424 Y53.999 E.02458
G1 X82.259 Y40.835 E.93634
G1 X82.26 Y41.324 E.02461
G1 X95.424 Y54.488 E.93631
G1 X95.424 Y54.977 E.02458
G1 X82.26 Y41.813 E.93628
G1 X82.261 Y42.303 E.02461
G1 X95.424 Y55.466 E.93625
G1 X95.424 Y55.954 E.02458
G1 X82.261 Y42.792 E.93621
G1 X82.262 Y43.281 E.02461
G1 X95.424 Y56.443 E.93618
G1 X95.424 Y56.932 E.02458
G1 X82.262 Y43.77 E.93615
G1 X82.262 Y44.26 E.02461
G1 X95.424 Y57.421 E.93612
G1 X95.424 Y57.91 E.02458
G1 X82.263 Y44.749 E.93609
G1 X82.263 Y45.238 E.02461
M73 P0 R178
G1 X95.424 Y58.398 E.93605
G1 X95.424 Y58.887 E.02458
G1 X82.264 Y45.727 E.93602
G1 X82.264 Y46.217 E.02461
G1 X95.424 Y59.376 E.93599
G1 X95.424 Y59.865 E.02458
G1 X82.265 Y46.706 E.93596
G1 X82.265 Y47.195 E.02461
G1 X95.424 Y60.354 E.93592
G1 X95.424 Y60.843 E.02458
G1 X82.266 Y47.685 E.93589
G1 X82.266 Y48.174 E.02461
G1 X95.424 Y61.331 E.93586
G1 X95.424 Y61.82 E.02458
G1 X82.267 Y48.663 E.93583
G1 X82.267 Y49.152 E.02461
G1 X95.424 Y62.309 E.93579
G1 X95.424 Y62.798 E.02458
G1 X82.267 Y49.642 E.93576
G1 X82.268 Y50.131 E.02461
G1 X95.424 Y63.287 E.93573
G1 X95.424 Y63.775 E.02458
G1 X82.268 Y50.62 E.9357
G1 X82.269 Y51.109 E.02461
G1 X95.424 Y64.264 E.93566
G1 X95.424 Y64.753 E.02458
G1 X82.269 Y51.599 E.93563
G1 X82.27 Y52.088 E.02461
G1 X95.424 Y65.242 E.9356
G1 X95.424 Y65.731 E.02458
G1 X82.27 Y52.577 E.93557
G1 X82.271 Y53.066 E.02461
G1 X95.424 Y66.219 E.93554
G1 X95.424 Y66.708 E.02458
G1 X82.271 Y53.556 E.9355
G1 X82.272 Y54.045 E.02461
G1 X95.424 Y67.197 E.93547
G1 X95.424 Y67.686 E.02458
G1 X82.272 Y54.534 E.93544
G1 X82.273 Y55.023 E.02461
G1 X95.424 Y68.175 E.93541
G1 X95.424 Y68.663 E.02458
G1 X82.273 Y55.513 E.93537
G1 X82.273 Y56.002 E.02461
G1 X95.424 Y69.152 E.93534
G1 X95.424 Y69.641 E.02458
G1 X82.274 Y56.491 E.93531
G1 X82.274 Y56.981 E.02461
G1 X95.424 Y70.13 E.93528
G1 X95.424 Y70.619 E.02458
G1 X82.275 Y57.47 E.93524
G1 X82.275 Y57.959 E.02461
G1 X95.424 Y71.108 E.93521
G1 X95.424 Y71.596 E.02458
G1 X82.276 Y58.448 E.93518
G1 X82.276 Y58.938 E.02461
G1 X95.424 Y72.085 E.93515
G1 X95.424 Y72.574 E.02458
G1 X82.277 Y59.427 E.93512
G1 X82.277 Y59.916 E.02461
G1 X95.424 Y73.063 E.93508
G1 X95.424 Y73.552 E.02458
G1 X82.278 Y60.405 E.93505
G1 X82.278 Y60.895 E.02461
G1 X95.424 Y74.04 E.93502
G1 X95.424 Y74.529 E.02458
G1 X82.279 Y61.384 E.93499
G1 X82.279 Y61.873 E.02461
G1 X95.424 Y75.018 E.93495
G1 X95.424 Y75.507 E.02458
G1 X82.279 Y62.362 E.93492
G1 X82.28 Y62.852 E.02461
M73 P1 R178
G1 X95.424 Y75.996 E.93489
G1 X95.424 Y76.484 E.02458
G1 X82.28 Y63.341 E.93486
G1 X82.281 Y63.83 E.02461
G1 X95.424 Y76.973 E.93482
G1 X95.424 Y77.462 E.02458
G1 X82.281 Y64.319 E.93479
G1 X82.282 Y64.809 E.02461
G1 X95.424 Y77.951 E.93476
G1 X95.424 Y78.44 E.02458
G1 X82.282 Y65.298 E.93473
G1 X82.283 Y65.787 E.02461
G1 X95.424 Y78.928 E.9347
G1 X95.424 Y79.417 E.02458
G1 X82.283 Y66.277 E.93466
G1 X82.284 Y66.766 E.02461
G1 X95.424 Y79.906 E.93463
G1 X95.424 Y80.395 E.02458
G1 X82.284 Y67.255 E.9346
G1 X82.284 Y67.744 E.02461
G1 X95.424 Y80.884 E.93457
G1 X95.424 Y81.372 E.02458
G1 X82.285 Y68.234 E.93453
G1 X82.285 Y68.723 E.02461
G1 X95.424 Y81.861 E.9345
G1 X95.424 Y82.35 E.02458
G1 X82.286 Y69.212 E.93447
G1 X82.286 Y69.701 E.02461
G1 X95.424 Y82.839 E.93444
G1 X95.424 Y83.328 E.02458
G1 X82.287 Y70.191 E.9344
G1 X82.287 Y70.68 E.02461
G1 X95.424 Y83.817 E.93437
G1 X95.424 Y84.305 E.02458
G1 X82.288 Y71.169 E.93434
G1 X82.288 Y71.658 E.02461
G1 X95.424 Y84.794 E.93431
G1 X95.424 Y85.283 E.02458
G1 X82.289 Y72.148 E.93428
G1 X82.289 Y72.637 E.02461
G1 X95.424 Y85.772 E.93424
G1 X95.424 Y86.261 E.02458
G1 X82.29 Y73.126 E.93421
G1 X82.29 Y73.615 E.02461
G1 X95.424 Y86.749 E.93418
G1 X95.424 Y87.238 E.02458
G1 X82.29 Y74.105 E.93415
G1 X82.291 Y74.594 E.02461
G1 X95.424 Y87.727 E.93411
G1 X95.424 Y88.216 E.02458
G1 X82.291 Y75.083 E.93408
G1 X82.292 Y75.573 E.02461
G1 X95.424 Y88.705 E.93405
G1 X95.424 Y89.193 E.02458
G1 X82.292 Y76.062 E.93402
G1 X82.293 Y76.551 E.02461
G1 X95.424 Y89.682 E.93398
G1 X95.424 Y90.171 E.02458
G1 X82.293 Y77.04 E.93395
G1 X82.294 Y77.53 E.02461
G1 X95.424 Y90.66 E.93392
G1 X95.424 Y91.149 E.02458
G1 X82.294 Y78.019 E.93389
G1 X82.295 Y78.508 E.02461
G1 X95.424 Y91.637 E.93386
G1 X95.424 Y92.126 E.02458
G1 X82.295 Y78.997 E.93382
G1 X82.296 Y79.487 E.02461
G1 X95.424 Y92.615 E.93379
G1 X95.424 Y93.104 E.02458
G1 X82.296 Y79.976 E.93376
G1 X82.296 Y80.465 E.02461
G1 X95.424 Y93.593 E.93373
G1 X95.424 Y94.082 E.02458
G1 X82.297 Y80.954 E.93369
G1 X82.297 Y81.444 E.02461
G1 X95.424 Y94.57 E.93366
G1 X95.424 Y95.059 E.02458
G1 X82.298 Y81.933 E.93363
G1 X82.298 Y82.422 E.02461
G1 X95.424 Y95.548 E.9336
G1 X95.424 Y96.037 E.02458
G1 X82.299 Y82.911 E.93356
G1 X82.299 Y83.401 E.02461
G1 X95.424 Y96.526 E.93353
G1 X95.424 Y97.014 E.02458
G1 X82.3 Y83.89 E.9335
G1 X82.3 Y84.379 E.02461
G1 X95.424 Y97.503 E.93347
G1 X95.424 Y97.992 E.02458
G1 X82.301 Y84.869 E.93344
G1 X82.301 Y85.358 E.02461
G1 X95.424 Y98.481 E.9334
G1 X95.424 Y98.97 E.02458
G1 X82.302 Y85.847 E.93337
G1 X82.302 Y86.336 E.02461
G1 X95.424 Y99.458 E.93334
G1 X95.424 Y99.947 E.02458
G1 X82.302 Y86.826 E.93331
G1 X82.303 Y87.315 E.02461
G1 X95.424 Y100.436 E.93327
G1 X95.424 Y100.925 E.02458
G1 X82.303 Y87.804 E.93324
G1 X82.304 Y88.293 E.02461
M73 P1 R177
G1 X95.424 Y101.414 E.93321
G1 X95.424 Y101.902 E.02458
G1 X82.304 Y88.783 E.93318
G1 X82.305 Y89.272 E.02461
G1 X95.424 Y102.391 E.93314
G1 X95.424 Y102.88 E.02458
G1 X82.305 Y89.761 E.93311
G1 X82.306 Y90.25 E.02461
G1 X95.424 Y103.369 E.93308
G1 X95.424 Y103.858 E.02458
G1 X82.306 Y90.74 E.93305
G1 X82.307 Y91.229 E.02461
G1 X95.424 Y104.346 E.93302
G1 X95.424 Y104.835 E.02458
G1 X82.307 Y91.718 E.93298
G1 X82.307 Y92.207 E.02461
G1 X95.424 Y105.324 E.93295
G1 X95.424 Y105.813 E.02458
G1 X82.308 Y92.697 E.93292
G1 X82.308 Y93.186 E.02461
G1 X95.424 Y106.302 E.93289
G1 X95.424 Y106.791 E.02458
G1 X82.309 Y93.675 E.93285
G1 X82.309 Y94.165 E.02461
G1 X95.424 Y107.279 E.93282
G1 X95.424 Y107.768 E.02458
G1 X82.31 Y94.654 E.93279
G1 X82.31 Y95.143 E.02461
G1 X95.424 Y108.257 E.93276
G1 X95.424 Y108.746 E.02458
G1 X82.311 Y95.632 E.93272
G1 X82.311 Y96.122 E.02461
G1 X95.424 Y109.235 E.93269
G1 X95.424 Y109.723 E.02458
G1 X82.312 Y96.611 E.93266
G1 X82.312 Y97.1 E.02461
G1 X95.424 Y110.212 E.93263
G1 X95.424 Y110.701 E.02458
G1 X82.313 Y97.589 E.9326
G1 X82.313 Y98.079 E.02461
G1 X95.424 Y111.19 E.93256
G1 X95.424 Y111.679 E.02458
G1 X82.313 Y98.568 E.93253
G1 X82.314 Y99.057 E.02461
G1 X95.424 Y112.167 E.9325
G1 X95.424 Y112.656 E.02458
G1 X82.314 Y99.546 E.93247
G1 X82.315 Y100.036 E.02461
G1 X95.424 Y113.145 E.93243
G1 X95.424 Y113.634 E.02458
G1 X82.315 Y100.525 E.9324
G1 X82.316 Y101.014 E.02461
G1 X95.424 Y114.123 E.93237
G1 X95.424 Y114.611 E.02458
G1 X82.316 Y101.503 E.93234
G1 X82.317 Y101.993 E.02461
G1 X95.424 Y115.1 E.9323
G1 X95.424 Y115.589 E.02458
G1 X82.317 Y102.482 E.93227
G1 X82.318 Y102.971 E.02461
G1 X95.424 Y116.078 E.93224
G1 X95.424 Y116.567 E.02458
G1 X82.318 Y103.461 E.93221
G1 X82.319 Y103.95 E.02461
G1 X95.424 Y117.056 E.93218
G1 X95.424 Y117.544 E.02458
G1 X82.319 Y104.439 E.93214
G1 X82.319 Y104.928 E.02461
G1 X95.424 Y118.033 E.93211
G1 X95.424 Y118.522 E.02458
G1 X82.32 Y105.418 E.93208
G1 X82.32 Y105.907 E.02461
G1 X95.424 Y119.011 E.93205
G1 X95.424 Y119.5 E.02458
G1 X82.321 Y106.396 E.93201
G1 X82.321 Y106.885 E.02461
G1 X95.424 Y119.988 E.93198
G1 X95.424 Y120.477 E.02458
G1 X82.322 Y107.375 E.93195
G1 X82.322 Y107.864 E.02461
G1 X95.424 Y120.966 E.93192
G1 X95.424 Y121.455 E.02458
G1 X82.323 Y108.353 E.93188
G1 X82.323 Y108.842 E.02461
G1 X95.424 Y121.944 E.93185
G1 X95.424 Y122.432 E.02458
G1 X82.324 Y109.332 E.93182
G1 X82.324 Y109.821 E.02461
G1 X95.424 Y122.921 E.93179
G1 X95.424 Y123.41 E.02458
G1 X82.325 Y110.31 E.93176
G1 X82.325 Y110.799 E.02461
G1 X95.424 Y123.899 E.93172
G1 X95.424 Y124.388 E.02458
G1 X82.325 Y111.289 E.93169
G1 X82.326 Y111.778 E.02461
G1 X95.424 Y124.876 E.93166
G1 X95.424 Y125.365 E.02458
G1 X82.326 Y112.267 E.93163
G1 X82.327 Y112.757 E.02461
G1 X95.424 Y125.854 E.93159
G1 X95.424 Y126.343 E.02458
G1 X82.327 Y113.246 E.93156
G1 X82.328 Y113.735 E.02461
G1 X95.424 Y126.832 E.93153
G1 X95.424 Y127.321 E.02458
G1 X82.328 Y114.224 E.9315
G1 X82.329 Y114.714 E.02461
G1 X95.424 Y127.809 E.93146
G1 X95.424 Y128.298 E.02458
G1 X82.329 Y115.203 E.93143
G1 X82.33 Y115.692 E.02461
G1 X95.424 Y128.787 E.9314
G1 X95.424 Y129.276 E.02458
G1 X82.33 Y116.181 E.93137
G1 X82.33 Y116.671 E.02461
G1 X95.424 Y129.765 E.93134
G1 X95.424 Y130.253 E.02458
G1 X82.331 Y117.16 E.9313
G1 X82.331 Y117.649 E.02461
G1 X95.424 Y130.742 E.93127
G1 X95.424 Y131.231 E.02458
G1 X82.332 Y118.138 E.93124
G1 X82.332 Y118.628 E.02461
G1 X95.424 Y131.72 E.93121
G1 X95.424 Y132.209 E.02458
G1 X82.333 Y119.117 E.93117
G1 X82.333 Y119.606 E.02461
G1 X95.424 Y132.697 E.93114
G1 X95.424 Y133.186 E.02458
G1 X82.334 Y120.095 E.93111
G1 X82.334 Y120.585 E.02461
G1 X95.424 Y133.675 E.93108
G1 X95.424 Y134.164 E.02458
G1 X82.335 Y121.074 E.93104
G1 X82.335 Y121.563 E.02461
G1 X95.424 Y134.653 E.93101
G1 X95.424 Y135.141 E.02458
G1 X82.336 Y122.053 E.93098
G1 X82.336 Y122.542 E.02461
G1 X95.424 Y135.63 E.93095
G1 X95.424 Y136.119 E.02458
G1 X82.336 Y123.031 E.93092
G1 X82.337 Y123.52 E.02461
G1 X95.424 Y136.608 E.93088
G1 X95.425 Y137.097 E.02458
G1 X82.337 Y124.01 E.93085
G1 X82.338 Y124.499 E.02461
G1 X95.425 Y137.585 E.93082
G1 X95.425 Y138.074 E.02458
G1 X82.338 Y124.988 E.93079
G1 X82.339 Y125.477 E.02461
G1 X95.425 Y138.563 E.93075
G1 X95.425 Y139.052 E.02458
G1 X82.339 Y125.967 E.93072
G1 X82.34 Y126.456 E.02461
G1 X95.425 Y139.541 E.93069
G1 X95.425 Y140.03 E.02458
G1 X82.34 Y126.945 E.93066
G1 X82.341 Y127.434 E.02461
G1 X95.425 Y140.518 E.93062
G1 X95.425 Y141.007 E.02458
G1 X82.341 Y127.924 E.93059
G1 X82.342 Y128.413 E.02461
G1 X95.425 Y141.496 E.93056
G1 X95.425 Y141.985 E.02458
G1 X82.342 Y128.902 E.93053
G1 X82.342 Y129.391 E.02461
G1 X95.425 Y142.474 E.93049
G1 X95.425 Y142.962 E.02458
G1 X82.343 Y129.881 E.93046
G1 X82.343 Y130.37 E.02461
G1 X95.425 Y143.451 E.93043
G1 X95.425 Y143.94 E.02458
G1 X82.344 Y130.859 E.9304
G1 X82.344 Y131.349 E.02461
M73 P1 R176
G1 X95.425 Y144.429 E.93037
G1 X95.425 Y144.918 E.02458
G1 X82.345 Y131.838 E.93033
G1 X82.345 Y132.327 E.02461
G1 X95.425 Y145.406 E.9303
G1 X95.425 Y145.895 E.02458
G1 X82.346 Y132.816 E.93027
G1 X82.346 Y133.306 E.02461
G1 X95.425 Y146.384 E.93024
G1 X95.425 Y146.873 E.02458
