; generated by PrusaSlicer 2.5.0+win64 on 2022-12-07 at 00:10:21 UTC

; 

; external perimeters extrusion width = 1.00mm
; perimeters extrusion width = 1.00mm
; infill extrusion width = 1.00mm
; solid infill extrusion width = 1.00mm
; top infill extrusion width = 1.00mm
; support material extrusion width = 1.00mm
; first layer extrusion width = 0.42mm

M73 P0 R278
M107
;TYPE:Custom
G90 ; use absolute coordinates
M83 ; extruder relative mode
M140 S60 ; set final bed temp
M104 S150 ; set temporary nozzle temp to prevent oozing during homing and auto bed leveling
G4 S10 ; allow partial nozzle warmup
G28 ; home all axisG1 Z50 F240
G1 X7.6 Y10 F3000
M104 S210 ; set final nozzle temp
M190 S60 ; wait for bed temp to stabilize
M109 S210 ; wait for nozzle temp to stabilize
G1 Z0.28 F240
G92 E0
G1 Y140 E10 F1500 ; prime the nozzle
G1 X4 F5000
G92 E0
G1 Y10 E10 F1200 ; prime the nozzle
G92 E0
G21 ; set units to millimeters
G90 ; use absolute coordinates
M83 ; use relative distances for extrusion
; Filament gcode
M107
;LAYER_CHANGE
;Z:0.35
;HEIGHT:0.35
;BEFORE_LAYER_CHANGE
G92 E0
;0.35


G1 E-1 F3600
G1 Z.35 F7800
;AFTER_LAYER_CHANGE
;0.35
G1 X26.172 Y118.95
G1 E1 F2400
;TYPE:Support material interface
;WIDTH:1
G1 F1800
G1 X26.172 Y123.927 E.66985
G1 X27.065 Y123.927 E.12014
G1 X27.065 Y119.464 E.60061
G1 X27.957 Y119.574 E.12105
G1 X27.957 Y123.927 E.58584
G1 X28.85 Y123.927 E.12014
G1 X28.85 Y119.684 E.57107
G1 X29.128 Y119.718 E.03765
G1 X29.743 Y120.029 E.09278
G1 X29.743 Y127.32 E.98117
G1 X30.635 Y127.32 E.12014
G1 X30.635 Y120.481 E.92034
G1 X31.528 Y120.933 E.13466
G1 X31.528 Y127.32 E.85952
G1 X32.324 Y127.32 E.10712
G1 X32.324 Y130.712 E.4566
G1 X32.421 Y130.712 E.01302
G1 X32.421 Y121.584 E1.22849
G1 X33.314 Y122.906 E.21468
G1 X33.314 Y130.712 E1.05057
G1 X34.206 Y130.712 E.12014
G1 X34.206 Y124.228 E.87265
G1 X35.099 Y125.55 E.21468
G1 X35.099 Y130.712 E.69474
G1 X35.717 Y130.712 E.08315
G1 X35.717 Y134.105 E.4566
G1 X35.992 Y134.105 E.03699
G1 X35.992 Y126.872 E.97342
G1 X36.122 Y127.066 E.03138
G1 X36.651 Y127.392 E.0837
G1 X36.884 Y127.423 E.03164
G1 X36.884 Y134.105 E.89933
G1 X37.777 Y134.105 E.12014
G1 X37.777 Y127.539 E.88365
G1 X38.67 Y127.656 E.12116
G1 X38.67 Y134.105 E.86797
G1 X39.562 Y134.105 E.12014
G1 X39.562 Y127.772 E.85228
G1 X39.968 Y127.825 E.05509
G1 X40.455 Y127.656 E.06938
G1 X40.455 Y134.105 E.86799
G1 X41.348 Y134.105 E.12014
G1 X41.348 Y126.845 E.97711
G1 X42.241 Y125.925 E.17254
G1 X42.241 Y134.507 E1.15502
G1 E-.7 F3600
;WIPE_START
G1 F6240
G1 X42.241 Y133.987 E-.285
;WIPE_END
G1 E-.015 F3600
G1 X27.882 Y118.903 F7800
G1 E1 F2400
;TYPE:Support material
;WIDTH:0.42
G1 F1800
G1 X24.882 Y118.535 E.15169
G1 X24.882 Y124.583 E.30356
G1 X28.275 Y124.583 E.17027
G1 X28.275 Y127.976 E.17027
G1 X31.668 Y127.976 E.17027
G1 X31.668 Y131.369 E.17027
G1 X35.06 Y131.369 E.17027
G1 X35.06 Y134.762 E.17027
G1 X43.159 Y134.762 E.40642
G1 X43.159 Y124.036 E.53829
G1 X42.659 Y124.551 E.03604
G1 X42.659 Y122.307 E.11262
G1 X44.054 Y120.869 E.10058
G1 X44.371 Y120.691 E.01825
G1 X49.444 Y120.691 E.25458
G1 X49.444 Y117.298 E.17027
G1 X59.309 Y117.298 E.49509
G1 X59.309 Y130.556 E.66536
G1 X55.917 Y130.556 E.17027
G1 X55.917 Y140.734 E.5108
G1 X52.524 Y140.734 E.17027
G1 X52.524 Y144.44 E.18597
G1 X62.702 Y144.44 E.5108
G1 X62.702 Y157.698 E.66536
G1 X59.309 Y157.698 E.17027
G1 X59.309 Y167.876 E.5108
G1 X35.873 Y167.876 E1.17616
M73 P0 R277
G1 X35.873 Y164.483 E.17027
G1 X29.088 Y164.483 E.34053
G1 X29.088 Y161.09 E.17027
G1 X25.695 Y161.09 E.17027
G1 X25.695 Y154.305 E.34053
G1 X22.302 Y154.305 E.17027
G1 X22.302 Y133.949 E1.02159
G1 X18.91 Y133.949 E.17027
G1 X18.91 Y130.556 E.17027
G1 X15.517 Y130.556 E.17027
G1 X15.517 Y117.298 E.66536
G1 X27.882 Y117.298 E.62056
G1 X27.882 Y118.852 E.07797
G1 E-.7 F3600
;WIPE_START
G1 F6240
G1 X27.882 Y118.332 E-.285
;WIPE_END
G1 E-.015 F3600
G1 X62.026 Y157.542 F7800
G1 E1 F2400
G1 F1800
G1 X62.026 Y144.75 E.64199
G1 X61.642 Y144.75 E.01923
G1 X61.642 Y157.387 E.6342
G1 X61.259 Y157.387 E.01923
G1 X61.259 Y144.75 E.6342
G1 X60.876 Y144.75 E.01923
G1 X60.876 Y157.387 E.6342
G1 X60.493 Y157.387 E.01923
G1 X60.493 Y144.75 E.6342
G1 X60.11 Y144.75 E.01923
G1 X60.11 Y157.387 E.6342
G1 X59.726 Y157.387 E.01923
G1 X59.726 Y144.75 E.6342
G1 X59.343 Y144.75 E.01923
G1 X59.343 Y157.387 E.6342
G1 X58.999 Y157.387 E.01728
G1 X58.999 Y167.565 E.5108
G1 X58.96 Y167.565 E.00195
G1 X58.96 Y144.75 E1.145
G1 X58.577 Y144.75 E.01923
G1 X58.577 Y167.565 E1.145
G1 X58.194 Y167.565 E.01923
G1 X58.194 Y144.75 E1.145
G1 X57.81 Y144.75 E.01923
G1 X57.81 Y167.565 E1.145
G1 X57.427 Y167.565 E.01923
G1 X57.427 Y144.75 E1.145
G1 X57.044 Y144.75 E.01923
G1 X57.044 Y167.565 E1.145
G1 X56.661 Y167.565 E.01923
G1 X56.661 Y144.75 E1.145
G1 X56.278 Y144.75 E.01923
G1 X56.278 Y167.565 E1.145
G1 X55.894 Y167.565 E.01923
G1 X55.894 Y144.75 E1.145
G1 X55.511 Y144.75 E.01923
G1 X55.511 Y167.565 E1.145
G1 X55.128 Y167.565 E.01923
G1 X55.128 Y144.75 E1.145
G1 X54.745 Y144.75 E.01923
G1 X54.745 Y167.565 E1.145
G1 X54.361 Y167.565 E.01923
G1 X54.361 Y144.75 E1.145
G1 X53.978 Y144.75 E.01923
G1 X53.978 Y167.565 E1.145
G1 X53.595 Y167.565 E.01923
G1 X53.595 Y144.75 E1.145
G1 X53.212 Y144.75 E.01923
G1 X53.212 Y167.565 E1.145
G1 X52.829 Y167.565 E.01923
G1 X52.829 Y144.75 E1.145
G1 X52.445 Y144.75 E.01923
G1 X52.445 Y167.565 E1.145
G1 X52.062 Y167.565 E.01923
G1 X52.062 Y117.608 E2.50713
G1 X52.445 Y117.608 E.01923
G1 X52.445 Y140.424 E1.145
G1 X52.829 Y140.424 E.01923
G1 X52.829 Y117.608 E1.145
G1 X53.212 Y117.608 E.01923
G1 X53.212 Y140.424 E1.145
G1 X53.595 Y140.424 E.01923
G1 X53.595 Y117.608 E1.145
G1 X53.978 Y117.608 E.01923
G1 X53.978 Y140.424 E1.145
G1 X54.361 Y140.424 E.01923
G1 X54.361 Y117.608 E1.145
G1 X54.745 Y117.608 E.01923
G1 X54.745 Y140.424 E1.145
G1 X55.128 Y140.424 E.01923
G1 X55.128 Y117.608 E1.145
G1 X55.511 Y117.608 E.01923
G1 X55.511 Y140.424 E1.145
G1 X55.606 Y140.424 E.00477
G1 X55.606 Y130.246 E.5108
G1 X55.894 Y130.246 E.01446
G1 X55.894 Y117.608 E.6342
G1 X56.278 Y117.608 E.01923
G1 X56.278 Y130.246 E.6342
G1 X56.661 Y130.246 E.01923
G1 X56.661 Y117.608 E.6342
G1 X57.044 Y117.608 E.01923
G1 X57.044 Y130.246 E.6342
G1 X57.427 Y130.246 E.01923
G1 X57.427 Y117.608 E.6342
G1 X57.81 Y117.608 E.01923
G1 X57.81 Y130.246 E.6342
G1 X58.194 Y130.246 E.01923
G1 X58.194 Y117.608 E.6342
G1 X58.577 Y117.608 E.01923
G1 X58.577 Y130.246 E.6342
G1 X58.96 Y130.246 E.01923
G1 X58.96 Y117.453 E.64199
G1 E-.7 F3600
;WIPE_START
G1 F6240
G1 X58.96 Y117.973 E-.285
;WIPE_END
G1 E-.015 F3600
G1 X51.679 Y167.72 F7800
G1 E1 F2400
G1 F1800
G1 X51.679 Y117.608 E2.51492
G1 X51.296 Y117.608 E.01923
G1 X51.296 Y167.565 E2.50713
G1 X50.913 Y167.565 E.01923
G1 X50.913 Y117.608 E2.50713
G1 X50.529 Y117.608 E.01923
G1 X50.529 Y167.565 E2.50713
G1 X50.146 Y167.565 E.01923
G1 X50.146 Y117.608 E2.50713
G1 X49.763 Y117.608 E.01923
G1 X49.763 Y167.565 E2.50713
G1 X49.38 Y167.565 E.01923
G1 X49.38 Y121.001 E2.33686
G1 X48.997 Y121.001 E.01923
G1 X48.997 Y167.565 E2.33686
G1 X48.613 Y167.565 E.01923
G1 X48.613 Y121.001 E2.33686
G1 X48.23 Y121.001 E.01923
G1 X48.23 Y167.565 E2.33686
G1 X47.847 Y167.565 E.01923
G1 X47.847 Y121.001 E2.33686
G1 X47.464 Y121.001 E.01923
G1 X47.464 Y167.565 E2.33686
G1 X47.08 Y167.565 E.01923
G1 X47.08 Y121.001 E2.33686
G1 X46.697 Y121.001 E.01923
M73 P0 R276
G1 X46.697 Y167.565 E2.33686
G1 X46.314 Y167.565 E.01923
G1 X46.314 Y121.001 E2.33686
G1 X45.931 Y121.001 E.01923
G1 X45.931 Y167.565 E2.33686
G1 X45.548 Y167.565 E.01923
G1 X45.548 Y121.001 E2.33686
G1 X45.164 Y121.001 E.01923
G1 X45.164 Y167.565 E2.33686
G1 X44.781 Y167.565 E.01923
G1 X44.781 Y121.001 E2.33686
G1 X44.452 Y121.001 E.0165
G1 X44.398 Y121.032 E.00313
G1 X44.398 Y167.565 E2.33533
G1 X44.015 Y167.565 E.01923
G1 X44.015 Y121.355 E2.31911
G1 X43.632 Y121.75 E.02762
G1 X43.632 Y167.565 E2.29929
G1 X43.248 Y167.565 E.01923
G1 X43.248 Y135.072 E1.63071
G1 X42.865 Y135.072 E.01923
G1 X42.865 Y167.565 E1.63071
G1 X42.482 Y167.565 E.01923
G1 X42.482 Y135.072 E1.63071
G1 X42.099 Y135.072 E.01923
G1 X42.099 Y167.565 E1.63071
G1 X41.716 Y167.565 E.01923
G1 X41.716 Y135.072 E1.63071
G1 X41.332 Y135.072 E.01923
G1 X41.332 Y167.565 E1.63071
G1 X40.949 Y167.565 E.01923
G1 X40.949 Y135.072 E1.63071
G1 X40.566 Y135.072 E.01923
G1 X40.566 Y167.565 E1.63071
G1 X40.183 Y167.565 E.01923
G1 X40.183 Y135.072 E1.63071
G1 X39.799 Y135.072 E.01923
G1 X39.799 Y167.565 E1.63071
G1 X39.416 Y167.565 E.01923
G1 X39.416 Y135.072 E1.63071
G1 X39.033 Y135.072 E.01923
G1 X39.033 Y167.565 E1.63071
G1 X38.65 Y167.565 E.01923
G1 X38.65 Y135.072 E1.63071
G1 X38.267 Y135.072 E.01923
G1 X38.267 Y167.565 E1.63071
G1 X37.883 Y167.565 E.01923
G1 X37.883 Y135.072 E1.63071
G1 X37.5 Y135.072 E.01923
G1 X37.5 Y167.565 E1.63071
G1 X37.117 Y167.565 E.01923
G1 X37.117 Y135.072 E1.63071
G1 X36.734 Y135.072 E.01923
G1 X36.734 Y167.565 E1.63071
G1 X36.351 Y167.565 E.01923
G1 X36.351 Y135.072 E1.63071
G1 X35.967 Y135.072 E.01923
G1 X35.967 Y164.173 E1.46044
G1 X35.584 Y164.173 E.01923
G1 X35.584 Y135.072 E1.46044
G1 X35.201 Y135.072 E.01923
G1 X35.201 Y164.173 E1.46044
G1 X34.818 Y164.173 E.01923
G1 X34.818 Y135.072 E1.46044
G1 X34.75 Y135.072 E.0034
G1 X34.75 Y131.679 E.17027
G1 X34.435 Y131.679 E.01583
G1 X34.435 Y164.173 E1.63071
G1 X34.051 Y164.173 E.01923
G1 X34.051 Y131.679 E1.63071
G1 X33.668 Y131.679 E.01923
G1 X33.668 Y164.173 E1.63071
G1 X33.285 Y164.173 E.01923
G1 X33.285 Y131.679 E1.63071
G1 X32.902 Y131.679 E.01923
G1 X32.902 Y164.173 E1.63071
G1 X32.518 Y164.173 E.01923
G1 X32.518 Y131.679 E1.63071
G1 X32.135 Y131.679 E.01923
G1 X32.135 Y164.173 E1.63071
G1 X31.752 Y164.173 E.01923
G1 X31.752 Y131.679 E1.63071
G1 X31.369 Y131.679 E.01923
G1 X31.369 Y164.173 E1.63071
G1 X30.986 Y164.173 E.01923
G1 X30.986 Y128.287 E1.80097
G1 X30.602 Y128.287 E.01923
G1 X30.602 Y164.173 E1.80097
G1 X30.219 Y164.173 E.01923
G1 X30.219 Y128.287 E1.80097
G1 X29.836 Y128.287 E.01923
G1 X29.836 Y164.173 E1.80097
G1 X29.453 Y164.173 E.01923
G1 X29.453 Y128.287 E1.80097
G1 X29.07 Y128.287 E.01923
G1 X29.07 Y160.78 E1.63071
G1 X28.686 Y160.78 E.01923
G1 X28.686 Y128.287 E1.63071
G1 X28.303 Y128.287 E.01923
G1 X28.303 Y160.78 E1.63071
G1 X27.92 Y160.78 E.01923
M73 P0 R275
G1 X27.92 Y124.894 E1.80097
G1 X27.537 Y124.894 E.01923
G1 X27.537 Y160.78 E1.80097
G1 X27.154 Y160.78 E.01923
G1 X27.154 Y124.894 E1.80097
G1 X26.77 Y124.894 E.01923
G1 X26.77 Y160.78 E1.80097
G1 X26.387 Y160.78 E.01923
G1 X26.387 Y124.894 E1.80097
G1 X26.004 Y124.894 E.01923
G1 X26.004 Y153.994 E1.46044
G1 X25.621 Y153.994 E.01923
G1 X25.621 Y124.894 E1.46044
G1 X25.238 Y124.894 E.01923
G1 X25.238 Y153.994 E1.46044
G1 X24.854 Y153.994 E.01923
G1 X24.854 Y124.894 E1.46044
G1 X24.572 Y124.894 E.01417
G1 X24.572 Y118.184 E.33675
G1 X24.854 Y118.218 E.01428
G1 X24.854 Y117.608 E.03062
G1 X25.238 Y117.608 E.01923
G1 X25.238 Y118.266 E.03298
G1 X25.621 Y118.313 E.01938
G1 X25.621 Y117.608 E.03534
G1 X26.004 Y117.608 E.01923
G1 X26.004 Y118.36 E.03771
G1 X26.387 Y118.407 E.01938
G1 X26.387 Y117.608 E.04007
G1 X26.77 Y117.608 E.01923
G1 X26.77 Y118.454 E.04244
G1 X27.154 Y118.501 E.01938
G1 X27.154 Y117.608 E.0448
G1 X27.537 Y117.608 E.01923
G1 X27.537 Y118.705 E.05501
G1 E-.7 F3600
;WIPE_START
G1 F6240
G1 X27.537 Y118.185 E-.285
;WIPE_END
G1 E-.015 F3600
G1 X43.248 Y123.72 F7800
G1 E1 F2400
G1 F1800
G1 X43.248 Y121.922 E.09025
G1 E-.7 F3600
;WIPE_START
G1 F6240
G1 X43.248 Y122.442 E-.285
;WIPE_END
G1 E-.015 F3600
G1 X24.471 Y154.15 F7800
G1 E1 F2400
G1 F1800
G1 X24.471 Y117.608 E1.83385
G1 X24.088 Y117.608 E.01923
G1 X24.088 Y153.994 E1.82606
G1 X23.705 Y153.994 E.01923
G1 X23.705 Y117.608 E1.82606
G1 X23.321 Y117.608 E.01923
G1 X23.321 Y153.994 E1.82606
G1 X22.938 Y153.994 E.01923
G1 X22.938 Y117.608 E1.82606
G1 X22.555 Y117.608 E.01923
G1 X22.555 Y133.638 E.80447
G1 X22.172 Y133.638 E.01923
G1 X22.172 Y117.608 E.80447
G1 X21.789 Y117.608 E.01923
G1 X21.789 Y133.638 E.80447
G1 X21.405 Y133.638 E.01923
M73 P1 R275
G1 X21.405 Y117.608 E.80447
G1 X21.022 Y117.608 E.01923
G1 X21.022 Y133.638 E.80447
G1 X20.639 Y133.638 E.01923
G1 X20.639 Y117.608 E.80447
G1 X20.256 Y117.608 E.01923
G1 X20.256 Y133.638 E.80447
G1 X19.873 Y133.638 E.01923
G1 X19.873 Y117.608 E.80447
G1 X19.489 Y117.608 E.01923
G1 X19.489 Y133.638 E.80447
G1 X19.22 Y133.638 E.01351
G1 X19.22 Y130.246 E.17027
G1 X19.106 Y130.246 E.00572
G1 X19.106 Y117.608 E.6342
G1 X18.723 Y117.608 E.01923
G1 X18.723 Y130.246 E.6342
G1 X18.34 Y130.246 E.01923
G1 X18.34 Y117.608 E.6342
G1 X17.957 Y117.608 E.01923
G1 X17.957 Y130.246 E.6342
G1 X17.573 Y130.246 E.01923
G1 X17.573 Y117.608 E.6342
G1 X17.19 Y117.608 E.01923
G1 X17.19 Y130.246 E.6342
G1 X16.807 Y130.246 E.01923
G1 X16.807 Y117.608 E.6342
G1 X16.424 Y117.608 E.01923
G1 X16.424 Y130.246 E.6342
G1 X16.04 Y130.246 E.01923
G1 X16.04 Y117.453 E.64199
G1 E-.7 F3600
;WIPE_START
G1 F6240
G1 X16.04 Y117.973 E-.285
;WIPE_END
G1 E-.015 F3600
G1 X31.03 Y52.557 F7800
G1 E1 F2400
;TYPE:Perimeter
;WIDTH:0.42
G1 F1800
G1 X31.171 Y52.441 E.00913
G1 X31.266 Y52.182 E.01386
G1 X32.458 Y37.739 E.72731
G1 X37.19 Y17.18 E1.05874
G1 X59.743 Y17.18 E1.13183
G1 X54.817 Y38.565 E1.1013
G1 X49.169 Y107.053 E3.44881
G1 X44.676 Y119.07 E.64385
G1 X43.341 Y119.818 E.07685
G1 X43.222 Y119.909 E.0075
G1 X40.592 Y122.62 E.18954
G1 X39.201 Y122.439 E.07043
G1 X36.899 Y119.03 E.20643
G1 X36.704 Y118.858 E.01305
G1 X32.01 Y116.481 E.26402
G1 X31.84 Y116.429 E.00895
G1 X25.895 Y115.699 E.30056
G1 X24.986 Y115.06 E.05578
G1 X18.7 Y105.581 E.5708
G1 X18.7 Y50.71 E2.75377
G1 X29.376 Y52.023 E.53981
G1 X30.517 Y52.601 E.06422
G1 X30.721 Y52.656 E.0106
G1 X30.901 Y52.623 E.00917
G1 X30.846 Y52.283 F7800
;TYPE:External perimeter
G1 F1800
G1 X30.923 Y52.154 E.00755
G1 X32.116 Y37.686 E.72856
G1 X36.916 Y16.835 E1.07376
G1 X60.177 Y16.835 E1.16736
G1 X55.161 Y38.593 E1.12056
G1 X49.509 Y107.129 E3.45121
G1 X44.955 Y119.309 E.65259
G1 X43.47 Y120.15 E.08566
G1 X40.719 Y122.985 E.19823
G1 X39.002 Y122.76 E.08692
G1 X36.844 Y119.564 E.19357
G1 X36.548 Y119.165 E.0249
G1 X31.854 Y116.789 E.26402
G1 X25.768 Y116.03 E.30783
G1 X24.734 Y115.305 E.06338
G1 X18.355 Y105.685 E.57928
G1 X18.355 Y50.32 E2.77856
G1 X29.478 Y51.688 E.56241
G1 X30.698 Y52.303 E.0686
G1 X30.984 Y52.343 F7800
G1 E-.7 F3600
;WIPE_START
G1 F6240
G1 X30.923 Y52.154 E-.14783
G1 X30.943 Y51.904 E-.13717
;WIPE_END
G1 E-.015 F3600
G1 X59.483 Y17.847 F7800
G1 E1 F2400
;TYPE:Solid infill
;WIDTH:0.420361
G1 F1800
G1 X59.075 Y17.439 E.02901
G1 X58.587 Y17.439 E.02453
G1 X59.262 Y18.115 E.04801
G1 X59.171 Y18.511 E.02046
G1 X58.098 Y17.439 E.0762
G1 X57.61 Y17.439 E.02453
G1 X59.079 Y18.908 E.10439
G1 X58.988 Y19.305 E.02046
G1 X57.122 Y17.439 E.13258
G1 X56.634 Y17.439 E.02453
G1 X58.896 Y19.702 E.16076
G1 X58.805 Y20.098 E.02046
G1 X56.145 Y17.439 E.18895
G1 X55.657 Y17.439 E.02453
G1 X58.713 Y20.495 E.21714
G1 X58.622 Y20.892 E.02046
G1 X55.169 Y17.439 E.24533
G1 X54.681 Y17.439 E.02453
G1 X58.53 Y21.289 E.27352
G1 X58.439 Y21.686 E.02046
G1 X54.192 Y17.439 E.30171
G1 X53.704 Y17.439 E.02453
G1 X58.347 Y22.082 E.3299
G1 X58.256 Y22.479 E.02046
G1 X53.216 Y17.439 E.35809
G1 X52.727 Y17.439 E.02453
G1 X58.164 Y22.876 E.38628
G1 X58.073 Y23.273 E.02046
G1 X52.239 Y17.439 E.41447
G1 X51.751 Y17.439 E.02453
G1 X57.981 Y23.669 E.44266
G1 X57.89 Y24.066 E.02046
G1 X51.263 Y17.439 E.47084
G1 X50.774 Y17.439 E.02453
G1 X57.798 Y24.463 E.49903
G1 X57.707 Y24.86 E.02046
G1 X50.286 Y17.439 E.52722
G1 X49.798 Y17.439 E.02453
G1 X57.615 Y25.256 E.55541
G1 X57.524 Y25.653 E.02046
G1 X49.31 Y17.439 E.5836
G1 X48.821 Y17.439 E.02453
G1 X57.432 Y26.05 E.61179
G1 X57.341 Y26.447 E.02046
G1 X48.333 Y17.439 E.63998
G1 X47.845 Y17.439 E.02453
G1 X57.249 Y26.843 E.66817
G1 X57.158 Y27.24 E.02046
G1 X47.357 Y17.439 E.69636
G1 X46.868 Y17.439 E.02453
G1 X57.066 Y27.637 E.72455
G1 X56.975 Y28.034 E.02046
G1 X46.38 Y17.439 E.75274
G1 X45.892 Y17.439 E.02453
G1 X56.883 Y28.431 E.78093
G1 X56.792 Y28.827 E.02046
G1 X45.404 Y17.439 E.80911
G1 X44.915 Y17.439 E.02453
G1 X56.7 Y29.224 E.8373
G1 X56.609 Y29.621 E.02046
