; generated by PrusaSlicer 2.5.0+win64 on 2022-12-07 at 00:10:46 UTC

; 

; external perimeters extrusion width = 1.00mm
; perimeters extrusion width = 1.00mm
; infill extrusion width = 1.00mm
; solid infill extrusion width = 1.00mm
; top infill extrusion width = 1.00mm
; support material extrusion width = 1.00mm
; first layer extrusion width = 0.42mm

M73 P0 R455
M107
;TYPE:Custom
G90 ; use absolute coordinates
M83 ; extruder relative mode
M140 S60 ; set final bed temp
M104 S150 ; set temporary nozzle temp to prevent oozing during homing and auto bed leveling
G4 S10 ; allow partial nozzle warmup
G28 ; home all axisG1 Z50 F240
G1 X7.6 Y10 F3000
M104 S210 ; set final nozzle temp
M190 S60 ; wait for bed temp to stabilize
M109 S210 ; wait for nozzle temp to stabilize
G1 Z0.28 F240
G92 E0
G1 Y140 E10 F1500 ; prime the nozzle
G1 X4 F5000
G92 E0
M73 P0 R454
G1 Y10 E10 F1200 ; prime the nozzle
G92 E0
G21 ; set units to millimeters
G90 ; use absolute coordinates
M83 ; use relative distances for extrusion
; Filament gcode
M107
;LAYER_CHANGE
;Z:0.35
;HEIGHT:0.35
;BEFORE_LAYER_CHANGE
G92 E0
;0.35


G1 E-1 F3600
G1 Z.35 F7800
;AFTER_LAYER_CHANGE
;0.35
G1 X28.775 Y18.91
G1 E1 F2400
;TYPE:Support material
;WIDTH:0.42
G1 F1800
G1 X32.168 Y18.91 E.17027
G1 X32.168 Y29.088 E.5108
G1 X35.56 Y29.088 E.17027
G1 X35.56 Y42.659 E.68106
G1 X38.953 Y42.659 E.17027
G1 X38.953 Y63.015 E1.02159
G1 X42.346 Y63.015 E.17027
G1 X42.346 Y83.371 E1.02159
G1 X45.738 Y83.371 E.17027
G1 X45.738 Y107.12 E1.19186
G1 X49.131 Y107.12 E.17027
G1 X49.131 Y127.476 E1.02159
G1 X52.524 Y127.476 E.17027
G1 X52.524 Y154.305 E1.34642
G1 X49.131 Y154.305 E.17027
G1 X49.131 Y167.876 E.68106
G1 X12.124 Y167.876 E1.85722
G1 X12.124 Y12.124 E7.81652
G1 X28.775 Y12.124 E.83563
G1 X28.775 Y18.858 E.33794
G1 X52.062 Y154.15 F7800
G1 F1800
G1 X52.062 Y127.787 E1.32306
G1 X51.679 Y127.787 E.01923
G1 X51.679 Y153.994 E1.31527
G1 X51.296 Y153.994 E.01923
G1 X51.296 Y127.787 E1.31527
G1 X50.913 Y127.787 E.01923
G1 X50.913 Y153.994 E1.31527
G1 X50.529 Y153.994 E.01923
G1 X50.529 Y127.787 E1.31527
G1 X50.146 Y127.787 E.01923
G1 X50.146 Y153.994 E1.31527
G1 X49.763 Y153.994 E.01923
G1 X49.763 Y127.787 E1.31527
G1 X49.38 Y127.787 E.01923
G1 X49.38 Y153.994 E1.31527
G1 X48.997 Y153.994 E.01923
G1 X48.997 Y127.787 E1.31527
G1 X48.821 Y127.787 E.00882
G1 X48.821 Y107.43 E1.02159
G1 X48.613 Y107.43 E.01041
G1 X48.613 Y167.565 E3.01792
G1 X48.23 Y167.565 E.01923
G1 X48.23 Y107.43 E3.01792
G1 X47.847 Y107.43 E.01923
G1 X47.847 Y167.565 E3.01792
G1 X47.464 Y167.565 E.01923
G1 X47.464 Y107.43 E3.01792
G1 X47.08 Y107.43 E.01923
G1 X47.08 Y167.565 E3.01792
G1 X46.697 Y167.565 E.01923
G1 X46.697 Y107.43 E3.01792
G1 X46.314 Y107.43 E.01923
G1 X46.314 Y167.565 E3.01792
G1 X45.931 Y167.565 E.01923
G1 X45.931 Y107.43 E3.01792
G1 X45.548 Y107.43 E.01923
G1 X45.548 Y167.565 E3.01792
G1 X45.164 Y167.565 E.01923
G1 X45.164 Y83.681 E4.20978
G1 X44.781 Y83.681 E.01923
G1 X44.781 Y167.565 E4.20978
G1 X44.398 Y167.565 E.01923
G1 X44.398 Y83.681 E4.20978
G1 X44.015 Y83.681 E.01923
G1 X44.015 Y167.565 E4.20978
G1 X43.632 Y167.565 E.01923
M73 P0 R453
G1 X43.632 Y83.681 E4.20978
G1 X43.248 Y83.681 E.01923
G1 X43.248 Y167.565 E4.20978
G1 X42.865 Y167.565 E.01923
G1 X42.865 Y83.681 E4.20978
G1 X42.482 Y83.681 E.01923
G1 X42.482 Y167.565 E4.20978
G1 X42.099 Y167.565 E.01923
G1 X42.099 Y83.681 E4.20978
G1 X42.035 Y83.681 E.00318
G1 X42.035 Y63.325 E1.02159
G1 X41.716 Y63.325 E.01605
G1 X41.716 Y167.565 E5.23138
G1 X41.332 Y167.565 E.01923
G1 X41.332 Y63.325 E5.23138
G1 X40.949 Y63.325 E.01923
G1 X40.949 Y167.565 E5.23138
G1 X40.566 Y167.565 E.01923
G1 X40.566 Y63.325 E5.23138
G1 X40.183 Y63.325 E.01923
G1 X40.183 Y167.565 E5.23138
G1 X39.799 Y167.565 E.01923
G1 X39.799 Y63.325 E5.23138
G1 X39.416 Y63.325 E.01923
G1 X39.416 Y167.565 E5.23138
G1 X39.033 Y167.565 E.01923
G1 X39.033 Y63.325 E5.23138
G1 X38.65 Y63.325 E.01923
G1 X38.65 Y167.565 E5.23138
G1 X38.267 Y167.565 E.01923
G1 X38.267 Y42.969 E6.25297
G1 X37.883 Y42.969 E.01923
G1 X37.883 Y167.565 E6.25297
G1 X37.5 Y167.565 E.01923
G1 X37.5 Y42.969 E6.25297
G1 X37.117 Y42.969 E.01923
M73 P0 R452
G1 X37.117 Y167.565 E6.25297
G1 X36.734 Y167.565 E.01923
G1 X36.734 Y42.969 E6.25297
G1 X36.351 Y42.969 E.01923
G1 X36.351 Y167.565 E6.25297
G1 X35.967 Y167.565 E.01923
G1 X35.967 Y42.969 E6.25297
G1 X35.584 Y42.969 E.01923
G1 X35.584 Y167.565 E6.25297
G1 X35.201 Y167.565 E.01923
G1 X35.201 Y29.398 E6.93404
G1 X34.818 Y29.398 E.01923
G1 X34.818 Y167.565 E6.93404
G1 X34.435 Y167.565 E.01923
G1 X34.435 Y29.398 E6.93404
G1 X34.051 Y29.398 E.01923
G1 X34.051 Y167.565 E6.93404
G1 X33.668 Y167.565 E.01923
G1 X33.668 Y29.398 E6.93404
G1 X33.285 Y29.398 E.01923
G1 X33.285 Y167.565 E6.93404
G1 X32.902 Y167.565 E.01923
G1 X32.902 Y29.398 E6.93404
G1 X32.519 Y29.398 E.01923
G1 X32.518 Y167.565 E6.93404
G1 X32.135 Y167.565 E.01923
M73 P0 R451
G1 X32.135 Y29.398 E6.93404
G1 X31.857 Y29.398 E.01395
G1 X31.857 Y19.22 E.5108
G1 X31.752 Y19.22 E.00528
G1 X31.752 Y167.565 E7.44483
G1 X31.369 Y167.565 E.01923
G1 X31.369 Y19.22 E7.44483
G1 X30.986 Y19.22 E.01923
G1 X30.986 Y167.565 E7.44483
G1 X30.602 Y167.565 E.01923
G1 X30.602 Y19.22 E7.44483
G1 X30.219 Y19.22 E.01923
G1 X30.219 Y167.565 E7.44483
G1 X29.836 Y167.565 E.01923
G1 X29.836 Y19.22 E7.44483
G1 X29.453 Y19.22 E.01923
G1 X29.453 Y167.565 E7.44483
G1 X29.07 Y167.565 E.01923
G1 X29.07 Y19.22 E7.44483
G1 X28.686 Y19.22 E.01923
G1 X28.686 Y167.565 E7.44483
G1 X28.303 Y167.565 E.01923
G1 X28.303 Y12.435 E7.78536
G1 X27.92 Y12.435 E.01923
G1 X27.92 Y167.565 E7.78536
G1 X27.537 Y167.565 E.01923
M73 P0 R450
G1 X27.537 Y12.435 E7.78536
G1 X27.154 Y12.435 E.01923
G1 X27.154 Y167.565 E7.78536
G1 X26.77 Y167.565 E.01923
G1 X26.77 Y12.435 E7.78536
G1 X26.387 Y12.435 E.01923
G1 X26.387 Y167.565 E7.78536
G1 X26.004 Y167.565 E.01923
G1 X26.004 Y12.435 E7.78536
G1 X25.621 Y12.435 E.01923
G1 X25.621 Y167.565 E7.78536
G1 X25.238 Y167.565 E.01923
M73 P1 R450
G1 X25.238 Y12.435 E7.78536
G1 X24.854 Y12.435 E.01923
G1 X24.854 Y167.565 E7.78536
G1 X24.471 Y167.565 E.01923
G1 X24.471 Y12.435 E7.78536
G1 X24.088 Y12.435 E.01923
G1 X24.088 Y167.565 E7.78536
G1 X23.705 Y167.565 E.01923
G1 X23.705 Y12.435 E7.78536
G1 X23.321 Y12.435 E.01923
G1 X23.321 Y167.565 E7.78536
G1 X22.938 Y167.565 E.01923
M73 P1 R449
G1 X22.938 Y12.435 E7.78536
G1 X22.555 Y12.435 E.01923
G1 X22.555 Y167.565 E7.78536
G1 X22.172 Y167.565 E.01923
G1 X22.172 Y12.435 E7.78536
G1 X21.789 Y12.435 E.01923
G1 X21.789 Y167.565 E7.78536
G1 X21.405 Y167.565 E.01923
G1 X21.405 Y12.435 E7.78536
G1 X21.022 Y12.435 E.01923
G1 X21.022 Y167.565 E7.78536
G1 X20.639 Y167.565 E.01923
G1 X20.639 Y12.435 E7.78536
G1 X20.256 Y12.435 E.01923
G1 X20.256 Y167.565 E7.78536
G1 X19.873 Y167.565 E.01923
G1 X19.873 Y12.435 E7.78536
G1 X19.489 Y12.435 E.01923
G1 X19.489 Y167.565 E7.78536
G1 X19.106 Y167.565 E.01923
G1 X19.106 Y12.435 E7.78536
G1 X18.723 Y12.435 E.01923
M73 P1 R448
G1 X18.723 Y167.565 E7.78536
G1 X18.34 Y167.565 E.01923
G1 X18.34 Y12.435 E7.78536
G1 X17.957 Y12.435 E.01923
G1 X17.957 Y167.565 E7.78536
G1 X17.573 Y167.565 E.01923
G1 X17.573 Y12.435 E7.78536
G1 X17.19 Y12.435 E.01923
G1 X17.19 Y167.565 E7.78536
G1 X16.807 Y167.565 E.01923
G1 X16.807 Y12.435 E7.78536
G1 X16.424 Y12.435 E.01923
G1 X16.424 Y167.565 E7.78536
G1 X16.04 Y167.565 E.01923
G1 X16.04 Y12.435 E7.78536
G1 X15.657 Y12.435 E.01923
G1 X15.657 Y167.565 E7.78536
G1 X15.274 Y167.565 E.01923
G1 X15.274 Y12.435 E7.78536
G1 X14.891 Y12.435 E.01923
G1 X14.891 Y167.565 E7.78536
G1 X14.508 Y167.565 E.01923
G1 X14.508 Y12.435 E7.78536
G1 X14.124 Y12.435 E.01923
M73 P1 R447
G1 X14.124 Y167.565 E7.78536
G1 X13.741 Y167.565 E.01923
G1 X13.741 Y12.435 E7.78536
G1 X13.358 Y12.435 E.01923
G1 X13.358 Y167.565 E7.78536
G1 X12.975 Y167.565 E.01923
G1 X12.975 Y12.435 E7.78536
G1 X12.592 Y12.435 E.01923
G1 X12.592 Y167.72 E7.79315
G1 E-.7 F3600
;WIPE_START
G1 F6240
G1 X12.592 Y167.2 E-.285
;WIPE_END
G1 E-.015 F3600
G1 X167.876 Y167.876 F7800
G1 E1 F2400
G1 F1800
G1 X96.942 Y167.876 E3.55988
G1 X96.942 Y164.483 E.17027
G1 X93.236 Y164.483 E.18597
G1 X93.236 Y167.876 E.17027
G1 X83.371 Y167.876 E.49509
G1 X83.371 Y158.01 E.49509
G1 X90.156 Y158.01 E.34053
G1 X90.156 Y137.341 E1.0373
G1 X86.764 Y137.341 E.17027
G1 X86.764 Y113.592 E1.19186
G1 X83.371 Y113.592 E.17027
G1 X83.371 Y103.414 E.5108
G1 X79.978 Y103.414 E.17027
G1 X79.978 Y100.022 E.17027
G1 X76.586 Y100.022 E.17027
G1 X76.586 Y79.665 E1.02159
G1 X69.8 Y79.665 E.34053
G1 X69.8 Y46.051 E1.68695
G1 X79.978 Y46.051 E.5108
G1 X79.978 Y42.346 E.18597
G1 X76.586 Y42.346 E.17027
G1 X76.586 Y25.695 E.83563
G1 X86.764 Y25.695 E.5108
G1 X86.764 Y23.576 E.10637
G1 X87.262 Y23.806 E.02753
G1 X88.057 Y25.186 E.07994
G1 X88.249 Y25.383 E.01378
G1 X88.339 Y25.443 E.00547
G1 X97.046 Y29.478 E.48157
G1 X97.137 Y29.761 E.01493
G1 X97.238 Y29.896 E.00847
G1 X95.729 Y33.154 E.1802
G1 X95.338 Y32.886 E.02375
G1 X95.182 Y32.676 E.01315
G1 X94.481 Y30.511 E.11421
G1 X94.262 Y29.893 E.0329
G1 X90.769 Y28.275 E.19318
G1 X89.344 Y28.275 E.07155
G1 X89.344 Y39.766 E.57669
G1 X100.022 Y39.766 E.53589
G1 X100.022 Y42.659 E.14517
G1 X103.727 Y42.659 E.18597
G1 X103.727 Y36.373 E.31544
G1 X104.227 Y36.373 E.02509
G1 X104.227 Y32.481 E.19536
G1 X116.985 Y32.481 E.64027
G1 X116.985 Y52.524 E1.00589
G1 X113.592 Y52.524 E.17027
G1 X113.592 Y69.8 E.86703
G1 X116.985 Y69.8 E.17027
G1 X116.985 Y76.586 E.34053
G1 X120.378 Y76.586 E.17027
G1 X120.378 Y79.978 E.17027
G1 X127.476 Y79.978 E.35623
G1 X127.476 Y76.586 E.17027
G1 X134.262 Y76.586 E.34053
G1 X134.262 Y69.8 E.34053
G1 X137.654 Y69.8 E.17027
G1 X137.654 Y66.408 E.17027
G1 X141.047 Y66.408 E.17027
G1 X141.047 Y59.622 E.34053
G1 X144.44 Y59.622 E.17027
G1 X144.44 Y56.229 E.17027
G1 X147.832 Y56.229 E.17027
G1 X147.832 Y49.444 E.34053
G1 X151.225 Y49.444 E.17027
G1 X151.225 Y29.088 E1.02159
G1 X154.618 Y29.088 E.17027
G1 X154.618 Y22.302 E.34053
G1 X167.876 Y22.302 E.66536
G1 X167.876 Y167.824 E7.30313
G1 E-.7 F3600
;WIPE_START
G1 F6240
G1 X167.876 Y167.304 E-.285
;WIPE_END
G1 E-.015 F3600
G1 X96.629 Y45.739 F7800
G1 E1 F2400
G1 F1800
G1 X96.629 Y49.444 E.18597
G1 X100.335 Y49.444 E.18597
G1 X100.335 Y45.739 E.18597
G1 X96.681 Y45.739 E.18337
G1 E-.7 F3600
;WIPE_START
G1 F6240
G1 X97.201 Y45.739 E-.285
;WIPE_END
G1 E-.015 F3600
G1 X167.408 Y167.72 F7800
G1 E1 F2400
G1 F1800
G1 X167.408 Y22.613 E7.28236
G1 X167.025 Y22.613 E.01923
M73 P1 R446
G1 X167.025 Y167.565 E7.27457
G1 X166.642 Y167.565 E.01923
G1 X166.642 Y22.613 E7.27457
G1 X166.259 Y22.613 E.01923
G1 X166.259 Y167.565 E7.27457
G1 X165.876 Y167.565 E.01923
G1 X165.876 Y22.613 E7.27457
G1 X165.492 Y22.613 E.01923
G1 X165.492 Y167.565 E7.27457
G1 X165.109 Y167.565 E.01923
G1 X165.109 Y22.613 E7.27457
G1 X164.726 Y22.613 E.01923
G1 X164.726 Y167.565 E7.27457
G1 X164.343 Y167.565 E.01923
G1 X164.343 Y22.613 E7.27457
G1 X163.96 Y22.613 E.01923
G1 X163.96 Y167.565 E7.27457
G1 X163.576 Y167.565 E.01923
G1 X163.576 Y22.613 E7.27457
G1 X163.193 Y22.613 E.01923
G1 X163.193 Y167.565 E7.27457
G1 X162.81 Y167.565 E.01923
G1 X162.81 Y22.613 E7.27457
G1 X162.427 Y22.613 E.01923
M73 P2 R445
G1 X162.427 Y167.565 E7.27457
G1 X162.043 Y167.565 E.01923
G1 X162.043 Y22.613 E7.27457
G1 X161.66 Y22.613 E.01923
G1 X161.66 Y167.565 E7.27457
G1 X161.277 Y167.565 E.01923
G1 X161.277 Y22.613 E7.27457
G1 X160.894 Y22.613 E.01923
G1 X160.894 Y167.565 E7.27457
G1 X160.511 Y167.565 E.01923
G1 X160.511 Y22.613 E7.27457
G1 X160.127 Y22.613 E.01923
G1 X160.127 Y167.565 E7.27457
G1 X159.744 Y167.565 E.01923
G1 X159.744 Y22.613 E7.27457
G1 X159.361 Y22.613 E.01923
G1 X159.361 Y167.565 E7.27457
G1 X158.978 Y167.565 E.01923
G1 X158.978 Y22.613 E7.27457
G1 X158.595 Y22.613 E.01923
G1 X158.595 Y167.565 E7.27457
G1 X158.211 Y167.565 E.01923
G1 X158.211 Y22.613 E7.27457
G1 X157.828 Y22.613 E.01923
M73 P2 R444
G1 X157.828 Y167.565 E7.27457
G1 X157.445 Y167.565 E.01923
G1 X157.445 Y22.613 E7.27457
G1 X157.062 Y22.613 E.01923
G1 X157.062 Y167.565 E7.27457
G1 X156.679 Y167.565 E.01923
G1 X156.679 Y22.613 E7.27457
G1 X156.295 Y22.613 E.01923
G1 X156.295 Y167.565 E7.27457
G1 X155.912 Y167.565 E.01923
G1 X155.912 Y22.613 E7.27457
G1 X155.529 Y22.613 E.01923
G1 X155.529 Y167.565 E7.27457
G1 X155.146 Y167.565 E.01923
G1 X155.146 Y22.613 E7.27457
G1 X154.928 Y22.613 E.01092
G1 X154.928 Y29.398 E.34053
G1 X154.762 Y29.398 E.00831
G1 X154.762 Y167.565 E6.93404
G1 X154.379 Y167.565 E.01923
G1 X154.379 Y29.398 E6.93404
G1 X153.996 Y29.398 E.01923
G1 X153.996 Y167.565 E6.93404
G1 X153.613 Y167.565 E.01923
G1 X153.613 Y29.398 E6.93404
G1 X153.23 Y29.398 E.01923
M73 P2 R443
G1 X153.23 Y167.565 E6.93404
G1 X152.846 Y167.565 E.01923
G1 X152.846 Y29.398 E6.93404
G1 X152.463 Y29.398 E.01923
G1 X152.463 Y167.565 E6.93404
G1 X152.08 Y167.565 E.01923
G1 X152.08 Y29.398 E6.93404
G1 X151.697 Y29.398 E.01923
G1 X151.697 Y167.565 E6.93404
G1 X151.314 Y167.565 E.01923
G1 X151.314 Y49.754 E5.91244
G1 X150.93 Y49.754 E.01923
G1 X150.93 Y167.565 E5.91244
G1 X150.547 Y167.565 E.01923
G1 X150.547 Y49.754 E5.91244
G1 X150.164 Y49.754 E.01923
G1 X150.164 Y167.565 E5.91244
G1 X149.781 Y167.565 E.01923
G1 X149.781 Y49.754 E5.91244
G1 X149.398 Y49.754 E.01923
G1 X149.398 Y167.565 E5.91244
G1 X149.014 Y167.565 E.01923
G1 X149.014 Y49.754 E5.91244
G1 X148.631 Y49.754 E.01923
G1 X148.631 Y167.565 E5.91244
G1 X148.248 Y167.565 E.01923
G1 X148.248 Y49.754 E5.91244
G1 X148.143 Y49.754 E.00528
G1 X148.143 Y56.54 E.34053
G1 X147.865 Y56.54 E.01395
G1 X147.865 Y167.565 E5.57191
G1 X147.481 Y167.565 E.01923
M73 P2 R442
G1 X147.482 Y56.54 E5.57191
G1 X147.098 Y56.54 E.01923
G1 X147.098 Y167.565 E5.57191
G1 X146.715 Y167.565 E.01923
G1 X146.715 Y56.54 E5.57191
G1 X146.332 Y56.54 E.01923
G1 X146.332 Y167.565 E5.57191
G1 X145.949 Y167.565 E.01923
G1 X145.949 Y56.54 E5.57191
G1 X145.565 Y56.54 E.01923
G1 X145.565 Y167.565 E5.57191
G1 X145.182 Y167.565 E.01923
G1 X145.182 Y56.54 E5.57191
G1 X144.799 Y56.54 E.01923
G1 X144.799 Y167.565 E5.57191
G1 X144.416 Y167.565 E.01923
G1 X144.416 Y59.933 E5.40164
G1 X144.033 Y59.933 E.01923
G1 X144.033 Y167.565 E5.40164
G1 X143.649 Y167.565 E.01923
G1 X143.649 Y59.933 E5.40164
G1 X143.266 Y59.933 E.01923
G1 X143.266 Y167.565 E5.40164
G1 X142.883 Y167.565 E.01923
G1 X142.883 Y59.933 E5.40164
G1 X142.5 Y59.933 E.01923
G1 X142.5 Y167.565 E5.40164
G1 X142.117 Y167.565 E.01923
G1 X142.117 Y59.933 E5.40164
G1 X141.733 Y59.933 E.01923
G1 X141.733 Y167.565 E5.40164
G1 X141.35 Y167.565 E.01923
M73 P2 R441
G1 X141.35 Y66.718 E5.06111
G1 X140.967 Y66.718 E.01923
G1 X140.967 Y167.565 E5.06111
G1 X140.584 Y167.565 E.01923
G1 X140.584 Y66.718 E5.06111
G1 X140.201 Y66.718 E.01923
G1 X140.201 Y167.565 E5.06111
G1 X139.817 Y167.565 E.01923
G1 X139.817 Y66.718 E5.06111
G1 X139.434 Y66.718 E.01923
G1 X139.434 Y167.565 E5.06111
G1 X139.051 Y167.565 E.01923
G1 X139.051 Y66.718 E5.06111
G1 X138.668 Y66.718 E.01923
G1 X138.668 Y167.565 E5.06111
G1 X138.284 Y167.565 E.01923
G1 X138.284 Y66.718 E5.06111
G1 X137.965 Y66.718 E.01605
G1 X137.965 Y70.111 E.17027
G1 X137.901 Y70.111 E.00318
G1 X137.901 Y167.565 E4.89085
G1 X137.518 Y167.565 E.01923
M73 P3 R441
G1 X137.518 Y70.111 E4.89085
G1 X137.135 Y70.111 E.01923
G1 X137.135 Y167.565 E4.89085
G1 X136.752 Y167.565 E.01923
G1 X136.752 Y70.111 E4.89085
G1 X136.368 Y70.111 E.01923
G1 X136.368 Y167.565 E4.89085
G1 X135.985 Y167.565 E.01923
G1 X135.985 Y70.111 E4.89085
G1 X135.602 Y70.111 E.01923
G1 X135.602 Y167.565 E4.89085
G1 X135.219 Y167.565 E.01923
G1 X135.219 Y70.111 E4.89085
G1 X134.836 Y70.111 E.01923
M73 P3 R440
G1 X134.836 Y167.565 E4.89085
G1 X134.452 Y167.565 E.01923
G1 X134.452 Y76.896 E4.55032
G1 X134.069 Y76.896 E.01923
G1 X134.069 Y167.565 E4.55032
G1 X133.686 Y167.565 E.01923
G1 X133.686 Y76.896 E4.55032
G1 X133.303 Y76.896 E.01923
G1 X133.303 Y167.565 E4.55032
G1 X132.92 Y167.565 E.01923
G1 X132.92 Y76.896 E4.55032
G1 X132.536 Y76.896 E.01923
G1 X132.536 Y167.565 E4.55032
G1 X132.153 Y167.565 E.01923
G1 X132.153 Y76.896 E4.55032
G1 X131.77 Y76.896 E.01923
G1 X131.77 Y167.565 E4.55032
G1 X131.387 Y167.565 E.01923
