; generated by PrusaSlicer 2.5.0+win64 on 2022-12-07 at 00:12:58 UTC

; 

; external perimeters extrusion width = 1.00mm
; perimeters extrusion width = 1.00mm
; infill extrusion width = 1.00mm
; solid infill extrusion width = 1.00mm
; top infill extrusion width = 1.00mm
; support material extrusion width = 1.00mm
; first layer extrusion width = 0.42mm

M73 P0 R417
M107
;TYPE:Custom
G90 ; use absolute coordinates
M83 ; extruder relative mode
M140 S60 ; set final bed temp
M104 S150 ; set temporary nozzle temp to prevent oozing during homing and auto bed leveling
G4 S10 ; allow partial nozzle warmup
G28 ; home all axisG1 Z50 F240
G1 X7.6 Y10 F3000
M104 S210 ; set final nozzle temp
M190 S60 ; wait for bed temp to stabilize
M109 S210 ; wait for nozzle temp to stabilize
G1 Z0.28 F240
G92 E0
G1 Y140 E10 F1500 ; prime the nozzle
G1 X4 F5000
G92 E0
G1 Y10 E10 F1200 ; prime the nozzle
G92 E0
G21 ; set units to millimeters
G90 ; use absolute coordinates
M83 ; use relative distances for extrusion
; Filament gcode
M107
;LAYER_CHANGE
;Z:0.35
;HEIGHT:0.35
;BEFORE_LAYER_CHANGE
G92 E0
;0.35


G1 E-1 F3600
G1 Z.35 F7800
;AFTER_LAYER_CHANGE
;0.35
G1 X12.781 Y14.959
G1 E1 F2400
;TYPE:Support material interface
;WIDTH:1
G1 F1800
G1 X12.781 Y25.539 E1.42387
G1 X13.674 Y25.539 E.12014
G1 X13.674 Y15.361 E1.36981
G1 X14.567 Y15.361 E.12014
G1 X14.567 Y25.539 E1.36981
G1 X15.361 Y25.539 E.10682
M73 P0 R416
G1 X15.361 Y83.215 E7.76222
G1 X15.46 Y83.215 E.01332
G1 X15.46 Y15.361 E9.13203
G1 X16.352 Y15.361 E.12014
G1 X16.352 Y83.215 E9.13203
G1 X17.245 Y83.215 E.12014
G1 X17.245 Y15.361 E9.13203
G1 X18.138 Y15.361 E.12014
G1 X18.138 Y83.215 E9.13203
G1 X18.753 Y83.215 E.08285
G1 X18.753 Y137.498 E7.30562
G1 X19.03 Y137.498 E.03729
G1 X19.03 Y15.361 E16.43765
G1 X19.923 Y15.361 E.12014
G1 X19.923 Y22.146 E.91321
G1 X20.816 Y22.146 E.12014
G1 X20.816 Y15.361 E.91321
G1 X21.708 Y15.361 E.12014
G1 X21.708 Y22.146 E.91321
G1 X22.601 Y22.146 E.12014
G1 X22.601 Y15.361 E.91321
G1 X23.494 Y15.361 E.12014
G1 X23.494 Y22.146 E.91321
G1 X24.387 Y22.146 E.12014
G1 X24.387 Y15.361 E.91321
G1 X25.279 Y15.361 E.12014
G1 X25.279 Y22.146 E.91321
G1 X26.172 Y22.146 E.12014
G1 X26.172 Y15.361 E.91321
G1 X27.065 Y15.361 E.12014
G1 X27.065 Y22.146 E.91321
G1 X27.957 Y22.146 E.12014
G1 X27.957 Y15.361 E.91321
G1 X28.85 Y15.361 E.12014
G1 X28.85 Y22.146 E.91321
G1 X29.743 Y22.146 E.12014
G1 X29.743 Y15.361 E.91321
G1 X30.635 Y15.361 E.12014
G1 X30.635 Y22.146 E.91321
G1 X31.528 Y22.146 E.12014
G1 X31.528 Y15.361 E.91321
G1 X32.421 Y15.361 E.12014
G1 X32.421 Y22.146 E.91321
G1 X33.314 Y22.146 E.12014
G1 X33.314 Y15.361 E.91321
G1 X34.206 Y15.361 E.12014
G1 X34.206 Y22.146 E.91321
G1 X35.099 Y22.146 E.12014
G1 X35.099 Y15.361 E.91321
G1 X35.992 Y15.361 E.12014
G1 X35.992 Y22.146 E.91321
G1 X36.884 Y22.146 E.12014
G1 X36.884 Y15.361 E.91321
G1 X37.777 Y15.361 E.12014
G1 X37.777 Y22.146 E.91321
G1 X38.67 Y22.146 E.12014
G1 X38.67 Y15.361 E.91321
G1 X39.562 Y15.361 E.12014
G1 X39.562 Y22.146 E.91321
G1 X40.455 Y22.146 E.12014
G1 X40.455 Y15.361 E.91321
G1 X41.348 Y15.361 E.12014
G1 X41.348 Y22.146 E.91321
G1 X42.241 Y22.146 E.12014
G1 X42.241 Y15.361 E.91321
G1 X43.133 Y15.361 E.12014
G1 X43.133 Y22.146 E.91321
G1 X44.026 Y22.146 E.12014
G1 X44.026 Y15.361 E.91321
G1 X44.919 Y15.361 E.12014
G1 X44.919 Y22.146 E.91321
G1 X45.811 Y22.146 E.12014
G1 X45.811 Y15.361 E.91321
G1 X46.704 Y15.361 E.12014
G1 X46.704 Y22.146 E.91321
G1 X47.597 Y22.146 E.12014
G1 X47.597 Y15.361 E.91321
G1 X48.489 Y15.361 E.12014
G1 X48.489 Y22.146 E.91321
G1 X49.288 Y22.146 E.10742
G1 X49.288 Y35.717 E1.82641
G1 X49.382 Y35.717 E.01273
G1 X49.382 Y15.361 E2.73961
G1 X50.275 Y15.361 E.12014
G1 X50.275 Y35.717 E2.73961
G1 X51.168 Y35.717 E.12014
G1 X51.168 Y15.361 E2.73961
G1 X52.06 Y15.361 E.12014
G1 X52.06 Y35.717 E2.73961
G1 X52.68 Y35.717 E.08345
G1 X52.68 Y100.178 E8.67543
G1 X52.953 Y100.178 E.03669
G1 X52.953 Y15.361 E11.41504
G1 X53.846 Y15.361 E.12014
G1 X53.846 Y100.178 E11.41504
G1 X54.738 Y100.178 E.12014
G1 X54.738 Y15.361 E11.41504
G1 X55.631 Y15.361 E.12014
G1 X55.631 Y100.58 E11.4691
G1 E-.7 F3600
;WIPE_START
G1 F6240
G1 X55.631 Y100.06 E-.285
;WIPE_END
G1 E-.015 F3600
G1 X92.232 Y117.543 F7800
G1 E1 F2400
G1 F1800
G1 X92.232 Y109.87 E1.03277
G1 X91.339 Y93.44 E2.21436
G1 X91.339 Y117.142 E3.18981
G1 X90.446 Y117.142 E.12014
G1 X90.446 Y71.46 E6.148
G1 E-.7 F3600
;WIPE_START
G1 F6240
G1 X90.446 Y71.98 E-.285
;WIPE_END
G1 E-.015 F3600
G1 X88.661 Y56.475 F7800
G1 E1 F2400
G1 F1800
G1 X88.661 Y48.319 E1.09767
G1 X87.768 Y33.381 E2.01394
G1 X87.768 Y56.475 E3.10803
G1 E-.7 F3600
;WIPE_START
G1 F6240
G1 X87.768 Y55.955 E-.285
;WIPE_END
G1 E-.015 F3600
G1 X123.476 Y16.081 F7800
G1 E1 F2400
G1 F1800
G1 X123.476 Y15.361 E.097
G1 X122.583 Y15.361 E.12014
G1 X122.583 Y15.68 E.04294
G1 X121.691 Y15.68 E.12014
G1 X121.691 Y15.361 E.04294
G1 X120.798 Y15.361 E.12014
G1 X120.798 Y15.68 E.04294
G1 X119.905 Y15.68 E.12014
G1 X119.905 Y15.361 E.04294
G1 X119.013 Y15.361 E.12014
G1 X119.013 Y15.68 E.04294
G1 X118.12 Y15.68 E.12014
G1 X118.12 Y15.361 E.04294
G1 X117.227 Y15.361 E.12014
G1 X117.227 Y15.68 E.04294
G1 X116.335 Y15.68 E.12014
G1 X116.335 Y15.361 E.04294
G1 X115.442 Y15.361 E.12014
G1 X115.442 Y15.68 E.04294
G1 X114.549 Y15.68 E.12014
G1 X114.549 Y15.361 E.04294
G1 X113.656 Y15.361 E.12014
G1 X113.656 Y15.68 E.04294
G1 X112.764 Y15.68 E.12014
G1 X112.764 Y15.361 E.04294
G1 X111.871 Y15.361 E.12014
G1 X111.871 Y15.68 E.04294
G1 X110.978 Y15.68 E.12014
G1 X110.978 Y15.361 E.04294
G1 X110.086 Y15.361 E.12014
G1 X110.086 Y15.68 E.04294
G1 X109.193 Y15.68 E.12014
G1 X109.193 Y15.361 E.04294
G1 X108.3 Y15.361 E.12014
G1 X108.3 Y15.68 E.04294
G1 X107.408 Y15.68 E.12014
G1 X107.408 Y15.361 E.04294
G1 X106.515 Y15.361 E.12014
G1 X106.515 Y15.68 E.04294
G1 X105.622 Y15.68 E.12014
G1 X105.622 Y15.361 E.04294
G1 X104.729 Y15.361 E.12014
G1 X104.729 Y15.68 E.04294
G1 X103.837 Y15.68 E.12014
G1 X103.837 Y15.361 E.04294
G1 X102.944 Y15.361 E.12014
G1 X102.944 Y15.68 E.04294
G1 X102.051 Y15.68 E.12014
G1 X102.051 Y15.361 E.04294
G1 X101.159 Y15.361 E.12014
G1 X101.159 Y15.68 E.04294
G1 X100.266 Y15.68 E.12014
G1 X100.266 Y15.361 E.04294
G1 X99.373 Y15.361 E.12014
G1 X99.373 Y15.68 E.04294
G1 X98.481 Y15.68 E.12014
G1 X98.481 Y15.361 E.04294
G1 X97.588 Y15.361 E.12014
G1 X97.588 Y15.68 E.04294
G1 X96.695 Y15.68 E.12014
G1 X96.695 Y15.361 E.04294
G1 X95.803 Y15.361 E.12014
G1 X95.803 Y15.68 E.04294
G1 X94.91 Y15.68 E.12014
G1 X94.91 Y15.361 E.04294
G1 X94.017 Y15.361 E.12014
G1 X94.017 Y15.68 E.04294
G1 X93.124 Y15.68 E.12014
G1 X93.124 Y15.361 E.04294
G1 X92.232 Y15.361 E.12014
G1 X92.232 Y15.68 E.04294
G1 X91.339 Y15.68 E.12014
G1 X91.339 Y15.361 E.04294
G1 X90.446 Y15.361 E.12014
G1 X90.446 Y15.68 E.04294
G1 X89.554 Y15.68 E.12014
G1 X89.554 Y15.361 E.04294
G1 X88.661 Y15.361 E.12014
G1 X88.661 Y15.68 E.04294
G1 X87.768 Y15.68 E.12014
G1 X87.768 Y15.361 E.04294
G1 X86.876 Y15.361 E.12014
G1 X86.876 Y56.073 E5.47922
G1 X86.607 Y56.073 E.0361
G1 X86.607 Y22.146 E4.56601
G1 X85.983 Y22.146 E.08404
G1 X85.983 Y15.361 E.91321
G1 X85.09 Y15.361 E.12014
G1 X85.09 Y22.146 E.91321
G1 X84.197 Y22.146 E.12014
G1 X84.197 Y15.361 E.91321
G1 X83.305 Y15.361 E.12014
G1 X83.305 Y22.146 E.91321
G1 X82.412 Y22.146 E.12014
G1 X82.412 Y15.361 E.91321
G1 X81.519 Y15.361 E.12014
G1 X81.519 Y22.146 E.91321
G1 X80.627 Y22.146 E.12014
M73 P0 R415
G1 X80.627 Y15.361 E.91321
G1 X79.734 Y15.361 E.12014
G1 X79.734 Y22.146 E.91321
G1 X78.841 Y22.146 E.12014
G1 X78.841 Y15.361 E.91321
G1 X77.949 Y15.361 E.12014
G1 X77.949 Y22.146 E.91321
G1 X77.056 Y22.146 E.12014
G1 X77.056 Y15.361 E.91321
G1 X76.163 Y15.361 E.12014
G1 X76.163 Y22.146 E.91321
G1 X75.27 Y22.146 E.12014
G1 X75.27 Y15.361 E.91321
G1 X74.378 Y15.361 E.12014
G1 X74.378 Y22.146 E.91321
G1 X73.485 Y22.146 E.12014
G1 X73.485 Y15.361 E.91321
G1 X72.592 Y15.361 E.12014
G1 X72.592 Y22.146 E.91321
G1 X71.7 Y22.146 E.12014
G1 X71.7 Y15.361 E.91321
G1 X70.807 Y15.361 E.12014
G1 X70.807 Y22.146 E.91321
G1 X69.914 Y22.146 E.12014
G1 X69.914 Y15.361 E.91321
G1 X69.022 Y15.361 E.12014
G1 X69.022 Y22.146 E.91321
G1 X68.129 Y22.146 E.12014
G1 X68.129 Y15.361 E.91321
G1 X67.236 Y15.361 E.12014
G1 X67.236 Y22.146 E.91321
G1 X66.343 Y22.146 E.12014
G1 X66.343 Y15.361 E.91321
G1 X65.451 Y15.361 E.12014
G1 X65.451 Y22.146 E.91321
G1 X64.558 Y22.146 E.12014
G1 X64.558 Y15.361 E.91321
G1 X63.665 Y15.361 E.12014
G1 X63.665 Y22.146 E.91321
G1 X62.773 Y22.146 E.12014
G1 X62.773 Y15.361 E.91321
G1 X61.88 Y15.361 E.12014
G1 X61.88 Y22.146 E.91321
G1 X60.987 Y22.146 E.12014
G1 X60.987 Y15.361 E.91321
G1 X60.095 Y15.361 E.12014
G1 X60.095 Y22.146 E.91321
G1 X59.202 Y22.146 E.12014
G1 X59.202 Y15.361 E.91321
G1 X58.309 Y15.361 E.12014
G1 X58.309 Y22.146 E.91321
G1 X57.416 Y22.146 E.12014
G1 X57.416 Y15.361 E.91321
G1 X56.524 Y15.361 E.12014
G1 X56.524 Y22.146 E.91321
G1 X56.073 Y22.146 E.06066
G1 X56.073 Y35.717 E1.8264
G1 X56.524 Y35.717 E.06066
G1 X56.524 Y164.639 E17.35086
G1 X57.416 Y164.639 E.12014
G1 X57.416 Y35.717 E17.35086
G1 X58.309 Y35.717 E.12014
G1 X58.309 Y164.639 E17.35086
G1 X59.202 Y164.639 E.12014
G1 X59.202 Y35.717 E17.35086
G1 X59.466 Y35.717 E.03551
G1 X59.466 Y100.178 E8.67543
G1 X60.095 Y100.178 E.08463
G1 X60.095 Y164.639 E8.67543
G1 X60.987 Y164.639 E.12014
G1 X60.987 Y100.178 E8.67543
G1 X61.88 Y100.178 E.12014
G1 X61.88 Y164.639 E8.67543
G1 X62.773 Y164.639 E.12014
G1 X62.773 Y100.178 E8.67543
G1 X62.858 Y100.178 E.01155
G1 X62.858 Y157.854 E7.76222
G1 X63.665 Y157.854 E.1086
G1 X63.665 Y164.639 E.91321
G1 X64.558 Y164.639 E.12014
G1 X64.558 Y157.854 E.91321
G1 X65.451 Y157.854 E.12014
G1 X65.451 Y164.639 E.91321
G1 X66.343 Y164.639 E.12014
G1 X66.343 Y157.854 E.91321
G1 X67.236 Y157.854 E.12014
G1 X67.236 Y164.639 E.91321
G1 X68.129 Y164.639 E.12014
G1 X68.129 Y157.854 E.91321
G1 X69.022 Y157.854 E.12014
G1 X69.022 Y164.639 E.91321
G1 X69.914 Y164.639 E.12014
G1 X69.914 Y157.854 E.91321
G1 X70.807 Y157.854 E.12014
G1 X70.807 Y164.639 E.91321
G1 X71.7 Y164.639 E.12014
G1 X71.7 Y157.854 E.91321
G1 X72.592 Y157.854 E.12014
G1 X72.592 Y164.639 E.91321
G1 X73.485 Y164.639 E.12014
G1 X73.485 Y157.854 E.91321
G1 X74.378 Y157.854 E.12014
G1 X74.378 Y164.639 E.91321
G1 X75.27 Y164.639 E.12014
G1 X75.27 Y157.854 E.91321
G1 X76.163 Y157.854 E.12014
G1 X76.163 Y164.639 E.91321
G1 X77.056 Y164.639 E.12014
G1 X77.056 Y157.854 E.91321
G1 X77.949 Y157.854 E.12014
G1 X77.949 Y164.639 E.91321
G1 X78.841 Y164.639 E.12014
G1 X78.841 Y157.854 E.91321
G1 X79.734 Y157.854 E.12014
G1 X79.734 Y164.639 E.91321
G1 X80.627 Y164.639 E.12014
G1 X80.627 Y157.854 E.91321
G1 X81.519 Y157.854 E.12014
G1 X81.519 Y164.639 E.91321
G1 X82.412 Y164.639 E.12014
G1 X82.412 Y157.854 E.91321
G1 X83.305 Y157.854 E.12014
G1 X83.305 Y164.639 E.91321
G1 X84.197 Y164.639 E.12014
G1 X84.197 Y157.854 E.91321
G1 X85.09 Y157.854 E.12014
G1 X85.09 Y164.639 E.91321
G1 X85.983 Y164.639 E.12014
G1 X85.983 Y157.854 E.91321
G1 X86.876 Y157.854 E.12014
G1 X86.875 Y164.639 E.91321
G1 X87.768 Y164.639 E.12014
G1 X87.768 Y157.854 E.91321
G1 X88.661 Y157.854 E.12014
G1 X88.661 Y164.639 E.91321
G1 X89.554 Y164.639 E.12014
G1 X89.554 Y157.854 E.91321
G1 X90.446 Y157.854 E.12014
G1 X90.446 Y164.639 E.91321
G1 X91.339 Y164.639 E.12014
G1 X91.339 Y157.854 E.91321
G1 X92.232 Y157.854 E.12014
G1 X92.232 Y164.639 E.91321
G1 X93.124 Y164.639 E.12014
G1 X93.124 Y157.854 E.91321
G1 X93.393 Y157.854 E.03611
G1 X93.393 Y131.236 E3.58229
G1 X94.017 Y142.728 E1.54886
G1 X94.017 Y164.639 E2.94892
G1 X94.91 Y164.639 E.12014
G1 X94.91 Y159.157 E.73782
G1 X95.147 Y163.528 E.58909
G1 X95.802 Y164.148 E.12146
G1 X95.802 Y164.639 E.06608
G1 X96.695 Y164.639 E.12014
G1 X96.695 Y164.32 E.04294
G1 X97.588 Y164.32 E.12014
G1 X97.588 Y164.639 E.04294
G1 X98.481 Y164.639 E.12014
G1 X98.481 Y164.32 E.04294
G1 X99.373 Y164.32 E.12014
G1 X99.373 Y164.639 E.04294
G1 X100.266 Y164.639 E.12014
G1 X100.266 Y164.32 E.04294
G1 X101.159 Y164.32 E.12014
G1 X101.159 Y164.639 E.04294
G1 X102.051 Y164.639 E.12014
G1 X102.051 Y164.32 E.04294
G1 X102.944 Y164.32 E.12014
G1 X102.944 Y164.639 E.04294
G1 X103.837 Y164.639 E.12014
G1 X103.837 Y164.32 E.04294
G1 X104.729 Y164.32 E.12014
G1 X104.729 Y164.639 E.04294
G1 X105.622 Y164.639 E.12014
G1 X105.622 Y164.32 E.04294
G1 X106.515 Y164.32 E.12014
G1 X106.515 Y164.639 E.04294
G1 X107.408 Y164.639 E.12014
G1 X107.408 Y164.32 E.04294
G1 X108.3 Y164.32 E.12014
G1 X108.3 Y164.639 E.04294
G1 X109.193 Y164.639 E.12014
G1 X109.193 Y164.32 E.04294
G1 X110.086 Y164.32 E.12014
G1 X110.086 Y164.639 E.04294
G1 X110.978 Y164.639 E.12014
G1 X110.978 Y164.32 E.04294
G1 X111.871 Y164.32 E.12014
G1 X111.871 Y164.639 E.04294
G1 X112.764 Y164.639 E.12014
G1 X112.764 Y164.32 E.04294
G1 X113.656 Y164.32 E.12014
G1 X113.656 Y164.639 E.04294
G1 X114.549 Y164.639 E.12014
G1 X114.549 Y164.32 E.04294
G1 X115.442 Y164.32 E.12014
G1 X115.442 Y164.639 E.04294
G1 X116.335 Y164.639 E.12014
G1 X116.335 Y164.32 E.04294
G1 X117.227 Y164.32 E.12014
G1 X117.227 Y164.639 E.04294
G1 X118.12 Y164.639 E.12014
G1 X118.12 Y164.32 E.04294
G1 X119.013 Y164.32 E.12014
G1 X119.013 Y164.639 E.04294
G1 X119.905 Y164.639 E.12014
G1 X119.905 Y164.32 E.04294
G1 X120.798 Y164.32 E.12014
G1 X120.798 Y164.639 E.04294
G1 X121.691 Y164.639 E.12014
G1 X121.691 Y164.32 E.04294
G1 X122.583 Y164.32 E.12014
G1 X122.583 Y164.639 E.04294
G1 X123.476 Y164.639 E.12014
G1 X123.476 Y164.32 E.04294
G1 X124.369 Y164.32 E.12014
G1 X124.369 Y164.639 E.04294
G1 X125.262 Y164.639 E.12014
G1 X125.262 Y164.32 E.04294
G1 X126.154 Y164.32 E.12014
G1 X126.154 Y164.639 E.04294
G1 X127.047 Y164.639 E.12014
G1 X127.047 Y164.32 E.04294
G1 X127.94 Y164.32 E.12014
G1 X127.94 Y164.639 E.04294
G1 X128.832 Y164.639 E.12014
G1 X128.832 Y164.32 E.04294
G1 X129.725 Y164.32 E.12014
G1 X129.725 Y164.639 E.04294
G1 X130.618 Y164.639 E.12014
G1 X130.618 Y164.32 E.04294
G1 X131.51 Y164.32 E.12014
G1 X131.51 Y164.639 E.04294
G1 X132.403 Y164.639 E.12014
G1 X132.403 Y164.32 E.04294
G1 X133.296 Y164.32 E.12014
G1 X133.296 Y165.041 E.097
G1 E-.7 F3600
;WIPE_START
G1 F6240
G1 X133.296 Y164.521 E-.285
;WIPE_END
G1 E-.015 F3600
G1 X171.268 Y167.876 F7800
G1 E1 F2400
;TYPE:Support material
;WIDTH:0.42
G1 F1800
G1 X131.762 Y167.876 E1.98268
G1 X131.762 Y165.296 E.12947
G1 X134.762 Y165.296 E.15056
G1 X134.762 Y163.664 E.0819
G1 X131.762 Y163.664 E.15056
G1 X131.762 Y161.084 E.12947
G1 X160.745 Y161.084 E1.45455
G1 X160.884 Y163.695 E.13119
M73 P0 R414
G1 X161.295 Y164.084 E.02841
G1 X166.324 Y164.084 E.25238
G1 X166.74 Y163.668 E.02952
G1 X166.74 Y16.332 E7.3942
G1 X166.324 Y15.916 E.02952
G1 X153.274 Y15.916 E.65492
G1 X152.853 Y16.367 E.03096
G1 X153.007 Y18.916 E.12815
G1 X121.583 Y18.916 E1.57702
G1 X121.583 Y16.336 E.12947
G1 X122.6 Y16.336 E.05103
G1 X122.6 Y16.926 E.02962
G1 X123.151 Y16.336 E.04052
G1 X124.583 Y16.336 E.07188
G1 X124.583 Y14.704 E.0819
G1 X121.583 Y14.704 E.15056
G1 X121.583 Y12.124 E.12947
G1 X171.268 Y12.124 E2.49348
G1 X171.268 Y167.824 E7.81392
G1 X170.857 Y167.72 F7800
G1 F1800
G1 X170.857 Y12.435 E7.79315
G1 X170.474 Y12.435 E.01923
G1 X170.474 Y167.565 E7.78536
G1 X170.091 Y167.565 E.01923
G1 X170.091 Y12.435 E7.78536
G1 X169.708 Y12.435 E.01923
G1 X169.708 Y167.565 E7.78536
G1 X169.324 Y167.565 E.01923
G1 X169.324 Y12.435 E7.78536
G1 X168.941 Y12.435 E.01923
G1 X168.941 Y167.565 E7.78536
G1 X168.558 Y167.565 E.01923
G1 X168.558 Y12.435 E7.78536
G1 X168.175 Y12.435 E.01923
G1 X168.175 Y167.565 E7.78536
G1 X167.792 Y167.565 E.01923
G1 X167.792 Y12.435 E7.78536
G1 X167.408 Y12.435 E.01923
M73 P0 R413
G1 X167.408 Y167.565 E7.78536
G1 X167.025 Y167.565 E.01923
G1 X167.025 Y12.435 E7.78536
G1 X166.642 Y12.435 E.01923
G1 X166.642 Y15.795 E.16863
G1 X166.453 Y15.606 E.01344
G1 X166.259 Y15.606 E.00973
G1 X166.259 Y12.435 E.15913
G1 X165.876 Y12.435 E.01923
G1 X165.876 Y15.606 E.15913
G1 X165.492 Y15.606 E.01923
G1 X165.492 Y12.435 E.15913
G1 X165.109 Y12.435 E.01923
G1 X165.109 Y15.606 E.15913
G1 X164.726 Y15.606 E.01923
G1 X164.726 Y12.435 E.15913
G1 X164.343 Y12.435 E.01923
