; generated by PrusaSlicer 2.5.0+win64 on 2022-12-07 at 00:12:59 UTC

; 

; external perimeters extrusion width = 1.00mm
; perimeters extrusion width = 1.00mm
; infill extrusion width = 1.00mm
; solid infill extrusion width = 1.00mm
; top infill extrusion width = 1.00mm
; support material extrusion width = 1.00mm
; first layer extrusion width = 0.42mm

M73 P0 R502
M107
;TYPE:Custom
G90 ; use absolute coordinates
M83 ; extruder relative mode
M140 S60 ; set final bed temp
M104 S150 ; set temporary nozzle temp to prevent oozing during homing and auto bed leveling
G4 S10 ; allow partial nozzle warmup
G28 ; home all axisG1 Z50 F240
G1 X7.6 Y10 F3000
M104 S210 ; set final nozzle temp
M190 S60 ; wait for bed temp to stabilize
M109 S210 ; wait for nozzle temp to stabilize
G1 Z0.28 F240
G92 E0
G1 Y140 E10 F1500 ; prime the nozzle
G1 X4 F5000
G92 E0
G1 Y10 E10 F1200 ; prime the nozzle
G92 E0
G21 ; set units to millimeters
G90 ; use absolute coordinates
M83 ; use relative distances for extrusion
; Filament gcode
M107
;LAYER_CHANGE
;Z:0.35
;HEIGHT:0.35
;BEFORE_LAYER_CHANGE
G92 E0
;0.35


G1 E-1 F3600
G1 Z.35 F7800
;AFTER_LAYER_CHANGE
;0.35
G1 X24.49 Y14.704
G1 E1 F2400
;TYPE:Support material
;WIDTH:0.42
G1 F1800
G1 X21.49 Y14.704 E.15056
G1 X21.49 Y46.551 E1.59828
G1 X21.99 Y46.551 E.02509
G1 X21.99 Y154.618 E5.42341
G1 X28.275 Y154.618 E.31544
G1 X28.275 Y165.296 E.53589
G1 X31.275 Y165.296 E.15056
G1 X31.275 Y167.876 E.12947
G1 X8.732 Y167.876 E1.13136
G1 X8.732 Y12.124 E7.81652
G1 X24.49 Y12.124 E.79082
G1 X24.49 Y14.652 E.12687
G1 E-.7 F3600
;WIPE_START
G1 F6240
G1 X24.49 Y14.132 E-.285
;WIPE_END
G1 E-.015 F3600
G1 X30.602 Y167.72 F7800
G1 E1 F2400
G1 F1800
G1 X30.602 Y165.606 E.1061
G1 X30.219 Y165.606 E.01923
G1 X30.219 Y167.565 E.09831
G1 X29.836 Y167.565 E.01923
G1 X29.836 Y165.606 E.09831
G1 X29.453 Y165.606 E.01923
G1 X29.453 Y167.565 E.09831
G1 X29.07 Y167.565 E.01923
G1 X29.07 Y165.606 E.09831
G1 X28.686 Y165.606 E.01923
G1 X28.686 Y167.565 E.09831
G1 X28.303 Y167.565 E.01923
G1 X28.303 Y165.606 E.09831
G1 X27.965 Y165.606 E.01699
G1 X27.965 Y154.928 E.53589
G1 X27.92 Y154.928 E.00224
G1 X27.92 Y167.565 E.6342
G1 X27.537 Y167.565 E.01923
G1 X27.537 Y154.928 E.6342
G1 X27.154 Y154.928 E.01923
G1 X27.154 Y167.565 E.6342
G1 X26.77 Y167.565 E.01923
G1 X26.77 Y154.928 E.6342
G1 X26.387 Y154.928 E.01923
G1 X26.387 Y167.565 E.6342
G1 X26.004 Y167.565 E.01923
G1 X26.004 Y154.928 E.6342
G1 X25.621 Y154.928 E.01923
G1 X25.621 Y167.565 E.6342
G1 X25.237 Y167.565 E.01923
G1 X25.237 Y154.928 E.6342
G1 X24.854 Y154.928 E.01923
G1 X24.854 Y167.565 E.6342
G1 X24.471 Y167.565 E.01923
G1 X24.471 Y154.928 E.6342
G1 X24.088 Y154.928 E.01923
G1 X24.088 Y167.565 E.6342
G1 X23.705 Y167.565 E.01923
G1 X23.705 Y154.928 E.6342
G1 X23.321 Y154.928 E.01923
G1 X23.321 Y167.565 E.6342
G1 X22.938 Y167.565 E.01923
G1 X22.938 Y154.928 E.6342
G1 X22.555 Y154.928 E.01923
G1 X22.555 Y167.565 E.6342
G1 X22.172 Y167.565 E.01923
G1 X22.172 Y154.928 E.6342
G1 X21.789 Y154.928 E.01923
G1 X21.789 Y167.565 E.6342
G1 X21.405 Y167.565 E.01923
G1 X21.405 Y46.862 E6.05761
G1 X21.179 Y46.862 E.01135
G1 X21.179 Y22.592 E1.21798
G1 X21.179 Y14.394 E.41145
G1 X21.405 Y14.394 E.01136
G1 X21.405 Y12.435 E.09831
G1 X21.789 Y12.435 E.01923
G1 X21.789 Y14.394 E.09831
G1 X22.172 Y14.394 E.01923
G1 X22.172 Y12.435 E.09831
G1 X22.555 Y12.435 E.01923
G1 X22.555 Y14.394 E.09831
G1 X22.938 Y14.394 E.01923
G1 X22.938 Y12.435 E.09831
G1 X23.321 Y12.435 E.01923
G1 X23.321 Y14.394 E.09831
G1 X23.705 Y14.394 E.01923
G1 X23.705 Y12.435 E.09831
G1 X24.088 Y12.435 E.01923
G1 X24.088 Y14.549 E.1061
G1 E-.7 F3600
;WIPE_START
G1 F6240
G1 X24.088 Y14.029 E-.285
;WIPE_END
G1 E-.015 F3600
G1 X21.022 Y167.72 F7800
G1 E1 F2400
G1 F1800
G1 X21.022 Y12.435 E7.79315
G1 X20.639 Y12.435 E.01923
M73 P0 R501
G1 X20.639 Y167.565 E7.78536
G1 X20.256 Y167.565 E.01923
G1 X20.256 Y12.435 E7.78536
G1 X19.873 Y12.435 E.01923
G1 X19.873 Y167.565 E7.78536
G1 X19.489 Y167.565 E.01923
G1 X19.489 Y12.435 E7.78536
G1 X19.106 Y12.435 E.01923
G1 X19.106 Y167.565 E7.78536
G1 X18.723 Y167.565 E.01923
G1 X18.723 Y12.435 E7.78536
G1 X18.34 Y12.435 E.01923
G1 X18.34 Y167.565 E7.78536
G1 X17.957 Y167.565 E.01923
G1 X17.957 Y12.435 E7.78536
G1 X17.573 Y12.435 E.01923
G1 X17.573 Y167.565 E7.78536
G1 X17.19 Y167.565 E.01923
G1 X17.19 Y12.435 E7.78536
G1 X16.807 Y12.435 E.01923
G1 X16.807 Y167.565 E7.78536
G1 X16.424 Y167.565 E.01923
M73 P0 R500
G1 X16.424 Y12.435 E7.78536
G1 X16.04 Y12.435 E.01923
G1 X16.04 Y167.565 E7.78536
G1 X15.657 Y167.565 E.01923
G1 X15.657 Y12.435 E7.78536
G1 X15.274 Y12.435 E.01923
G1 X15.274 Y167.565 E7.78536
G1 X14.891 Y167.565 E.01923
G1 X14.891 Y12.435 E7.78536
G1 X14.508 Y12.435 E.01923
G1 X14.508 Y167.565 E7.78536
G1 X14.124 Y167.565 E.01923
G1 X14.124 Y12.435 E7.78536
G1 X13.741 Y12.435 E.01923
G1 X13.741 Y167.565 E7.78536
G1 X13.358 Y167.565 E.01923
G1 X13.358 Y12.435 E7.78536
G1 X12.975 Y12.435 E.01923
G1 X12.975 Y167.565 E7.78536
G1 X12.592 Y167.565 E.01923
G1 X12.592 Y12.435 E7.78536
G1 X12.208 Y12.435 E.01923
G1 X12.208 Y167.565 E7.78536
G1 X11.825 Y167.565 E.01923
M73 P0 R499
G1 X11.825 Y12.435 E7.78536
G1 X11.442 Y12.435 E.01923
G1 X11.442 Y167.565 E7.78536
G1 X11.059 Y167.565 E.01923
G1 X11.059 Y12.435 E7.78536
G1 X10.676 Y12.435 E.01923
G1 X10.676 Y167.565 E7.78536
G1 X10.292 Y167.565 E.01923
G1 X10.292 Y12.435 E7.78536
G1 X9.909 Y12.435 E.01923
G1 X9.909 Y167.565 E7.78536
G1 X9.526 Y167.565 E.01923
G1 X9.526 Y12.435 E7.78536
G1 X9.143 Y12.435 E.01923
G1 X9.143 Y167.72 E7.79315
G1 E-.7 F3600
;WIPE_START
G1 F6240
G1 X9.143 Y167.2 E-.285
;WIPE_END
G1 E-.015 F3600
G1 X28.85 Y165.041 F7800
G1 E1 F2400
;TYPE:Support material interface
;WIDTH:1
G1 F1800
G1 X28.85 Y15.361 E20.14453
G1 X27.957 Y15.361 E.12014
G1 X27.957 Y113.749 E13.24144
G1 X27.065 Y113.749 E.12014
G1 X27.065 Y15.361 E13.24144
G1 X26.172 Y15.361 E.12014
G1 X26.172 Y113.749 E13.24144
G1 X25.539 Y113.749 E.08523
M73 P0 R498
G1 X25.539 Y45.895 E9.13203
G1 X25.279 Y45.895 E.03491
G1 X25.279 Y15.361 E4.10942
G1 X24.387 Y15.361 E.12014
G1 X24.387 Y45.895 E4.10942
G1 X23.494 Y45.895 E.12014
G1 X23.494 Y15.361 E4.10942
G1 X22.601 Y15.361 E.12014
G1 X22.601 Y46.297 E4.16348
G1 E-.7 F3600
;WIPE_START
G1 F6240
G1 X22.601 Y45.777 E-.285
;WIPE_END
G1 E-.015 F3600
G1 X92.232 Y28.999 F7800
G1 E1 F2400
G1 F1800
G1 X92.232 Y42.502 E1.81725
G1 X91.339 Y42.502 E.12014
G1 X91.339 Y15.361 E3.65281
G1 X90.446 Y15.361 E.12014
G1 X90.446 Y42.502 E3.65281
G1 X90 Y42.502 E.06007
G1 X90 Y22.146 E2.73961
G1 X89.554 Y22.146 E.06008
G1 X89.554 Y15.361 E.91321
G1 X88.661 Y15.361 E.12014
G1 X88.661 Y22.146 E.91321
G1 X87.768 Y22.146 E.12014
G1 X87.768 Y15.361 E.91321
G1 X86.876 Y15.361 E.12014
G1 X86.876 Y22.146 E.91321
G1 X85.983 Y22.146 E.12014
G1 X85.983 Y15.361 E.91321
G1 X85.09 Y15.361 E.12014
G1 X85.09 Y22.146 E.91321
G1 X84.197 Y22.146 E.12014
G1 X84.197 Y15.361 E.91321
G1 X83.305 Y15.361 E.12014
G1 X83.305 Y22.146 E.91321
G1 X82.412 Y22.146 E.12014
G1 X82.412 Y15.361 E.91321
G1 X81.519 Y15.361 E.12014
G1 X81.519 Y22.146 E.91321
G1 X80.627 Y22.146 E.12014
G1 X80.627 Y15.361 E.91321
G1 X79.734 Y15.361 E.12014
G1 X79.734 Y22.146 E.91321
G1 X78.841 Y22.146 E.12014
G1 X78.841 Y15.361 E.91321
G1 X77.949 Y15.361 E.12014
G1 X77.949 Y22.146 E.91321
G1 X77.056 Y22.146 E.12014
G1 X77.056 Y15.361 E.91321
G1 X76.163 Y15.361 E.12014
G1 X76.163 Y22.146 E.91321
G1 X75.27 Y22.146 E.12014
G1 X75.27 Y15.361 E.91321
G1 X74.378 Y15.361 E.12014
G1 X74.378 Y22.146 E.91321
G1 X73.485 Y22.146 E.12014
G1 X73.485 Y15.361 E.91321
G1 X72.592 Y15.361 E.12014
G1 X72.592 Y22.146 E.91321
G1 X71.7 Y22.146 E.12014
G1 X71.7 Y15.361 E.91321
G1 X70.807 Y15.361 E.12014
G1 X70.807 Y22.146 E.91321
G1 X69.914 Y22.146 E.12014
G1 X69.914 Y15.361 E.91321
G1 X69.022 Y15.361 E.12014
G1 X69.022 Y22.146 E.91321
G1 X68.129 Y22.146 E.12014
G1 X68.129 Y15.361 E.91321
G1 X67.236 Y15.361 E.12014
G1 X67.236 Y22.146 E.91321
G1 X66.343 Y22.146 E.12014
G1 X66.343 Y15.361 E.91321
G1 X65.451 Y15.361 E.12014
G1 X65.451 Y22.146 E.91321
G1 X64.558 Y22.146 E.12014
G1 X64.558 Y15.361 E.91321
G1 X63.665 Y15.361 E.12014
G1 X63.665 Y22.146 E.91321
G1 X62.858 Y22.146 E.1086
G1 X62.858 Y52.68 E4.10941
G1 X63.665 Y52.68 E.1086
G1 X63.665 Y164.639 E15.06785
G1 X64.558 Y164.639 E.12014
G1 X64.558 Y52.68 E15.06785
G1 X65.451 Y52.68 E.12014
G1 X65.451 Y164.639 E15.06785
G1 X66.343 Y164.639 E.12014
G1 X66.343 Y110.356 E7.30563
G1 X67.236 Y110.356 E.12014
G1 X67.236 Y164.639 E7.30563
G1 X68.129 Y164.639 E.12014
G1 X68.129 Y110.356 E7.30563
G1 X69.022 Y110.356 E.12014
G1 X69.022 Y164.639 E7.30563
G1 X69.914 Y164.639 E.12014
G1 X69.914 Y157.854 E.91321
G1 X70.807 Y157.854 E.12014
G1 X70.807 Y164.639 E.91321
G1 X71.7 Y164.639 E.12014
G1 X71.7 Y157.854 E.91321
G1 X72.592 Y157.854 E.12014
G1 X72.592 Y164.639 E.91321
G1 X73.485 Y164.639 E.12014
G1 X73.485 Y157.854 E.91321
G1 X74.378 Y157.854 E.12014
G1 X74.378 Y164.639 E.91321
G1 X75.27 Y164.639 E.12014
G1 X75.27 Y157.854 E.91321
G1 X76.163 Y157.854 E.12014
G1 X76.163 Y164.639 E.91321
G1 X77.056 Y164.639 E.12014
G1 X77.056 Y157.854 E.91321
G1 X77.948 Y157.854 E.12014
G1 X77.948 Y164.639 E.91321
G1 X78.841 Y164.639 E.12014
G1 X78.841 Y157.854 E.91321
G1 X79.734 Y157.854 E.12014
G1 X79.734 Y164.639 E.91321
G1 X80.627 Y164.639 E.12014
G1 X80.627 Y157.854 E.91321
G1 X81.519 Y157.854 E.12014
G1 X81.519 Y164.639 E.91321
G1 X82.412 Y164.639 E.12014
G1 X82.412 Y157.854 E.91321
G1 X83.305 Y157.854 E.12014
G1 X83.305 Y164.639 E.91321
G1 X84.197 Y164.639 E.12014
G1 X84.197 Y157.854 E.91321
G1 X85.09 Y157.854 E.12014
G1 X85.09 Y164.639 E.91321
G1 X85.983 Y164.639 E.12014
G1 X85.983 Y157.854 E.91321
G1 X86.875 Y157.854 E.12014
G1 X86.875 Y164.639 E.91321
G1 X87.768 Y164.639 E.12014
G1 X87.768 Y157.854 E.91321
G1 X88.661 Y157.854 E.12014
G1 X88.661 Y164.639 E.91321
G1 X89.554 Y164.639 E.12014
G1 X89.554 Y157.854 E.91321
G1 X90.446 Y157.854 E.12014
G1 X90.446 Y164.639 E.91321
G1 X91.339 Y164.639 E.12014
G1 X91.339 Y157.854 E.91321
G1 X92.232 Y157.854 E.12014
G1 X92.232 Y164.639 E.91321
G1 X93.124 Y164.639 E.12014
G1 X93.124 Y157.854 E.91321
G1 X94.017 Y157.854 E.12014
G1 X94.017 Y164.639 E.91321
G1 X94.91 Y164.639 E.12014
G1 X94.91 Y157.854 E.91321
G1 X95.802 Y157.854 E.12014
G1 X95.802 Y164.639 E.91321
G1 X96.695 Y164.639 E.12014
G1 X96.695 Y157.854 E.91321
G1 X96.785 Y157.854 E.01214
G1 X96.785 Y126.132 E4.26923
G1 X97.588 Y141.861 E2.11956
G1 X97.588 Y164.639 E3.06563
G1 X98.481 Y164.639 E.12014
G1 X98.481 Y159.357 E.71092
G1 X98.693 Y163.526 E.56175
G1 X99.373 Y164.172 E.12625
G1 X99.373 Y164.639 E.06294
G1 X100.266 Y164.639 E.12014
G1 X100.266 Y164.321 E.0428
G1 X101.159 Y164.321 E.12014
G1 X101.159 Y164.639 E.0428
G1 X102.051 Y164.639 E.12014
G1 X102.051 Y164.321 E.0428
G1 X102.944 Y164.321 E.12014
G1 X102.944 Y164.639 E.0428
G1 X103.837 Y164.639 E.12014
G1 X103.837 Y164.321 E.0428
G1 X104.729 Y164.321 E.12014
G1 X104.729 Y164.639 E.0428
G1 X105.622 Y164.639 E.12014
G1 X105.622 Y164.321 E.0428
G1 X106.515 Y164.321 E.12014
G1 X106.515 Y164.639 E.0428
G1 X107.408 Y164.639 E.12014
G1 X107.408 Y164.321 E.0428
G1 X108.3 Y164.321 E.12014
G1 X108.3 Y164.639 E.0428
G1 X109.193 Y164.639 E.12014
G1 X109.193 Y164.321 E.0428
G1 X110.086 Y164.321 E.12014
G1 X110.086 Y164.639 E.0428
G1 X110.978 Y164.639 E.12014
G1 X110.978 Y164.321 E.0428
G1 X111.871 Y164.321 E.12014
G1 X111.871 Y164.639 E.0428
G1 X112.764 Y164.639 E.12014
G1 X112.764 Y164.321 E.0428
G1 X113.656 Y164.321 E.12014
G1 X113.656 Y164.639 E.0428
G1 X114.549 Y164.639 E.12014
G1 X114.549 Y164.321 E.0428
G1 X115.442 Y164.321 E.12014
G1 X115.442 Y164.639 E.0428
G1 X116.335 Y164.639 E.12014
G1 X116.335 Y164.321 E.04281
G1 X117.227 Y164.321 E.12014
G1 X117.227 Y164.639 E.0428
G1 X118.12 Y164.639 E.12014
G1 X118.12 Y164.321 E.0428
G1 X119.013 Y164.321 E.12014
G1 X119.013 Y164.639 E.0428
G1 X119.905 Y164.639 E.12014
G1 X119.905 Y164.321 E.0428
G1 X120.798 Y164.321 E.12014
G1 X120.798 Y164.639 E.0428
G1 X121.691 Y164.639 E.12014
G1 X121.691 Y164.321 E.0428
G1 X122.583 Y164.321 E.12014
G1 X122.583 Y164.639 E.0428
G1 X123.476 Y164.639 E.12014
G1 X123.476 Y164.321 E.0428
G1 X124.369 Y164.321 E.12014
G1 X124.369 Y164.639 E.0428
G1 X125.262 Y164.639 E.12014
G1 X125.262 Y164.321 E.0428
G1 X126.154 Y164.321 E.12014
G1 X126.154 Y164.639 E.0428
G1 X127.047 Y164.639 E.12014
G1 X127.047 Y164.321 E.0428
G1 X127.94 Y164.321 E.12014
G1 X127.94 Y164.639 E.04281
G1 X128.832 Y164.639 E.12014
G1 X128.832 Y164.321 E.0428
G1 X129.725 Y164.321 E.12014
G1 X129.725 Y164.639 E.0428
G1 X130.618 Y164.639 E.12014
G1 X130.618 Y164.321 E.0428
G1 X131.51 Y164.321 E.12014
G1 X131.51 Y164.639 E.0428
G1 X132.403 Y164.639 E.12014
G1 X132.403 Y164.321 E.0428
G1 X133.296 Y164.321 E.12014
G1 X133.296 Y165.041 E.09687
G1 E-.7 F3600
;WIPE_START
G1 F6240
G1 X133.296 Y164.521 E-.285
;WIPE_END
G1 E-.015 F3600
G1 X171.268 Y167.876 F7800
G1 E1 F2400
;TYPE:Support material
;WIDTH:0.42
G1 F1800
G1 X131.762 Y167.876 E1.98268
G1 X131.762 Y165.296 E.12947
G1 X134.762 Y165.296 E.15056
G1 X134.762 Y163.665 E.08185
G1 X133.059 Y163.665 E.08546
G1 X132.891 Y163.506 E.01162
G1 X132.847 Y162.66 E.04251
G1 X132.438 Y162.67 E.02055
G1 X132.438 Y163.665 E.04992
G1 X131.762 Y163.665 E.03394
G1 X131.762 Y161.085 E.12947
G1 X160.653 Y161.085 E1.44995
G1 X160.776 Y163.692 E.131
M73 P0 R497
G1 X161.187 Y164.085 E.02854
G1 X166.322 Y164.085 E.25769
G1 X166.738 Y163.669 E.02952
G1 X166.738 Y16.333 E7.3942
G1 X166.322 Y15.917 E.02952
G1 X153.992 Y15.917 E.6188
G1 X153.572 Y16.359 E.03061
G1 X153.705 Y18.917 E.12853
G1 X124.976 Y18.917 E1.44177
G1 X124.976 Y16.337 E.12947
G1 X125.122 Y16.337 E.00732
G1 X125.122 Y16.927 E.02962
G1 X125.682 Y16.337 E.04084
G1 X127.976 Y16.337 E.11512
G1 X127.976 Y14.704 E.08195
G1 X124.976 Y14.704 E.15056
G1 X124.976 Y12.124 E.12947
G1 X171.268 Y12.124 E2.32322
G1 X171.268 Y167.824 E7.81392
G1 X170.857 Y167.72 F7800
M73 P1 R497
G1 F1800
G1 X170.857 Y12.435 E7.79315
G1 X170.474 Y12.435 E.01923
G1 X170.474 Y167.565 E7.78536
G1 X170.091 Y167.565 E.01923
G1 X170.091 Y12.435 E7.78536
G1 X169.708 Y12.435 E.01923
G1 X169.708 Y167.565 E7.78536
G1 X169.324 Y167.565 E.01923
G1 X169.324 Y12.435 E7.78536
G1 X168.941 Y12.435 E.01923
G1 X168.941 Y167.565 E7.78536
G1 X168.558 Y167.565 E.01923
G1 X168.558 Y12.435 E7.78536
G1 X168.175 Y12.435 E.01923
G1 X168.175 Y167.565 E7.78536
G1 X167.792 Y167.565 E.01923
G1 X167.792 Y12.435 E7.78536
G1 X167.408 Y12.435 E.01923
M73 P1 R496
G1 X167.408 Y167.565 E7.78536
G1 X167.025 Y167.565 E.01923
G1 X167.025 Y12.435 E7.78536
G1 X166.642 Y12.435 E.01923
G1 X166.642 Y15.798 E.16879
G1 X166.451 Y15.607 E.01358
G1 X166.259 Y15.607 E.00963
G1 X166.259 Y12.435 E.15918
G1 X165.876 Y12.435 E.01923
G1 X165.876 Y15.607 E.15918
G1 X165.492 Y15.607 E.01923
G1 X165.492 Y12.435 E.15918
G1 X165.109 Y12.435 E.01923
G1 X165.109 Y15.607 E.15918
G1 X164.726 Y15.607 E.01923
G1 X164.726 Y12.435 E.15918
G1 X164.343 Y12.435 E.01923
G1 X164.343 Y15.607 E.15918
G1 X163.96 Y15.607 E.01923
G1 X163.96 Y12.435 E.15918
G1 X163.576 Y12.435 E.01923
G1 X163.576 Y15.607 E.15918
G1 X163.193 Y15.607 E.01923
G1 X163.193 Y12.435 E.15918
G1 X162.81 Y12.435 E.01923
G1 X162.81 Y15.607 E.15918
G1 X162.427 Y15.607 E.01923
G1 X162.427 Y12.435 E.15918
G1 X162.043 Y12.435 E.01923
G1 X162.043 Y15.607 E.15918
G1 X161.66 Y15.607 E.01923
G1 X161.66 Y12.435 E.15918
G1 X161.277 Y12.435 E.01923
G1 X161.277 Y15.607 E.15918
G1 X160.894 Y15.607 E.01923
G1 X160.894 Y12.435 E.15918
G1 X160.511 Y12.435 E.01923
G1 X160.511 Y15.607 E.15918
G1 X160.127 Y15.607 E.01923
G1 X160.127 Y12.435 E.15918
G1 X159.744 Y12.435 E.01923
G1 X159.744 Y15.607 E.15918
G1 X159.361 Y15.607 E.01923
G1 X159.361 Y12.435 E.15918
G1 X158.978 Y12.435 E.01923
G1 X158.978 Y15.607 E.15918
G1 X158.595 Y15.607 E.01923
G1 X158.595 Y12.435 E.15918
G1 X158.211 Y12.435 E.01923
G1 X158.211 Y15.607 E.15918
G1 X157.828 Y15.607 E.01923
G1 X157.828 Y12.435 E.15918
G1 X157.445 Y12.435 E.01923
G1 X157.445 Y15.607 E.15918
G1 X157.062 Y15.607 E.01923
G1 X157.062 Y12.435 E.15918
G1 X156.679 Y12.435 E.01923
G1 X156.679 Y15.607 E.15918
