; generated by PrusaSlicer 2.5.0+win64 on 2022-12-07 at 00:12:48 UTC

; 

; external perimeters extrusion width = 1.00mm
; perimeters extrusion width = 1.00mm
; infill extrusion width = 1.00mm
; solid infill extrusion width = 1.00mm
; top infill extrusion width = 1.00mm
; support material extrusion width = 1.00mm
; first layer extrusion width = 0.42mm

M73 P0 R767
M107
;TYPE:Custom
G90 ; use absolute coordinates
M83 ; extruder relative mode
M140 S60 ; set final bed temp
M104 S150 ; set temporary nozzle temp to prevent oozing during homing and auto bed leveling
G4 S10 ; allow partial nozzle warmup
G28 ; home all axisG1 Z50 F240
G1 X7.6 Y10 F3000
M104 S210 ; set final nozzle temp
M190 S60 ; wait for bed temp to stabilize
M109 S210 ; wait for nozzle temp to stabilize
G1 Z0.28 F240
G92 E0
G1 Y140 E10 F1500 ; prime the nozzle
G1 X4 F5000
G92 E0
G1 Y10 E10 F1200 ; prime the nozzle
G92 E0
G21 ; set units to millimeters
G90 ; use absolute coordinates
M83 ; use relative distances for extrusion
; Filament gcode
M107
;LAYER_CHANGE
;Z:0.35
;HEIGHT:0.35
;BEFORE_LAYER_CHANGE
G92 E0
;0.35


G1 E-1 F3600
G1 Z.35 F7800
;AFTER_LAYER_CHANGE
;0.35
G1 X85.558 Y14.704
G1 E1 F2400
;TYPE:Support material
;WIDTH:0.42
G1 F1800
G1 X82.558 Y14.704 E.15056
G1 X82.558 Y25.382 E.53589
G1 X62.702 Y25.382 E.9965
G1 X62.702 Y86.764 E3.08049
G1 X66.095 Y86.764 E.17027
G1 X66.095 Y154.618 E3.40531
G1 X82.558 Y154.618 E.82624
G1 X82.558 Y165.296 E.53589
G1 X85.558 Y165.296 E.15056
G1 X85.558 Y167.876 E.12947
G1 X8.732 Y167.876 E3.85561
G1 X8.732 Y12.124 E7.81652
G1 X85.558 Y12.124 E3.85561
G1 X85.558 Y14.652 E.12687
G1 E-.7 F3600
;WIPE_START
G1 F6240
G1 X85.558 Y14.132 E-.285
;WIPE_END
G1 E-.015 F3600
G1 X28.775 Y25.382 F7800
G1 E1 F2400
G1 F1800
G1 X28.775 Y73.193 E2.39942
G1 X32.168 Y73.193 E.17027
G1 X32.168 Y144.44 E3.57558
G1 X35.56 Y144.44 E.17027
G1 X35.56 Y154.618 E.5108
G1 X52.837 Y154.618 E.86703
G1 X52.837 Y93.236 E3.08049
G1 X49.444 Y93.236 E.17027
G1 X49.444 Y25.382 E3.40531
G1 X28.827 Y25.382 E1.0347
G1 E-.7 F3600
;WIPE_START
G1 F6240
G1 X29.347 Y25.382 E-.285
;WIPE_END
G1 E-.015 F3600
G1 X85.018 Y167.72 F7800
G1 E1 F2400
G1 F1800
G1 X85.018 Y165.606 E.1061
G1 X84.635 Y165.606 E.01923
G1 X84.635 Y167.565 E.09831
G1 X84.252 Y167.565 E.01923
G1 X84.252 Y165.606 E.09831
G1 X83.869 Y165.606 E.01923
G1 X83.869 Y167.565 E.09831
G1 X83.485 Y167.565 E.01923
G1 X83.485 Y165.606 E.09831
G1 X83.102 Y165.606 E.01923
G1 X83.102 Y167.565 E.09831
G1 X82.719 Y167.565 E.01923
G1 X82.719 Y165.606 E.09831
G1 X82.336 Y165.606 E.01923
G1 X82.336 Y167.565 E.09831
G1 X81.953 Y167.565 E.01923
G1 X81.953 Y154.928 E.6342
G1 X81.569 Y154.928 E.01923
G1 X81.569 Y167.565 E.6342
G1 X81.186 Y167.565 E.01923
G1 X81.186 Y154.928 E.6342
G1 X80.803 Y154.928 E.01923
G1 X80.803 Y167.565 E.6342
G1 X80.42 Y167.565 E.01923
G1 X80.42 Y154.928 E.6342
G1 X80.037 Y154.928 E.01923
G1 X80.037 Y167.565 E.6342
G1 X79.653 Y167.565 E.01923
G1 X79.653 Y154.928 E.6342
G1 X79.27 Y154.928 E.01923
G1 X79.27 Y167.565 E.6342
G1 X78.887 Y167.565 E.01923
G1 X78.887 Y154.928 E.6342
G1 X78.504 Y154.928 E.01923
G1 X78.504 Y167.565 E.6342
G1 X78.12 Y167.565 E.01923
G1 X78.12 Y154.928 E.6342
G1 X77.737 Y154.928 E.01923
G1 X77.737 Y167.565 E.6342
G1 X77.354 Y167.565 E.01923
G1 X77.354 Y154.928 E.6342
G1 X76.971 Y154.928 E.01923
G1 X76.971 Y167.565 E.6342
G1 X76.588 Y167.565 E.01923
G1 X76.588 Y154.928 E.6342
G1 X76.204 Y154.928 E.01923
G1 X76.204 Y167.565 E.6342
G1 X75.821 Y167.565 E.01923
G1 X75.821 Y154.928 E.6342
G1 X75.438 Y154.928 E.01923
G1 X75.438 Y167.565 E.6342
G1 X75.055 Y167.565 E.01923
G1 X75.055 Y154.928 E.6342
G1 X74.672 Y154.928 E.01923
G1 X74.672 Y167.565 E.6342
G1 X74.288 Y167.565 E.01923
G1 X74.288 Y154.928 E.6342
G1 X73.905 Y154.928 E.01923
G1 X73.905 Y167.565 E.6342
G1 X73.522 Y167.565 E.01923
G1 X73.522 Y154.928 E.6342
G1 X73.139 Y154.928 E.01923
G1 X73.139 Y167.565 E.6342
M73 P0 R766
G1 X72.756 Y167.565 E.01923
G1 X72.756 Y154.928 E.6342
G1 X72.372 Y154.928 E.01923
G1 X72.372 Y167.565 E.6342
G1 X71.989 Y167.565 E.01923
G1 X71.989 Y154.928 E.6342
G1 X71.606 Y154.928 E.01923
G1 X71.606 Y167.565 E.6342
G1 X71.223 Y167.565 E.01923
G1 X71.223 Y154.928 E.6342
G1 X70.839 Y154.928 E.01923
G1 X70.839 Y167.565 E.6342
G1 X70.456 Y167.565 E.01923
G1 X70.456 Y154.928 E.6342
G1 X70.073 Y154.928 E.01923
G1 X70.073 Y167.565 E.6342
G1 X69.69 Y167.565 E.01923
G1 X69.69 Y154.928 E.6342
G1 X69.307 Y154.928 E.01923
G1 X69.307 Y167.565 E.6342
G1 X68.923 Y167.565 E.01923
G1 X68.923 Y154.928 E.6342
G1 X68.54 Y154.928 E.01923
G1 X68.54 Y167.565 E.6342
G1 X68.157 Y167.565 E.01923
G1 X68.157 Y154.928 E.6342
G1 X67.774 Y154.928 E.01923
G1 X67.774 Y167.565 E.6342
G1 X67.391 Y167.565 E.01923
G1 X67.391 Y154.928 E.6342
G1 X67.007 Y154.928 E.01923
G1 X67.007 Y167.565 E.6342
G1 X66.624 Y167.565 E.01923
G1 X66.624 Y154.928 E.6342
G1 X66.241 Y154.928 E.01923
G1 X66.241 Y167.565 E.6342
G1 X65.858 Y167.565 E.01923
G1 X65.858 Y154.928 E.6342
G1 X65.784 Y154.928 E.00369
G1 X65.784 Y87.074 E3.40531
G1 X65.475 Y87.074 E.01554
G1 X65.475 Y167.565 E4.03952
G1 X65.091 Y167.565 E.01923
G1 X65.091 Y87.074 E4.03952
G1 X64.708 Y87.074 E.01923
G1 X64.708 Y167.565 E4.03952
G1 X64.325 Y167.565 E.01923
G1 X64.325 Y87.074 E4.03952
G1 X63.942 Y87.074 E.01923
G1 X63.942 Y167.565 E4.03952
G1 X63.559 Y167.565 E.01923
G1 X63.559 Y87.074 E4.03952
G1 X63.175 Y87.074 E.01923
G1 X63.175 Y167.565 E4.03952
G1 X62.792 Y167.565 E.01923
G1 X62.792 Y86.919 E4.04731
G1 E-.7 F3600
;WIPE_START
G1 F6240
G1 X62.792 Y87.439 E-.285
;WIPE_END
G1 E-.015 F3600
G1 X85.018 Y14.549 F7800
G1 E1 F2400
G1 F1800
G1 X85.018 Y12.435 E.1061
G1 X84.635 Y12.435 E.01923
G1 X84.635 Y14.394 E.09831
G1 X84.252 Y14.394 E.01923
G1 X84.252 Y12.435 E.09831
G1 X83.869 Y12.435 E.01923
G1 X83.869 Y14.394 E.09831
G1 X83.485 Y14.394 E.01923
G1 X83.485 Y12.435 E.09831
G1 X83.102 Y12.435 E.01923
G1 X83.102 Y14.394 E.09831
G1 X82.719 Y14.394 E.01923
G1 X82.719 Y12.435 E.09831
G1 X82.336 Y12.435 E.01923
G1 X82.336 Y14.394 E.09831
G1 X82.248 Y14.394 E.00442
G1 X82.248 Y25.072 E.53589
G1 X81.953 Y25.072 E.01481
G1 X81.953 Y12.435 E.6342
G1 X81.569 Y12.435 E.01923
G1 X81.569 Y25.072 E.6342
G1 X81.186 Y25.072 E.01923
G1 X81.186 Y12.435 E.6342
G1 X80.803 Y12.435 E.01923
G1 X80.803 Y25.072 E.6342
G1 X80.42 Y25.072 E.01923
G1 X80.42 Y12.435 E.6342
G1 X80.037 Y12.435 E.01923
G1 X80.037 Y25.072 E.6342
G1 X79.653 Y25.072 E.01923
G1 X79.653 Y12.435 E.6342
G1 X79.27 Y12.435 E.01923
G1 X79.27 Y25.072 E.6342
G1 X78.887 Y25.072 E.01923
G1 X78.887 Y12.435 E.6342
G1 X78.504 Y12.435 E.01923
G1 X78.504 Y25.072 E.6342
G1 X78.12 Y25.072 E.01923
G1 X78.121 Y12.435 E.6342
G1 X77.737 Y12.435 E.01923
G1 X77.737 Y25.072 E.6342
G1 X77.354 Y25.072 E.01923
G1 X77.354 Y12.435 E.6342
G1 X76.971 Y12.435 E.01923
G1 X76.971 Y25.072 E.6342
G1 X76.588 Y25.072 E.01923
G1 X76.588 Y12.435 E.6342
G1 X76.204 Y12.435 E.01923
G1 X76.204 Y25.072 E.6342
G1 X75.821 Y25.072 E.01923
G1 X75.821 Y12.435 E.6342
G1 X75.438 Y12.435 E.01923
G1 X75.438 Y25.072 E.6342
G1 X75.055 Y25.072 E.01923
G1 X75.055 Y12.435 E.6342
G1 X74.672 Y12.435 E.01923
G1 X74.672 Y25.072 E.6342
G1 X74.288 Y25.072 E.01923
G1 X74.288 Y12.435 E.6342
G1 X73.905 Y12.435 E.01923
G1 X73.905 Y25.072 E.6342
G1 X73.522 Y25.072 E.01923
G1 X73.522 Y12.435 E.6342
G1 X73.139 Y12.435 E.01923
G1 X73.139 Y25.072 E.6342
G1 X72.756 Y25.072 E.01923
G1 X72.756 Y12.435 E.6342
G1 X72.372 Y12.435 E.01923
G1 X72.372 Y25.072 E.6342
G1 X71.989 Y25.072 E.01923
G1 X71.989 Y12.435 E.6342
G1 X71.606 Y12.435 E.01923
G1 X71.606 Y25.072 E.6342
G1 X71.223 Y25.072 E.01923
G1 X71.223 Y12.435 E.6342
G1 X70.84 Y12.435 E.01923
G1 X70.84 Y25.072 E.6342
G1 X70.456 Y25.072 E.01923
G1 X70.456 Y12.435 E.6342
G1 X70.073 Y12.435 E.01923
G1 X70.073 Y25.072 E.6342
G1 X69.69 Y25.072 E.01923
G1 X69.69 Y12.435 E.6342
G1 X69.307 Y12.435 E.01923
G1 X69.307 Y25.072 E.6342
G1 X68.923 Y25.072 E.01923
G1 X68.923 Y12.435 E.6342
G1 X68.54 Y12.435 E.01923
G1 X68.54 Y25.072 E.6342
G1 X68.157 Y25.072 E.01923
G1 X68.157 Y12.435 E.6342
G1 X67.774 Y12.435 E.01923
G1 X67.774 Y25.072 E.6342
G1 X67.391 Y25.072 E.01923
G1 X67.391 Y12.435 E.6342
G1 X67.007 Y12.435 E.01923
G1 X67.007 Y25.072 E.6342
G1 X66.624 Y25.072 E.01923
G1 X66.624 Y12.435 E.6342
G1 X66.241 Y12.435 E.01923
G1 X66.241 Y25.072 E.6342
G1 X65.858 Y25.072 E.01923
G1 X65.858 Y12.435 E.6342
G1 X65.475 Y12.435 E.01923
G1 X65.475 Y25.072 E.6342
G1 X65.091 Y25.072 E.01923
G1 X65.091 Y12.435 E.6342
G1 X64.708 Y12.435 E.01923
G1 X64.708 Y25.072 E.6342
G1 X64.325 Y25.072 E.01923
G1 X64.325 Y12.435 E.6342
G1 X63.942 Y12.435 E.01923
G1 X63.942 Y25.072 E.6342
G1 X63.559 Y25.072 E.01923
G1 X63.559 Y12.435 E.6342
G1 X63.175 Y12.435 E.01923
M73 P0 R765
G1 X63.175 Y25.072 E.6342
G1 X62.792 Y25.072 E.01923
G1 X62.792 Y12.435 E.6342
G1 X62.409 Y12.435 E.01923
G1 X62.409 Y167.565 E7.78536
G1 X62.026 Y167.565 E.01923
G1 X62.026 Y12.435 E7.78536
G1 X61.642 Y12.435 E.01923
G1 X61.642 Y167.565 E7.78536
G1 X61.259 Y167.565 E.01923
G1 X61.259 Y12.435 E7.78536
G1 X60.876 Y12.435 E.01923
G1 X60.876 Y167.565 E7.78536
G1 X60.493 Y167.565 E.01923
G1 X60.493 Y12.435 E7.78536
G1 X60.11 Y12.435 E.01923
G1 X60.11 Y167.565 E7.78536
G1 X59.726 Y167.565 E.01923
G1 X59.726 Y12.435 E7.78536
G1 X59.343 Y12.435 E.01923
G1 X59.343 Y167.565 E7.78536
G1 X58.96 Y167.565 E.01923
G1 X58.96 Y12.435 E7.78536
G1 X58.577 Y12.435 E.01923
G1 X58.577 Y167.565 E7.78536
G1 X58.194 Y167.565 E.01923
G1 X58.194 Y12.435 E7.78536
G1 X57.81 Y12.435 E.01923
M73 P0 R764
G1 X57.81 Y167.565 E7.78536
G1 X57.427 Y167.565 E.01923
G1 X57.427 Y12.435 E7.78536
G1 X57.044 Y12.435 E.01923
G1 X57.044 Y167.565 E7.78536
G1 X56.661 Y167.565 E.01923
G1 X56.661 Y12.435 E7.78536
G1 X56.278 Y12.435 E.01923
G1 X56.278 Y167.565 E7.78536
G1 X55.894 Y167.565 E.01923
G1 X55.894 Y12.435 E7.78536
G1 X55.511 Y12.435 E.01923
G1 X55.511 Y167.565 E7.78536
G1 X55.128 Y167.565 E.01923
G1 X55.128 Y12.435 E7.78536
G1 X54.745 Y12.435 E.01923
G1 X54.745 Y167.565 E7.78536
G1 X54.361 Y167.565 E.01923
G1 X54.361 Y12.435 E7.78536
G1 X53.978 Y12.435 E.01923
G1 X53.978 Y167.565 E7.78536
G1 X53.595 Y167.565 E.01923
M73 P0 R763
G1 X53.595 Y12.435 E7.78536
G1 X53.212 Y12.435 E.01923
G1 X53.212 Y167.565 E7.78536
G1 X52.829 Y167.565 E.01923
G1 X52.829 Y154.928 E.6342
G1 X52.445 Y154.928 E.01923
G1 X52.445 Y167.565 E.6342
G1 X52.062 Y167.565 E.01923
G1 X52.062 Y154.928 E.6342
G1 X51.679 Y154.928 E.01923
G1 X51.679 Y167.565 E.6342
G1 X51.296 Y167.565 E.01923
G1 X51.296 Y154.928 E.6342
G1 X50.913 Y154.928 E.01923
G1 X50.913 Y167.565 E.6342
G1 X50.529 Y167.565 E.01923
G1 X50.529 Y154.928 E.6342
G1 X50.146 Y154.928 E.01923
G1 X50.146 Y167.565 E.6342
G1 X49.763 Y167.565 E.01923
G1 X49.763 Y154.928 E.6342
G1 X49.38 Y154.928 E.01923
G1 X49.38 Y167.565 E.6342
G1 X48.997 Y167.565 E.01923
G1 X48.997 Y154.928 E.6342
G1 X48.613 Y154.928 E.01923
G1 X48.613 Y167.565 E.6342
G1 X48.23 Y167.565 E.01923
G1 X48.23 Y154.928 E.6342
G1 X47.847 Y154.928 E.01923
G1 X47.847 Y167.565 E.6342
G1 X47.464 Y167.565 E.01923
G1 X47.464 Y154.928 E.6342
G1 X47.08 Y154.928 E.01923
G1 X47.08 Y167.565 E.6342
G1 X46.697 Y167.565 E.01923
G1 X46.697 Y154.928 E.6342
G1 X46.314 Y154.928 E.01923
G1 X46.314 Y167.565 E.6342
G1 X45.931 Y167.565 E.01923
G1 X45.931 Y154.928 E.6342
G1 X45.548 Y154.928 E.01923
G1 X45.548 Y167.565 E.6342
G1 X45.164 Y167.565 E.01923
G1 X45.164 Y154.928 E.6342
G1 X44.781 Y154.928 E.01923
G1 X44.781 Y167.565 E.6342
G1 X44.398 Y167.565 E.01923
G1 X44.398 Y154.928 E.6342
G1 X44.015 Y154.928 E.01923
G1 X44.015 Y167.565 E.6342
G1 X43.632 Y167.565 E.01923
G1 X43.632 Y154.928 E.6342
G1 X43.248 Y154.928 E.01923
G1 X43.248 Y167.565 E.6342
G1 X42.865 Y167.565 E.01923
G1 X42.865 Y154.928 E.6342
G1 X42.482 Y154.928 E.01923
G1 X42.482 Y167.565 E.6342
G1 X42.099 Y167.565 E.01923
G1 X42.099 Y154.928 E.6342
G1 X41.716 Y154.928 E.01923
G1 X41.716 Y167.565 E.6342
G1 X41.332 Y167.565 E.01923
G1 X41.332 Y154.928 E.6342
G1 X40.949 Y154.928 E.01923
G1 X40.949 Y167.565 E.6342
G1 X40.566 Y167.565 E.01923
G1 X40.566 Y154.928 E.6342
G1 X40.183 Y154.928 E.01923
G1 X40.183 Y167.565 E.6342
G1 X39.799 Y167.565 E.01923
G1 X39.799 Y154.928 E.6342
G1 X39.416 Y154.928 E.01923
G1 X39.416 Y167.565 E.6342
G1 X39.033 Y167.565 E.01923
G1 X39.033 Y154.928 E.6342
G1 X38.65 Y154.928 E.01923
G1 X38.65 Y167.565 E.6342
G1 X38.267 Y167.565 E.01923
G1 X38.267 Y154.928 E.6342
G1 X37.883 Y154.928 E.01923
G1 X37.883 Y167.565 E.6342
G1 X37.5 Y167.565 E.01923
G1 X37.5 Y154.928 E.6342
G1 X37.117 Y154.928 E.01923
G1 X37.117 Y167.565 E.6342
G1 X36.734 Y167.565 E.01923
G1 X36.734 Y154.928 E.6342
G1 X36.351 Y154.928 E.01923
G1 X36.351 Y167.565 E.6342
G1 X35.967 Y167.565 E.01923
G1 X35.967 Y154.928 E.6342
G1 X35.584 Y154.928 E.01923
G1 X35.584 Y167.565 E.6342
G1 X35.201 Y167.565 E.01923
G1 X35.201 Y144.75 E1.145
G1 X34.818 Y144.75 E.01923
G1 X34.818 Y167.565 E1.145
G1 X34.435 Y167.565 E.01923
G1 X34.435 Y144.75 E1.145
G1 X34.051 Y144.75 E.01923
G1 X34.051 Y167.565 E1.145
G1 X33.668 Y167.565 E.01923
G1 X33.668 Y144.75 E1.145
G1 X33.285 Y144.75 E.01923
G1 X33.285 Y167.565 E1.145
G1 X32.902 Y167.565 E.01923
G1 X32.902 Y144.75 E1.145
G1 X32.518 Y144.75 E.01923
G1 X32.518 Y167.565 E1.145
G1 X32.135 Y167.565 E.01923
G1 X32.135 Y144.75 E1.145
G1 X31.857 Y144.75 E.01395
G1 X31.857 Y73.503 E3.57558
G1 X31.752 Y73.503 E.00528
G1 X31.752 Y167.565 E4.72058
G1 X31.369 Y167.565 E.01923
G1 X31.369 Y73.503 E4.72058
G1 X30.986 Y73.503 E.01923
G1 X30.986 Y167.565 E4.72058
G1 X30.602 Y167.565 E.01923
G1 X30.602 Y73.503 E4.72058
G1 X30.219 Y73.503 E.01923
G1 X30.219 Y167.565 E4.72058
G1 X29.836 Y167.565 E.01923
M73 P0 R762
G1 X29.836 Y73.503 E4.72058
G1 X29.453 Y73.503 E.01923
G1 X29.453 Y167.565 E4.72058
G1 X29.07 Y167.565 E.01923
G1 X29.07 Y73.503 E4.72058
G1 X28.686 Y73.503 E.01923
G1 X28.686 Y167.565 E4.72058
G1 X28.303 Y167.565 E.01923
G1 X28.303 Y12.435 E7.78536
G1 X28.686 Y12.435 E.01923
G1 X28.686 Y25.072 E.6342
G1 X29.07 Y25.072 E.01923
G1 X29.07 Y12.435 E.6342
G1 X29.453 Y12.435 E.01923
G1 X29.453 Y25.072 E.6342
G1 X29.836 Y25.072 E.01923
G1 X29.836 Y12.435 E.6342
G1 X30.219 Y12.435 E.01923
G1 X30.219 Y25.072 E.6342
G1 X30.602 Y25.072 E.01923
G1 X30.602 Y12.435 E.6342
G1 X30.986 Y12.435 E.01923
G1 X30.986 Y25.072 E.6342
G1 X31.369 Y25.072 E.01923
G1 X31.369 Y12.435 E.6342
G1 X31.752 Y12.435 E.01923
G1 X31.752 Y25.072 E.6342
G1 X32.135 Y25.072 E.01923
G1 X32.135 Y12.435 E.6342
G1 X32.519 Y12.435 E.01923
G1 X32.519 Y25.072 E.6342
G1 X32.902 Y25.072 E.01923
G1 X32.902 Y12.435 E.6342
G1 X33.285 Y12.435 E.01923
G1 X33.285 Y25.072 E.6342
G1 X33.668 Y25.072 E.01923
G1 X33.668 Y12.435 E.6342
G1 X34.051 Y12.435 E.01923
G1 X34.051 Y25.072 E.6342
G1 X34.435 Y25.072 E.01923
G1 X34.435 Y12.435 E.6342
G1 X34.818 Y12.435 E.01923
G1 X34.818 Y25.072 E.6342
G1 X35.201 Y25.072 E.01923
G1 X35.201 Y12.435 E.6342
G1 X35.584 Y12.435 E.01923
G1 X35.584 Y25.072 E.6342
G1 X35.967 Y25.072 E.01923
G1 X35.967 Y12.435 E.6342
G1 X36.351 Y12.435 E.01923
G1 X36.351 Y25.072 E.6342
G1 X36.734 Y25.072 E.01923
G1 X36.734 Y12.435 E.6342
G1 X37.117 Y12.435 E.01923
G1 X37.117 Y25.072 E.6342
G1 X37.5 Y25.072 E.01923
G1 X37.5 Y12.435 E.6342
G1 X37.883 Y12.435 E.01923
G1 X37.883 Y25.072 E.6342
G1 X38.267 Y25.072 E.01923
G1 X38.267 Y12.435 E.6342
G1 X38.65 Y12.435 E.01923
G1 X38.65 Y25.072 E.6342
G1 X39.033 Y25.072 E.01923
G1 X39.033 Y12.435 E.6342
G1 X39.416 Y12.435 E.01923
G1 X39.416 Y25.072 E.6342
G1 X39.799 Y25.072 E.01923
G1 X39.799 Y12.435 E.6342
G1 X40.183 Y12.435 E.01923
G1 X40.183 Y25.072 E.6342
G1 X40.566 Y25.072 E.01923
G1 X40.566 Y12.435 E.6342
G1 X40.949 Y12.435 E.01923
G1 X40.949 Y25.072 E.6342
G1 X41.332 Y25.072 E.01923
G1 X41.332 Y12.435 E.6342
G1 X41.716 Y12.435 E.01923
G1 X41.716 Y25.072 E.6342
G1 X42.099 Y25.072 E.01923
G1 X42.099 Y12.435 E.6342
G1 X42.482 Y12.435 E.01923
G1 X42.482 Y25.072 E.6342
G1 X42.865 Y25.072 E.01923
G1 X42.865 Y12.435 E.6342
G1 X43.248 Y12.435 E.01923
G1 X43.248 Y25.072 E.6342
G1 X43.632 Y25.072 E.01923
G1 X43.632 Y12.435 E.6342
G1 X44.015 Y12.435 E.01923
G1 X44.015 Y25.072 E.6342
G1 X44.398 Y25.072 E.01923
G1 X44.398 Y12.435 E.6342
