; generated by PrusaSlicer 2.5.0+win64 on 2022-12-07 at 00:13:10 UTC

; 

; external perimeters extrusion width = 1.00mm
; perimeters extrusion width = 1.00mm
; infill extrusion width = 1.00mm
; solid infill extrusion width = 1.00mm
; top infill extrusion width = 1.00mm
; support material extrusion width = 1.00mm
; first layer extrusion width = 0.42mm

M73 P0 R113
M107
;TYPE:Custom
G90 ; use absolute coordinates
M83 ; extruder relative mode
M140 S60 ; set final bed temp
M104 S150 ; set temporary nozzle temp to prevent oozing during homing and auto bed leveling
G4 S10 ; allow partial nozzle warmup
G28 ; home all axisG1 Z50 F240
G1 X7.6 Y10 F3000
M104 S210 ; set final nozzle temp
M190 S60 ; wait for bed temp to stabilize
M109 S210 ; wait for nozzle temp to stabilize
G1 Z0.28 F240
G92 E0
G1 Y140 E10 F1500 ; prime the nozzle
G1 X4 F5000
G92 E0
G1 Y10 E10 F1200 ; prime the nozzle
G92 E0
G21 ; set units to millimeters
G90 ; use absolute coordinates
M83 ; use relative distances for extrusion
; Filament gcode
M107
;LAYER_CHANGE
;Z:0.35
;HEIGHT:0.35
;BEFORE_LAYER_CHANGE
G92 E0
;0.35


G1 E-1 F3600
G1 Z.35 F7800
;AFTER_LAYER_CHANGE
;0.35
G1 X79.799 Y34.738
G1 E1 F2400
;TYPE:Perimeter
;WIDTH:0.42
G1 F1800
G1 X92.417 Y34.738 E.63325
G1 X79.799 Y100.727 E3.37173
G1 X79.799 Y34.888 E3.3042
G1 X79.454 Y34.393 F7800
;TYPE:External perimeter
G1 F1800
G1 X92.834 Y34.393 E.67149
G1 X79.454 Y104.367 E3.57534
G1 X79.454 Y34.543 E3.50419
G1 X78.954 Y35.259 F7800
G1 E-.7 F3600
;WIPE_START
G1 F6240
G1 X79.974 Y34.537 E-.285
;WIPE_END
G1 E-.015 F3600
G1 X91.594 Y34.841 F7800
G1 E1 F2400
;TYPE:Solid infill
;WIDTH:0.422195
G1 F1800
G1 X92.047 Y35.295 E.03239
G1 X91.969 Y35.707 E.02119
G1 X91.258 Y34.997 E.05074
G1 X90.767 Y34.997 E.02479
G1 X91.89 Y36.119 E.08017
G1 X91.811 Y36.531 E.02119
G1 X90.276 Y34.997 E.1096
G1 X89.786 Y34.997 E.02479
G1 X91.732 Y36.943 E.13903
G1 X91.653 Y37.355 E.02119
G1 X89.295 Y34.997 E.16846
G1 X88.804 Y34.997 E.02479
G1 X91.575 Y37.767 E.1979
G1 X91.496 Y38.179 E.02119
G1 X88.313 Y34.997 E.22733
G1 X87.822 Y34.997 E.02479
G1 X91.417 Y38.591 E.25676
G1 X91.338 Y39.003 E.02119
G1 X87.331 Y34.997 E.28619
G1 X86.84 Y34.997 E.02479
G1 X91.259 Y39.415 E.31562
G1 X91.181 Y39.827 E.02119
G1 X86.35 Y34.997 E.34505
G1 X85.859 Y34.997 E.02479
G1 X91.102 Y40.24 E.37448
G1 X91.023 Y40.652 E.02119
G1 X85.368 Y34.997 E.40392
G1 X84.877 Y34.997 E.02479
G1 X90.944 Y41.064 E.43335
G1 X90.865 Y41.476 E.02119
G1 X84.386 Y34.997 E.46278
G1 X83.895 Y34.997 E.02479
G1 X90.787 Y41.888 E.49221
G1 X90.708 Y42.3 E.02119
G1 X83.405 Y34.997 E.52164
G1 X82.914 Y34.997 E.02479
G1 X90.629 Y42.712 E.55107
G1 X90.55 Y43.124 E.02119
G1 X82.423 Y34.997 E.5805
G1 X81.932 Y34.997 E.02479
G1 X90.471 Y43.536 E.60994
G1 X90.393 Y43.948 E.02119
G1 X81.441 Y34.997 E.63937
G1 X80.95 Y34.997 E.02479
G1 X90.314 Y44.36 E.6688
G1 X90.235 Y44.772 E.02119
G1 X80.459 Y34.997 E.69823
G1 X80.058 Y34.997 E.02029
G1 X80.058 Y35.086 E.0045
G1 X90.156 Y45.184 E.72129
G1 X90.078 Y45.596 E.02119
G1 X80.058 Y35.577 E.71567
G1 X80.058 Y36.067 E.02479
G1 X89.999 Y46.008 E.71004
G1 X89.92 Y46.42 E.02119
G1 X80.058 Y36.558 E.70441
G1 X80.058 Y37.049 E.02479
G1 X89.841 Y46.832 E.69878
G1 X89.762 Y47.245 E.02119
G1 X80.058 Y37.54 E.69316
G1 X80.058 Y38.031 E.02479
G1 X89.684 Y47.657 E.68753
G1 X89.605 Y48.069 E.02119
G1 X80.058 Y38.522 E.6819
G1 X80.058 Y39.012 E.02479
G1 X89.526 Y48.481 E.67627
G1 X89.447 Y48.893 E.02119
G1 X80.058 Y39.503 E.67064
G1 X80.058 Y39.994 E.02479
G1 X89.368 Y49.305 E.66502
G1 X89.29 Y49.717 E.02119
G1 X80.058 Y40.485 E.65939
G1 X80.058 Y40.976 E.02479
G1 X89.211 Y50.129 E.65376
G1 X89.132 Y50.541 E.02119
G1 X80.058 Y41.467 E.64813
G1 X80.058 Y41.958 E.02479
G1 X89.053 Y50.953 E.64251
G1 X88.974 Y51.365 E.02119
G1 X80.058 Y42.448 E.63688
G1 X80.058 Y42.939 E.02479
G1 X88.896 Y51.777 E.63125
G1 X88.817 Y52.189 E.02119
G1 X80.058 Y43.43 E.62562
G1 X80.058 Y43.921 E.02479
G1 X88.738 Y52.601 E.61999
G1 X88.659 Y53.013 E.02119
G1 X80.058 Y44.412 E.61437
G1 X80.058 Y44.903 E.02479
G1 X88.58 Y53.425 E.60874
G1 X88.502 Y53.837 E.02119
G1 X80.058 Y45.394 E.60311
G1 X80.058 Y45.884 E.02479
G1 X88.423 Y54.25 E.59748
G1 X88.344 Y54.662 E.02119
G1 X80.058 Y46.375 E.59186
G1 X80.058 Y46.866 E.02479
G1 X88.265 Y55.074 E.58623
G1 X88.187 Y55.486 E.02119
G1 X80.058 Y47.357 E.5806
G1 X80.058 Y47.848 E.02479
G1 X88.108 Y55.898 E.57497
G1 X88.029 Y56.31 E.02119
G1 X80.058 Y48.339 E.56935
G1 X80.058 Y48.829 E.02479
G1 X87.95 Y56.722 E.56372
G1 X87.871 Y57.134 E.02119
G1 X80.058 Y49.32 E.55809
G1 X80.058 Y49.811 E.02479
G1 X87.793 Y57.546 E.55246
G1 X87.714 Y57.958 E.02119
G1 X80.058 Y50.302 E.54683
G1 X80.058 Y50.793 E.02479
G1 X87.635 Y58.37 E.54121
G1 X87.556 Y58.782 E.02119
G1 X80.058 Y51.284 E.53558
G1 X80.058 Y51.775 E.02479
G1 X87.477 Y59.194 E.52995
G1 X87.399 Y59.606 E.02119
G1 X80.058 Y52.265 E.52432
G1 X80.058 Y52.756 E.02479
G1 X87.32 Y60.018 E.5187
G1 X87.241 Y60.43 E.02119
G1 X80.058 Y53.247 E.51307
G1 X80.058 Y53.738 E.02479
G1 X87.162 Y60.843 E.50744
G1 X87.083 Y61.255 E.02119
G1 X80.058 Y54.229 E.50181
G1 X80.058 Y54.72 E.02479
G1 X87.005 Y61.667 E.49619
G1 X86.926 Y62.079 E.02119
G1 X80.058 Y55.211 E.49056
G1 X80.058 Y55.701 E.02479
G1 X86.847 Y62.491 E.48493
G1 X86.768 Y62.903 E.02119
G1 X80.058 Y56.192 E.4793
G1 X80.058 Y56.683 E.02479
G1 X86.689 Y63.315 E.47367
G1 X86.611 Y63.727 E.02119
G1 X80.058 Y57.174 E.46805
G1 X80.058 Y57.665 E.02479
G1 X86.532 Y64.139 E.46242
G1 X86.453 Y64.551 E.02119
G1 X80.058 Y58.156 E.45679
G1 X80.058 Y58.647 E.02479
G1 X86.374 Y64.963 E.45116
G1 X86.296 Y65.375 E.02119
G1 X80.058 Y59.137 E.44554
G1 X80.058 Y59.628 E.02479
G1 X86.217 Y65.787 E.43991
G1 X86.138 Y66.199 E.02119
G1 X80.058 Y60.119 E.43428
G1 X80.058 Y60.61 E.02479
G1 X86.059 Y66.611 E.42865
G1 X85.98 Y67.023 E.02119
G1 X80.058 Y61.101 E.42303
G1 X80.058 Y61.592 E.02479
G1 X85.902 Y67.435 E.4174
G1 X85.823 Y67.848 E.02119
M73 P0 R112
G1 X80.058 Y62.082 E.41177
G1 X80.058 Y62.573 E.02479
G1 X85.744 Y68.26 E.40614
G1 X85.665 Y68.672 E.02119
G1 X80.058 Y63.064 E.40051
G1 X80.058 Y63.555 E.02479
G1 X85.586 Y69.084 E.39489
G1 X85.508 Y69.496 E.02119
G1 X80.058 Y64.046 E.38926
G1 X80.058 Y64.537 E.02479
G1 X85.429 Y69.908 E.38363
G1 X85.35 Y70.32 E.02119
G1 X80.058 Y65.028 E.378
G1 X80.058 Y65.518 E.02479
G1 X85.271 Y70.732 E.37238
G1 X85.192 Y71.144 E.02119
G1 X80.058 Y66.009 E.36675
G1 X80.058 Y66.5 E.02479
G1 X85.114 Y71.556 E.36112
G1 X85.035 Y71.968 E.02119
G1 X80.058 Y66.991 E.35549
G1 X80.058 Y67.482 E.02479
G1 X84.956 Y72.38 E.34987
G1 X84.877 Y72.792 E.02119
G1 X80.058 Y67.973 E.34424
G1 X80.058 Y68.464 E.02479
G1 X84.798 Y73.204 E.33861
G1 X84.72 Y73.616 E.02119
G1 X80.058 Y68.954 E.33298
G1 X80.058 Y69.445 E.02479
G1 X84.641 Y74.028 E.32735
G1 X84.562 Y74.44 E.02119
G1 X80.058 Y69.936 E.32173
G1 X80.058 Y70.427 E.02479
G1 X84.483 Y74.853 E.3161
G1 X84.405 Y75.265 E.02119
G1 X80.058 Y70.918 E.31047
G1 X80.058 Y71.409 E.02479
G1 X84.326 Y75.677 E.30484
G1 X84.247 Y76.089 E.02119
G1 X80.058 Y71.899 E.29922
G1 X80.058 Y72.39 E.02479
G1 X84.168 Y76.501 E.29359
G1 X84.089 Y76.913 E.02119
G1 X80.058 Y72.881 E.28796
G1 X80.058 Y73.372 E.02479
G1 X84.011 Y77.325 E.28233
G1 X83.932 Y77.737 E.02119
G1 X80.058 Y73.863 E.2767
G1 X80.058 Y74.354 E.02479
G1 X83.853 Y78.149 E.27108
G1 X83.774 Y78.561 E.02119
G1 X80.058 Y74.845 E.26545
G1 X80.058 Y75.335 E.02479
G1 X83.695 Y78.973 E.25982
G1 X83.617 Y79.385 E.02119
G1 X80.058 Y75.826 E.25419
G1 X80.058 Y76.317 E.02479
G1 X83.538 Y79.797 E.24857
G1 X83.459 Y80.209 E.02119
G1 X80.058 Y76.808 E.24294
G1 X80.058 Y77.299 E.02479
G1 X83.38 Y80.621 E.23731
G1 X83.301 Y81.033 E.02119
G1 X80.058 Y77.79 E.23168
G1 X80.058 Y78.281 E.02479
G1 X83.223 Y81.445 E.22606
G1 X83.144 Y81.858 E.02119
G1 X80.058 Y78.771 E.22043
G1 X80.058 Y79.262 E.02479
G1 X83.065 Y82.27 E.2148
G1 X82.986 Y82.682 E.02119
G1 X80.058 Y79.753 E.20917
G1 X80.058 Y80.244 E.02479
G1 X82.907 Y83.094 E.20354
G1 X82.829 Y83.506 E.02119
G1 X80.058 Y80.735 E.19792
G1 X80.058 Y81.226 E.02479
G1 X82.75 Y83.918 E.19229
G1 X82.671 Y84.33 E.02119
G1 X80.058 Y81.717 E.18666
G1 X80.058 Y82.207 E.02479
G1 X82.592 Y84.742 E.18103
G1 X82.514 Y85.154 E.02119
G1 X80.058 Y82.698 E.17541
G1 X80.058 Y83.189 E.02479
G1 X82.435 Y85.566 E.16978
G1 X82.356 Y85.978 E.02119
G1 X80.058 Y83.68 E.16415
G1 X80.058 Y84.171 E.02479
G1 X82.277 Y86.39 E.15852
G1 X82.198 Y86.802 E.02119
G1 X80.058 Y84.662 E.1529
G1 X80.058 Y85.152 E.02479
G1 X82.12 Y87.214 E.14727
G1 X82.041 Y87.626 E.02119
G1 X80.058 Y85.643 E.14164
G1 X80.058 Y86.134 E.02479
G1 X81.962 Y88.038 E.13601
G1 X81.883 Y88.45 E.02119
G1 X80.058 Y86.625 E.13038
G1 X80.058 Y87.116 E.02479
G1 X81.804 Y88.863 E.12476
G1 X81.726 Y89.275 E.02119
G1 X80.058 Y87.607 E.11913
G1 X80.058 Y88.098 E.02479
G1 X81.647 Y89.687 E.1135
G1 X81.568 Y90.099 E.02119
G1 X80.058 Y88.588 E.10787
G1 X80.058 Y89.079 E.02479
G1 X81.489 Y90.511 E.10225
G1 X81.41 Y90.923 E.02119
G1 X80.058 Y89.57 E.09662
G1 X80.058 Y90.061 E.02479
G1 X81.332 Y91.335 E.09099
G1 X81.253 Y91.747 E.02119
M73 P1 R112
G1 X80.058 Y90.552 E.08536
G1 X80.058 Y91.043 E.02479
G1 X81.174 Y92.159 E.07974
G1 X81.095 Y92.571 E.02119
G1 X80.058 Y91.534 E.07411
G1 X80.058 Y92.024 E.02479
G1 X81.016 Y92.983 E.06848
G1 X80.938 Y93.395 E.02119
G1 X80.058 Y92.515 E.06285
G1 X80.058 Y93.006 E.02479
G1 X80.859 Y93.807 E.05722
G1 X80.78 Y94.219 E.02119
G1 X80.058 Y93.497 E.0516
G1 X80.058 Y93.988 E.02479
G1 X80.701 Y94.631 E.04597
G1 X80.623 Y95.043 E.02119
G1 X80.058 Y94.479 E.04034
G1 X80.058 Y94.969 E.02479
G1 X80.544 Y95.455 E.03471
G1 X80.465 Y95.868 E.02119
G1 X80.058 Y95.46 E.02909
G1 X80.058 Y95.951 E.02479
G1 X80.386 Y96.28 E.02346
G1 X80.307 Y96.692 E.02119
G1 X80.058 Y96.442 E.01783
G1 X80.058 Y96.933 E.02479
G1 X80.229 Y97.104 E.0122
G1 X80.15 Y97.516 E.02119
G1 X79.903 Y97.269 E.01766
M106 S255
;LAYER_CHANGE
;Z:0.85
;HEIGHT:0.5
;BEFORE_LAYER_CHANGE
G92 E0
;0.85


G1 E-.7 F3600
;WIPE_START
G1 F6240
G1 X80.15 Y97.516 E-.19165
G1 X80.182 Y97.348 E-.09335
;WIPE_END
G1 E-.015 F3600
G1 Z.85 F7800
;AFTER_LAYER_CHANGE
;0.85
M104 S205 ; set temperature
G1 X80.637 Y35.576
G1 E1 F2400
;TYPE:Perimeter
;WIDTH:1
G1 F2016.357
G1 X91.424 Y35.576 E2.00168
G1 X80.637 Y91.988 E10.6581
G1 X80.637 Y35.726 E10.44061
G1 X79.744 Y34.683 F7800
;TYPE:External perimeter
G1 F1800
G1 X92.503 Y34.683 E2.36768
G1 X79.744 Y101.41 E12.60687
G1 X79.744 Y34.833 E12.3547
G1 X79.244 Y35.549 F7800
G1 E-.7 F3600
;WIPE_START
G1 F6240
G1 X80.264 Y34.827 E-.285
;WIPE_END
G1 E-.015 F3600
G1 X82.149 Y82.656 F7800
G1 E1 F2400
;TYPE:Solid infill
;WIDTH:1.01515
G1 F1200
G1 X81.306 Y83.498 E.22476
G1 X81.306 Y82.215 E.2423
G1 X81.946 Y81.575 E.17081
G1 X82.25 Y79.987 E.30501
G1 X81.306 Y80.931 E.25182
G1 X81.306 Y79.647 E.2423
G1 X82.553 Y78.4 E.33283
G1 X82.857 Y76.812 E.30501
G1 X81.306 Y78.363 E.41384
G1 X81.306 Y77.079 E.2423
G1 X83.161 Y75.225 E.49485
G1 X83.464 Y73.637 E.30501
G1 X81.306 Y75.795 E.57586
G1 X81.306 Y74.511 E.2423
G1 X83.768 Y72.05 E.65687
G1 X84.071 Y70.463 E.30501
G1 X81.306 Y73.227 E.73788
G1 X81.306 Y71.943 E.2423
G1 X84.375 Y68.875 E.81889
G1 X84.678 Y67.288 E.30501
G1 X81.306 Y70.659 E.8999
G1 X81.306 Y69.376 E.2423
G1 X84.982 Y65.7 E.98091
G1 X85.285 Y64.113 E.30501
G1 X81.306 Y68.092 E1.06192
G1 X81.306 Y66.808 E.2423
G1 X85.589 Y62.525 E1.14293
G1 X85.892 Y60.938 E.30501
G1 X81.306 Y65.524 E1.22394
G1 X81.306 Y64.24 E.2423
G1 X86.196 Y59.351 E1.30495
G1 X86.499 Y57.763 E.30501
G1 X81.306 Y62.956 E1.38596
G1 X81.306 Y61.672 E.2423
G1 X86.803 Y56.176 E1.46697
G1 X87.106 Y54.588 E.30501
G1 X81.306 Y60.388 E1.54798
G1 X81.306 Y59.104 E.2423
G1 X87.41 Y53.001 E1.62899
G1 X87.714 Y51.413 E.30501
G1 X81.306 Y57.821 E1.71
G1 X81.306 Y56.537 E.2423
G1 X88.017 Y49.826 E1.79101
G1 X88.321 Y48.239 E.30501
G1 X81.306 Y55.253 E1.87202
G1 X81.306 Y53.969 E.2423
G1 X88.624 Y46.651 E1.95303
G1 X88.928 Y45.064 E.30501
G1 X81.306 Y52.685 E2.03404
G1 X81.306 Y51.401 E.2423
G1 X89.231 Y43.476 E2.11505
G1 X89.535 Y41.889 E.30501
G1 X81.306 Y50.117 E2.19606
G1 X81.306 Y48.833 E.2423
G1 X89.838 Y40.301 E2.27707
G1 X90.142 Y38.714 E.30501
G1 X81.306 Y47.549 E2.35808
G1 X81.306 Y46.266 E.2423
G1 X90.445 Y37.127 E2.43909
G1 X90.614 Y36.245 E.16935
G1 X90.043 Y36.245 E.10776
G1 X81.306 Y44.982 E2.33167
G1 X81.306 Y43.698 E.2423
G1 X88.759 Y36.245 E1.98902
G1 X87.475 Y36.245 E.2423
G1 X81.306 Y42.414 E1.64636
G1 X81.306 Y41.13 E.2423
G1 X86.191 Y36.245 E1.3037
G1 X84.907 Y36.245 E.2423
G1 X81.306 Y39.846 E.96104
G1 X81.306 Y38.562 E.2423
G1 X83.623 Y36.245 E.61838
G1 X82.339 Y36.245 E.2423
G1 X80.905 Y37.68 E.38293
;LAYER_CHANGE
;Z:1.35
;HEIGHT:0.5
;BEFORE_LAYER_CHANGE
G92 E0
;1.35


G1 E-.7 F3600
;WIPE_START
G1 F6240
G1 X81.272 Y37.312 E-.285
;WIPE_END
G1 E-.015 F3600
G1 Z1.35 F7800
;AFTER_LAYER_CHANGE
;1.35
G1 X80.637 Y35.576
G1 E1 F2400
;TYPE:Perimeter
;WIDTH:1
G1 F2016.357
G1 X91.447 Y35.576 E2.00595
G1 X80.637 Y92.109 E10.68104
G1 X80.637 Y35.726 E10.46315
G1 X79.744 Y34.683 F7800
;TYPE:External perimeter
G1 F1800
G1 X92.526 Y34.683 E2.37194
G1 X79.744 Y101.531 E12.62984
G1 X79.744 Y34.833 E12.37727
G1 X79.244 Y35.549 F7800
G1 E-.7 F3600
;WIPE_START
G1 F6240
G1 X80.264 Y34.827 E-.285
;WIPE_END
G1 E-.015 F3600
G1 X89.321 Y35.843 F7800
G1 E1 F2400
;TYPE:Solid infill
;WIDTH:1.00301
G1 F1200
G1 X90.49 Y37.012 E.30783
G1 X90.287 Y38.076 E.20159
G1 X88.456 Y36.245 E.48207
G1 X87.189 Y36.245 E.23586
G1 X90.083 Y39.139 E.76208
G1 X89.88 Y40.203 E.20159
G1 X85.923 Y36.245 E1.0421
G1 X84.656 Y36.245 E.23586
G1 X89.677 Y41.266 E1.32211
G1 X89.473 Y42.329 E.20159
G1 X83.389 Y36.245 E1.60213
G1 X82.122 Y36.245 E.23586
G1 X89.27 Y43.393 E1.88214
G1 X89.067 Y44.456 E.20159
G1 X81.306 Y36.696 E2.04349
G1 X81.306 Y37.963 E.23586
G1 X88.863 Y45.52 E1.98995
G1 X88.66 Y46.583 E.20159
G1 X81.306 Y39.229 E1.93641
G1 X81.306 Y40.496 E.23586
G1 X88.457 Y47.646 E1.88287
G1 X88.254 Y48.71 E.20159
G1 X81.306 Y41.763 E1.82933
G1 X81.306 Y43.029 E.23586
G1 X88.05 Y49.773 E1.77579
G1 X87.847 Y50.837 E.20159
G1 X81.306 Y44.296 E1.72225
G1 X81.306 Y45.563 E.23586
G1 X87.644 Y51.9 E1.66871
G1 X87.44 Y52.963 E.20159
G1 X81.306 Y46.83 E1.61517
G1 X81.306 Y48.096 E.23586
G1 X87.237 Y54.027 E1.56163
G1 X87.034 Y55.09 E.20159
G1 X81.306 Y49.363 E1.50808
G1 X81.306 Y50.63 E.23586
G1 X86.83 Y56.154 E1.45454
G1 X86.627 Y57.217 E.20159
G1 X81.306 Y51.897 E1.401
G1 X81.306 Y53.163 E.23586
M73 P1 R111
G1 X86.424 Y58.28 E1.34746
G1 X86.22 Y59.344 E.20159
G1 X81.306 Y54.43 E1.29392
G1 X81.306 Y55.697 E.23586
G1 X86.017 Y60.407 E1.24038
G1 X85.814 Y61.471 E.20159
G1 X81.306 Y56.963 E1.18684
G1 X81.306 Y58.23 E.23586
G1 X85.61 Y62.534 E1.1333
G1 X85.407 Y63.597 E.20159
G1 X81.306 Y59.497 E1.07976
G1 X81.306 Y60.764 E.23586
G1 X85.204 Y64.661 E1.02622
G1 X85 Y65.724 E.20159
G1 X81.306 Y62.03 E.97268
G1 X81.306 Y63.297 E.23586
G1 X84.797 Y66.788 E.91914
G1 X84.594 Y67.851 E.20159
G1 X81.306 Y64.564 E.86559
G1 X81.306 Y65.83 E.23586
G1 X84.39 Y68.914 E.81205
G1 X84.187 Y69.978 E.20159
G1 X81.306 Y67.097 E.75851
G1 X81.306 Y68.364 E.23586
G1 X83.984 Y71.041 E.70497
G1 X83.78 Y72.105 E.20159
G1 X81.306 Y69.631 E.65143
G1 X81.306 Y70.897 E.23586
G1 X83.577 Y73.168 E.59789
G1 X83.374 Y74.231 E.20159
G1 X81.306 Y72.164 E.54435
G1 X81.306 Y73.431 E.23586
G1 X83.17 Y75.295 E.49081
G1 X82.967 Y76.358 E.20159
G1 X81.306 Y74.698 E.43727
G1 X81.306 Y75.964 E.23586
G1 X82.764 Y77.422 E.38373
G1 X82.56 Y78.485 E.20159
G1 X81.306 Y77.231 E.33019
G1 X81.306 Y78.498 E.23586
G1 X82.357 Y79.548 E.27664
G1 X82.154 Y80.612 E.20159
G1 X81.306 Y79.764 E.2231
G1 X81.306 Y81.031 E.23586
G1 X81.95 Y81.675 E.16956
G1 X81.747 Y82.739 E.20159
G1 X81.306 Y82.298 E.11602
G1 X81.306 Y83.565 E.23586
G1 X81.887 Y84.145 E.15289
;LAYER_CHANGE
;Z:1.85
;HEIGHT:0.5
;BEFORE_LAYER_CHANGE
G92 E0
;1.85


G1 E-.7 F3600
;WIPE_START
G1 F6240
G1 X81.519 Y83.778 E-.285
;WIPE_END
G1 E-.015 F3600
G1 Z1.85 F7800
;AFTER_LAYER_CHANGE
;1.85
G1 X80.637 Y35.576
G1 E1 F2400
;TYPE:Perimeter
;WIDTH:1
G1 F1040
G1 X91.47 Y35.576 E2.01022
G1 X80.637 Y92.231 E10.70397
G1 X80.637 Y35.726 E10.48568
