; generated by PrusaSlicer 2.5.0+win64 on 2022-12-07 at 00:13:23 UTC

; 

; external perimeters extrusion width = 1.00mm
; perimeters extrusion width = 1.00mm
; infill extrusion width = 1.00mm
; solid infill extrusion width = 1.00mm
; top infill extrusion width = 1.00mm
; support material extrusion width = 1.00mm
; first layer extrusion width = 0.42mm

M73 P0 R119
M107
;TYPE:Custom
G90 ; use absolute coordinates
M83 ; extruder relative mode
M140 S60 ; set final bed temp
M104 S150 ; set temporary nozzle temp to prevent oozing during homing and auto bed leveling
G4 S10 ; allow partial nozzle warmup
G28 ; home all axisG1 Z50 F240
G1 X7.6 Y10 F3000
M104 S210 ; set final nozzle temp
M190 S60 ; wait for bed temp to stabilize
M109 S210 ; wait for nozzle temp to stabilize
G1 Z0.28 F240
G92 E0
G1 Y140 E10 F1500 ; prime the nozzle
G1 X4 F5000
G92 E0
G1 Y10 E10 F1200 ; prime the nozzle
G92 E0
G21 ; set units to millimeters
G90 ; use absolute coordinates
M83 ; use relative distances for extrusion
; Filament gcode
M107
;LAYER_CHANGE
;Z:0.35
;HEIGHT:0.35
;BEFORE_LAYER_CHANGE
G92 E0
;0.35


G1 E-1 F3600
G1 Z.35 F7800
;AFTER_LAYER_CHANGE
;0.35
G1 X48.238 Y68.973
G1 E1 F2400
;TYPE:Support material
;WIDTH:0.42
G1 F1800
G1 X45.238 Y68.973 E.15056
G1 X45.238 Y72.555 E.17975
G1 X47.534 Y72.555 E.11519
G1 X47.538 Y73.13 E.02889
G1 X45.238 Y73.163 E.1154
G1 X45.238 Y76.258 E.15532
G1 X35.875 Y76.258 E.4699
G1 X35.867 Y75.134 E.0564
G1 X22.173 Y75.134 E.68724
G1 X22.162 Y73.577 E.07818
G1 X24.412 Y73.544 E.11292
G1 X24.402 Y72.135 E.07075
G1 X13.677 Y72.135 E.53824
G1 X13.261 Y72.55 E.02952
G1 X13.261 Y73.281 E.03668
G1 X13.684 Y73.698 E.02982
G1 X18.597 Y73.628 E.24657
G1 X18.597 Y86.436 E.64281
G1 X8.732 Y86.436 E.49509
G1 X8.732 Y66.393 E1.00589
G1 X48.238 Y66.393 E1.98268
G1 X48.238 Y68.921 E.12687
G1 X47.847 Y68.818 F7800
G1 F1800
G1 X47.847 Y66.704 E.1061
G1 X47.464 Y66.704 E.01923
G1 X47.464 Y68.663 E.09831
G1 X47.08 Y68.663 E.01923
G1 X47.08 Y66.704 E.09831
G1 X46.697 Y66.704 E.01923
G1 X46.697 Y68.663 E.09831
G1 X46.314 Y68.663 E.01923
G1 X46.314 Y66.704 E.09831
G1 X45.931 Y66.704 E.01923
G1 X45.931 Y68.663 E.09831
G1 X45.548 Y68.663 E.01923
G1 X45.548 Y66.704 E.09831
G1 X45.164 Y66.704 E.01923
G1 X45.164 Y68.663 E.09831
G1 X44.928 Y68.663 E.01186
G1 X44.928 Y75.948 E.36562
G1 X44.781 Y75.948 E.00737
G1 X44.781 Y66.704 E.46394
G1 X44.398 Y66.704 E.01923
G1 X44.398 Y75.948 E.46394
G1 X44.015 Y75.948 E.01923
G1 X44.015 Y66.704 E.46394
G1 X43.632 Y66.704 E.01923
G1 X43.632 Y75.948 E.46394
G1 X43.248 Y75.948 E.01923
G1 X43.248 Y66.704 E.46394
G1 X42.865 Y66.704 E.01923
G1 X42.865 Y75.948 E.46394
G1 X42.482 Y75.948 E.01923
G1 X42.482 Y66.704 E.46394
G1 X42.099 Y66.704 E.01923
G1 X42.099 Y75.948 E.46394
G1 X41.716 Y75.948 E.01923
G1 X41.716 Y66.704 E.46394
G1 X41.332 Y66.704 E.01923
G1 X41.332 Y75.948 E.46394
G1 X40.949 Y75.948 E.01923
G1 X40.949 Y66.704 E.46394
G1 X40.566 Y66.704 E.01923
G1 X40.566 Y75.948 E.46394
G1 X40.183 Y75.948 E.01923
G1 X40.183 Y66.704 E.46394
G1 X39.799 Y66.704 E.01923
G1 X39.799 Y75.948 E.46394
G1 X39.416 Y75.948 E.01923
M73 P0 R118
G1 X39.416 Y66.704 E.46394
G1 X39.033 Y66.704 E.01923
G1 X39.033 Y75.948 E.46394
G1 X38.65 Y75.948 E.01923
G1 X38.65 Y66.704 E.46394
G1 X38.267 Y66.704 E.01923
G1 X38.267 Y75.948 E.46394
G1 X37.883 Y75.948 E.01923
G1 X37.883 Y66.704 E.46394
G1 X37.5 Y66.704 E.01923
G1 X37.5 Y75.948 E.46394
G1 X37.117 Y75.948 E.01923
G1 X37.117 Y66.704 E.46394
G1 X36.734 Y66.704 E.01923
G1 X36.734 Y75.948 E.46394
G1 X36.351 Y75.948 E.01923
G1 X36.351 Y66.704 E.46394
G1 X35.967 Y66.704 E.01923
G1 X35.967 Y74.824 E.40754
G1 X35.584 Y74.824 E.01923
G1 X35.584 Y66.704 E.40754
G1 X35.201 Y66.704 E.01923
G1 X35.201 Y74.824 E.40754
G1 X34.818 Y74.824 E.01923
G1 X34.818 Y66.704 E.40754
G1 X34.435 Y66.704 E.01923
G1 X34.435 Y74.824 E.40754
G1 X34.051 Y74.824 E.01923
G1 X34.051 Y66.704 E.40754
G1 X33.668 Y66.704 E.01923
G1 X33.668 Y74.824 E.40754
G1 X33.285 Y74.824 E.01923
G1 X33.285 Y66.704 E.40754
G1 X32.902 Y66.704 E.01923
G1 X32.902 Y74.824 E.40754
G1 X32.519 Y74.824 E.01923
G1 X32.519 Y66.704 E.40754
G1 X32.135 Y66.704 E.01923
G1 X32.135 Y74.824 E.40754
G1 X31.752 Y74.824 E.01923
G1 X31.752 Y66.704 E.40754
G1 X31.369 Y66.704 E.01923
G1 X31.369 Y74.824 E.40754
G1 X30.986 Y74.824 E.01923
G1 X30.986 Y66.704 E.40754
G1 X30.602 Y66.704 E.01923
G1 X30.602 Y74.824 E.40754
G1 X30.219 Y74.824 E.01923
G1 X30.219 Y66.704 E.40754
G1 X29.836 Y66.704 E.01923
G1 X29.836 Y74.824 E.40754
G1 X29.453 Y74.824 E.01923
G1 X29.453 Y66.704 E.40754
G1 X29.07 Y66.704 E.01923
G1 X29.07 Y74.824 E.40754
G1 X28.686 Y74.824 E.01923
G1 X28.686 Y66.704 E.40754
G1 X28.303 Y66.704 E.01923
G1 X28.303 Y74.824 E.40754
G1 X27.92 Y74.824 E.01923
G1 X27.92 Y66.704 E.40754
G1 X27.537 Y66.704 E.01923
G1 X27.537 Y74.824 E.40754
G1 X27.154 Y74.824 E.01923
G1 X27.154 Y66.704 E.40754
G1 X26.77 Y66.704 E.01923
G1 X26.77 Y74.824 E.40754
G1 X26.387 Y74.824 E.01923
G1 X26.387 Y66.704 E.40754
G1 X26.004 Y66.704 E.01923
G1 X26.004 Y74.824 E.40754
G1 X25.621 Y74.824 E.01923
G1 X25.621 Y66.704 E.40754
G1 X25.238 Y66.704 E.01923
G1 X25.238 Y74.824 E.40754
G1 X24.854 Y74.824 E.01923
G1 X24.854 Y66.704 E.40754
G1 X24.471 Y66.704 E.01923
G1 X24.471 Y71.824 E.25698
G1 X24.088 Y71.824 E.01923
G1 X24.088 Y66.704 E.25698
G1 X23.705 Y66.704 E.01923
G1 X23.705 Y71.824 E.25698
G1 X23.321 Y71.824 E.01923
G1 X23.321 Y66.704 E.25698
G1 X22.938 Y66.704 E.01923
G1 X22.938 Y71.824 E.25698
G1 X22.555 Y71.824 E.01923
G1 X22.555 Y66.704 E.25698
G1 X22.172 Y66.704 E.01923
G1 X22.172 Y71.824 E.25698
G1 X21.789 Y71.824 E.01923
G1 X21.789 Y66.704 E.25698
G1 X21.405 Y66.704 E.01923
G1 X21.405 Y71.824 E.25698
G1 X21.022 Y71.824 E.01923
G1 X21.022 Y66.704 E.25698
G1 X20.639 Y66.704 E.01923
G1 X20.639 Y71.824 E.25698
G1 X20.256 Y71.824 E.01923
G1 X20.256 Y66.704 E.25698
G1 X19.873 Y66.704 E.01923
G1 X19.873 Y71.824 E.25698
G1 X19.489 Y71.824 E.01923
G1 X19.489 Y66.704 E.25698
G1 X19.106 Y66.704 E.01923
G1 X19.106 Y71.824 E.25698
G1 X18.723 Y71.824 E.01923
G1 X18.723 Y66.704 E.25698
G1 X18.34 Y66.704 E.01923
G1 X18.34 Y71.824 E.25698
G1 X17.957 Y71.824 E.01923
G1 X17.957 Y66.704 E.25698
G1 X17.573 Y66.704 E.01923
G1 X17.573 Y71.824 E.25698
G1 X17.19 Y71.824 E.01923
G1 X17.19 Y66.704 E.25698
G1 X16.807 Y66.704 E.01923
G1 X16.807 Y71.824 E.25698
G1 X16.424 Y71.824 E.01923
G1 X16.424 Y66.704 E.25698
G1 X16.04 Y66.704 E.01923
G1 X16.04 Y71.824 E.25698
G1 X15.657 Y71.824 E.01923
G1 X15.657 Y66.704 E.25698
G1 X15.274 Y66.704 E.01923
G1 X15.274 Y71.824 E.25698
G1 X14.891 Y71.824 E.01923
G1 X14.891 Y66.704 E.25698
G1 X14.508 Y66.704 E.01923
G1 X14.508 Y71.824 E.25698
G1 X14.124 Y71.824 E.01923
G1 X14.124 Y66.704 E.25698
G1 X13.741 Y66.704 E.01923
G1 X13.741 Y71.824 E.25698
G1 X13.548 Y71.824 E.00968
G1 X13.358 Y72.014 E.01351
G1 X13.358 Y66.704 E.26654
G1 X12.975 Y66.704 E.01923
G1 X12.975 Y86.126 E.97474
G1 X13.358 Y86.126 E.01923
G1 X13.358 Y73.813 E.61795
G1 X13.559 Y74.011 E.01416
G1 X13.741 Y74.008 E.00915
G1 X13.741 Y86.126 E.60815
G1 X14.124 Y86.126 E.01923
G1 X14.124 Y74.002 E.60843
G1 X14.508 Y73.997 E.01923
G1 X14.508 Y86.126 E.60871
G1 X14.891 Y86.126 E.01923
G1 X14.891 Y73.991 E.60898
G1 X15.274 Y73.986 E.01923
G1 X15.274 Y86.126 E.60926
G1 X15.657 Y86.126 E.01923
G1 X15.657 Y73.98 E.60954
G1 X16.04 Y73.975 E.01923
G1 X16.04 Y86.126 E.60981
G1 X16.424 Y86.126 E.01923
G1 X16.424 Y73.969 E.61009
G1 X16.807 Y73.964 E.01923
G1 X16.807 Y86.126 E.61036
G1 X17.19 Y86.126 E.01923
G1 X17.19 Y73.958 E.61064
G1 X17.573 Y73.953 E.01923
G1 X17.573 Y86.126 E.61092
G1 X17.957 Y86.126 E.01923
G1 X17.957 Y73.792 E.61898
G1 E-.7 F3600
;WIPE_START
G1 F6240
G1 X17.957 Y74.312 E-.285
;WIPE_END
G1 E-.015 F3600
G1 X24.471 Y74.979 F7800
G1 E1 F2400
G1 F1800
G1 X24.471 Y73.854 E.05648
G1 X24.088 Y73.859 E.01923
G1 X24.088 Y74.824 E.04841
G1 X23.705 Y74.824 E.01923
G1 X23.705 Y73.865 E.04813
G1 X23.321 Y73.87 E.01923
G1 X23.321 Y74.824 E.04786
G1 X22.938 Y74.824 E.01923
G1 X22.938 Y73.876 E.04758
G1 X22.555 Y73.881 E.01923
G1 X22.555 Y74.979 E.05509
G1 E-.7 F3600
;WIPE_START
G1 F6240
G1 X22.555 Y74.459 E-.285
;WIPE_END
G1 E-.015 F3600
G1 X12.592 Y86.281 F7800
G1 E1 F2400
G1 F1800
G1 X12.592 Y66.704 E.98253
G1 X12.208 Y66.704 E.01923
G1 X12.208 Y86.126 E.97474
G1 X11.825 Y86.126 E.01923
G1 X11.825 Y66.704 E.97474
G1 X11.442 Y66.704 E.01923
G1 X11.442 Y86.126 E.97474
G1 X11.059 Y86.126 E.01923
G1 X11.059 Y66.704 E.97474
G1 X10.676 Y66.704 E.01923
G1 X10.676 Y86.126 E.97474
G1 X10.292 Y86.126 E.01923
G1 X10.292 Y66.704 E.97474
G1 X9.909 Y66.704 E.01923
G1 X9.909 Y86.126 E.97474
G1 X9.526 Y86.126 E.01923
G1 X9.526 Y66.704 E.97474
G1 X9.143 Y66.704 E.01923
G1 X9.143 Y86.281 E.98253
G1 E-.7 F3600
;WIPE_START
G1 F6240
G1 X9.143 Y85.761 E-.285
;WIPE_END
G1 E-.015 F3600
G1 X46.704 Y76.817 F7800
G1 E1 F2400
;TYPE:Support material interface
;WIDTH:1
G1 F1800
G1 X46.704 Y73.799 E.40613
G1 X47.597 Y73.786 E.12016
G1 X47.597 Y76.415 E.3538
G1 X48.489 Y76.415 E.12014
G1 X48.489 Y69.629 E.91321
G1 X49.382 Y69.629 E.12014
G1 X49.382 Y76.415 E.91321
G1 X50.275 Y76.415 E.12014
G1 X50.275 Y69.629 E.91321
G1 X51.168 Y69.629 E.12014
G1 X51.168 Y76.415 E.91321
G1 X52.06 Y76.415 E.12014
G1 X52.06 Y69.629 E.91321
G1 X52.953 Y69.629 E.12014
G1 X52.953 Y76.415 E.91321
G1 X53.846 Y76.415 E.12014
G1 X53.846 Y69.629 E.91321
G1 X54.738 Y69.629 E.12014
G1 X54.738 Y76.415 E.91321
G1 X55.631 Y76.415 E.12014
G1 X55.631 Y69.629 E.91321
G1 X56.524 Y69.629 E.12014
G1 X56.524 Y76.415 E.91321
G1 X57.416 Y76.415 E.12014
G1 X57.416 Y69.629 E.91321
G1 X58.309 Y69.629 E.12014
G1 X58.309 Y76.415 E.91321
G1 X59.202 Y76.415 E.12014
G1 X59.202 Y69.629 E.91321
G1 X60.095 Y69.629 E.12014
G1 X60.095 Y76.415 E.91321
G1 X60.987 Y76.415 E.12014
G1 X60.987 Y69.629 E.91321
G1 X61.88 Y69.629 E.12014
G1 X61.88 Y76.415 E.91321
G1 X62.773 Y76.415 E.12014
G1 X62.773 Y69.629 E.91321
G1 X63.665 Y69.629 E.12014
G1 X63.665 Y73.022 E.45661
G1 X64.558 Y73.022 E.12014
G1 X64.558 Y69.629 E.45661
G1 X65.451 Y69.629 E.12014
G1 X65.451 Y73.022 E.45661
G1 X66.343 Y73.022 E.12014
G1 X66.343 Y69.629 E.45661
G1 X67.236 Y69.629 E.12014
G1 X67.236 Y73.022 E.45661
G1 X68.129 Y73.022 E.12014
G1 X68.129 Y69.629 E.45661
G1 X69.022 Y69.629 E.12014
G1 X69.022 Y73.022 E.45661
G1 X69.914 Y73.022 E.12014
G1 X69.914 Y69.629 E.45661
G1 X70.807 Y69.629 E.12014
G1 X70.807 Y73.022 E.45661
G1 X71.7 Y73.022 E.12014
G1 X71.7 Y69.629 E.45661
G1 X72.592 Y69.629 E.12014
G1 X72.592 Y73.022 E.45661
G1 X73.036 Y73.022 E.05978
G1 X73.036 Y76.415 E.4566
G1 X73.485 Y76.415 E.06036
G1 X73.485 Y69.629 E.91321
G1 X74.378 Y69.629 E.12014
G1 X74.378 Y76.415 E.91321
G1 X75.27 Y76.415 E.12014
G1 X75.27 Y69.629 E.91321
G1 X76.163 Y69.629 E.12014
G1 X76.163 Y76.415 E.91321
G1 X77.056 Y76.415 E.12014
G1 X77.056 Y69.629 E.91321
G1 X77.949 Y69.629 E.12014
G1 X77.949 Y76.415 E.91321
G1 X78.841 Y76.415 E.12014
M73 P1 R118
G1 X78.841 Y69.629 E.91321
G1 X79.734 Y69.629 E.12014
G1 X79.734 Y76.415 E.91321
G1 X80.627 Y76.415 E.12014
G1 X80.627 Y69.629 E.91321
G1 X81.519 Y69.629 E.12014
G1 X81.519 Y76.415 E.91321
G1 X82.412 Y76.415 E.12014
G1 X82.412 Y69.629 E.91321
G1 X83.305 Y69.629 E.12014
G1 X83.305 Y76.415 E.91321
G1 X84.197 Y76.415 E.12014
G1 X84.197 Y69.629 E.91321
G1 X85.09 Y69.629 E.12014
G1 X85.09 Y76.415 E.91321
G1 X85.983 Y76.415 E.12014
G1 X85.983 Y69.629 E.91321
G1 X86.876 Y69.629 E.12014
G1 X86.876 Y76.415 E.91321
G1 X87.768 Y76.415 E.12014
G1 X87.768 Y69.629 E.91321
G1 X88.661 Y69.629 E.12014
G1 X88.661 Y76.415 E.91321
G1 X89.554 Y76.415 E.12014
G1 X89.554 Y69.629 E.91321
G1 X90.446 Y69.629 E.12014
G1 X90.446 Y76.415 E.91321
G1 X91.339 Y76.415 E.12014
G1 X91.339 Y69.629 E.91321
G1 X92.232 Y69.629 E.12014
G1 X92.232 Y76.415 E.91321
G1 X93.124 Y76.415 E.12014
G1 X93.124 Y69.629 E.91321
G1 X94.017 Y69.629 E.12014
G1 X94.017 Y73.022 E.45661
G1 X94.91 Y73.022 E.12014
G1 X94.91 Y69.629 E.45661
G1 X95.802 Y69.629 E.12014
G1 X95.802 Y73.022 E.45661
G1 X96.695 Y73.022 E.12014
G1 X96.695 Y69.629 E.45661
G1 X97.588 Y69.629 E.12014
G1 X97.588 Y73.022 E.45661
G1 X98.481 Y73.022 E.12014
G1 X98.481 Y69.629 E.45661
G1 X99.373 Y69.629 E.12014
G1 X99.373 Y73.022 E.45661
G1 X99.732 Y73.022 E.04824
G1 X100.266 Y73.022 E.0719
G1 X100.266 Y69.629 E.45661
G1 X101.159 Y69.629 E.12014
G1 X101.159 Y73.022 E.45661
G1 X102.051 Y73.022 E.12014
G1 X102.051 Y69.629 E.45661
G1 X102.944 Y69.629 E.12014
G1 X102.944 Y73.424 E.51067
G1 E-.7 F3600
;WIPE_START
G1 F6240
G1 X102.944 Y72.904 E-.285
;WIPE_END
G1 E-.015 F3600
G1 X47.597 Y72.3 F7800
G1 E1 F2400
G1 F1800
G1 X47.597 Y69.629 E.35942
G1 X46.704 Y69.629 E.12014
G1 X46.704 Y72.3 E.35942
G1 E-.7 F3600
;WIPE_START
G1 F6240
G1 X46.704 Y71.78 E-.285
;WIPE_END
G1 E-.015 F3600
G1 X171.268 Y86.436 F7800
G1 E1 F2400
;TYPE:Support material
;WIDTH:0.42
G1 F1800
G1 X161.403 Y86.436 E.49509
G1 X161.403 Y79.651 E.34053
G1 X154.618 Y79.651 E.34053
G1 X154.618 Y76.258 E.17027
G1 X150.912 Y76.258 E.18597
G1 X150.912 Y79.651 E.17027
G1 X96.942 Y79.651 E2.70855
G1 X96.942 Y73.679 E.29974
G1 X104.227 Y73.679 E.36562
M73 P1 R117
G1 X104.227 Y68.973 E.23616
G1 X101.227 Y68.973 E.15056
G1 X101.227 Y66.393 E.12947
G1 X171.268 Y66.393 E3.51508
G1 X171.268 Y86.385 E1.0033
G1 X170.857 Y86.281 F7800
G1 F1800
G1 X170.857 Y66.704 E.98253
G1 X170.474 Y66.704 E.01923
G1 X170.474 Y86.126 E.97474
G1 X170.091 Y86.126 E.01923
G1 X170.091 Y66.704 E.97474
G1 X169.708 Y66.704 E.01923
G1 X169.708 Y86.126 E.97474
G1 X169.324 Y86.126 E.01923
G1 X169.324 Y66.704 E.97474
G1 X168.941 Y66.704 E.01923
G1 X168.941 Y86.126 E.97474
G1 X168.558 Y86.126 E.01923
G1 X168.558 Y66.704 E.97474
G1 X168.175 Y66.704 E.01923
G1 X168.175 Y86.126 E.97474
G1 X167.792 Y86.126 E.01923
G1 X167.792 Y66.704 E.97474
G1 X167.408 Y66.704 E.01923
G1 X167.408 Y86.126 E.97474
G1 X167.025 Y86.126 E.01923
G1 X167.025 Y66.704 E.97474
G1 X166.642 Y66.704 E.01923
G1 X166.642 Y86.126 E.97474
G1 X166.259 Y86.126 E.01923
G1 X166.259 Y66.704 E.97474
G1 X165.876 Y66.704 E.01923
G1 X165.876 Y86.126 E.97474
G1 X165.492 Y86.126 E.01923
G1 X165.492 Y66.704 E.97474
G1 X165.109 Y66.704 E.01923
G1 X165.109 Y86.126 E.97474
G1 X164.726 Y86.126 E.01923
G1 X164.726 Y66.704 E.97474
G1 X164.343 Y66.704 E.01923
G1 X164.343 Y86.126 E.97474
G1 X163.96 Y86.126 E.01923
G1 X163.96 Y66.704 E.97474
G1 X163.576 Y66.704 E.01923
G1 X163.576 Y86.126 E.97474
G1 X163.193 Y86.126 E.01923
G1 X163.193 Y66.704 E.97474
G1 X162.81 Y66.704 E.01923
G1 X162.81 Y86.126 E.97474
G1 X162.427 Y86.126 E.01923
G1 X162.427 Y66.704 E.97474
G1 X162.043 Y66.704 E.01923
G1 X162.043 Y86.126 E.97474
G1 X161.714 Y86.126 E.01656
G1 X161.714 Y79.341 E.34053
G1 X161.66 Y79.341 E.00267
G1 X161.66 Y66.704 E.6342
G1 X161.277 Y66.704 E.01923
G1 X161.277 Y79.341 E.6342
G1 X160.894 Y79.341 E.01923
G1 X160.894 Y66.704 E.6342
G1 X160.511 Y66.704 E.01923
G1 X160.511 Y79.341 E.6342
G1 X160.127 Y79.341 E.01923
G1 X160.127 Y66.704 E.6342
G1 X159.744 Y66.704 E.01923
G1 X159.744 Y79.341 E.6342
G1 X159.361 Y79.341 E.01923
G1 X159.361 Y66.704 E.6342
G1 X158.978 Y66.704 E.01923
G1 X158.978 Y79.341 E.6342
G1 X158.595 Y79.341 E.01923
G1 X158.595 Y66.704 E.6342
G1 X158.211 Y66.704 E.01923
G1 X158.211 Y79.341 E.6342
G1 X157.828 Y79.341 E.01923
G1 X157.828 Y66.704 E.6342
G1 X157.445 Y66.704 E.01923
G1 X157.445 Y79.341 E.6342
G1 X157.062 Y79.341 E.01923
G1 X157.062 Y66.704 E.6342
G1 X156.679 Y66.704 E.01923
G1 X156.679 Y79.341 E.6342
G1 X156.295 Y79.341 E.01923
G1 X156.295 Y66.704 E.6342
G1 X155.912 Y66.704 E.01923
G1 X155.912 Y79.341 E.6342
G1 X155.529 Y79.341 E.01923
G1 X155.529 Y66.704 E.6342
G1 X155.146 Y66.704 E.01923
G1 X155.146 Y79.341 E.6342
G1 X154.928 Y79.341 E.01092
G1 X154.928 Y75.948 E.17027
G1 X154.762 Y75.948 E.00831
G1 X154.762 Y66.704 E.46394
G1 X154.379 Y66.704 E.01923
G1 X154.379 Y75.948 E.46394
G1 X153.996 Y75.948 E.01923
G1 X153.996 Y66.704 E.46394
G1 X153.613 Y66.704 E.01923
G1 X153.613 Y75.948 E.46394
G1 X153.23 Y75.948 E.01923
G1 X153.23 Y66.704 E.46394
G1 X152.846 Y66.704 E.01923
G1 X152.846 Y75.948 E.46394
G1 X152.463 Y75.948 E.01923
G1 X152.463 Y66.704 E.46394
G1 X152.08 Y66.704 E.01923
