; generated by PrusaSlicer 2.5.0+win64 on 2022-12-07 at 00:04:32 UTC

; 

; external perimeters extrusion width = 1.00mm
; perimeters extrusion width = 1.00mm
; infill extrusion width = 1.00mm
; solid infill extrusion width = 1.00mm
; top infill extrusion width = 1.00mm
; support material extrusion width = 1.00mm
; first layer extrusion width = 0.42mm

M73 P0 R622
M107
;TYPE:Custom
G90 ; use absolute coordinates
M83 ; extruder relative mode
M140 S60 ; set final bed temp
M104 S150 ; set temporary nozzle temp to prevent oozing during homing and auto bed leveling
G4 S10 ; allow partial nozzle warmup
G28 ; home all axisG1 Z50 F240
G1 X7.6 Y10 F3000
M104 S210 ; set final nozzle temp
M190 S60 ; wait for bed temp to stabilize
M109 S210 ; wait for nozzle temp to stabilize
G1 Z0.28 F240
G92 E0
G1 Y140 E10 F1500 ; prime the nozzle
G1 X4 F5000
G92 E0
M73 P0 R621
G1 Y10 E10 F1200 ; prime the nozzle
G92 E0
G21 ; set units to millimeters
G90 ; use absolute coordinates
M83 ; use relative distances for extrusion
; Filament gcode
M107
;LAYER_CHANGE
;Z:0.35
;HEIGHT:0.35
;BEFORE_LAYER_CHANGE
G92 E0
;0.35


G1 E-1 F3600
G1 Z.35 F7800
;AFTER_LAYER_CHANGE
;0.35
G1 X21.99 Y29.231
G1 E1 F2400
;TYPE:Support material
;WIDTH:0.42
G1 F1800
G1 X35.56 Y29.231 E.68106
G1 X35.56 Y32.623 E.17027
G1 X38.06 Y32.623 E.12546
G1 X38.06 Y35.203 E.12947
G1 X35.06 Y35.203 E.15056
G1 X35.06 Y45.381 E.5108
G1 X31.668 Y45.381 E.17027
G1 X31.668 Y45.881 E.02509
G1 X25.695 Y45.881 E.29974
G1 X25.695 Y42.489 E.17027
G1 X21.99 Y42.489 E.18597
G1 X21.99 Y130.199 E4.40182
G1 X21.49 Y130.199 E.02509
G1 X21.49 Y151.868 E1.08748
G1 X24.49 Y151.868 E.15056
G1 X24.49 Y154.448 E.12947
G1 X8.732 Y154.448 E.79082
G1 X8.732 Y25.838 E6.45439
G1 X21.99 Y25.838 E.66536
G1 X21.99 Y29.179 E.16767
G1 X37.5 Y35.048 F7800
G1 F1800
G1 X37.5 Y32.934 E.1061
G1 X37.117 Y32.934 E.01923
G1 X37.117 Y34.893 E.09831
G1 X36.734 Y34.893 E.01923
G1 X36.734 Y32.934 E.09831
G1 X36.351 Y32.934 E.01923
G1 X36.351 Y34.893 E.09831
G1 X35.967 Y34.893 E.01923
G1 X35.967 Y32.934 E.09831
G1 X35.584 Y32.934 E.01923
G1 X35.584 Y34.893 E.09831
G1 X35.201 Y34.893 E.01923
G1 X35.201 Y29.541 E.26858
G1 X34.818 Y29.541 E.01923
G1 X34.818 Y34.893 E.26858
G1 X34.75 Y34.893 E.0034
G1 X34.75 Y45.071 E.5108
G1 X34.435 Y45.071 E.01583
G1 X34.435 Y29.541 E.77938
G1 X34.051 Y29.541 E.01923
G1 X34.051 Y45.071 E.77938
G1 X33.668 Y45.071 E.01923
G1 X33.668 Y29.541 E.77938
G1 X33.285 Y29.541 E.01923
G1 X33.285 Y45.071 E.77938
G1 X32.902 Y45.071 E.01923
G1 X32.902 Y29.541 E.77938
G1 X32.519 Y29.541 E.01923
G1 X32.519 Y45.071 E.77938
G1 X32.135 Y45.071 E.01923
G1 X32.135 Y29.541 E.77938
G1 X31.752 Y29.541 E.01923
G1 X31.752 Y45.071 E.77938
G1 X31.369 Y45.071 E.01923
G1 X31.369 Y29.541 E.77938
G1 X30.986 Y29.541 E.01923
G1 X30.986 Y45.571 E.80447
G1 X30.602 Y45.571 E.01923
G1 X30.602 Y29.541 E.80447
G1 X30.219 Y29.541 E.01923
G1 X30.219 Y45.571 E.80447
G1 X29.836 Y45.571 E.01923
G1 X29.836 Y29.541 E.80447
G1 X29.453 Y29.541 E.01923
G1 X29.453 Y45.571 E.80447
G1 X29.07 Y45.571 E.01923
G1 X29.07 Y29.541 E.80447
G1 X28.686 Y29.541 E.01923
G1 X28.686 Y45.571 E.80447
G1 X28.303 Y45.571 E.01923
G1 X28.303 Y29.541 E.80447
G1 X27.92 Y29.541 E.01923
G1 X27.92 Y45.571 E.80447
G1 X27.537 Y45.571 E.01923
G1 X27.537 Y29.541 E.80447
G1 X27.154 Y29.541 E.01923
G1 X27.154 Y45.571 E.80447
G1 X26.77 Y45.571 E.01923
G1 X26.77 Y29.541 E.80447
G1 X26.387 Y29.541 E.01923
G1 X26.387 Y45.571 E.80447
G1 X26.006 Y45.571 E.01915
G1 X26.004 Y29.541 E.80447
G1 X25.621 Y29.541 E.01923
G1 X25.621 Y42.178 E.6342
G1 X25.238 Y42.178 E.01923
G1 X25.238 Y29.541 E.6342
G1 X24.854 Y29.541 E.01923
G1 X24.854 Y42.178 E.6342
G1 X24.471 Y42.178 E.01923
G1 X24.471 Y29.541 E.6342
G1 X24.088 Y29.541 E.01923
G1 X24.088 Y42.178 E.6342
G1 X23.705 Y42.178 E.01923
G1 X23.705 Y29.541 E.6342
G1 X23.321 Y29.541 E.01923
G1 X23.321 Y42.178 E.6342
G1 X22.938 Y42.178 E.01923
G1 X22.938 Y29.541 E.6342
G1 X22.555 Y29.541 E.01923
G1 X22.555 Y42.178 E.6342
G1 X22.172 Y42.178 E.01923
G1 X22.172 Y29.541 E.6342
G1 X21.789 Y29.541 E.01923
G1 X21.789 Y42.178 E.6342
G1 X21.679 Y42.178 E.00549
G1 X21.679 Y129.888 E4.40182
G1 X21.405 Y129.888 E.01374
G1 X21.405 Y26.148 E5.20629
G1 X21.022 Y26.148 E.01923
G1 X21.022 Y154.137 E6.42324
G1 X21.405 Y154.137 E.01923
G1 X21.405 Y152.178 E.09831
G1 X21.789 Y152.178 E.01923
G1 X21.789 Y154.137 E.09831
G1 X22.172 Y154.137 E.01923
G1 X22.172 Y152.178 E.09831
G1 X22.555 Y152.178 E.01923
G1 X22.555 Y154.137 E.09831
G1 X22.938 Y154.137 E.01923
G1 X22.938 Y152.178 E.09831
G1 X23.321 Y152.178 E.01923
G1 X23.321 Y154.137 E.09831
G1 X23.705 Y154.137 E.01923
G1 X23.705 Y152.178 E.09831
G1 X24.088 Y152.178 E.01923
G1 X24.088 Y154.293 E.1061
G1 X20.639 Y154.293 F7800
G1 F1800
G1 X20.639 Y26.148 E6.43103
G1 X20.256 Y26.148 E.01923
M73 P0 R620
G1 X20.256 Y154.137 E6.42324
G1 X19.873 Y154.137 E.01923
G1 X19.873 Y26.148 E6.42324
G1 X19.489 Y26.148 E.01923
G1 X19.489 Y154.137 E6.42324
G1 X19.106 Y154.137 E.01923
G1 X19.106 Y26.148 E6.42324
G1 X18.723 Y26.148 E.01923
G1 X18.723 Y154.137 E6.42324
G1 X18.34 Y154.137 E.01923
G1 X18.34 Y26.148 E6.42324
G1 X17.957 Y26.148 E.01923
G1 X17.957 Y154.137 E6.42324
G1 X17.573 Y154.137 E.01923
G1 X17.573 Y26.148 E6.42324
G1 X17.19 Y26.148 E.01923
G1 X17.19 Y154.137 E6.42324
G1 X16.807 Y154.137 E.01923
G1 X16.807 Y26.148 E6.42324
G1 X16.424 Y26.148 E.01923
G1 X16.424 Y154.137 E6.42324
G1 X16.04 Y154.137 E.01923
G1 X16.04 Y26.148 E6.42324
G1 X15.657 Y26.148 E.01923
G1 X15.657 Y154.137 E6.42324
G1 X15.274 Y154.137 E.01923
G1 X15.274 Y26.148 E6.42324
G1 X14.891 Y26.148 E.01923
M73 P0 R619
G1 X14.891 Y154.137 E6.42324
G1 X14.508 Y154.137 E.01923
G1 X14.508 Y26.148 E6.42324
G1 X14.124 Y26.148 E.01923
G1 X14.124 Y154.137 E6.42324
G1 X13.741 Y154.137 E.01923
G1 X13.741 Y26.148 E6.42324
G1 X13.358 Y26.148 E.01923
G1 X13.358 Y154.137 E6.42324
G1 X12.975 Y154.137 E.01923
G1 X12.975 Y26.148 E6.42324
G1 X12.592 Y26.148 E.01923
G1 X12.592 Y154.137 E6.42324
G1 X12.208 Y154.137 E.01923
G1 X12.208 Y26.148 E6.42324
G1 X11.825 Y26.148 E.01923
G1 X11.825 Y154.137 E6.42324
G1 X11.442 Y154.137 E.01923
G1 X11.442 Y26.148 E6.42324
G1 X11.059 Y26.148 E.01923
G1 X11.059 Y154.137 E6.42324
G1 X10.676 Y154.137 E.01923
G1 X10.676 Y26.148 E6.42324
G1 X10.292 Y26.148 E.01923
G1 X10.292 Y154.137 E6.42324
G1 X9.909 Y154.137 E.01923
G1 X9.909 Y26.148 E6.42324
G1 X9.526 Y26.148 E.01923
M73 P0 R618
G1 X9.526 Y154.137 E6.42324
G1 X9.143 Y154.137 E.01923
G1 X9.143 Y25.993 E6.43103
G1 E-.7 F3600
;WIPE_START
G1 F6240
G1 X9.143 Y26.513 E-.285
;WIPE_END
G1 E-.015 F3600
G1 X65.451 Y42.243 F7800
G1 E1 F2400
;TYPE:Support material interface
;WIDTH:1
G1 F1800
G1 X65.451 Y49.431 E.96727
G1 X64.558 Y49.431 E.12014
G1 X64.558 Y42.645 E.91321
G1 X63.665 Y42.645 E.12014
G1 X63.665 Y49.431 E.91321
G1 X62.773 Y49.431 E.12014
G1 X62.773 Y42.645 E.91321
G1 X61.88 Y42.645 E.12014
G1 X61.88 Y49.431 E.91321
G1 X60.987 Y49.431 E.12014
G1 X60.987 Y42.645 E.91321
G1 X60.095 Y42.645 E.12014
G1 X60.095 Y49.431 E.91321
G1 X59.202 Y49.431 E.12014
G1 X59.202 Y42.645 E.91321
G1 X58.309 Y42.645 E.12014
G1 X58.309 Y49.431 E.91321
G1 X57.416 Y49.431 E.12014
G1 X57.416 Y42.645 E.91321
G1 X56.524 Y42.645 E.12014
G1 X56.524 Y49.431 E.91321
G1 X55.631 Y49.431 E.12014
G1 X55.631 Y39.252 E1.36981
G1 X54.738 Y39.252 E.12014
G1 X54.738 Y49.431 E1.36981
G1 X53.846 Y49.431 E.12014
G1 X53.846 Y39.252 E1.36981
G1 X52.953 Y39.252 E.12014
G1 X52.953 Y49.431 E1.36981
G1 X52.68 Y49.431 E.03669
G1 X52.68 Y46.038 E.4566
G1 X52.06 Y46.038 E.08345
G1 X52.06 Y39.252 E.91321
G1 X51.168 Y39.252 E.12014
G1 X51.168 Y46.038 E.91321
G1 X50.275 Y46.038 E.12014
G1 X50.275 Y39.252 E.91321
G1 X49.382 Y39.252 E.12014
G1 X49.382 Y46.038 E.91321
G1 X48.489 Y46.038 E.12014
G1 X48.489 Y39.252 E.91321
G1 X47.597 Y39.252 E.12014
G1 X47.597 Y46.038 E.91321
G1 X46.704 Y46.038 E.12014
G1 X46.704 Y39.252 E.91321
G1 X45.895 Y39.252 E.10889
G1 X45.895 Y35.86 E.4566
G1 X45.811 Y35.86 E.01125
G1 X45.811 Y46.038 E1.36981
G1 X44.919 Y46.038 E.12014
G1 X44.919 Y35.86 E1.36981
G1 X44.026 Y35.86 E.12014
G1 X44.026 Y46.038 E1.36981
G1 X43.133 Y46.038 E.12014
G1 X43.133 Y35.86 E1.36981
G1 X42.241 Y35.86 E.12014
G1 X42.241 Y49.431 E1.82641
G1 X41.348 Y49.431 E.12014
G1 X41.348 Y35.86 E1.82641
G1 X40.455 Y35.86 E.12014
G1 X40.455 Y49.431 E1.82641
G1 X39.562 Y49.431 E.12014
G1 X39.562 Y35.86 E1.82641
G1 X38.67 Y35.86 E.12014
G1 X38.67 Y73.179 E5.02262
G1 X37.777 Y73.179 E.12014
G1 X37.777 Y35.86 E5.02262
G1 X36.884 Y35.86 E.12014
G1 X36.884 Y73.179 E5.02262
G1 X35.992 Y73.179 E.12014
G1 X35.992 Y35.86 E5.02262
G1 X35.717 Y35.86 E.03699
G1 X35.717 Y46.038 E1.3698
G1 X35.099 Y46.038 E.08315
G1 X35.099 Y103.714 E7.76223
G1 X34.206 Y103.714 E.12014
G1 X34.206 Y46.038 E7.76223
G1 X33.314 Y46.038 E.12014
G1 X33.314 Y103.714 E7.76223
G1 X32.421 Y103.714 E.12014
G1 X32.421 Y46.038 E7.76223
G1 X32.324 Y46.038 E.01302
G1 X32.324 Y73.179 E3.65281
G1 X31.528 Y73.179 E.10712
G1 X31.528 Y130.855 E7.76223
G1 X30.635 Y130.855 E.12014
G1 X30.635 Y73.179 E7.76223
G1 X29.743 Y73.179 E.12014
G1 X29.743 Y130.855 E7.76223
G1 X28.931 Y130.855 E.10919
G1 X28.931 Y144.426 E1.8264
G1 X29.743 Y144.426 E.10919
G1 X29.743 Y151.211 E.91321
G1 X30.635 Y151.211 E.12014
G1 X30.635 Y144.426 E.91321
G1 X31.528 Y144.426 E.12014
G1 X31.528 Y151.211 E.91321
G1 X32.421 Y151.211 E.12014
G1 X32.421 Y144.426 E.91321
G1 X33.314 Y144.426 E.12014
G1 X33.314 Y151.211 E.91321
G1 X34.206 Y151.211 E.12014
G1 X34.206 Y144.426 E.91321
G1 X35.099 Y144.426 E.12014
G1 X35.099 Y151.211 E.91321
G1 X35.992 Y151.211 E.12014
G1 X35.992 Y144.426 E.91321
G1 X36.884 Y144.426 E.12014
G1 X36.884 Y151.211 E.91321
G1 X37.777 Y151.211 E.12014
G1 X37.777 Y144.426 E.91321
G1 X38.67 Y144.426 E.12014
G1 X38.67 Y151.211 E.91321
G1 X39.562 Y151.211 E.12014
G1 X39.562 Y144.426 E.91321
G1 X40.455 Y144.426 E.12014
G1 X40.455 Y151.211 E.91321
G1 X41.348 Y151.211 E.12014
G1 X41.348 Y144.426 E.91321
G1 X42.241 Y144.426 E.12014
G1 X42.241 Y151.211 E.91321
G1 X43.133 Y151.211 E.12014
G1 X43.133 Y144.426 E.91321
G1 X44.026 Y144.426 E.12014
G1 X44.026 Y151.211 E.91321
G1 X44.919 Y151.211 E.12014
G1 X44.919 Y144.426 E.91321
G1 X45.811 Y144.426 E.12014
G1 X45.811 Y151.211 E.91321
G1 X46.704 Y151.211 E.12014
G1 X46.704 Y144.426 E.91321
G1 X47.597 Y144.426 E.12014
G1 X47.597 Y151.211 E.91321
G1 X48.489 Y151.211 E.12014
G1 X48.489 Y144.426 E.91321
G1 X49.382 Y144.426 E.12014
G1 X49.382 Y151.211 E.91321
G1 X50.275 Y151.211 E.12014
G1 X50.275 Y144.426 E.91321
G1 X51.168 Y144.426 E.12014
G1 X51.168 Y151.211 E.91321
G1 X52.06 Y151.211 E.12014
G1 X52.06 Y144.426 E.91321
G1 X52.953 Y144.426 E.12014
G1 X52.953 Y151.211 E.91321
G1 X53.846 Y151.211 E.12014
G1 X53.846 Y144.426 E.91321
G1 X54.738 Y144.426 E.12014
G1 X54.738 Y151.211 E.91321
G1 X55.631 Y151.211 E.12014
G1 X55.631 Y144.426 E.91321
G1 X56.073 Y144.426 E.05948
G1 X56.073 Y127.463 E2.28301
G1 X56.524 Y127.463 E.06066
G1 X56.524 Y151.211 E3.19621
G1 X57.416 Y151.211 E.12014
G1 X57.416 Y127.463 E3.19621
G1 X58.309 Y127.463 E.12014
G1 X58.309 Y151.211 E3.19621
G1 X59.202 Y151.211 E.12014
G1 X59.202 Y127.463 E3.19621
G1 X59.466 Y127.463 E.03551
G1 X59.466 Y100.321 E3.65281
G1 X60.095 Y100.321 E.08463
G1 X60.095 Y151.211 E6.84902
G1 X60.987 Y151.211 E.12014
M73 P0 R617
G1 X60.987 Y100.321 E6.84902
G1 X61.88 Y100.321 E.12014
G1 X61.88 Y151.211 E6.84902
G1 X62.773 Y151.211 E.12014
G1 X62.773 Y100.321 E6.84902
G1 X62.858 Y100.321 E.01154
G1 X62.858 Y73.179 E3.65281
G1 X63.665 Y73.179 E.1086
G1 X63.665 Y127.463 E7.30563
G1 X64.558 Y127.463 E.12014
G1 X64.558 Y73.179 E7.30563
G1 X65.451 Y73.179 E.12014
G1 X65.451 Y127.463 E7.30563
G1 X66.251 Y127.463 E.10772
G1 X66.251 Y103.714 E3.19621
G1 X66.343 Y103.714 E.01242
G1 X66.343 Y42.645 E8.21883
G1 X67.236 Y42.645 E.12014
G1 X67.236 Y103.714 E8.21883
G1 X68.129 Y103.714 E.12014
G1 X68.129 Y42.645 E8.21883
G1 X69.022 Y42.645 E.12014
G1 X69.022 Y103.714 E8.21883
G1 X69.644 Y103.714 E.08375
G1 X69.644 Y76.572 E3.65281
G1 X69.914 Y76.572 E.03639
G1 X69.914 Y46.038 E4.10942
G1 X70.807 Y46.038 E.12014
G1 X70.807 Y76.572 E4.10942
G1 X71.7 Y76.572 E.12014
G1 X71.7 Y46.038 E4.10942
G1 X72.592 Y46.038 E.12014
G1 X72.592 Y76.572 E4.10942
G1 X73.037 Y76.572 E.05978
G1 X73.037 Y56.216 E2.73961
G1 X73.485 Y56.216 E.06036
G1 X73.485 Y46.038 E1.36981
G1 X74.378 Y46.038 E.12014
G1 X74.378 Y56.216 E1.36981
G1 X75.27 Y56.216 E.12014
G1 X75.27 Y46.038 E1.36981
G1 X76.163 Y46.038 E.12014
G1 X76.163 Y56.216 E1.36981
G1 X77.056 Y56.216 E.12014
G1 X77.056 Y49.43 E.91321
G1 X77.949 Y49.43 E.12014
G1 X77.949 Y56.216 E.91321
G1 X78.841 Y56.216 E.12014
G1 X78.841 Y49.43 E.91321
G1 X79.734 Y49.43 E.12014
G1 X79.734 Y56.216 E.91321
G1 X80.627 Y56.216 E.12014
G1 X80.627 Y49.43 E.91321
G1 X81.519 Y49.43 E.12014
G1 X81.519 Y56.216 E.91321
G1 X82.412 Y56.216 E.12014
G1 X82.412 Y49.43 E.91321
G1 X83.305 Y49.43 E.12014
G1 X83.305 Y59.609 E1.36981
G1 X84.197 Y59.609 E.12014
G1 X84.197 Y49.43 E1.36981
G1 X85.09 Y49.43 E.12014
G1 X85.09 Y59.609 E1.36981
G1 X85.983 Y59.609 E.12014
G1 X85.983 Y49.43 E1.36981
G1 X86.607 Y49.43 E.08405
G1 X86.607 Y52.823 E.4566
G1 X86.876 Y52.823 E.03609
G1 X86.876 Y59.609 E.91321
G1 X87.768 Y59.609 E.12014
G1 X87.768 Y52.823 E.91321
G1 X88.661 Y52.823 E.12014
G1 X88.661 Y59.609 E.91321
G1 X89.554 Y59.609 E.12014
G1 X89.554 Y52.823 E.91321
G1 X90.446 Y52.823 E.12014
G1 X90.446 Y59.609 E.91321
G1 X91.339 Y59.609 E.12014
G1 X91.339 Y52.823 E.91321
G1 X92.232 Y52.823 E.12014
G1 X92.232 Y59.609 E.91321
G1 X93.124 Y59.609 E.12014
G1 X93.124 Y52.823 E.91321
G1 X94.017 Y52.823 E.12014
G1 X94.017 Y63.001 E1.36981
G1 X94.91 Y63.001 E.12014
G1 X94.91 Y52.823 E1.36981
G1 X95.802 Y52.823 E.12014
G1 X95.802 Y63.001 E1.36981
G1 X96.695 Y63.001 E.12014
G1 X96.695 Y52.823 E1.36981
G1 X96.785 Y52.823 E.01214
G1 X96.785 Y56.216 E.4566
G1 X97.588 Y56.216 E.108
G1 X97.588 Y63.001 E.91321
G1 X98.481 Y63.001 E.12014
G1 X98.481 Y56.216 E.91321
G1 X99.373 Y56.216 E.12014
G1 X99.373 Y63.001 E.91321
G1 X100.178 Y63.001 E.10831
G1 X100.178 Y69.095 E.82013
G1 X100.266 Y68.39 E.09562
G1 X100.266 Y56.216 E1.63846
G1 X101.159 Y56.216 E.12014
G1 X101.159 Y61.231 E.67491
G1 X101.383 Y59.435 E.24355
G1 X102.051 Y59.036 E.10478
G1 X102.051 Y56.216 E.37958
G1 X102.944 Y56.216 E.12014
G1 X102.944 Y59.278 E.41205
G1 E-.7 F3600
;WIPE_START
G1 F6240
G1 X102.944 Y58.758 E-.285
;WIPE_END
G1 E-.015 F3600
G1 X105.622 Y59.207 F7800
G1 E1 F2400
G1 F1800
G1 X105.622 Y59.89 E.092
G1 X106.515 Y60.238 E.12895
G1 X106.515 Y59.609 E.08477
G1 X107.408 Y59.609 E.12014
G1 X107.408 Y60.586 E.13161
G1 X108.3 Y60.935 E.12895
G1 X108.3 Y59.609 E.17845
G1 X109.193 Y59.609 E.12014
G1 X109.193 Y61.283 E.22529
G1 X110.086 Y61.631 E.12895
G1 X110.086 Y59.609 E.27213
G1 X110.978 Y59.609 E.12014
G1 X110.978 Y61.979 E.31897
G1 X111.871 Y62.327 E.12895
G1 X111.871 Y59.609 E.36581
G1 X112.764 Y59.609 E.12014
G1 X112.764 Y62.675 E.41265
G1 X113.656 Y63.023 E.12895
G1 X113.656 Y59.609 E.45948
G1 X113.749 Y59.609 E.01244
G1 X113.749 Y63.001 E.4566
G1 X114.549 Y63.001 E.1077
G1 X114.549 Y63.371 E.04972
G1 X115.442 Y63.719 E.12895
G1 X115.442 Y63.001 E.09656
G1 X116.335 Y63.001 E.12014
G1 X116.335 Y64.067 E.1434
G1 X117.227 Y64.415 E.12895
G1 X117.227 Y63.001 E.19024
G1 X118.12 Y63.001 E.12014
G1 X118.12 Y64.763 E.23708
G1 X119.013 Y65.111 E.12895
G1 X119.013 Y63.001 E.28392
G1 X119.905 Y63.001 E.12014
G1 X119.905 Y65.89 E.38878
G1 E-.7 F3600
;WIPE_START
G1 F6240
G1 X119.905 Y65.37 E-.285
;WIPE_END
G1 E-.015 F3600
G1 X122.583 Y66.934 F7800
G1 E1 F2400
G1 F1800
G1 X122.583 Y66.394 E.0727
G1 X123.476 Y66.394 E.12014
G1 X123.476 Y66.851 E.06151
G1 X124.369 Y67.199 E.12895
G1 X124.369 Y66.394 E.10835
G1 X125.262 Y66.394 E.12014
G1 X125.262 Y67.547 E.15519
G1 X126.154 Y67.895 E.12895
G1 X126.154 Y66.394 E.20203
G1 X127.047 Y66.394 E.12014
G1 X127.047 Y68.243 E.24887
G1 X127.94 Y68.591 E.12895
G1 X127.94 Y66.394 E.2957
G1 X128.832 Y66.394 E.12014
G1 X128.832 Y68.939 E.34254
G1 X129.725 Y69.287 E.12895
G1 X129.725 Y66.394 E.38938
G1 X130.618 Y66.394 E.12014
G1 X130.618 Y70.066 E.49425
G1 X131.51 Y69.385 F7800
G1 F1800
