; generated by PrusaSlicer 2.5.0+win64 on 2022-12-07 at 00:04:35 UTC

; 

; external perimeters extrusion width = 1.00mm
; perimeters extrusion width = 1.00mm
; infill extrusion width = 1.00mm
; solid infill extrusion width = 1.00mm
; top infill extrusion width = 1.00mm
; support material extrusion width = 1.00mm
; first layer extrusion width = 0.42mm

M73 P0 R432
M107
;TYPE:Custom
G90 ; use absolute coordinates
M83 ; extruder relative mode
M140 S60 ; set final bed temp
M104 S150 ; set temporary nozzle temp to prevent oozing during homing and auto bed leveling
G4 S10 ; allow partial nozzle warmup
G28 ; home all axisG1 Z50 F240
G1 X7.6 Y10 F3000
M104 S210 ; set final nozzle temp
M190 S60 ; wait for bed temp to stabilize
M109 S210 ; wait for nozzle temp to stabilize
G1 Z0.28 F240
G92 E0
G1 Y140 E10 F1500 ; prime the nozzle
G1 X4 F5000
G92 E0
G1 Y10 E10 F1200 ; prime the nozzle
G92 E0
G21 ; set units to millimeters
G90 ; use absolute coordinates
M83 ; use relative distances for extrusion
; Filament gcode
M107
;LAYER_CHANGE
;Z:0.35
;HEIGHT:0.35
;BEFORE_LAYER_CHANGE
G92 E0
;0.35


G1 E-1 F3600
G1 Z.35 F7800
;AFTER_LAYER_CHANGE
;0.35
M73 P0 R431
G1 X41.453 Y14.704
G1 E1 F2400
;TYPE:Support material
;WIDTH:0.42
G1 F1800
G1 X38.453 Y14.704 E.15056
G1 X38.453 Y25.382 E.53589
G1 X21.99 Y25.382 E.82624
G1 X21.99 Y140.234 E5.76394
G1 X21.49 Y140.234 E.02509
G1 X21.49 Y165.296 E1.25775
G1 X24.49 Y165.296 E.15056
G1 X24.49 Y167.876 E.12947
G1 X8.732 Y167.876 E.79082
G1 X8.732 Y12.124 E7.81652
G1 X41.453 Y12.124 E1.64215
G1 X41.453 Y14.652 E.12687
G1 X40.949 Y14.549 F7800
G1 F1800
G1 X40.949 Y12.435 E.1061
G1 X40.566 Y12.435 E.01923
G1 X40.566 Y14.394 E.09831
G1 X40.183 Y14.394 E.01923
G1 X40.183 Y12.435 E.09831
G1 X39.799 Y12.435 E.01923
G1 X39.799 Y14.394 E.09831
G1 X39.416 Y14.394 E.01923
G1 X39.416 Y12.435 E.09831
G1 X39.033 Y12.435 E.01923
G1 X39.033 Y14.394 E.09831
G1 X38.65 Y14.394 E.01923
G1 X38.65 Y12.435 E.09831
G1 X38.267 Y12.435 E.01923
G1 X38.267 Y14.394 E.09831
G1 X38.143 Y14.394 E.00622
G1 X38.143 Y25.072 E.53589
G1 X37.883 Y25.072 E.01301
G1 X37.883 Y12.435 E.6342
G1 X37.5 Y12.435 E.01923
G1 X37.5 Y25.072 E.6342
G1 X37.117 Y25.072 E.01923
G1 X37.117 Y12.435 E.6342
G1 X36.734 Y12.435 E.01923
G1 X36.734 Y25.072 E.6342
G1 X36.351 Y25.072 E.01923
G1 X36.351 Y12.435 E.6342
G1 X35.967 Y12.435 E.01923
G1 X35.967 Y25.072 E.6342
G1 X35.584 Y25.072 E.01923
G1 X35.584 Y12.435 E.6342
G1 X35.201 Y12.435 E.01923
G1 X35.201 Y25.072 E.6342
G1 X34.818 Y25.072 E.01923
G1 X34.818 Y12.435 E.6342
G1 X34.435 Y12.435 E.01923
G1 X34.435 Y25.072 E.6342
G1 X34.051 Y25.072 E.01923
G1 X34.051 Y12.435 E.6342
G1 X33.668 Y12.435 E.01923
G1 X33.668 Y25.072 E.6342
G1 X33.285 Y25.072 E.01923
G1 X33.285 Y12.435 E.6342
G1 X32.902 Y12.435 E.01923
G1 X32.902 Y25.072 E.6342
G1 X32.519 Y25.072 E.01923
G1 X32.519 Y12.435 E.6342
G1 X32.135 Y12.435 E.01923
G1 X32.135 Y25.072 E.6342
G1 X31.752 Y25.072 E.01923
G1 X31.752 Y12.435 E.6342
G1 X31.369 Y12.435 E.01923
G1 X31.369 Y25.072 E.6342
G1 X30.986 Y25.072 E.01923
G1 X30.986 Y12.435 E.6342
G1 X30.602 Y12.435 E.01923
G1 X30.602 Y25.072 E.6342
G1 X30.219 Y25.072 E.01923
G1 X30.219 Y12.435 E.6342
G1 X29.836 Y12.435 E.01923
G1 X29.836 Y25.072 E.6342
G1 X29.453 Y25.072 E.01923
G1 X29.453 Y12.435 E.6342
G1 X29.07 Y12.435 E.01923
G1 X29.07 Y25.072 E.6342
G1 X28.686 Y25.072 E.01923
G1 X28.686 Y12.435 E.6342
G1 X28.303 Y12.435 E.01923
G1 X28.303 Y25.072 E.6342
G1 X27.92 Y25.072 E.01923
G1 X27.92 Y12.435 E.6342
G1 X27.537 Y12.435 E.01923
G1 X27.537 Y25.072 E.6342
G1 X27.154 Y25.072 E.01923
G1 X27.154 Y12.435 E.6342
G1 X26.77 Y12.435 E.01923
G1 X26.77 Y25.072 E.6342
G1 X26.387 Y25.072 E.01923
G1 X26.387 Y12.435 E.6342
G1 X26.004 Y12.435 E.01923
G1 X26.004 Y25.072 E.6342
G1 X25.621 Y25.072 E.01923
G1 X25.621 Y12.435 E.6342
G1 X25.238 Y12.435 E.01923
G1 X25.238 Y25.072 E.6342
G1 X24.854 Y25.072 E.01923
G1 X24.854 Y12.435 E.6342
G1 X24.471 Y12.435 E.01923
G1 X24.471 Y25.072 E.6342
G1 X24.088 Y25.072 E.01923
G1 X24.088 Y12.435 E.6342
G1 X23.705 Y12.435 E.01923
G1 X23.705 Y25.072 E.6342
G1 X23.321 Y25.072 E.01923
G1 X23.321 Y12.435 E.6342
G1 X22.938 Y12.435 E.01923
G1 X22.938 Y25.072 E.6342
G1 X22.555 Y25.072 E.01923
G1 X22.555 Y12.435 E.6342
G1 X22.172 Y12.435 E.01923
G1 X22.172 Y25.072 E.6342
G1 X21.789 Y25.072 E.01923
G1 X21.789 Y12.435 E.6342
G1 X21.405 Y12.435 E.01923
G1 X21.405 Y139.924 E6.39815
G1 X21.179 Y139.924 E.01135
G1 X21.179 Y165.606 E1.2889
G1 X21.405 Y165.606 E.01135
G1 X21.405 Y167.565 E.09831
G1 X21.789 Y167.565 E.01923
G1 X21.789 Y165.606 E.09831
G1 X22.172 Y165.606 E.01923
G1 X22.172 Y167.565 E.09831
G1 X22.555 Y167.565 E.01923
G1 X22.555 Y165.606 E.09831
G1 X22.938 Y165.606 E.01923
G1 X22.938 Y167.565 E.09831
G1 X23.321 Y167.565 E.01923
G1 X23.321 Y165.606 E.09831
G1 X23.705 Y165.606 E.01923
G1 X23.705 Y167.565 E.09831
G1 X24.088 Y167.565 E.01923
G1 X24.088 Y165.451 E.1061
G1 X21.022 Y167.72 F7800
G1 F1800
G1 X21.022 Y12.435 E7.79315
G1 X20.639 Y12.435 E.01923
G1 X20.639 Y167.565 E7.78536
G1 X20.256 Y167.565 E.01923
G1 X20.256 Y12.435 E7.78536
G1 X19.873 Y12.435 E.01923
G1 X19.873 Y167.565 E7.78536
G1 X19.489 Y167.565 E.01923
M73 P0 R430
G1 X19.489 Y12.435 E7.78536
G1 X19.106 Y12.435 E.01923
G1 X19.106 Y167.565 E7.78536
G1 X18.723 Y167.565 E.01923
G1 X18.723 Y12.435 E7.78536
G1 X18.34 Y12.435 E.01923
G1 X18.34 Y167.565 E7.78536
G1 X17.957 Y167.565 E.01923
G1 X17.957 Y12.435 E7.78536
G1 X17.573 Y12.435 E.01923
G1 X17.573 Y167.565 E7.78536
G1 X17.19 Y167.565 E.01923
G1 X17.19 Y12.435 E7.78536
G1 X16.807 Y12.435 E.01923
G1 X16.807 Y167.565 E7.78536
G1 X16.424 Y167.565 E.01923
G1 X16.424 Y12.435 E7.78536
G1 X16.04 Y12.435 E.01923
G1 X16.04 Y167.565 E7.78536
G1 X15.657 Y167.565 E.01923
G1 X15.657 Y12.435 E7.78536
G1 X15.274 Y12.435 E.01923
M73 P0 R429
G1 X15.274 Y167.565 E7.78536
G1 X14.891 Y167.565 E.01923
G1 X14.891 Y12.435 E7.78536
G1 X14.508 Y12.435 E.01923
G1 X14.508 Y167.565 E7.78536
G1 X14.124 Y167.565 E.01923
G1 X14.124 Y12.435 E7.78536
G1 X13.741 Y12.435 E.01923
G1 X13.741 Y167.565 E7.78536
G1 X13.358 Y167.565 E.01923
G1 X13.358 Y12.435 E7.78536
G1 X12.975 Y12.435 E.01923
G1 X12.975 Y167.565 E7.78536
G1 X12.592 Y167.565 E.01923
G1 X12.592 Y12.435 E7.78536
G1 X12.208 Y12.435 E.01923
G1 X12.208 Y167.565 E7.78536
G1 X11.825 Y167.565 E.01923
G1 X11.825 Y12.435 E7.78536
G1 X11.442 Y12.435 E.01923
G1 X11.442 Y167.565 E7.78536
G1 X11.059 Y167.565 E.01923
G1 X11.059 Y12.435 E7.78536
G1 X10.676 Y12.435 E.01923
M73 P0 R428
G1 X10.676 Y167.565 E7.78536
G1 X10.292 Y167.565 E.01923
G1 X10.292 Y12.435 E7.78536
G1 X9.909 Y12.435 E.01923
G1 X9.909 Y167.565 E7.78536
G1 X9.526 Y167.565 E.01923
G1 X9.526 Y12.435 E7.78536
G1 X9.143 Y12.435 E.01923
G1 X9.143 Y167.72 E7.79315
G1 E-.7 F3600
;WIPE_START
G1 F6240
G1 X9.143 Y167.2 E-.285
;WIPE_END
G1 E-.015 F3600
G1 X22.601 Y165.041 F7800
G1 E1 F2400
;TYPE:Support material interface
;WIDTH:1
G1 F1800
G1 X22.601 Y140.89 E3.25028
G1 X23.494 Y140.89 E.12014
G1 X23.494 Y164.639 E3.19621
G1 X24.387 Y164.639 E.12014
G1 X24.387 Y140.89 E3.19621
G1 X25.279 Y140.89 E.12014
G1 X25.279 Y164.639 E3.19621
G1 X26.172 Y164.639 E.12014
G1 X26.172 Y113.749 E6.84902
G1 X27.065 Y113.749 E.12014
G1 X27.065 Y164.639 E6.84902
G1 X27.957 Y164.639 E.12014
G1 X27.957 Y113.749 E6.84902
G1 X28.85 Y113.749 E.12014
G1 X28.85 Y165.041 E6.90309
G1 E-.7 F3600
;WIPE_START
G1 F6240
G1 X28.85 Y164.521 E-.285
;WIPE_END
G1 E-.015 F3600
G1 X63.665 Y165.041 F7800
G1 E1 F2400
G1 F1800
G1 X63.665 Y157.854 E.96727
G1 X64.558 Y157.854 E.12014
G1 X64.558 Y164.639 E.91321
G1 X65.451 Y164.639 E.12014
G1 X65.451 Y157.854 E.91321
G1 X66.343 Y157.854 E.12014
G1 X66.343 Y164.639 E.91321
G1 X67.236 Y164.639 E.12014
G1 X67.236 Y157.854 E.91321
G1 X68.129 Y157.854 E.12014
G1 X68.129 Y164.639 E.91321
G1 X69.022 Y164.639 E.12014
G1 X69.022 Y157.854 E.91321
G1 X69.914 Y157.854 E.12014
G1 X69.914 Y164.639 E.91321
G1 X70.807 Y164.639 E.12014
G1 X70.807 Y157.854 E.91321
G1 X71.7 Y157.854 E.12014
G1 X71.7 Y164.639 E.91321
G1 X72.592 Y164.639 E.12014
G1 X72.592 Y157.854 E.91321
G1 X73.485 Y157.854 E.12014
G1 X73.485 Y164.639 E.91321
G1 X74.378 Y164.639 E.12014
G1 X74.378 Y157.854 E.91321
G1 X75.27 Y157.854 E.12014
G1 X75.27 Y164.639 E.91321
G1 X76.163 Y164.639 E.12014
G1 X76.163 Y157.854 E.91321
G1 X77.056 Y157.854 E.12014
G1 X77.056 Y164.639 E.91321
G1 X77.949 Y164.639 E.12014
G1 X77.949 Y157.854 E.91321
G1 X78.841 Y157.854 E.12014
G1 X78.841 Y164.639 E.91321
G1 X79.734 Y164.639 E.12014
G1 X79.734 Y157.854 E.91321
G1 X80.627 Y157.854 E.12014
G1 X80.627 Y164.639 E.91321
G1 X81.519 Y164.639 E.12014
G1 X81.519 Y157.854 E.91321
G1 X82.412 Y157.854 E.12014
G1 X82.412 Y164.639 E.91321
G1 X83.305 Y164.639 E.12014
G1 X83.305 Y157.854 E.91321
G1 X84.197 Y157.854 E.12014
G1 X84.197 Y164.639 E.91321
G1 X85.09 Y164.639 E.12014
G1 X85.09 Y157.854 E.91321
G1 X85.983 Y157.854 E.12014
G1 X85.983 Y164.639 E.91321
G1 X86.875 Y164.639 E.12014
G1 X86.875 Y157.854 E.91321
G1 X87.768 Y157.854 E.12014
G1 X87.768 Y164.639 E.91321
G1 X88.661 Y164.639 E.12014
G1 X88.661 Y157.854 E.91321
G1 X89.554 Y157.854 E.12014
G1 X89.554 Y164.639 E.91321
G1 X90.446 Y164.639 E.12014
G1 X90.446 Y164.025 E.08274
G1 X90.602 Y164.201 E.03169
G1 X91.339 Y164.201 E.0992
G1 X91.339 Y164.639 E.05895
G1 X92.232 Y164.639 E.12014
G1 X92.232 Y164.201 E.05895
G1 X93.124 Y164.201 E.12014
G1 X93.124 Y164.639 E.05895
G1 X94.017 Y164.639 E.12014
G1 X94.017 Y164.201 E.05895
G1 X94.91 Y164.201 E.12014
G1 X94.91 Y164.639 E.05895
G1 X95.802 Y164.639 E.12014
G1 X95.802 Y164.201 E.05895
G1 X96.695 Y164.201 E.12014
G1 X96.695 Y164.639 E.05895
G1 X97.588 Y164.639 E.12014
G1 X97.588 Y164.201 E.05895
G1 X98.481 Y164.201 E.12014
G1 X98.481 Y164.639 E.05895
G1 X99.373 Y164.639 E.12014
G1 X99.373 Y164.201 E.05895
G1 X100.266 Y164.201 E.12014
G1 X100.266 Y164.639 E.05895
G1 X101.159 Y164.639 E.12014
G1 X101.159 Y164.201 E.05895
G1 X102.051 Y164.201 E.12014
G1 X102.051 Y164.639 E.05895
G1 X102.944 Y164.639 E.12014
G1 X102.944 Y164.201 E.05895
G1 X103.837 Y164.201 E.12014
G1 X103.837 Y164.639 E.05895
G1 X104.729 Y164.639 E.12014
G1 X104.729 Y164.201 E.05895
G1 X105.622 Y164.201 E.12014
G1 X105.622 Y164.639 E.05895
G1 X106.515 Y164.639 E.12014
G1 X106.515 Y164.201 E.05895
G1 X107.408 Y164.201 E.12014
G1 X107.408 Y164.639 E.05895
G1 X108.3 Y164.639 E.12014
G1 X108.3 Y164.201 E.05895
G1 X109.193 Y164.201 E.12014
G1 X109.193 Y164.639 E.05895
G1 X110.086 Y164.639 E.12014
G1 X110.086 Y164.201 E.05895
G1 X110.978 Y164.201 E.12014
G1 X110.978 Y164.639 E.05895
G1 X111.871 Y164.639 E.12014
G1 X111.871 Y164.201 E.05895
G1 X112.764 Y164.201 E.12014
G1 X112.764 Y164.639 E.05895
G1 X113.656 Y164.639 E.12014
G1 X113.656 Y164.201 E.05895
G1 X114.549 Y164.201 E.12014
G1 X114.549 Y164.639 E.05895
G1 X115.442 Y164.639 E.12014
G1 X115.442 Y164.201 E.05895
G1 X116.335 Y164.201 E.12014
G1 X116.335 Y164.639 E.05895
G1 X117.227 Y164.639 E.12014
G1 X117.227 Y164.201 E.05895
G1 X118.12 Y164.201 E.12014
G1 X118.12 Y164.639 E.05895
G1 X119.013 Y164.639 E.12014
G1 X119.013 Y164.201 E.05895
G1 X119.905 Y164.201 E.12014
G1 X119.905 Y164.639 E.05895
G1 X120.798 Y164.639 E.12014
G1 X120.798 Y164.201 E.05895
G1 X121.691 Y164.201 E.12014
G1 X121.691 Y164.639 E.05895
G1 X122.583 Y164.639 E.12014
G1 X122.583 Y164.201 E.05895
G1 X123.476 Y164.201 E.12014
G1 X123.476 Y164.639 E.05895
G1 X124.369 Y164.639 E.12014
G1 X124.369 Y164.201 E.05895
G1 X124.931 Y164.201 E.07559
G1 X125.262 Y164.201 E.04455
G1 X125.262 Y164.639 E.05895
G1 X126.154 Y164.639 E.12014
G1 X126.154 Y164.201 E.05895
G1 X127.047 Y164.201 E.12014
G1 X127.047 Y165.041 E.11302
G1 E-.7 F3600
;WIPE_START
G1 F6240
G1 X127.047 Y164.521 E-.285
;WIPE_END
G1 E-.015 F3600
G1 X92.232 Y146.889 F7800
G1 E1 F2400
G1 F1800
G1 X92.232 Y140.89 E.80732
G1 X91.339 Y140.89 E.12014
G1 X91.339 Y150.702 E1.32052
G1 X90.446 Y157.682 E.947
G1 X90.446 Y140.489 E2.31394
G1 E-.7 F3600
;WIPE_START
G1 F6240
G1 X90.446 Y141.009 E-.285
;WIPE_END
G1 E-.015 F3600
G1 X95.802 Y119.145 F7800
G1 E1 F2400
G1 F1800
G1 X95.802 Y113.749 E.72619
G1 X94.91 Y113.749 E.12014
G1 X94.91 Y122.784 E1.21593
G1 X94.017 Y129.763 E.947
G1 X94.017 Y113.347 E2.20934
G1 E-.7 F3600
;WIPE_START
G1 F6240
G1 X94.017 Y113.867 E-.285
;WIPE_END
G1 E-.015 F3600
G1 X99.373 Y91.176 F7800
G1 E1 F2400
G1 F1800
G1 X99.373 Y86.607 E.6149
G1 X98.481 Y86.607 E.12014
M73 P0 R427
G1 X98.481 Y95.039 E1.13475
G1 X97.588 Y102.108 E.95892
G1 X97.588 Y86.206 E2.14017
G1 E-.7 F3600
;WIPE_START
G1 F6240
G1 X97.588 Y86.726 E-.285
;WIPE_END
G1 E-.015 F3600
G1 X100.266 Y84.107 F7800
G1 E1 F2400
G1 F1800
G1 X100.266 Y59.466 E3.31634
G1 X101.159 Y59.466 E.12014
G1 X101.159 Y73.832 E1.93347
G1 X102.051 Y66.763 E.95892
G1 X102.051 Y59.466 E.9821
G1 X102.944 Y59.466 E.12014
G1 X102.944 Y62.9 E.46225
G1 E-.7 F3600
;WIPE_START
G1 F6240
G1 X102.944 Y62.38 E-.285
;WIPE_END
G1 E-.015 F3600
G1 X105.622 Y41.694 F7800
G1 E1 F2400
G1 F1800
G1 X105.622 Y32.324 E1.26097
G1 X104.729 Y32.324 E.12014
G1 X104.729 Y45.556 E1.78082
G1 X103.837 Y52.625 E.95892
G1 X103.837 Y31.922 E2.78625
G1 E-.7 F3600
;WIPE_START
G1 F6240
G1 X103.837 Y32.442 E-.285
;WIPE_END
G1 E-.015 F3600
G1 X72.592 Y14.959 F7800
G1 E1 F2400
G1 F1800
G1 X72.592 Y22.146 E.96727
G1 X71.7 Y22.146 E.12014
M73 P1 R427
G1 X71.7 Y15.361 E.91321
G1 X70.807 Y15.361 E.12014
G1 X70.807 Y22.146 E.91321
G1 X69.914 Y22.146 E.12014
G1 X69.914 Y15.361 E.91321
G1 X69.022 Y15.361 E.12014
G1 X69.022 Y22.146 E.91321
G1 X68.129 Y22.146 E.12014
G1 X68.129 Y15.361 E.91321
G1 X67.236 Y15.361 E.12014
G1 X67.236 Y22.146 E.91321
G1 X66.343 Y22.146 E.12014
G1 X66.343 Y15.361 E.91321
G1 X65.451 Y15.361 E.12014
G1 X65.451 Y22.146 E.91321
G1 X64.558 Y22.146 E.12014
G1 X64.558 Y15.361 E.91321
G1 X63.665 Y15.361 E.12014
G1 X63.665 Y22.146 E.91321
G1 X62.773 Y22.146 E.12014
G1 X62.773 Y15.361 E.91321
G1 X61.88 Y15.361 E.12014
G1 X61.88 Y22.146 E.91321
G1 X60.987 Y22.146 E.12014
G1 X60.987 Y15.361 E.91321
G1 X60.095 Y15.361 E.12014
G1 X60.095 Y22.146 E.91321
G1 X59.202 Y22.146 E.12014
G1 X59.202 Y15.361 E.91321
G1 X58.309 Y15.361 E.12014
G1 X58.309 Y22.146 E.91321
G1 X57.416 Y22.146 E.12014
G1 X57.416 Y15.361 E.91321
G1 X56.524 Y15.361 E.12014
G1 X56.524 Y22.146 E.91321
G1 X55.631 Y22.146 E.12014
G1 X55.631 Y15.361 E.91321
G1 X54.738 Y15.361 E.12014
G1 X54.738 Y22.146 E.91321
G1 X53.846 Y22.146 E.12014
G1 X53.846 Y15.361 E.91321
G1 X52.953 Y15.361 E.12014
G1 X52.953 Y22.146 E.91321
G1 X52.06 Y22.146 E.12014
G1 X52.06 Y15.361 E.91321
G1 X51.168 Y15.361 E.12014
G1 X51.168 Y22.146 E.91321
G1 X50.275 Y22.146 E.12014
G1 X50.275 Y15.361 E.91321
G1 X49.382 Y15.361 E.12014
G1 X49.382 Y22.146 E.91321
G1 X48.489 Y22.146 E.12014
G1 X48.489 Y15.361 E.91321
G1 X47.597 Y15.361 E.12014
G1 X47.597 Y22.146 E.91321
G1 X46.704 Y22.146 E.12014
G1 X46.704 Y15.361 E.91321
G1 X45.811 Y15.361 E.12014
G1 X45.811 Y32.324 E2.28301
G1 X44.919 Y32.324 E.12014
G1 X44.919 Y15.361 E2.28301
G1 X44.026 Y15.361 E.12014
G1 X44.026 Y32.324 E2.28301
G1 X43.133 Y32.324 E.12014
G1 X43.133 Y15.361 E2.28301
G1 X42.241 Y15.361 E.12014
G1 X42.241 Y59.466 E5.93582
G1 X41.348 Y59.466 E.12014
G1 X41.348 Y15.361 E5.93582
G1 X40.455 Y15.361 E.12014
G1 X40.455 Y59.466 E5.93582
G1 X39.562 Y59.466 E.12014
G1 X39.562 Y15.361 E5.93582
G1 X39.109 Y15.361 E.06096
G1 X39.11 Y32.324 E2.28301
G1 X38.67 Y32.324 E.05918
G1 X38.67 Y86.607 E7.30563
G1 X37.777 Y86.607 E.12014
G1 X37.777 Y32.324 E7.30563
G1 X36.884 Y32.324 E.12014
G1 X36.884 Y86.607 E7.30563
G1 X35.992 Y86.607 E.12014
G1 X35.992 Y32.324 E7.30563
G1 X35.717 Y32.324 E.03699
G1 X35.717 Y59.466 E3.65281
G1 X35.099 Y59.466 E.08315
G1 X35.099 Y113.749 E7.30563
G1 X34.206 Y113.749 E.12014
G1 X34.206 Y59.466 E7.30563
G1 X33.314 Y59.466 E.12014
G1 X33.314 Y113.749 E7.30563
G1 X32.421 Y113.749 E.12014
G1 X32.421 Y59.466 E7.30563
G1 X32.324 Y59.466 E.01302
G1 X32.324 Y86.607 E3.65281
G1 X31.528 Y86.607 E.10712
G1 X31.528 Y140.89 E7.30563
G1 X30.635 Y140.89 E.12014
G1 X30.635 Y86.607 E7.30563
G1 X29.743 Y86.607 E.12014
G1 X29.743 Y140.89 E7.30563
G1 X28.931 Y140.89 E.10919
G1 X28.931 Y157.854 E2.283
G1 X29.743 Y157.854 E.10919
