; generated by PrusaSlicer 2.5.0+win64 on 2022-12-07 at 00:04:33 UTC

; 

; external perimeters extrusion width = 1.00mm
; perimeters extrusion width = 1.00mm
; infill extrusion width = 1.00mm
; solid infill extrusion width = 1.00mm
; top infill extrusion width = 1.00mm
; support material extrusion width = 1.00mm
; first layer extrusion width = 0.42mm

M73 P0 R263
M107
;TYPE:Custom
G90 ; use absolute coordinates
M83 ; extruder relative mode
M140 S60 ; set final bed temp
M104 S150 ; set temporary nozzle temp to prevent oozing during homing and auto bed leveling
G4 S10 ; allow partial nozzle warmup
G28 ; home all axisG1 Z50 F240
G1 X7.6 Y10 F3000
M104 S210 ; set final nozzle temp
M190 S60 ; wait for bed temp to stabilize
M109 S210 ; wait for nozzle temp to stabilize
G1 Z0.28 F240
G92 E0
G1 Y140 E10 F1500 ; prime the nozzle
G1 X4 F5000
G92 E0
G1 Y10 E10 F1200 ; prime the nozzle
G92 E0
G21 ; set units to millimeters
G90 ; use absolute coordinates
M83 ; use relative distances for extrusion
; Filament gcode
M107
;LAYER_CHANGE
;Z:0.35
;HEIGHT:0.35
;BEFORE_LAYER_CHANGE
G92 E0
;0.35


G1 E-1 F3600
G1 Z.35 F7800
;AFTER_LAYER_CHANGE
;0.35
G1 X21.99 Y69.807
G1 E1 F2400
;TYPE:Support material
;WIDTH:0.42
G1 F1800
G1 X28.775 Y69.807 E.34053
G1 X28.775 Y73.2 E.17027
G1 X32.168 Y73.2 E.17027
G1 X32.168 Y76.593 E.17027
G1 X34.668 Y76.593 E.12546
G1 X34.668 Y79.173 E.12947
G1 X31.668 Y79.173 E.15056
G1 X31.668 Y85.958 E.34053
G1 X28.275 Y85.958 E.17027
G1 X28.275 Y89.851 E.19536
G1 X21.99 Y89.851 E.31544
G1 X21.99 Y127.483 E1.88863
G1 X24.882 Y127.483 E.14517
G1 X24.882 Y138.161 E.53589
G1 X27.882 Y138.161 E.15056
G1 X27.882 Y140.741 E.12947
G1 X8.732 Y140.741 E.96109
G1 X8.732 Y66.415 E3.73014
G1 X21.99 Y66.415 E.66536
G1 X21.99 Y69.756 E.16767
G1 X34.051 Y79.017 F7800
G1 F1800
G1 X34.051 Y76.903 E.1061
G1 X33.668 Y76.903 E.01923
G1 X33.668 Y78.862 E.09831
G1 X33.285 Y78.862 E.01923
G1 X33.285 Y76.903 E.09831
G1 X32.902 Y76.903 E.01923
G1 X32.902 Y78.862 E.09831
G1 X32.519 Y78.862 E.01923
G1 X32.519 Y76.903 E.09831
G1 X32.135 Y76.903 E.01923
G1 X32.135 Y78.862 E.09831
G1 X31.752 Y78.862 E.01923
G1 X31.752 Y73.51 E.26858
G1 X31.369 Y73.51 E.01923
G1 X31.357 Y85.647 E.60911
G1 X30.986 Y85.647 E.01865
G1 X30.986 Y73.51 E.60911
G1 X30.602 Y73.51 E.01923
G1 X30.602 Y85.647 E.60911
G1 X30.219 Y85.647 E.01923
G1 X30.219 Y73.51 E.60911
G1 X29.836 Y73.51 E.01923
G1 X29.836 Y85.647 E.60911
G1 X29.453 Y85.647 E.01923
G1 X29.453 Y73.51 E.60911
G1 X29.07 Y73.51 E.01923
G1 X29.07 Y85.647 E.60911
G1 X28.686 Y85.647 E.01923
G1 X28.686 Y73.51 E.60911
G1 X28.465 Y73.51 E.01113
G1 X28.465 Y70.118 E.17027
G1 X28.303 Y70.118 E.0081
G1 X28.303 Y85.647 E.77938
G1 X27.965 Y85.647 E.01699
G1 X27.965 Y89.54 E.19536
G1 X27.92 Y89.54 E.00224
G1 X27.92 Y70.118 E.97474
G1 X27.537 Y70.118 E.01923
G1 X27.537 Y89.54 E.97474
G1 X27.154 Y89.54 E.01923
G1 X27.154 Y70.118 E.97474
G1 X26.77 Y70.118 E.01923
G1 X26.77 Y89.54 E.97474
G1 X26.387 Y89.54 E.01923
G1 X26.387 Y70.118 E.97474
G1 X26.004 Y70.118 E.01923
G1 X26.004 Y89.54 E.97474
G1 X25.621 Y89.54 E.01923
G1 X25.621 Y70.118 E.97474
G1 X25.238 Y70.118 E.01923
G1 X25.238 Y89.54 E.97474
G1 X24.854 Y89.54 E.01923
G1 X24.854 Y70.118 E.97474
G1 X24.471 Y70.118 E.01923
G1 X24.471 Y89.54 E.97474
G1 X24.088 Y89.54 E.01923
G1 X24.088 Y70.118 E.97474
G1 X23.705 Y70.118 E.01923
G1 X23.705 Y89.54 E.97474
G1 X23.321 Y89.54 E.01923
G1 X23.321 Y70.118 E.97474
G1 X22.938 Y70.118 E.01923
G1 X22.938 Y89.54 E.97474
G1 X22.555 Y89.54 E.01923
G1 X22.555 Y70.118 E.97474
G1 X22.172 Y70.118 E.01923
G1 X22.172 Y89.695 E.98253
G1 E-.7 F3600
;WIPE_START
G1 F6240
G1 X22.172 Y89.175 E-.285
;WIPE_END
G1 E-.015 F3600
G1 X27.537 Y140.586 F7800
G1 E1 F2400
G1 F1800
G1 X27.537 Y138.472 E.1061
G1 X27.154 Y138.472 E.01923
G1 X27.154 Y140.431 E.09831
G1 X26.77 Y140.431 E.01923
G1 X26.77 Y138.472 E.09831
G1 X26.387 Y138.472 E.01923
G1 X26.387 Y140.431 E.09831
G1 X26.004 Y140.431 E.01923
G1 X26.004 Y138.472 E.09831
G1 X25.621 Y138.472 E.01923
G1 X25.621 Y140.431 E.09831
G1 X25.238 Y140.431 E.01923
G1 X25.238 Y138.472 E.09831
G1 X24.854 Y138.472 E.01923
G1 X24.854 Y140.431 E.09831
G1 X24.471 Y140.431 E.01923
G1 X24.471 Y127.794 E.6342
G1 X24.088 Y127.794 E.01923
G1 X24.088 Y140.431 E.6342
G1 X23.705 Y140.431 E.01923
G1 X23.705 Y127.794 E.6342
G1 X23.321 Y127.794 E.01923
G1 X23.321 Y140.431 E.6342
G1 X22.938 Y140.431 E.01923
G1 X22.938 Y127.794 E.6342
G1 X22.555 Y127.794 E.01923
G1 X22.555 Y140.431 E.6342
G1 X22.172 Y140.431 E.01923
G1 X22.172 Y127.638 E.64199
G1 X21.789 Y140.586 F7800
M73 P0 R262
G1 F1800
G1 X21.789 Y70.118 E3.53651
G1 X21.679 Y70.118 E.00549
G1 X21.679 Y66.725 E.17027
G1 X21.405 Y66.725 E.01374
G1 X21.405 Y140.431 E3.69899
G1 X21.022 Y140.431 E.01923
G1 X21.022 Y66.725 E3.69899
G1 X20.639 Y66.725 E.01923
G1 X20.639 Y140.431 E3.69899
G1 X20.256 Y140.431 E.01923
G1 X20.256 Y66.725 E3.69899
G1 X19.873 Y66.725 E.01923
G1 X19.873 Y140.431 E3.69899
G1 X19.489 Y140.431 E.01923
G1 X19.489 Y66.725 E3.69899
G1 X19.106 Y66.725 E.01923
G1 X19.106 Y140.431 E3.69899
G1 X18.723 Y140.431 E.01923
G1 X18.723 Y66.725 E3.69899
G1 X18.34 Y66.725 E.01923
G1 X18.34 Y140.431 E3.69899
G1 X17.957 Y140.431 E.01923
G1 X17.957 Y66.725 E3.69899
G1 X17.573 Y66.725 E.01923
G1 X17.573 Y140.431 E3.69899
G1 X17.19 Y140.431 E.01923
G1 X17.19 Y66.725 E3.69899
G1 X16.807 Y66.725 E.01923
G1 X16.807 Y140.431 E3.69899
G1 X16.424 Y140.431 E.01923
G1 X16.424 Y66.725 E3.69899
G1 X16.04 Y66.725 E.01923
G1 X16.04 Y140.431 E3.69899
G1 X15.657 Y140.431 E.01923
G1 X15.657 Y66.725 E3.69899
G1 X15.274 Y66.725 E.01923
G1 X15.274 Y140.431 E3.69899
G1 X14.891 Y140.431 E.01923
G1 X14.891 Y66.725 E3.69899
G1 X14.508 Y66.725 E.01923
G1 X14.508 Y140.431 E3.69899
G1 X14.124 Y140.431 E.01923
G1 X14.124 Y66.725 E3.69899
G1 X13.741 Y66.725 E.01923
G1 X13.741 Y140.431 E3.69899
G1 X13.358 Y140.431 E.01923
G1 X13.358 Y66.725 E3.69899
G1 X12.975 Y66.725 E.01923
G1 X12.975 Y140.431 E3.69899
G1 X12.592 Y140.431 E.01923
M73 P0 R261
G1 X12.592 Y66.725 E3.69899
G1 X12.208 Y66.725 E.01923
G1 X12.208 Y140.431 E3.69899
G1 X11.825 Y140.431 E.01923
G1 X11.825 Y66.725 E3.69899
G1 X11.442 Y66.725 E.01923
G1 X11.442 Y140.431 E3.69899
G1 X11.059 Y140.431 E.01923
G1 X11.059 Y66.725 E3.69899
G1 X10.676 Y66.725 E.01923
G1 X10.676 Y140.431 E3.69899
G1 X10.292 Y140.431 E.01923
G1 X10.292 Y66.725 E3.69899
G1 X9.909 Y66.725 E.01923
G1 X9.909 Y140.431 E3.69899
G1 X9.526 Y140.431 E.01923
G1 X9.526 Y66.725 E3.69899
G1 X9.143 Y66.725 E.01923
G1 X9.143 Y140.586 E3.70678
G1 E-.7 F3600
;WIPE_START
G1 F6240
G1 X9.143 Y140.066 E-.285
;WIPE_END
G1 E-.015 F3600
G1 X33.314 Y130.318 F7800
G1 E1 F2400
;TYPE:Support material interface
;WIDTH:1
G1 F1800
G1 X33.314 Y137.505 E.96727
G1 X34.206 Y137.505 E.12014
G1 X34.206 Y130.719 E.91321
G1 X35.099 Y130.719 E.12014
G1 X35.099 Y137.505 E.91321
G1 X35.992 Y137.505 E.12014
G1 X35.992 Y130.719 E.91321
G1 X36.884 Y130.719 E.12014
G1 X36.884 Y137.505 E.91321
G1 X37.777 Y137.505 E.12014
G1 X37.777 Y130.719 E.91321
G1 X38.67 Y130.719 E.12014
G1 X38.67 Y137.505 E.91321
G1 X39.562 Y137.505 E.12014
G1 X39.562 Y130.719 E.91321
G1 X40.455 Y130.719 E.12014
G1 X40.455 Y137.505 E.91321
G1 X41.348 Y137.505 E.12014
G1 X41.348 Y130.719 E.91321
G1 X42.241 Y130.719 E.12014
G1 X42.241 Y137.505 E.91321
G1 X43.133 Y137.505 E.12014
G1 X43.133 Y130.719 E.91321
G1 X44.026 Y130.719 E.12014
G1 X44.026 Y137.505 E.91321
G1 X44.919 Y137.505 E.12014
G1 X44.919 Y130.719 E.91321
G1 X45.811 Y130.719 E.12014
G1 X45.811 Y137.505 E.91321
G1 X46.704 Y137.505 E.12014
G1 X46.704 Y130.719 E.91321
G1 X47.597 Y130.719 E.12014
G1 X47.597 Y137.505 E.91321
G1 X48.489 Y137.505 E.12014
G1 X48.489 Y130.719 E.91321
G1 X49.382 Y130.719 E.12014
G1 X49.382 Y137.505 E.91321
G1 X50.275 Y137.505 E.12014
G1 X50.275 Y130.719 E.91321
G1 X51.168 Y130.719 E.12014
G1 X51.168 Y137.505 E.91321
G1 X52.06 Y137.505 E.12014
G1 X52.06 Y130.719 E.91321
G1 X52.953 Y130.719 E.12014
G1 X52.953 Y137.505 E.91321
G1 X53.846 Y137.505 E.12014
G1 X53.846 Y130.719 E.91321
G1 X54.738 Y130.719 E.12014
G1 X54.738 Y137.505 E.91321
G1 X55.631 Y137.505 E.12014
G1 X55.631 Y130.719 E.91321
G1 X56.524 Y130.719 E.12014
G1 X56.524 Y137.505 E.91321
G1 X57.416 Y137.505 E.12014
G1 X57.416 Y130.719 E.91321
G1 X58.309 Y130.719 E.12014
G1 X58.309 Y137.505 E.91321
G1 X59.202 Y137.505 E.12014
G1 X59.202 Y130.719 E.91321
G1 X59.466 Y130.719 E.03551
G1 X59.466 Y113.756 E2.28301
G1 X60.095 Y113.756 E.08463
G1 X60.095 Y137.505 E3.19621
G1 X60.987 Y137.505 E.12014
G1 X60.987 Y113.756 E3.19621
G1 X61.88 Y113.756 E.12014
G1 X61.88 Y137.505 E3.19621
G1 X62.773 Y137.505 E.12014
G1 X62.773 Y93.4 E5.93582
G1 X62.858 Y93.4 E.01155
G1 X62.858 Y96.792 E.4566
G1 X63.665 Y96.792 E.1086
G1 X63.665 Y137.505 E5.47922
G1 X64.558 Y137.505 E.12014
G1 X64.558 Y96.792 E5.47922
G1 X65.451 Y96.792 E.12014
G1 X65.451 Y137.907 E5.53328
G1 E-.7 F3600
;WIPE_START
G1 F6240
G1 X65.451 Y137.387 E-.285
;WIPE_END
G1 E-.015 F3600
G1 X93.124 Y137.907 F7800
G1 E1 F2400
G1 F1800
G1 X93.124 Y130.719 E.96727
G1 X92.232 Y130.719 E.12014
G1 X92.232 Y137.505 E.91321
G1 X91.339 Y137.505 E.12014
G1 X91.339 Y130.719 E.91321
G1 X90.446 Y130.719 E.12014
G1 X90.446 Y137.505 E.91321
G1 X89.554 Y137.505 E.12014
G1 X89.554 Y130.719 E.91321
G1 X88.661 Y130.719 E.12014
G1 X88.661 Y137.505 E.91321
G1 X87.768 Y137.505 E.12014
G1 X87.768 Y130.719 E.91321
G1 X86.876 Y130.719 E.12014
G1 X86.876 Y137.505 E.91321
G1 X85.983 Y137.505 E.12014
G1 X85.983 Y130.719 E.91321
G1 X85.09 Y130.719 E.12014
G1 X85.09 Y137.505 E.91321
G1 X84.197 Y137.505 E.12014
G1 X84.197 Y130.719 E.91321
G1 X83.305 Y130.719 E.12014
G1 X83.305 Y137.505 E.91321
G1 X82.412 Y137.505 E.12014
G1 X82.412 Y130.719 E.91321
G1 X81.519 Y130.719 E.12014
G1 X81.519 Y137.505 E.91321
G1 X80.627 Y137.505 E.12014
G1 X80.627 Y130.719 E.91321
G1 X79.734 Y130.719 E.12014
G1 X79.734 Y137.505 E.91321
G1 X78.841 Y137.505 E.12014
G1 X78.841 Y130.719 E.91321
G1 X77.949 Y130.719 E.12014
G1 X77.949 Y137.505 E.91321
G1 X77.056 Y137.505 E.12014
G1 X77.056 Y130.719 E.91321
G1 X76.163 Y130.719 E.12014
G1 X76.163 Y137.505 E.91321
G1 X75.27 Y137.505 E.12014
G1 X75.27 Y130.719 E.91321
G1 X74.378 Y130.719 E.12014
G1 X74.378 Y137.505 E.91321
G1 X73.485 Y137.505 E.12014
G1 X73.485 Y130.719 E.91321
G1 X72.592 Y130.719 E.12014
G1 X72.592 Y137.505 E.91321
G1 X71.7 Y137.505 E.12014
G1 X71.7 Y130.719 E.91321
G1 X70.807 Y130.719 E.12014
G1 X70.807 Y137.505 E.91321
G1 X69.914 Y137.505 E.12014
G1 X69.914 Y130.719 E.91321
G1 X69.022 Y130.719 E.12014
G1 X69.022 Y137.505 E.91321
G1 X68.129 Y137.505 E.12014
M73 P1 R261
G1 X68.129 Y130.719 E.91321
G1 X67.236 Y130.719 E.12014
G1 X67.236 Y137.505 E.91321
G1 X66.343 Y137.505 E.12014
G1 X66.343 Y96.792 E5.47922
G1 X67.236 Y96.792 E.12014
G1 X67.236 Y117.149 E2.73961
G1 X68.129 Y117.149 E.12014
G1 X68.129 Y96.792 E2.73961
G1 X69.022 Y96.792 E.12014
G1 X69.022 Y117.149 E2.73961
G1 X69.644 Y117.149 E.08375
G1 X69.644 Y106.971 E1.3698
G1 X69.914 Y106.971 E.03639
G1 X69.914 Y100.185 E.91321
G1 X70.807 Y100.185 E.12014
G1 X70.807 Y106.971 E.91321
M73 P1 R260
G1 X71.7 Y106.971 E.12014
G1 X71.7 Y100.185 E.91321
G1 X72.592 Y100.185 E.12014
G1 X72.592 Y106.971 E.91321
G1 X73.485 Y106.971 E.12014
G1 X73.485 Y93.4 E1.82641
G1 X74.378 Y93.4 E.12014
G1 X74.378 Y106.971 E1.82641
G1 X75.27 Y106.971 E.12014
G1 X75.27 Y93.4 E1.82641
G1 X76.163 Y93.4 E.12014
G1 X76.163 Y106.971 E1.82641
G1 X76.429 Y106.971 E.03581
G1 X76.429 Y103.578 E.4566
G1 X77.056 Y103.578 E.08433
G1 X77.056 Y86.614 E2.28301
G1 X77.949 Y86.614 E.12014
G1 X77.949 Y103.578 E2.28301
G1 X78.841 Y103.578 E.12014
G1 X78.841 Y86.614 E2.28301
G1 X79.734 Y86.614 E.12014
G1 X79.734 Y103.578 E2.28301
G1 X79.822 Y103.578 E.01184
G1 X79.822 Y96.792 E.9132
G1 X80.627 Y96.792 E.1083
G1 X80.627 Y83.222 E1.82641
G1 X81.519 Y83.222 E.12014
G1 X81.519 Y96.792 E1.82641
G1 X82.412 Y96.792 E.12014
G1 X82.412 Y83.222 E1.82641
G1 X83.215 Y83.222 E.10801
G1 X83.215 Y76.436 E.9132
G1 X83.305 Y76.436 E.01213
G1 X83.305 Y93.4 E2.28301
G1 X84.197 Y93.4 E.12014
G1 X84.197 Y76.436 E2.28301
G1 X85.09 Y76.436 E.12014
G1 X85.09 Y93.4 E2.28301
G1 X85.983 Y93.4 E.12014
G1 X85.983 Y76.436 E2.28301
G1 X86.607 Y76.436 E.08404
G1 X86.607 Y73.044 E.4566
G1 X86.876 Y73.044 E.0361
G1 X86.876 Y86.614 E1.82641
G1 X87.768 Y86.614 E.12014
G1 X87.768 Y73.044 E1.82641
G1 X88.661 Y73.044 E.12014
G1 X88.661 Y86.614 E1.82641
G1 X89.554 Y86.614 E.12014
G1 X89.554 Y73.044 E1.82641
G1 X90 Y73.044 E.06008
G1 X90 Y66.258 E.9132
G1 X90.446 Y66.258 E.06007
G1 X90.446 Y79.829 E1.82641
G1 X91.339 Y79.829 E.12014
G1 X91.339 Y66.258 E1.82641
G1 X92.232 Y66.258 E.12014
G1 X92.232 Y79.829 E1.82641
G1 X93.124 Y79.829 E.12014
G1 X93.124 Y66.258 E1.82641
G1 X93.393 Y66.258 E.03611
G1 X93.393 Y59.473 E.9132
G1 X94.017 Y59.473 E.08404
G1 X94.017 Y76.436 E2.28301
G1 X94.91 Y76.436 E.12014
G1 X94.91 Y59.473 E2.28301
G1 X95.802 Y59.473 E.12014
G1 X95.802 Y76.436 E2.28301
G1 X96.695 Y76.436 E.12014
G1 X96.695 Y59.473 E2.28301
G1 X96.785 Y59.473 E.01214
G1 X96.785 Y56.08 E.4566
G1 X97.588 Y56.08 E.108
G1 X97.588 Y85.996 E4.02622
G1 X98.481 Y76.212 E1.32222
G1 X98.481 Y56.08 E2.70947
G1 X99.373 Y56.08 E.12014
G1 X99.373 Y66.428 E1.39272
G1 X100.266 Y56.644 E1.32222
G1 X100.266 Y49.295 E.98916
G1 X101.159 Y49.295 E.12014
G1 X101.159 Y52.905 E.48583
G1 X102.051 Y51.433 E.23163
G1 X102.051 Y49.295 E.2878
G1 X102.944 Y49.295 E.12014
G1 X102.944 Y50.736 E.194
G1 E-.7 F3600
;WIPE_START
G1 F6240
G1 X102.944 Y50.216 E-.285
;WIPE_END
G1 E-.015 F3600
G1 X103.837 Y42.108 F7800
G1 E1 F2400
G1 F1800
G1 X103.837 Y48.49 E.859
G1 X104.729 Y47.019 E.23163
G1 X104.729 Y42.509 E.60691
G1 X105.622 Y42.509 E.12014
G1 X105.622 Y45.547 E.40888
G1 X106.515 Y44.076 E.23163
G1 X106.515 Y42.509 E.21084
G1 X107.408 Y42.509 E.12014
G1 X107.408 Y42.801 E.03923
G1 X108.243 Y42.512 E.11903
G1 X108.3 Y42.533 E.00817
G1 X108.3 Y42.509 E.00322
G1 X109.193 Y42.509 E.12014
G1 X109.193 Y42.869 E.04841
G1 X110.086 Y43.205 E.12836
G1 X110.086 Y42.509 E.0936
G1 X110.978 Y42.509 E.12014
G1 X110.978 Y43.541 E.1388
G1 X111.871 Y43.876 E.12836
G1 X111.871 Y42.509 E.18399
G1 X112.764 Y42.509 E.12014
G1 X112.764 Y44.212 E.22918
G1 X113.656 Y44.548 E.12836
G1 X113.656 Y42.509 E.27437
G1 X114.549 Y42.509 E.12014
G1 X114.549 Y44.884 E.31957
G1 X115.442 Y45.22 E.12836
G1 X115.442 Y42.509 E.36476
G1 X116.335 Y42.509 E.12014
G1 X116.335 Y45.985 E.46772
G1 X118.12 Y45.5 F7800
G1 F1800
G1 X118.12 Y46.227 E.0978
G1 X119.013 Y46.563 E.12836
G1 X119.013 Y45.902 E.08893
G1 X119.905 Y45.902 E.12014
G1 X119.905 Y46.899 E.13412
G1 X120.798 Y47.234 E.12836
G1 X120.798 Y45.902 E.17932
G1 X121.691 Y45.902 E.12014
G1 X121.691 Y47.57 E.22451
G1 X122.583 Y47.906 E.12836
G1 X122.583 Y45.902 E.2697
G1 X123.476 Y45.902 E.12014
G1 X123.476 Y48.671 E.37266
G1 E-.7 F3600
;WIPE_START
G1 F6240
G1 X123.476 Y48.151 E-.285
;WIPE_END
G1 E-.015 F3600
G1 X127.047 Y50.014 F7800
G1 E1 F2400
G1 F1800
G1 X127.047 Y49.295 E.09683
G1 X127.94 Y49.295 E.12014
G1 X127.94 Y49.921 E.08426
G1 X128.832 Y50.257 E.12836
G1 X128.832 Y49.295 E.12945
G1 X129.725 Y49.295 E.12014
G1 X129.725 Y50.592 E.17465
G1 X130.618 Y50.928 E.12836
G1 X130.618 Y49.295 E.21984
G1 X131.51 Y49.295 E.12014
G1 X131.51 Y51.264 E.26503
G1 X132.403 Y51.6 E.12836
G1 X132.403 Y49.295 E.31023
G1 X133.296 Y49.295 E.12014
G1 X133.296 Y52.365 E.41318
G1 E-.7 F3600
;WIPE_START
G1 F6240
G1 X133.296 Y51.845 E-.285
;WIPE_END
G1 E-.015 F3600
G1 X135.974 Y53.288 F7800
G1 E1 F2400
G1 F1800
G1 X135.974 Y52.687 E.08089
G1 X136.867 Y52.687 E.12014
G1 X136.867 Y53.624 E.12607
G1 E-.7 F3600
;WIPE_START
G1 F6240
G1 X136.867 Y53.104 E-.285
;WIPE_END
G1 E-.015 F3600
G1 X94.017 Y103.176 F7800
G1 E1 F2400
G1 F1800
G1 X94.017 Y125.132 E2.95489
G1 X94.91 Y115.348 E1.32222
G1 X94.91 Y103.578 E1.58407
G1 X95.802 Y103.578 E.12014
G1 X95.802 Y109.985 E.86231
G1 E-.7 F3600
;WIPE_START
G1 F6240
G1 X95.802 Y109.465 E-.285
;WIPE_END
G1 E-.015 F3600
G1 X61.88 Y103.98 F7800
G1 E1 F2400
G1 F1800
G1 X61.88 Y93.4 E1.42387
G1 X60.987 Y93.4 E.12014
G1 X60.987 Y103.578 E1.36981
G1 X60.095 Y103.578 E.12014
G1 X60.095 Y93.4 E1.36981
