; generated by PrusaSlicer 2.5.0+win64 on 2022-12-07 at 00:04:53 UTC

; 

; external perimeters extrusion width = 1.00mm
; perimeters extrusion width = 1.00mm
; infill extrusion width = 1.00mm
; solid infill extrusion width = 1.00mm
; top infill extrusion width = 1.00mm
; support material extrusion width = 1.00mm
; first layer extrusion width = 0.42mm

M73 P0 R3
M107
;TYPE:Custom
G90 ; use absolute coordinates
M83 ; extruder relative mode
M140 S60 ; set final bed temp
M104 S150 ; set temporary nozzle temp to prevent oozing during homing and auto bed leveling
G4 S10 ; allow partial nozzle warmup
G28 ; home all axisG1 Z50 F240
G1 X7.6 Y10 F3000
M104 S210 ; set final nozzle temp
M190 S60 ; wait for bed temp to stabilize
M109 S210 ; wait for nozzle temp to stabilize
G1 Z0.28 F240
G92 E0
G1 Y140 E10 F1500 ; prime the nozzle
G1 X4 F5000
G92 E0
M73 P3 R2
G1 Y10 E10 F1200 ; prime the nozzle
G92 E0
G21 ; set units to millimeters
G90 ; use absolute coordinates
M83 ; use relative distances for extrusion
; Filament gcode
M107
;LAYER_CHANGE
;Z:0.35
;HEIGHT:0.35
;BEFORE_LAYER_CHANGE
G92 E0
;0.35


G1 E-1 F3600
M73 P6 R2
G1 Z.35 F7800
;AFTER_LAYER_CHANGE
;0.35
G1 X93.348 Y92.64
G1 E1 F2400
;TYPE:Perimeter
;WIDTH:0.42
M73 P7 R2
G1 F900
G1 X84.376 Y92.64 E.45027
G1 X84.376 Y88.145 E.22555
G1 X93.214 Y92.572 E.49607
G1 X94.806 Y92.984 F7800
;TYPE:External perimeter
M73 P8 R2
G1 F900
G1 X84.031 Y92.984 E.54077
G1 X84.031 Y87.587 E.27089
G1 X94.672 Y92.917 E.5973
G1 X95.306 Y92.118 F7800
M73 P9 R2
G1 E-.7 F3600
;WIPE_START
G1 F6240
G1 X94.152 Y92.921 E-.285
;WIPE_END
G1 E-.015 F3600
G1 X90.893 Y91.525 F7800
G1 E1 F2400
;TYPE:Solid infill
;WIDTH:0.438835
G1 F900
G1 X91.748 Y92.381 E.06403
G1 X91.234 Y92.381 E.02722
G1 X90.21 Y91.357 E.07664
G1 X89.179 Y90.841 E.06101
G1 X90.719 Y92.381 E.11529
G1 X90.205 Y92.381 E.02722
G1 X88.148 Y90.324 E.15393
G1 X87.118 Y89.808 E.06101
G1 X89.691 Y92.381 E.19258
G1 X89.176 Y92.381 E.02722
M73 P10 R2
G1 X86.087 Y89.292 E.23122
G1 X85.056 Y88.776 E.06101
G1 X88.662 Y92.381 E.26986
G1 X88.147 Y92.381 E.02722
G1 X84.635 Y88.868 E.26294
G1 X84.635 Y89.382 E.02722
G1 X87.633 Y92.381 E.22444
G1 X87.119 Y92.381 E.02722
G1 X84.635 Y89.897 E.18594
G1 X84.635 Y90.411 E.02722
M73 P11 R2
G1 X86.604 Y92.381 E.14744
G1 X86.09 Y92.381 E.02722
G1 X84.635 Y90.926 E.10894
G1 X84.635 Y91.44 E.02722
G1 X85.576 Y92.381 E.07043
G1 X85.061 Y92.381 E.02722
G1 X84.479 Y91.799 E.04355
M106 S255
;LAYER_CHANGE
;Z:0.85
;HEIGHT:0.5
;BEFORE_LAYER_CHANGE
G92 E0
;0.85


G1 E-.7 F3600
;WIPE_START
G1 F6240
G1 X84.847 Y92.167 E-.285
;WIPE_END
G1 E-.015 F3600
G1 Z.85 F7800
;AFTER_LAYER_CHANGE
;0.85
M104 S205 ; set temperature
G1 X88.865 Y91.59
G1 E1 F2400
;TYPE:Perimeter
;WIDTH:1.42283
G1 F900
G1 X85.425 Y91.59 E.9406
G1 X85.425 Y89.867 E.47117
G1 X88.73 Y91.523 E1.01099
G1 E-.7 F3600
;WIPE_START
G1 F6240
G1 X88.211 Y91.534 E-.285
;WIPE_END
G1 E-.015 F3600
M73 P12 R2
G1 X93.534 Y92.694 F7800
G1 E1 F2400
;TYPE:External perimeter
;WIDTH:1
G1 F900
G1 X84.321 Y92.694 E1.70967
G1 X84.321 Y88.079 E.85641
G1 X93.4 Y92.627 E1.88434
G1 X94.034 Y91.828 F7800
;LAYER_CHANGE
;Z:1.35
;HEIGHT:0.5
;BEFORE_LAYER_CHANGE
G92 E0
;1.35


M73 P13 R2
G1 E-.7 F3600
;WIPE_START
G1 F6240
G1 X92.88 Y92.631 E-.285
;WIPE_END
G1 E-.015 F3600
G1 Z1.35 F7800
;AFTER_LAYER_CHANGE
;1.35
G1 X88.832 Y91.596
G1 E1 F2400
;TYPE:Perimeter
;WIDTH:1.41249
G1 F900
G1 X85.42 Y91.596 E.92587
G1 X85.42 Y89.886 E.46379
G1 X88.698 Y91.528 E.99484
G1 E-.7 F3600
;WIPE_START
G1 F6240
G1 X88.178 Y91.539 E-.285
;WIPE_END
G1 E-.015 F3600
G1 X93.48 Y92.694 F7800
G1 E1 F2400
;TYPE:External perimeter
;WIDTH:1
G1 F900
G1 X84.321 Y92.694 E1.69963
G1 X84.321 Y88.107 E.85139
M73 P14 R2
G1 X93.346 Y92.627 E1.87311
G1 X93.98 Y91.828 F7800
;LAYER_CHANGE
;Z:1.85
;HEIGHT:0.5
;BEFORE_LAYER_CHANGE
G92 E0
;1.85


G1 E-.7 F3600
;WIPE_START
G1 F6240
G1 X92.826 Y92.631 E-.285
;WIPE_END
G1 E-.015 F3600
G1 Z1.85 F7800
;AFTER_LAYER_CHANGE
;1.85
G1 X88.8 Y91.601
G1 E1 F2400
;TYPE:Perimeter
;WIDTH:1.40215
G1 F900
G1 X85.415 Y91.601 E.91125
G1 X85.415 Y89.905 E.45647
M73 P15 R2
G1 X88.666 Y91.534 E.97881
G1 E-.7 F3600
;WIPE_START
G1 F6240
G1 X88.146 Y91.544 E-.285
;WIPE_END
G1 E-.015 F3600
G1 X93.426 Y92.694 F7800
G1 E1 F2400
;TYPE:External perimeter
;WIDTH:1
G1 F900
G1 X84.321 Y92.694 E1.6896
G1 X84.321 Y88.134 E.84636
G1 X93.292 Y92.627 E1.86189
G1 X93.926 Y91.828 F7800
;LAYER_CHANGE
;Z:2.35
;HEIGHT:0.5
;BEFORE_LAYER_CHANGE
G92 E0
;2.35


M73 P16 R2
G1 E-.7 F3600
;WIPE_START
G1 F6240
G1 X92.772 Y92.631 E-.285
;WIPE_END
G1 E-.015 F3600
G1 Z2.35 F7800
;AFTER_LAYER_CHANGE
;2.35
G1 X88.768 Y91.606
G1 E1 F2400
;TYPE:Perimeter
;WIDTH:1.39181
G1 F900
G1 X85.41 Y91.606 E.89676
G1 X85.41 Y89.924 E.44921
G1 X88.634 Y91.539 E.96292
G1 E-.7 F3600
;WIPE_START
G1 F6240
G1 X88.114 Y91.55 E-.285
;WIPE_END
G1 E-.015 F3600
M73 P17 R2
G1 X93.372 Y92.694 F7800
G1 E1 F2400
;TYPE:External perimeter
;WIDTH:1
G1 F900
G1 X84.321 Y92.694 E1.67956
G1 X84.321 Y88.161 E.84133
G1 X93.238 Y92.627 E1.85067
G1 X93.872 Y91.828 F7800
;LAYER_CHANGE
;Z:2.85
;HEIGHT:0.5
;BEFORE_LAYER_CHANGE
G92 E0
;2.85


M73 P18 R2
G1 E-.7 F3600
;WIPE_START
G1 F6240
G1 X92.718 Y92.631 E-.285
;WIPE_END
G1 E-.015 F3600
G1 Z2.85 F7800
;AFTER_LAYER_CHANGE
;2.85
G1 X88.736 Y91.611
G1 E1 F2400
;TYPE:Perimeter
;WIDTH:1.38147
G1 F900
G1 X85.404 Y91.611 E.88238
G1 X85.404 Y89.942 E.442
G1 X88.602 Y91.544 E.94716
G1 E-.7 F3600
;WIPE_START
G1 F6240
G1 X88.082 Y91.555 E-.285
;WIPE_END
G1 E-.015 F3600
G1 X93.318 Y92.694 F7800
G1 E1 F2400
;TYPE:External perimeter
;WIDTH:1
G1 F900
G1 X84.321 Y92.694 E1.66953
G1 X84.321 Y88.188 E.83631
M73 P19 R2
G1 X93.184 Y92.627 E1.83945
G1 X93.818 Y91.828 F7800
;LAYER_CHANGE
;Z:3.35
;HEIGHT:0.5
;BEFORE_LAYER_CHANGE
G92 E0
;3.35


G1 E-.7 F3600
;WIPE_START
G1 F6240
G1 X92.664 Y92.631 E-.285
;WIPE_END
G1 E-.015 F3600
G1 Z3.35 F7800
;AFTER_LAYER_CHANGE
;3.35
G1 X88.704 Y91.616
G1 E1 F2400
;TYPE:Perimeter
;WIDTH:1.37113
G1 F900
G1 X85.399 Y91.616 E.86811
G1 X85.399 Y89.961 E.43486
M73 P20 R2
G1 X88.569 Y91.549 E.93153
G1 E-.7 F3600
;WIPE_START
G1 F6240
G1 X88.05 Y91.56 E-.285
;WIPE_END
G1 E-.015 F3600
G1 X93.264 Y92.694 F7800
G1 E1 F2400
;TYPE:External perimeter
;WIDTH:1
G1 F900
G1 X84.321 Y92.694 E1.65949
G1 X84.321 Y88.215 E.83128
G1 X93.13 Y92.627 E1.82822
G1 X93.764 Y91.828 F7800
;LAYER_CHANGE
;Z:3.85
;HEIGHT:0.5
;BEFORE_LAYER_CHANGE
G92 E0
;3.85


M73 P21 R2
G1 E-.7 F3600
;WIPE_START
G1 F6240
G1 X92.61 Y92.631 E-.285
;WIPE_END
G1 E-.015 F3600
G1 Z3.85 F7800
;AFTER_LAYER_CHANGE
;3.85
G1 X88.671 Y91.621
G1 E1 F2400
;TYPE:Perimeter
;WIDTH:1.36079
G1 F900
G1 X85.394 Y91.621 E.85397
G1 X85.394 Y89.98 E.42777
G1 X88.537 Y91.554 E.91603
G1 E-.7 F3600
;WIPE_START
G1 F6240
G1 X88.017 Y91.565 E-.285
;WIPE_END
G1 E-.015 F3600
G1 X93.21 Y92.694 F7800
G1 E1 F2400
;TYPE:External perimeter
;WIDTH:1
M73 P22 R2
G1 F900
G1 X84.321 Y92.694 E1.64946
G1 X84.321 Y88.242 E.82625
G1 X93.075 Y92.627 E1.817
G1 X93.71 Y91.828 F7800
;LAYER_CHANGE
;Z:4.35
;HEIGHT:0.5
;BEFORE_LAYER_CHANGE
G92 E0
;4.35


G1 E-.7 F3600
;WIPE_START
G1 F6240
G1 X92.555 Y92.631 E-.285
;WIPE_END
G1 E-.015 F3600
M73 P23 R2
G1 Z4.35 F7800
;AFTER_LAYER_CHANGE
;4.35
G1 X88.639 Y91.627
G1 E1 F2400
;TYPE:Perimeter
;WIDTH:1.35045
G1 F900
G1 X85.389 Y91.627 E.83993
G1 X85.389 Y89.998 E.42074
G1 X88.505 Y91.559 E.90066
G1 E-.7 F3600
;WIPE_START
G1 F6240
G1 X87.985 Y91.571 E-.285
;WIPE_END
G1 E-.015 F3600
G1 X93.155 Y92.694 F7800
G1 E1 F2400
;TYPE:External perimeter
;WIDTH:1
G1 F900
G1 X84.321 Y92.694 E1.63943
G1 X84.321 Y88.269 E.82123
M73 P24 R2
G1 X93.021 Y92.627 E1.80578
G1 X93.655 Y91.828 F7800
;LAYER_CHANGE
;Z:4.85
;HEIGHT:0.5
;BEFORE_LAYER_CHANGE
G92 E0
;4.85


G1 E-.7 F3600
;WIPE_START
G1 F6240
G1 X92.501 Y92.631 E-.285
;WIPE_END
G1 E-.015 F3600
G1 Z4.85 F7800
;AFTER_LAYER_CHANGE
;4.85
G1 X88.607 Y91.632
G1 E1 F2400
;TYPE:Perimeter
;WIDTH:1.34011
G1 F900
G1 X85.384 Y91.632 E.82602
G1 X85.384 Y90.017 E.41377
G1 X88.473 Y91.565 E.88542
G1 E-.7 F3600
;WIPE_START
M73 P25 R2
G1 F6240
G1 X87.953 Y91.576 E-.285
;WIPE_END
G1 E-.015 F3600
G1 X93.101 Y92.694 F7800
G1 E1 F2400
;TYPE:External perimeter
;WIDTH:1
G1 F900
G1 X84.321 Y92.694 E1.62939
G1 X84.321 Y88.296 E.8162
G1 X92.967 Y92.627 E1.79455
G1 X93.601 Y91.828 F7800
;LAYER_CHANGE
;Z:5.35
;HEIGHT:0.5
;BEFORE_LAYER_CHANGE
G92 E0
;5.35


M73 P26 R2
G1 E-.7 F3600
;WIPE_START
G1 F6240
G1 X92.447 Y92.631 E-.285
;WIPE_END
G1 E-.015 F3600
G1 Z5.35 F7800
;AFTER_LAYER_CHANGE
;5.35
G1 X88.575 Y91.637
G1 E1 F2400
;TYPE:Perimeter
;WIDTH:1.32977
G1 F900
G1 X85.379 Y91.637 E.81222
G1 X85.379 Y90.036 E.40686
G1 X88.441 Y91.57 E.87031
G1 E-.7 F3600
;WIPE_START
G1 F6240
G1 X87.921 Y91.581 E-.285
;WIPE_END
G1 E-.015 F3600
G1 X93.047 Y92.694 F7800
G1 E1 F2400
;TYPE:External perimeter
;WIDTH:1
G1 F900
G1 X84.321 Y92.694 E1.61936
G1 X84.321 Y88.323 E.81118
M73 P27 R2
G1 X92.913 Y92.627 E1.78333
G1 X93.547 Y91.828 F7800
;LAYER_CHANGE
;Z:5.85
;HEIGHT:0.5
;BEFORE_LAYER_CHANGE
G92 E0
;5.85


G1 E-.7 F3600
;WIPE_START
G1 F6240
G1 X92.393 Y92.631 E-.285
;WIPE_END
G1 E-.015 F3600
G1 Z5.85 F7800
;AFTER_LAYER_CHANGE
;5.85
G1 X88.543 Y91.642
G1 E1 F2400
;TYPE:Perimeter
;WIDTH:1.31943
G1 F900
M73 P28 R2
G1 X85.373 Y91.642 E.79854
G1 X85.373 Y90.055 E.40001
G1 X88.408 Y91.575 E.85533
G1 E-.7 F3600
;WIPE_START
G1 F6240
G1 X87.889 Y91.586 E-.285
;WIPE_END
G1 E-.015 F3600
G1 X92.993 Y92.694 F7800
G1 E1 F2400
;TYPE:External perimeter
;WIDTH:1
G1 F900
G1 X84.321 Y92.694 E1.60932
G1 X84.321 Y88.35 E.80615
G1 X92.859 Y92.627 E1.77211
G1 X93.493 Y91.828 F7800
;LAYER_CHANGE
;Z:6.35
;HEIGHT:0.5
;BEFORE_LAYER_CHANGE
G92 E0
;6.35


M73 P29 R2
G1 E-.7 F3600
;WIPE_START
G1 F6240
G1 X92.339 Y92.631 E-.285
;WIPE_END
G1 E-.015 F3600
G1 Z6.35 F7800
;AFTER_LAYER_CHANGE
;6.35
G1 X88.51 Y91.647
G1 E1 F2400
;TYPE:Perimeter
;WIDTH:1.30909
G1 F900
G1 X85.368 Y91.647 E.78497
G1 X85.368 Y90.073 E.39321
G1 X88.376 Y91.58 E.84047
G1 E-.7 F3600
;WIPE_START
G1 F6240
G1 X87.856 Y91.592 E-.285
;WIPE_END
G1 E-.015 F3600
G1 X92.939 Y92.694 F7800
G1 E1 F2400
;TYPE:External perimeter
;WIDTH:1
M73 P30 R2
G1 F900
G1 X84.321 Y92.694 E1.59929
G1 X84.321 Y88.377 E.80112
G1 X92.805 Y92.627 E1.76089
G1 X93.439 Y91.828 F7800
;LAYER_CHANGE
;Z:6.85
;HEIGHT:0.5
;BEFORE_LAYER_CHANGE
G92 E0
;6.85


G1 E-.7 F3600
;WIPE_START
G1 F6240
G1 X92.285 Y92.631 E-.285
;WIPE_END
G1 E-.015 F3600
M73 P31 R2
G1 Z6.85 F7800
;AFTER_LAYER_CHANGE
;6.85
G1 X88.478 Y91.652
G1 E1 F2400
;TYPE:Perimeter
;WIDTH:1.29875
G1 F900
G1 X85.363 Y91.652 E.77152
G1 X85.363 Y90.092 E.38647
G1 X88.344 Y91.585 E.82575
G1 E-.7 F3600
;WIPE_START
G1 F6240
G1 X87.824 Y91.597 E-.285
;WIPE_END
G1 E-.015 F3600
G1 X92.885 Y92.694 F7800
G1 E1 F2400
;TYPE:External perimeter
;WIDTH:1
G1 F900
G1 X84.321 Y92.694 E1.58925
G1 X84.321 Y88.404 E.7961
G1 X92.751 Y92.627 E1.74966
M73 P32 R2
G1 X93.385 Y91.828 F7800
;LAYER_CHANGE
;Z:7.35
;HEIGHT:0.5
;BEFORE_LAYER_CHANGE
G92 E0
;7.35


G1 E-.7 F3600
;WIPE_START
G1 F6240
G1 X92.231 Y92.631 E-.285
;WIPE_END
G1 E-.015 F3600
G1 Z7.35 F7800
;AFTER_LAYER_CHANGE
;7.35
G1 X88.446 Y91.658
G1 E1 F2400
;TYPE:Perimeter
;WIDTH:1.2884
G1 F900
G1 X85.358 Y91.658 E.75819
G1 X85.358 Y90.111 E.37979
G1 X88.312 Y91.59 E.81116
G1 E-.7 F3600
;WIPE_START
M73 P33 R2
G1 F6240
G1 X87.792 Y91.602 E-.285
;WIPE_END
G1 E-.015 F3600
G1 X92.831 Y92.694 F7800
G1 E1 F2400
;TYPE:External perimeter
;WIDTH:1
G1 F900
G1 X84.321 Y92.694 E1.57922
G1 X84.321 Y88.432 E.79107
G1 X92.697 Y92.627 E1.73844
G1 X93.331 Y91.828 F7800
;LAYER_CHANGE
;Z:7.85
;HEIGHT:0.5
;BEFORE_LAYER_CHANGE
G92 E0
;7.85


M73 P34 R2
G1 E-.7 F3600
;WIPE_START
G1 F6240
G1 X92.177 Y92.631 E-.285
;WIPE_END
G1 E-.015 F3600
G1 Z7.85 F7800
;AFTER_LAYER_CHANGE
;7.85
G1 X88.414 Y91.663
G1 E1 F2400
;TYPE:Perimeter
;WIDTH:1.27806
G1 F900
G1 X85.353 Y91.663 E.74497
G1 X85.353 Y90.129 E.37317
G1 X88.28 Y91.596 E.7967
G1 E-.7 F3600
;WIPE_START
G1 F6240
G1 X87.76 Y91.607 E-.285
;WIPE_END
G1 E-.015 F3600
G1 X92.777 Y92.694 F7800
G1 E1 F2400
;TYPE:External perimeter
;WIDTH:1
G1 F900
G1 X84.321 Y92.694 E1.56919
G1 X84.321 Y88.459 E.78604
M73 P35 R1
G1 X92.643 Y92.627 E1.72722
G1 X93.277 Y91.828 F7800
;LAYER_CHANGE
;Z:8.35
;HEIGHT:0.5
;BEFORE_LAYER_CHANGE
G92 E0
;8.35


G1 E-.7 F3600
;WIPE_START
G1 F6240
G1 X92.123 Y92.631 E-.285
;WIPE_END
G1 E-.015 F3600
G1 Z8.35 F7800
;AFTER_LAYER_CHANGE
;8.35
G1 X88.381 Y91.668
G1 E1 F2400
;TYPE:Perimeter
;WIDTH:1.26772
G1 F900
G1 X85.348 Y91.668 E.73187
G1 X85.348 Y90.148 E.36661
M73 P36 R1
G1 X88.247 Y91.601 E.78237
G1 E-.7 F3600
;WIPE_START
G1 F6240
G1 X87.728 Y91.613 E-.285
;WIPE_END
G1 E-.015 F3600
G1 X92.723 Y92.694 F7800
G1 E1 F2400
;TYPE:External perimeter
;WIDTH:1
G1 F900
G1 X84.321 Y92.694 E1.55915
G1 X84.321 Y88.486 E.78102
G1 X92.589 Y92.627 E1.71599
G1 X93.223 Y91.828 F7800
;LAYER_CHANGE
;Z:8.85
;HEIGHT:0.5
;BEFORE_LAYER_CHANGE
G92 E0
;8.85


M73 P37 R1
G1 E-.7 F3600
;WIPE_START
G1 F6240
G1 X92.069 Y92.632 E-.285
;WIPE_END
G1 E-.015 F3600
G1 Z8.85 F7800
;AFTER_LAYER_CHANGE
;8.85
G1 X88.349 Y91.673
G1 E1 F2400
;TYPE:Perimeter
;WIDTH:1.25738
G1 F900
G1 X85.342 Y91.673 E.71888
G1 X85.342 Y90.167 E.3601
G1 X88.215 Y91.606 E.76817
G1 E-.7 F3600
;WIPE_START
G1 F6240
G1 X87.695 Y91.618 E-.285
;WIPE_END
G1 E-.015 F3600
G1 X92.669 Y92.694 F7800
G1 E1 F2400
;TYPE:External perimeter
;WIDTH:1
G1 F900
G1 X84.321 Y92.694 E1.54912
G1 X84.321 Y88.513 E.77599
M73 P38 R1
G1 X92.535 Y92.627 E1.70477
G1 X93.169 Y91.828 F7800
;LAYER_CHANGE
;Z:9.35
;HEIGHT:0.5
;BEFORE_LAYER_CHANGE
G92 E0
;9.35


G1 E-.7 F3600
;WIPE_START
G1 F6240
G1 X92.015 Y92.632 E-.285
;WIPE_END
G1 E-.015 F3600
G1 Z9.35 F7800
;AFTER_LAYER_CHANGE
;9.35
G1 X88.317 Y91.678
G1 E1 F2400
;TYPE:Perimeter
;WIDTH:1.24704
G1 F900
M73 P39 R1
G1 X85.337 Y91.678 E.70601
G1 X85.337 Y90.186 E.35366
G1 X88.183 Y91.611 E.7541
G1 E-.7 F3600
;WIPE_START
G1 F6240
G1 X87.663 Y91.623 E-.285
;WIPE_END
G1 E-.015 F3600
G1 X92.615 Y92.694 F7800
G1 E1 F2400
;TYPE:External perimeter
;WIDTH:1
G1 F900
G1 X84.321 Y92.694 E1.53908
G1 X84.321 Y88.54 E.77096
G1 X92.481 Y92.627 E1.69355
G1 X93.115 Y91.828 F7800
;LAYER_CHANGE
;Z:9.85
;HEIGHT:0.5
;BEFORE_LAYER_CHANGE
G92 E0
;9.85


M73 P40 R1
G1 E-.7 F3600
;WIPE_START
G1 F6240
G1 X91.961 Y92.632 E-.285
;WIPE_END
G1 E-.015 F3600
G1 Z9.85 F7800
;AFTER_LAYER_CHANGE
;9.85
G1 X88.285 Y91.683
G1 E1 F2400
;TYPE:Perimeter
;WIDTH:1.2367
G1 F900
G1 X85.332 Y91.683 E.69326
G1 X85.332 Y90.204 E.34727
G1 X88.151 Y91.616 E.74016
G1 E-.7 F3600
;WIPE_START
G1 F6240
G1 X87.631 Y91.629 E-.285
;WIPE_END
G1 E-.015 F3600
G1 X92.561 Y92.694 F7800
G1 E1 F2400
;TYPE:External perimeter
;WIDTH:1
G1 F900
M73 P41 R1
G1 X84.321 Y92.694 E1.52905
G1 X84.321 Y88.567 E.76594
G1 X92.427 Y92.627 E1.68233
G1 X93.061 Y91.828 F7800
;LAYER_CHANGE
;Z:10.35
;HEIGHT:0.5
;BEFORE_LAYER_CHANGE
G92 E0
;10.35


G1 E-.7 F3600
;WIPE_START
G1 F6240
G1 X91.907 Y92.632 E-.285
;WIPE_END
G1 E-.015 F3600
G1 Z10.35 F7800
;AFTER_LAYER_CHANGE
;10.35
G1 X88.253 Y91.689
G1 E1 F2400
;TYPE:Perimeter
;WIDTH:1.22636
M73 P42 R1
G1 F900
G1 X85.327 Y91.689 E.68062
G1 X85.327 Y90.223 E.34094
G1 X88.119 Y91.621 E.72635
G1 E-.7 F3600
;WIPE_START
G1 F6240
G1 X87.599 Y91.634 E-.285
;WIPE_END
G1 E-.015 F3600
G1 X92.507 Y92.694 F7800
G1 E1 F2400
;TYPE:External perimeter
;WIDTH:1
G1 F900
G1 X84.321 Y92.694 E1.51901
G1 X84.321 Y88.594 E.76091
G1 X92.372 Y92.627 E1.6711
G1 X93.007 Y91.828 F7800
;LAYER_CHANGE
;Z:10.85
;HEIGHT:0.5
;BEFORE_LAYER_CHANGE
G92 E0
;10.85


M73 P43 R1
G1 E-.7 F3600
;WIPE_START
G1 F6240
G1 X91.853 Y92.632 E-.285
;WIPE_END
G1 E-.015 F3600
G1 Z10.85 F7800
;AFTER_LAYER_CHANGE
;10.85
G1 X88.22 Y91.694
G1 E1 F2400
;TYPE:Perimeter
;WIDTH:1.21602
G1 F900
G1 X85.322 Y91.694 E.6681
G1 X85.322 Y90.242 E.33467
G1 X88.086 Y91.627 E.71266
G1 E-.7 F3600
;WIPE_START
G1 F6240
G1 X87.567 Y91.639 E-.285
;WIPE_END
G1 E-.015 F3600
G1 X92.453 Y92.694 F7800
G1 E1 F2400
;TYPE:External perimeter
;WIDTH:1
M73 P44 R1
G1 F900
G1 X84.321 Y92.694 E1.50898
G1 X84.321 Y88.621 E.75589
G1 X92.318 Y92.627 E1.65988
G1 X92.953 Y91.828 F7800
;LAYER_CHANGE
;Z:11.35
;HEIGHT:0.5
;BEFORE_LAYER_CHANGE
G92 E0
;11.35


G1 E-.7 F3600
;WIPE_START
G1 F6240
G1 X91.798 Y92.632 E-.285
