; generated by PrusaSlicer 2.5.0+win64 on 2022-12-07 at 00:05:20 UTC

; 

; external perimeters extrusion width = 1.00mm
; perimeters extrusion width = 1.00mm
; infill extrusion width = 1.00mm
; solid infill extrusion width = 1.00mm
; top infill extrusion width = 1.00mm
; support material extrusion width = 1.00mm
; first layer extrusion width = 0.42mm

M73 P0 R97
M107
;TYPE:Custom
G90 ; use absolute coordinates
M83 ; extruder relative mode
M140 S60 ; set final bed temp
M104 S150 ; set temporary nozzle temp to prevent oozing during homing and auto bed leveling
G4 S10 ; allow partial nozzle warmup
G28 ; home all axisG1 Z50 F240
G1 X7.6 Y10 F3000
M104 S210 ; set final nozzle temp
M190 S60 ; wait for bed temp to stabilize
M109 S210 ; wait for nozzle temp to stabilize
G1 Z0.28 F240
G92 E0
G1 Y140 E10 F1500 ; prime the nozzle
G1 X4 F5000
G92 E0
G1 Y10 E10 F1200 ; prime the nozzle
G92 E0
G21 ; set units to millimeters
G90 ; use absolute coordinates
M83 ; use relative distances for extrusion
; Filament gcode
M107
;LAYER_CHANGE
;Z:0.35
;HEIGHT:0.35
;BEFORE_LAYER_CHANGE
G92 E0
;0.35


G1 E-1 F3600
G1 Z.35 F7800
;AFTER_LAYER_CHANGE
;0.35
G1 X120.378 Y38.706
G1 E1 F2400
;TYPE:Support material
;WIDTH:0.42
G1 F1800
G1 X8.732 Y38.706 E5.60307
G1 X8.732 Y28.841 E.49509
M73 P0 R96
G1 X120.378 Y28.841 E5.60307
G1 X120.378 Y38.655 E.4925
G1 X119.89 Y38.551 F7800
G1 F1800
G1 X119.89 Y29.152 E.47173
G1 X119.507 Y29.152 E.01923
G1 X119.507 Y38.396 E.46394
G1 X119.124 Y38.396 E.01923
G1 X119.124 Y29.152 E.46394
G1 X118.741 Y29.152 E.01923
G1 X118.741 Y38.396 E.46394
G1 X118.358 Y38.396 E.01923
G1 X118.358 Y29.152 E.46394
G1 X117.974 Y29.152 E.01923
G1 X117.974 Y38.396 E.46394
G1 X117.591 Y38.396 E.01923
G1 X117.591 Y29.152 E.46394
G1 X117.208 Y29.152 E.01923
G1 X117.208 Y38.396 E.46394
G1 X116.825 Y38.396 E.01923
G1 X116.825 Y29.152 E.46394
G1 X116.441 Y29.152 E.01923
G1 X116.441 Y38.396 E.46394
G1 X116.058 Y38.396 E.01923
G1 X116.058 Y29.152 E.46394
G1 X115.675 Y29.152 E.01923
G1 X115.675 Y38.396 E.46394
G1 X115.292 Y38.396 E.01923
G1 X115.292 Y29.152 E.46394
G1 X114.909 Y29.152 E.01923
G1 X114.909 Y38.396 E.46394
G1 X114.525 Y38.396 E.01923
G1 X114.525 Y29.152 E.46394
G1 X114.142 Y29.152 E.01923
G1 X114.142 Y38.396 E.46394
G1 X113.759 Y38.396 E.01923
G1 X113.759 Y29.152 E.46394
G1 X113.376 Y29.152 E.01923
G1 X113.376 Y38.396 E.46394
G1 X112.993 Y38.396 E.01923
G1 X112.993 Y29.152 E.46394
G1 X112.609 Y29.152 E.01923
G1 X112.609 Y38.396 E.46394
G1 X112.226 Y38.396 E.01923
G1 X112.226 Y29.152 E.46394
G1 X111.843 Y29.152 E.01923
G1 X111.843 Y38.396 E.46394
G1 X111.46 Y38.396 E.01923
G1 X111.46 Y29.152 E.46394
G1 X111.077 Y29.152 E.01923
G1 X111.077 Y38.396 E.46394
G1 X110.693 Y38.396 E.01923
G1 X110.693 Y29.152 E.46394
G1 X110.31 Y29.152 E.01923
G1 X110.31 Y38.396 E.46394
G1 X109.927 Y38.396 E.01923
G1 X109.927 Y29.152 E.46394
G1 X109.544 Y29.152 E.01923
G1 X109.544 Y38.396 E.46394
G1 X109.161 Y38.396 E.01923
G1 X109.161 Y29.152 E.46394
G1 X108.777 Y29.152 E.01923
G1 X108.777 Y38.396 E.46394
G1 X108.394 Y38.396 E.01923
G1 X108.394 Y29.152 E.46394
G1 X108.011 Y29.152 E.01923
G1 X108.011 Y38.396 E.46394
G1 X107.628 Y38.396 E.01923
G1 X107.628 Y29.152 E.46394
G1 X107.244 Y29.152 E.01923
G1 X107.244 Y38.396 E.46394
G1 X106.861 Y38.396 E.01923
G1 X106.861 Y29.152 E.46394
G1 X106.478 Y29.152 E.01923
G1 X106.478 Y38.396 E.46394
G1 X106.095 Y38.396 E.01923
G1 X106.095 Y29.152 E.46394
G1 X105.712 Y29.152 E.01923
G1 X105.712 Y38.396 E.46394
G1 X105.328 Y38.396 E.01923
G1 X105.328 Y29.152 E.46394
G1 X104.945 Y29.152 E.01923
G1 X104.945 Y38.396 E.46394
G1 X104.562 Y38.396 E.01923
G1 X104.562 Y29.152 E.46394
G1 X104.179 Y29.152 E.01923
G1 X104.179 Y38.396 E.46394
G1 X103.796 Y38.396 E.01923
G1 X103.796 Y29.152 E.46394
G1 X103.412 Y29.152 E.01923
G1 X103.412 Y38.396 E.46394
G1 X103.029 Y38.396 E.01923
G1 X103.029 Y29.152 E.46394
G1 X102.646 Y29.152 E.01923
G1 X102.646 Y38.396 E.46394
G1 X102.263 Y38.396 E.01923
G1 X102.263 Y29.152 E.46394
G1 X101.88 Y29.152 E.01923
G1 X101.88 Y38.396 E.46394
G1 X101.496 Y38.396 E.01923
G1 X101.496 Y29.152 E.46394
G1 X101.113 Y29.152 E.01923
G1 X101.113 Y38.396 E.46394
G1 X100.73 Y38.396 E.01923
G1 X100.73 Y29.152 E.46394
G1 X100.347 Y29.152 E.01923
G1 X100.347 Y38.396 E.46394
G1 X99.963 Y38.396 E.01923
G1 X99.963 Y29.152 E.46394
G1 X99.58 Y29.152 E.01923
G1 X99.58 Y38.396 E.46394
G1 X99.197 Y38.396 E.01923
G1 X99.197 Y29.152 E.46394
G1 X98.814 Y29.152 E.01923
G1 X98.814 Y38.396 E.46394
G1 X98.431 Y38.396 E.01923
G1 X98.431 Y29.152 E.46394
G1 X98.047 Y29.152 E.01923
G1 X98.047 Y38.396 E.46394
G1 X97.664 Y38.396 E.01923
G1 X97.664 Y29.152 E.46394
G1 X97.281 Y29.152 E.01923
G1 X97.281 Y38.396 E.46394
G1 X96.898 Y38.396 E.01923
G1 X96.898 Y29.152 E.46394
G1 X96.515 Y29.152 E.01923
G1 X96.515 Y38.396 E.46394
G1 X96.131 Y38.396 E.01923
G1 X96.131 Y29.152 E.46394
G1 X95.748 Y29.152 E.01923
G1 X95.748 Y38.396 E.46394
G1 X95.365 Y38.396 E.01923
G1 X95.365 Y29.152 E.46394
G1 X94.982 Y29.152 E.01923
G1 X94.982 Y38.396 E.46394
G1 X94.599 Y38.396 E.01923
G1 X94.599 Y29.152 E.46394
G1 X94.215 Y29.152 E.01923
G1 X94.215 Y38.396 E.46394
G1 X93.832 Y38.396 E.01923
G1 X93.832 Y29.152 E.46394
G1 X93.449 Y29.152 E.01923
G1 X93.449 Y38.396 E.46394
G1 X93.066 Y38.396 E.01923
G1 X93.066 Y29.152 E.46394
G1 X92.682 Y29.152 E.01923
G1 X92.682 Y38.396 E.46394
G1 X92.299 Y38.396 E.01923
G1 X92.299 Y29.152 E.46394
G1 X91.916 Y29.152 E.01923
G1 X91.916 Y38.396 E.46394
G1 X91.533 Y38.396 E.01923
G1 X91.533 Y29.152 E.46394
G1 X91.15 Y29.152 E.01923
G1 X91.15 Y38.396 E.46394
G1 X90.766 Y38.396 E.01923
G1 X90.766 Y29.152 E.46394
G1 X90.383 Y29.152 E.01923
G1 X90.383 Y38.396 E.46394
G1 X90 Y38.396 E.01923
G1 X90 Y29.152 E.46394
G1 X89.617 Y29.152 E.01923
G1 X89.617 Y38.396 E.46394
G1 X89.234 Y38.396 E.01923
G1 X89.234 Y29.152 E.46394
G1 X88.85 Y29.152 E.01923
G1 X88.85 Y38.396 E.46394
G1 X88.467 Y38.396 E.01923
G1 X88.467 Y29.152 E.46394
G1 X88.084 Y29.152 E.01923
G1 X88.084 Y38.396 E.46394
G1 X87.701 Y38.396 E.01923
G1 X87.701 Y29.152 E.46394
G1 X87.318 Y29.152 E.01923
G1 X87.318 Y38.396 E.46394
G1 X86.934 Y38.396 E.01923
G1 X86.934 Y29.152 E.46394
G1 X86.551 Y29.152 E.01923
G1 X86.551 Y38.396 E.46394
G1 X86.168 Y38.396 E.01923
G1 X86.168 Y29.152 E.46394
G1 X85.785 Y29.152 E.01923
G1 X85.785 Y38.396 E.46394
G1 X85.401 Y38.396 E.01923
G1 X85.401 Y29.152 E.46394
G1 X85.018 Y29.152 E.01923
G1 X85.018 Y38.396 E.46394
G1 X84.635 Y38.396 E.01923
G1 X84.635 Y29.152 E.46394
G1 X84.252 Y29.152 E.01923
G1 X84.252 Y38.396 E.46394
G1 X83.869 Y38.396 E.01923
G1 X83.869 Y29.152 E.46394
G1 X83.485 Y29.152 E.01923
G1 X83.485 Y38.396 E.46394
G1 X83.102 Y38.396 E.01923
G1 X83.102 Y29.152 E.46394
G1 X82.719 Y29.152 E.01923
G1 X82.719 Y38.396 E.46394
G1 X82.336 Y38.396 E.01923
M73 P1 R96
G1 X82.336 Y29.152 E.46394
G1 X81.953 Y29.152 E.01923
G1 X81.953 Y38.396 E.46394
G1 X81.569 Y38.396 E.01923
G1 X81.569 Y29.152 E.46394
G1 X81.186 Y29.152 E.01923
G1 X81.186 Y38.396 E.46394
G1 X80.803 Y38.396 E.01923
G1 X80.803 Y29.152 E.46394
G1 X80.42 Y29.152 E.01923
G1 X80.42 Y38.396 E.46394
G1 X80.037 Y38.396 E.01923
G1 X80.037 Y29.152 E.46394
G1 X79.653 Y29.152 E.01923
G1 X79.653 Y38.396 E.46394
G1 X79.27 Y38.396 E.01923
G1 X79.27 Y29.152 E.46394
G1 X78.887 Y29.152 E.01923
G1 X78.887 Y38.396 E.46394
G1 X78.504 Y38.396 E.01923
G1 X78.504 Y29.152 E.46394
G1 X78.12 Y29.152 E.01923
G1 X78.12 Y38.396 E.46394
G1 X77.737 Y38.396 E.01923
G1 X77.737 Y29.152 E.46394
G1 X77.354 Y29.152 E.01923
G1 X77.354 Y38.396 E.46394
G1 X76.971 Y38.396 E.01923
G1 X76.971 Y29.152 E.46394
G1 X76.588 Y29.152 E.01923
G1 X76.588 Y38.396 E.46394
G1 X76.204 Y38.396 E.01923
G1 X76.204 Y29.152 E.46394
G1 X75.821 Y29.152 E.01923
G1 X75.821 Y38.396 E.46394
G1 X75.438 Y38.396 E.01923
G1 X75.438 Y29.152 E.46394
G1 X75.055 Y29.152 E.01923
G1 X75.055 Y38.396 E.46394
G1 X74.672 Y38.396 E.01923
G1 X74.672 Y29.152 E.46394
G1 X74.288 Y29.152 E.01923
G1 X74.288 Y38.396 E.46394
G1 X73.905 Y38.396 E.01923
G1 X73.905 Y29.152 E.46394
G1 X73.522 Y29.152 E.01923
G1 X73.522 Y38.396 E.46394
G1 X73.139 Y38.396 E.01923
G1 X73.139 Y29.152 E.46394
G1 X72.756 Y29.152 E.01923
G1 X72.756 Y38.396 E.46394
G1 X72.372 Y38.396 E.01923
G1 X72.372 Y29.152 E.46394
G1 X71.989 Y29.152 E.01923
G1 X71.989 Y38.396 E.46394
G1 X71.606 Y38.396 E.01923
G1 X71.606 Y29.152 E.46394
G1 X71.223 Y29.152 E.01923
G1 X71.223 Y38.396 E.46394
G1 X70.84 Y38.396 E.01923
G1 X70.84 Y29.152 E.46394
G1 X70.456 Y29.152 E.01923
G1 X70.456 Y38.396 E.46394
G1 X70.073 Y38.396 E.01923
G1 X70.073 Y29.152 E.46394
G1 X69.69 Y29.152 E.01923
G1 X69.69 Y38.396 E.46394
G1 X69.307 Y38.396 E.01923
G1 X69.307 Y29.152 E.46394
G1 X68.923 Y29.152 E.01923
G1 X68.923 Y38.396 E.46394
G1 X68.54 Y38.396 E.01923
G1 X68.54 Y29.152 E.46394
G1 X68.157 Y29.152 E.01923
G1 X68.157 Y38.396 E.46394
G1 X67.774 Y38.396 E.01923
G1 X67.774 Y29.152 E.46394
G1 X67.391 Y29.152 E.01923
G1 X67.391 Y38.396 E.46394
G1 X67.007 Y38.396 E.01923
G1 X67.007 Y29.152 E.46394
G1 X66.624 Y29.152 E.01923
G1 X66.624 Y38.396 E.46394
G1 X66.241 Y38.396 E.01923
G1 X66.241 Y29.152 E.46394
G1 X65.858 Y29.152 E.01923
M73 P1 R95
G1 X65.858 Y38.396 E.46394
G1 X65.475 Y38.396 E.01923
G1 X65.475 Y29.152 E.46394
G1 X65.091 Y29.152 E.01923
G1 X65.091 Y38.396 E.46394
G1 X64.708 Y38.396 E.01923
G1 X64.708 Y29.152 E.46394
G1 X64.325 Y29.152 E.01923
G1 X64.325 Y38.396 E.46394
G1 X63.942 Y38.396 E.01923
G1 X63.942 Y29.152 E.46394
G1 X63.559 Y29.152 E.01923
G1 X63.559 Y38.396 E.46394
G1 X63.175 Y38.396 E.01923
G1 X63.175 Y29.152 E.46394
G1 X62.792 Y29.152 E.01923
G1 X62.792 Y38.396 E.46394
G1 X62.409 Y38.396 E.01923
G1 X62.409 Y29.152 E.46394
G1 X62.026 Y29.152 E.01923
G1 X62.026 Y38.396 E.46394
G1 X61.642 Y38.396 E.01923
G1 X61.642 Y29.152 E.46394
G1 X61.259 Y29.152 E.01923
G1 X61.259 Y38.396 E.46394
G1 X60.876 Y38.396 E.01923
G1 X60.876 Y29.152 E.46394
G1 X60.493 Y29.152 E.01923
G1 X60.493 Y38.396 E.46394
G1 X60.11 Y38.396 E.01923
G1 X60.11 Y29.152 E.46394
G1 X59.726 Y29.152 E.01923
G1 X59.726 Y38.396 E.46394
G1 X59.343 Y38.396 E.01923
G1 X59.343 Y29.152 E.46394
G1 X58.96 Y29.152 E.01923
G1 X58.96 Y38.396 E.46394
G1 X58.577 Y38.396 E.01923
G1 X58.577 Y29.152 E.46394
G1 X58.194 Y29.152 E.01923
G1 X58.194 Y38.396 E.46394
G1 X57.81 Y38.396 E.01923
G1 X57.81 Y29.152 E.46394
G1 X57.427 Y29.152 E.01923
G1 X57.427 Y38.396 E.46394
G1 X57.044 Y38.396 E.01923
G1 X57.044 Y29.152 E.46394
G1 X56.661 Y29.152 E.01923
G1 X56.661 Y38.396 E.46394
G1 X56.278 Y38.396 E.01923
G1 X56.278 Y29.152 E.46394
G1 X55.894 Y29.152 E.01923
G1 X55.894 Y38.396 E.46394
G1 X55.511 Y38.396 E.01923
G1 X55.511 Y29.152 E.46394
G1 X55.128 Y29.152 E.01923
G1 X55.128 Y38.396 E.46394
G1 X54.745 Y38.396 E.01923
G1 X54.745 Y29.152 E.46394
G1 X54.361 Y29.152 E.01923
G1 X54.361 Y38.396 E.46394
G1 X53.978 Y38.396 E.01923
G1 X53.978 Y29.152 E.46394
G1 X53.595 Y29.152 E.01923
G1 X53.595 Y38.396 E.46394
G1 X53.212 Y38.396 E.01923
G1 X53.212 Y29.152 E.46394
G1 X52.829 Y29.152 E.01923
G1 X52.829 Y38.396 E.46394
G1 X52.445 Y38.396 E.01923
G1 X52.445 Y29.152 E.46394
G1 X52.062 Y29.152 E.01923
G1 X52.062 Y38.396 E.46394
G1 X51.679 Y38.396 E.01923
G1 X51.679 Y29.152 E.46394
G1 X51.296 Y29.152 E.01923
G1 X51.296 Y38.396 E.46394
G1 X50.913 Y38.396 E.01923
G1 X50.913 Y29.152 E.46394
G1 X50.529 Y29.152 E.01923
G1 X50.529 Y38.396 E.46394
G1 X50.146 Y38.396 E.01923
G1 X50.146 Y29.152 E.46394
G1 X49.763 Y29.152 E.01923
G1 X49.763 Y38.396 E.46394
G1 X49.38 Y38.396 E.01923
G1 X49.38 Y29.152 E.46394
G1 X48.997 Y29.152 E.01923
G1 X48.997 Y38.396 E.46394
G1 X48.613 Y38.396 E.01923
G1 X48.613 Y29.152 E.46394
G1 X48.23 Y29.152 E.01923
G1 X48.23 Y38.396 E.46394
G1 X47.847 Y38.396 E.01923
G1 X47.847 Y29.152 E.46394
G1 X47.464 Y29.152 E.01923
G1 X47.464 Y38.396 E.46394
G1 X47.08 Y38.396 E.01923
G1 X47.08 Y29.152 E.46394
G1 X46.697 Y29.152 E.01923
G1 X46.697 Y38.396 E.46394
G1 X46.314 Y38.396 E.01923
G1 X46.314 Y29.152 E.46394
G1 X45.931 Y29.152 E.01923
G1 X45.931 Y38.396 E.46394
G1 X45.548 Y38.396 E.01923
G1 X45.548 Y29.152 E.46394
G1 X45.164 Y29.152 E.01923
G1 X45.164 Y38.396 E.46394
G1 X44.781 Y38.396 E.01923
G1 X44.781 Y29.152 E.46394
G1 X44.398 Y29.152 E.01923
G1 X44.398 Y38.396 E.46394
G1 X44.015 Y38.396 E.01923
G1 X44.015 Y29.152 E.46394
G1 X43.632 Y29.152 E.01923
G1 X43.632 Y38.396 E.46394
G1 X43.248 Y38.396 E.01923
G1 X43.248 Y29.152 E.46394
G1 X42.865 Y29.152 E.01923
G1 X42.865 Y38.396 E.46394
G1 X42.482 Y38.396 E.01923
G1 X42.482 Y29.152 E.46394
G1 X42.099 Y29.152 E.01923
G1 X42.099 Y38.396 E.46394
G1 X41.716 Y38.396 E.01923
G1 X41.716 Y29.152 E.46394
G1 X41.332 Y29.152 E.01923
G1 X41.332 Y38.396 E.46394
G1 X40.949 Y38.396 E.01923
G1 X40.949 Y29.152 E.46394
G1 X40.566 Y29.152 E.01923
G1 X40.566 Y38.396 E.46394
G1 X40.183 Y38.396 E.01923
G1 X40.183 Y29.152 E.46394
G1 X39.799 Y29.152 E.01923
G1 X39.799 Y38.396 E.46394
G1 X39.416 Y38.396 E.01923
G1 X39.416 Y29.152 E.46394
G1 X39.033 Y29.152 E.01923
G1 X39.033 Y38.396 E.46394
G1 X38.65 Y38.396 E.01923
G1 X38.65 Y29.152 E.46394
G1 X38.267 Y29.152 E.01923
G1 X38.267 Y38.396 E.46394
G1 X37.883 Y38.396 E.01923
G1 X37.883 Y29.152 E.46394
G1 X37.5 Y29.152 E.01923
G1 X37.5 Y38.396 E.46394
G1 X37.117 Y38.396 E.01923
G1 X37.117 Y29.152 E.46394
G1 X36.734 Y29.152 E.01923
G1 X36.734 Y38.396 E.46394
G1 X36.351 Y38.396 E.01923
G1 X36.351 Y29.152 E.46394
G1 X35.967 Y29.152 E.01923
G1 X35.967 Y38.396 E.46394
G1 X35.584 Y38.396 E.01923
G1 X35.584 Y29.152 E.46394
G1 X35.201 Y29.152 E.01923
G1 X35.201 Y38.396 E.46394
G1 X34.818 Y38.396 E.01923
G1 X34.818 Y29.152 E.46394
G1 X34.435 Y29.152 E.01923
G1 X34.435 Y38.396 E.46394
G1 X34.051 Y38.396 E.01923
G1 X34.051 Y29.152 E.46394
G1 X33.668 Y29.152 E.01923
G1 X33.668 Y38.396 E.46394
G1 X33.285 Y38.396 E.01923
G1 X33.285 Y29.152 E.46394
G1 X32.902 Y29.152 E.01923
G1 X32.902 Y38.396 E.46394
G1 X32.519 Y38.396 E.01923
G1 X32.519 Y29.152 E.46394
G1 X32.135 Y29.152 E.01923
G1 X32.135 Y38.396 E.46394
G1 X31.752 Y38.396 E.01923
G1 X31.752 Y29.152 E.46394
G1 X31.369 Y29.152 E.01923
G1 X31.369 Y38.396 E.46394
G1 X30.986 Y38.396 E.01923
G1 X30.986 Y29.152 E.46394
G1 X30.602 Y29.152 E.01923
G1 X30.602 Y38.396 E.46394
G1 X30.219 Y38.396 E.01923
G1 X30.219 Y29.152 E.46394
G1 X29.836 Y29.152 E.01923
G1 X29.836 Y38.396 E.46394
G1 X29.453 Y38.396 E.01923
G1 X29.453 Y29.152 E.46394
G1 X29.07 Y29.152 E.01923
G1 X29.07 Y38.396 E.46394
G1 X28.686 Y38.396 E.01923
G1 X28.686 Y29.152 E.46394
G1 X28.303 Y29.152 E.01923
G1 X28.303 Y38.396 E.46394
G1 X27.92 Y38.396 E.01923
G1 X27.92 Y29.152 E.46394
G1 X27.537 Y29.152 E.01923
G1 X27.537 Y38.396 E.46394
G1 X27.154 Y38.396 E.01923
G1 X27.154 Y29.152 E.46394
G1 X26.77 Y29.152 E.01923
G1 X26.77 Y38.396 E.46394
G1 X26.387 Y38.396 E.01923
G1 X26.387 Y29.152 E.46394
G1 X26.004 Y29.152 E.01923
G1 X26.004 Y38.396 E.46394
G1 X25.621 Y38.396 E.01923
G1 X25.621 Y29.152 E.46394
G1 X25.238 Y29.152 E.01923
G1 X25.238 Y38.396 E.46394
G1 X24.854 Y38.396 E.01923
G1 X24.854 Y29.152 E.46394
G1 X24.471 Y29.152 E.01923
G1 X24.471 Y38.396 E.46394
G1 X24.088 Y38.396 E.01923
G1 X24.088 Y29.152 E.46394
G1 X23.705 Y29.152 E.01923
G1 X23.705 Y38.396 E.46394
G1 X23.321 Y38.396 E.01923
G1 X23.321 Y29.152 E.46394
G1 X22.938 Y29.152 E.01923
G1 X22.938 Y38.396 E.46394
G1 X22.555 Y38.396 E.01923
G1 X22.555 Y29.152 E.46394
G1 X22.172 Y29.152 E.01923
M73 P2 R95
G1 X22.172 Y38.396 E.46394
G1 X21.789 Y38.396 E.01923
G1 X21.789 Y29.152 E.46394
G1 X21.405 Y29.152 E.01923
G1 X21.405 Y38.396 E.46394
G1 X21.022 Y38.396 E.01923
G1 X21.022 Y29.152 E.46394
G1 X20.639 Y29.152 E.01923
G1 X20.639 Y38.396 E.46394
G1 X20.256 Y38.396 E.01923
G1 X20.256 Y29.152 E.46394
G1 X19.873 Y29.152 E.01923
G1 X19.873 Y38.396 E.46394
G1 X19.489 Y38.396 E.01923
G1 X19.489 Y29.152 E.46394
G1 X19.106 Y29.152 E.01923
G1 X19.106 Y38.396 E.46394
G1 X18.723 Y38.396 E.01923
G1 X18.723 Y29.152 E.46394
G1 X18.34 Y29.152 E.01923
G1 X18.34 Y38.396 E.46394
G1 X17.957 Y38.396 E.01923
G1 X17.957 Y29.152 E.46394
G1 X17.573 Y29.152 E.01923
G1 X17.573 Y38.396 E.46394
G1 X17.19 Y38.396 E.01923
G1 X17.19 Y29.152 E.46394
G1 X16.807 Y29.152 E.01923
