; generated by PrusaSlicer 2.5.0+win64 on 2022-12-07 at 00:05:29 UTC

; 

; external perimeters extrusion width = 1.00mm
; perimeters extrusion width = 1.00mm
; infill extrusion width = 1.00mm
; solid infill extrusion width = 1.00mm
; top infill extrusion width = 1.00mm
; support material extrusion width = 1.00mm
; first layer extrusion width = 0.42mm

M73 P0 R315
M107
;TYPE:Custom
G90 ; use absolute coordinates
M83 ; extruder relative mode
M140 S60 ; set final bed temp
M104 S150 ; set temporary nozzle temp to prevent oozing during homing and auto bed leveling
G4 S10 ; allow partial nozzle warmup
G28 ; home all axisG1 Z50 F240
G1 X7.6 Y10 F3000
M104 S210 ; set final nozzle temp
M190 S60 ; wait for bed temp to stabilize
M109 S210 ; wait for nozzle temp to stabilize
G1 Z0.28 F240
G92 E0
G1 Y140 E10 F1500 ; prime the nozzle
G1 X4 F5000
G92 E0
G1 Y10 E10 F1200 ; prime the nozzle
G92 E0
G21 ; set units to millimeters
G90 ; use absolute coordinates
M83 ; use relative distances for extrusion
; Filament gcode
M107
;LAYER_CHANGE
;Z:0.35
;HEIGHT:0.35
;BEFORE_LAYER_CHANGE
G92 E0
;0.35


G1 E-1 F3600
G1 Z.35 F7800
;AFTER_LAYER_CHANGE
;0.35
G1 X21.99 Y73.193
G1 E1 F2400
;TYPE:Support material
;WIDTH:0.42
G1 F1800
G1 X35.56 Y73.193 E.68106
G1 X35.56 Y76.586 E.17027
G1 X49.131 Y76.586 E.68106
G1 X49.131 Y79.978 E.17027
G1 X62.702 Y79.978 E.68106
G1 X62.702 Y83.371 E.17027
G1 X76.273 Y83.371 E.68106
G1 X76.273 Y93.549 E.5108
G1 X79.665 Y93.549 E.17027
G1 X79.665 Y103.727 E.5108
G1 X83.058 Y103.727 E.17027
G1 X83.058 Y113.905 E.5108
G1 X86.451 Y113.905 E.17027
G1 X86.451 Y124.083 E.5108
G1 X89.844 Y124.083 E.17027
G1 X89.844 Y130.869 E.34053
G1 X93.236 Y130.869 E.17027
G1 X93.236 Y141.047 E.5108
G1 X96.629 Y141.047 E.17027
G1 X96.629 Y151.225 E.5108
G1 X100.022 Y151.225 E.17027
G1 X100.022 Y167.876 E.83563
G1 X69.8 Y167.876 E1.51669
G1 X69.8 Y164.483 E.17027
G1 X59.622 Y164.483 E.5108
G1 X59.622 Y161.09 E.17027
G1 X52.837 Y161.09 E.34053
G1 X52.837 Y157.698 E.17027
G1 X49.444 Y157.698 E.17027
G1 X49.444 Y154.305 E.17027
G1 X46.051 Y154.305 E.17027
G1 X46.051 Y150.912 E.17027
G1 X39.266 Y150.912 E.34053
G1 X39.266 Y147.519 E.17027
G1 X35.873 Y147.519 E.17027
G1 X35.873 Y144.127 E.17027
G1 X32.481 Y144.127 E.17027
G1 X32.481 Y140.734 E.17027
G1 X29.088 Y140.734 E.17027
G1 X29.088 Y137.341 E.17027
G1 X22.302 Y137.341 E.34053
G1 X22.302 Y133.949 E.17027
G1 X18.91 Y133.949 E.17027
G1 X18.91 Y130.556 E.17027
G1 X15.517 Y130.556 E.17027
G1 X15.517 Y127.163 E.17027
G1 X8.732 Y127.163 E.34053
G1 X8.732 Y69.8 E2.87881
G1 X21.99 Y69.8 E.66536
G1 X21.99 Y73.141 E.16767
G1 X99.58 Y167.72 F7800
G1 F1800
G1 X99.58 Y151.535 E.81226
G1 X99.197 Y151.535 E.01923
G1 X99.197 Y167.565 E.80447
G1 X98.814 Y167.565 E.01923
G1 X98.814 Y151.535 E.80447
G1 X98.431 Y151.535 E.01923
G1 X98.431 Y167.565 E.80447
G1 X98.047 Y167.565 E.01923
G1 X98.047 Y151.535 E.80447
G1 X97.664 Y151.535 E.01923
G1 X97.664 Y167.565 E.80447
G1 X97.281 Y167.565 E.01923
G1 X97.281 Y151.535 E.80447
G1 X96.898 Y151.535 E.01923
G1 X96.898 Y167.565 E.80447
G1 X96.515 Y167.565 E.01923
G1 X96.515 Y151.535 E.80447
G1 X96.319 Y151.535 E.00984
G1 X96.319 Y141.357 E.5108
G1 X96.131 Y141.357 E.00939
G1 X96.131 Y167.565 E1.31527
G1 X95.748 Y167.565 E.01923
G1 X95.748 Y141.357 E1.31527
G1 X95.365 Y141.357 E.01923
G1 X95.365 Y167.565 E1.31527
G1 X94.982 Y167.565 E.01923
G1 X94.982 Y141.357 E1.31527
G1 X94.599 Y141.357 E.01923
G1 X94.599 Y167.565 E1.31527
G1 X94.215 Y167.565 E.01923
G1 X94.215 Y141.357 E1.31527
G1 X93.832 Y141.357 E.01923
G1 X93.832 Y167.565 E1.31527
G1 X93.449 Y167.565 E.01923
G1 X93.449 Y141.357 E1.31527
G1 X93.066 Y141.357 E.01923
G1 X93.066 Y167.565 E1.31527
G1 X92.682 Y167.565 E.01923
G1 X92.682 Y131.179 E1.82606
G1 X92.299 Y131.179 E.01923
G1 X92.299 Y167.565 E1.82606
G1 X91.916 Y167.565 E.01923
M73 P0 R314
G1 X91.916 Y131.179 E1.82606
G1 X91.533 Y131.179 E.01923
G1 X91.533 Y167.565 E1.82606
G1 X91.15 Y167.565 E.01923
G1 X91.15 Y131.179 E1.82606
G1 X90.766 Y131.179 E.01923
G1 X90.766 Y167.565 E1.82606
G1 X90.383 Y167.565 E.01923
G1 X90.383 Y131.179 E1.82606
G1 X90 Y131.179 E.01923
G1 X90 Y167.565 E1.82606
G1 X89.617 Y167.565 E.01923
G1 X89.617 Y131.179 E1.82606
G1 X89.533 Y131.179 E.0042
G1 X89.533 Y124.394 E.34053
G1 X89.234 Y124.394 E.01503
G1 X89.234 Y167.565 E2.1666
G1 X88.85 Y167.565 E.01923
G1 X88.85 Y124.394 E2.1666
G1 X88.467 Y124.394 E.01923
G1 X88.467 Y167.565 E2.1666
G1 X88.084 Y167.565 E.01923
G1 X88.084 Y124.394 E2.1666
G1 X87.701 Y124.394 E.01923
G1 X87.701 Y167.565 E2.1666
G1 X87.318 Y167.565 E.01923
G1 X87.318 Y124.394 E2.1666
G1 X86.934 Y124.394 E.01923
G1 X86.934 Y167.565 E2.1666
G1 X86.551 Y167.565 E.01923
G1 X86.551 Y124.394 E2.1666
G1 X86.168 Y124.394 E.01923
G1 X86.168 Y167.565 E2.1666
G1 X85.785 Y167.565 E.01923
G1 X85.785 Y114.216 E2.67739
G1 X85.401 Y114.216 E.01923
G1 X85.401 Y167.565 E2.67739
G1 X85.018 Y167.565 E.01923
G1 X85.018 Y114.216 E2.67739
G1 X84.635 Y114.216 E.01923
G1 X84.635 Y167.565 E2.67739
G1 X84.252 Y167.565 E.01923
G1 X84.252 Y114.216 E2.67739
G1 X83.869 Y114.216 E.01923
G1 X83.869 Y167.565 E2.67739
G1 X83.485 Y167.565 E.01923
G1 X83.485 Y114.216 E2.67739
G1 X83.102 Y114.216 E.01923
G1 X83.102 Y167.565 E2.67739
G1 X82.719 Y167.565 E.01923
G1 X82.719 Y104.038 E3.18819
G1 X82.336 Y104.038 E.01923
G1 X82.336 Y167.565 E3.18819
G1 X81.953 Y167.565 E.01923
G1 X81.953 Y104.038 E3.18819
G1 X81.569 Y104.038 E.01923
G1 X81.569 Y167.565 E3.18819
G1 X81.186 Y167.565 E.01923
G1 X81.186 Y104.038 E3.18819
G1 X80.803 Y104.038 E.01923
G1 X80.803 Y167.565 E3.18819
G1 X80.42 Y167.565 E.01923
G1 X80.42 Y104.038 E3.18819
G1 X80.037 Y104.038 E.01923
G1 X80.037 Y167.565 E3.18819
G1 X79.653 Y167.565 E.01923
G1 X79.653 Y104.038 E3.18819
G1 X79.355 Y104.038 E.01497
G1 X79.355 Y93.86 E.5108
G1 X79.27 Y93.86 E.00426
G1 X79.27 Y167.565 E3.69899
G1 X78.887 Y167.565 E.01923
M73 P0 R313
G1 X78.887 Y93.86 E3.69899
G1 X78.504 Y93.86 E.01923
G1 X78.504 Y167.565 E3.69899
G1 X78.12 Y167.565 E.01923
G1 X78.12 Y93.86 E3.69899
G1 X77.737 Y93.86 E.01923
G1 X77.737 Y167.565 E3.69899
G1 X77.354 Y167.565 E.01923
G1 X77.354 Y93.86 E3.69899
G1 X76.971 Y93.86 E.01923
G1 X76.971 Y167.565 E3.69899
G1 X76.588 Y167.565 E.01923
G1 X76.588 Y93.86 E3.69899
G1 X76.204 Y93.86 E.01923
G1 X76.204 Y167.565 E3.69899
G1 X75.821 Y167.565 E.01923
G1 X75.821 Y83.681 E4.20978
G1 X75.438 Y83.681 E.01923
G1 X75.438 Y167.565 E4.20978
G1 X75.055 Y167.565 E.01923
G1 X75.055 Y83.681 E4.20978
G1 X74.672 Y83.681 E.01923
G1 X74.672 Y167.565 E4.20978
G1 X74.288 Y167.565 E.01923
G1 X74.288 Y83.681 E4.20978
G1 X73.905 Y83.681 E.01923
G1 X73.905 Y167.565 E4.20978
G1 X73.522 Y167.565 E.01923
G1 X73.522 Y83.681 E4.20978
G1 X73.139 Y83.681 E.01923
G1 X73.139 Y167.565 E4.20978
G1 X72.756 Y167.565 E.01923
G1 X72.756 Y83.681 E4.20978
G1 X72.372 Y83.681 E.01923
G1 X72.372 Y167.565 E4.20978
G1 X71.989 Y167.565 E.01923
G1 X71.989 Y83.681 E4.20978
G1 X71.606 Y83.681 E.01923
G1 X71.606 Y167.565 E4.20978
G1 X71.223 Y167.565 E.01923
G1 X71.223 Y83.681 E4.20978
G1 X70.84 Y83.681 E.01923
G1 X70.839 Y167.565 E4.20978
G1 X70.456 Y167.565 E.01923
M73 P0 R312
G1 X70.456 Y83.681 E4.20978
G1 X70.073 Y83.681 E.01923
G1 X70.073 Y164.173 E4.03952
G1 X69.69 Y164.173 E.01923
G1 X69.69 Y83.681 E4.03952
G1 X69.307 Y83.681 E.01923
G1 X69.307 Y164.173 E4.03952
G1 X68.923 Y164.173 E.01923
G1 X68.923 Y83.681 E4.03952
G1 X68.54 Y83.681 E.01923
G1 X68.54 Y164.173 E4.03952
G1 X68.157 Y164.173 E.01923
G1 X68.157 Y83.681 E4.03952
G1 X67.774 Y83.681 E.01923
G1 X67.774 Y164.173 E4.03952
G1 X67.391 Y164.173 E.01923
G1 X67.391 Y83.681 E4.03952
G1 X67.007 Y83.681 E.01923
M73 P1 R312
G1 X67.007 Y164.173 E4.03952
G1 X66.624 Y164.173 E.01923
G1 X66.624 Y83.681 E4.03952
G1 X66.241 Y83.681 E.01923
G1 X66.241 Y164.173 E4.03952
G1 X65.858 Y164.173 E.01923
G1 X65.858 Y83.681 E4.03952
G1 X65.475 Y83.681 E.01923
G1 X65.475 Y164.173 E4.03952
G1 X65.091 Y164.173 E.01923
G1 X65.091 Y83.681 E4.03952
G1 X64.708 Y83.681 E.01923
G1 X64.708 Y164.173 E4.03952
G1 X64.325 Y164.173 E.01923
G1 X64.325 Y83.681 E4.03952
G1 X63.942 Y83.681 E.01923
G1 X63.942 Y164.173 E4.03952
G1 X63.559 Y164.173 E.01923
G1 X63.559 Y83.681 E4.03952
G1 X63.175 Y83.681 E.01923
G1 X63.175 Y164.173 E4.03952
G1 X62.792 Y164.173 E.01923
G1 X62.792 Y83.681 E4.03952
G1 X62.409 Y83.681 E.01923
G1 X62.409 Y164.173 E4.03952
G1 X62.026 Y164.173 E.01923
M73 P1 R311
G1 X62.026 Y80.289 E4.20978
G1 X61.642 Y80.289 E.01923
G1 X61.642 Y164.173 E4.20978
G1 X61.259 Y164.173 E.01923
G1 X61.259 Y80.289 E4.20978
G1 X60.876 Y80.289 E.01923
G1 X60.876 Y164.173 E4.20978
G1 X60.493 Y164.173 E.01923
G1 X60.493 Y80.289 E4.20978
G1 X60.11 Y80.289 E.01923
G1 X60.11 Y164.173 E4.20978
G1 X59.933 Y164.173 E.00889
G1 X59.933 Y160.78 E.17027
G1 X59.726 Y160.78 E.01035
G1 X59.726 Y80.289 E4.03952
G1 X59.343 Y80.289 E.01923
G1 X59.343 Y160.78 E4.03952
G1 X58.96 Y160.78 E.01923
G1 X58.96 Y80.289 E4.03952
G1 X58.577 Y80.289 E.01923
G1 X58.577 Y160.78 E4.03952
G1 X58.194 Y160.78 E.01923
G1 X58.194 Y80.289 E4.03952
G1 X57.81 Y80.289 E.01923
G1 X57.81 Y160.78 E4.03952
G1 X57.427 Y160.78 E.01923
G1 X57.427 Y80.289 E4.03952
G1 X57.044 Y80.289 E.01923
G1 X57.044 Y160.78 E4.03952
G1 X56.661 Y160.78 E.01923
G1 X56.661 Y80.289 E4.03952
G1 X56.278 Y80.289 E.01923
G1 X56.278 Y160.78 E4.03952
G1 X55.894 Y160.78 E.01923
G1 X55.894 Y80.289 E4.03952
G1 X55.511 Y80.289 E.01923
G1 X55.511 Y160.78 E4.03952
G1 X55.128 Y160.78 E.01923
G1 X55.128 Y80.289 E4.03952
G1 X54.745 Y80.289 E.01923
G1 X54.745 Y160.78 E4.03952
G1 X54.361 Y160.78 E.01923
G1 X54.361 Y80.289 E4.03952
G1 X53.978 Y80.289 E.01923
M73 P1 R310
G1 X53.978 Y160.78 E4.03952
G1 X53.595 Y160.78 E.01923
G1 X53.595 Y80.289 E4.03952
G1 X53.212 Y80.289 E.01923
G1 X53.212 Y160.78 E4.03952
G1 X53.147 Y160.78 E.00325
G1 X53.147 Y157.387 E.17027
G1 X52.829 Y157.387 E.01599
G1 X52.829 Y80.289 E3.86925
G1 X52.445 Y80.289 E.01923
G1 X52.445 Y157.387 E3.86925
G1 X52.062 Y157.387 E.01923
G1 X52.062 Y80.289 E3.86925
G1 X51.679 Y80.289 E.01923
G1 X51.679 Y157.387 E3.86925
G1 X51.296 Y157.387 E.01923
G1 X51.296 Y80.289 E3.86925
G1 X50.913 Y80.289 E.01923
G1 X50.913 Y157.387 E3.86925
G1 X50.529 Y157.387 E.01923
G1 X50.529 Y80.289 E3.86925
G1 X50.146 Y80.289 E.01923
G1 X50.146 Y157.387 E3.86925
G1 X49.763 Y157.387 E.01923
G1 X49.763 Y80.289 E3.86925
G1 X49.38 Y80.289 E.01923
G1 X49.38 Y153.994 E3.69899
G1 X48.997 Y153.994 E.01923
G1 X48.997 Y80.289 E3.69899
G1 X48.821 Y80.289 E.00882
G1 X48.821 Y76.896 E.17027
G1 X48.613 Y76.896 E.01041
G1 X48.613 Y153.994 E3.86925
G1 X48.23 Y153.994 E.01923
G1 X48.23 Y76.896 E3.86925
G1 X47.847 Y76.896 E.01923
G1 X47.847 Y153.994 E3.86925
G1 X47.464 Y153.994 E.01923
G1 X47.464 Y76.896 E3.86925
G1 X47.08 Y76.896 E.01923
G1 X47.08 Y153.994 E3.86925
G1 X46.697 Y153.994 E.01923
G1 X46.697 Y76.896 E3.86925
G1 X46.314 Y76.896 E.01923
G1 X46.314 Y150.602 E3.69899
G1 X45.931 Y150.602 E.01923
G1 X45.931 Y76.896 E3.69899
G1 X45.548 Y76.896 E.01923
G1 X45.548 Y150.602 E3.69899
G1 X45.164 Y150.602 E.01923
M73 P1 R309
G1 X45.164 Y76.896 E3.69899
G1 X44.781 Y76.896 E.01923
G1 X44.781 Y150.602 E3.69899
G1 X44.398 Y150.602 E.01923
G1 X44.398 Y76.896 E3.69899
G1 X44.015 Y76.896 E.01923
G1 X44.015 Y150.602 E3.69899
G1 X43.632 Y150.602 E.01923
G1 X43.632 Y76.896 E3.69899
G1 X43.248 Y76.896 E.01923
G1 X43.248 Y150.602 E3.69899
G1 X42.865 Y150.602 E.01923
G1 X42.865 Y76.896 E3.69899
G1 X42.482 Y76.896 E.01923
G1 X42.482 Y150.602 E3.69899
G1 X42.099 Y150.602 E.01923
G1 X42.099 Y76.896 E3.69899
G1 X41.716 Y76.896 E.01923
G1 X41.716 Y150.602 E3.69899
G1 X41.332 Y150.602 E.01923
G1 X41.332 Y76.896 E3.69899
G1 X40.949 Y76.896 E.01923
G1 X40.949 Y150.602 E3.69899
G1 X40.566 Y150.602 E.01923
G1 X40.566 Y76.896 E3.69899
G1 X40.183 Y76.896 E.01923
G1 X40.183 Y150.602 E3.69899
G1 X39.799 Y150.602 E.01923
M73 P2 R309
G1 X39.799 Y76.896 E3.69899
G1 X39.416 Y76.896 E.01923
G1 X39.416 Y147.209 E3.52872
G1 X39.033 Y147.209 E.01923
G1 X39.033 Y76.896 E3.52872
G1 X38.65 Y76.896 E.01923
G1 X38.65 Y147.209 E3.52872
G1 X38.267 Y147.209 E.01923
G1 X38.267 Y76.896 E3.52872
G1 X37.883 Y76.896 E.01923
G1 X37.883 Y147.209 E3.52872
G1 X37.5 Y147.209 E.01923
G1 X37.5 Y76.896 E3.52872
G1 X37.117 Y76.896 E.01923
G1 X37.117 Y147.209 E3.52872
G1 X36.734 Y147.209 E.01923
G1 X36.734 Y76.896 E3.52872
G1 X36.351 Y76.896 E.01923
G1 X36.351 Y147.209 E3.52872
G1 X36.184 Y147.209 E.00838
M73 P2 R308
G1 X36.184 Y143.816 E.17027
G1 X35.967 Y143.816 E.01085
G1 X35.967 Y76.896 E3.35846
G1 X35.584 Y76.896 E.01923
G1 X35.584 Y143.816 E3.35846
G1 X35.201 Y143.816 E.01923
G1 X35.201 Y73.503 E3.52872
G1 X34.818 Y73.503 E.01923
G1 X34.818 Y143.816 E3.52872
G1 X34.435 Y143.816 E.01923
G1 X34.435 Y73.503 E3.52872
G1 X34.051 Y73.503 E.01923
G1 X34.051 Y143.816 E3.52872
G1 X33.668 Y143.816 E.01923
G1 X33.668 Y73.503 E3.52872
G1 X33.285 Y73.503 E.01923
G1 X33.285 Y143.816 E3.52872
G1 X32.902 Y143.816 E.01923
G1 X32.902 Y73.503 E3.52872
G1 X32.519 Y73.503 E.01923
G1 X32.518 Y140.424 E3.35846
G1 X32.135 Y140.424 E.01923
G1 X32.135 Y73.503 E3.35846
G1 X31.752 Y73.503 E.01923
G1 X31.752 Y140.424 E3.35846
G1 X31.369 Y140.424 E.01923
G1 X31.369 Y73.503 E3.35846
G1 X30.986 Y73.503 E.01923
G1 X30.986 Y140.424 E3.35846
G1 X30.602 Y140.424 E.01923
G1 X30.602 Y73.503 E3.35846
G1 X30.219 Y73.503 E.01923
G1 X30.219 Y140.424 E3.35846
G1 X29.836 Y140.424 E.01923
G1 X29.836 Y73.503 E3.35846
G1 X29.453 Y73.503 E.01923
G1 X29.453 Y140.424 E3.35846
G1 X29.398 Y140.424 E.00274
G1 X29.398 Y137.031 E.17027
G1 X29.07 Y137.031 E.01649
G1 X29.07 Y73.503 E3.18819
G1 X28.686 Y73.503 E.01923
G1 X28.686 Y137.031 E3.18819
G1 X28.303 Y137.031 E.01923
G1 X28.303 Y73.503 E3.18819
G1 X27.92 Y73.503 E.01923
G1 X27.92 Y137.031 E3.18819
G1 X27.537 Y137.031 E.01923
G1 X27.537 Y73.503 E3.18819
G1 X27.154 Y73.503 E.01923
G1 X27.154 Y137.031 E3.18819
G1 X26.77 Y137.031 E.01923
G1 X26.77 Y73.503 E3.18819
G1 X26.387 Y73.503 E.01923
G1 X26.387 Y137.031 E3.18819
G1 X26.004 Y137.031 E.01923
M73 P2 R307
G1 X26.004 Y73.503 E3.18819
G1 X25.621 Y73.503 E.01923
G1 X25.621 Y137.031 E3.18819
G1 X25.238 Y137.031 E.01923
G1 X25.238 Y73.503 E3.18819
G1 X24.854 Y73.503 E.01923
G1 X24.854 Y137.031 E3.18819
G1 X24.471 Y137.031 E.01923
G1 X24.471 Y73.503 E3.18819
G1 X24.088 Y73.503 E.01923
G1 X24.088 Y137.031 E3.18819
G1 X23.705 Y137.031 E.01923
G1 X23.705 Y73.503 E3.18819
G1 X23.321 Y73.503 E.01923
G1 X23.321 Y137.031 E3.18819
G1 X22.938 Y137.031 E.01923
G1 X22.938 Y73.503 E3.18819
G1 X22.555 Y73.503 E.01923
G1 X22.555 Y133.638 E3.01793
G1 X22.172 Y133.638 E.01923
G1 X22.172 Y73.503 E3.01793
G1 X21.789 Y73.503 E.01923
G1 X21.789 Y133.638 E3.01793
G1 X21.405 Y133.638 E.01923
G1 X21.405 Y70.111 E3.18819
G1 X21.022 Y70.111 E.01923
G1 X21.022 Y133.638 E3.18819
G1 X20.639 Y133.638 E.01923
G1 X20.639 Y70.111 E3.18819
G1 X20.256 Y70.111 E.01923
G1 X20.256 Y133.638 E3.18819
G1 X19.873 Y133.638 E.01923
G1 X19.873 Y70.111 E3.18819
G1 X19.489 Y70.111 E.01923
G1 X19.489 Y133.638 E3.18819
G1 X19.22 Y133.638 E.01351
G1 X19.22 Y130.246 E.17027
G1 X19.106 Y130.246 E.00572
G1 X19.106 Y70.111 E3.01793
G1 X18.723 Y70.111 E.01923
G1 X18.723 Y130.246 E3.01793
G1 X18.34 Y130.246 E.01923
G1 X18.34 Y70.111 E3.01793
G1 X17.957 Y70.111 E.01923
G1 X17.957 Y130.246 E3.01793
G1 X17.573 Y130.246 E.01923
G1 X17.573 Y70.111 E3.01793
G1 X17.19 Y70.111 E.01923
G1 X17.19 Y130.246 E3.01793
G1 X16.807 Y130.246 E.01923
G1 X16.807 Y70.111 E3.01793
G1 X16.424 Y70.111 E.01923
G1 X16.424 Y130.246 E3.01793
G1 X16.04 Y130.246 E.01923
G1 X16.04 Y70.111 E3.01793
G1 X15.657 Y70.111 E.01923
G1 X15.657 Y126.853 E2.84766
G1 X15.274 Y126.853 E.01923
G1 X15.274 Y70.111 E2.84766
G1 X14.891 Y70.111 E.01923
M73 P2 R306
G1 X14.891 Y126.853 E2.84766
G1 X14.508 Y126.853 E.01923
G1 X14.508 Y70.111 E2.84766
G1 X14.124 Y70.111 E.01923
G1 X14.124 Y126.853 E2.84766
G1 X13.741 Y126.853 E.01923
G1 X13.741 Y70.111 E2.84766
G1 X13.358 Y70.111 E.01923
G1 X13.358 Y126.853 E2.84766
G1 X12.975 Y126.853 E.01923
G1 X12.975 Y70.111 E2.84766
G1 X12.592 Y70.111 E.01923
G1 X12.592 Y126.853 E2.84766
G1 X12.208 Y126.853 E.01923
G1 X12.208 Y70.111 E2.84766
