; generated by PrusaSlicer 2.5.0+win64 on 2022-12-07 at 00:11:11 UTC

; 

; external perimeters extrusion width = 1.00mm
; perimeters extrusion width = 1.00mm
; infill extrusion width = 1.00mm
; solid infill extrusion width = 1.00mm
; top infill extrusion width = 1.00mm
; support material extrusion width = 1.00mm
; first layer extrusion width = 0.42mm

M73 P0 R174
M107
;TYPE:Custom
G90 ; use absolute coordinates
M83 ; extruder relative mode
M140 S60 ; set final bed temp
M104 S150 ; set temporary nozzle temp to prevent oozing during homing and auto bed leveling
G4 S10 ; allow partial nozzle warmup
G28 ; home all axisG1 Z50 F240
G1 X7.6 Y10 F3000
M104 S210 ; set final nozzle temp
M190 S60 ; wait for bed temp to stabilize
M109 S210 ; wait for nozzle temp to stabilize
G1 Z0.28 F240
G92 E0
G1 Y140 E10 F1500 ; prime the nozzle
G1 X4 F5000
G92 E0
G1 Y10 E10 F1200 ; prime the nozzle
G92 E0
G21 ; set units to millimeters
G90 ; use absolute coordinates
M83 ; use relative distances for extrusion
; Filament gcode
M107
;LAYER_CHANGE
;Z:0.35
;HEIGHT:0.35
;BEFORE_LAYER_CHANGE
G92 E0
;0.35


G1 E-1 F3600
M73 P0 R173
G1 Z.35 F7800
;AFTER_LAYER_CHANGE
;0.35
G1 X110.23 Y134.262
G1 E1 F2400
;TYPE:Support material
;WIDTH:0.42
G1 F1800
G1 X113.623 Y134.262 E.17027
G1 X113.623 Y150.912 E.83563
G1 X110.23 Y150.912 E.17027
G1 X110.23 Y157.698 E.34053
G1 X96.973 Y157.698 E.66536
G1 X96.973 Y124.083 E1.68695
G1 X110.23 Y124.083 E.66536
G1 X110.23 Y134.21 E.5082
G1 X113.023 Y150.757 F7800
G1 F1800
G1 X113.023 Y134.572 E.81226
G1 X112.64 Y134.572 E.01923
G1 X112.64 Y150.602 E.80447
G1 X112.257 Y150.602 E.01923
G1 X112.257 Y134.572 E.80447
G1 X111.874 Y134.572 E.01923
G1 X111.874 Y150.602 E.80447
G1 X111.491 Y150.602 E.01923
G1 X111.491 Y134.572 E.80447
G1 X111.107 Y134.572 E.01923
G1 X111.107 Y150.602 E.80447
G1 X110.724 Y150.602 E.01923
G1 X110.724 Y134.572 E.80447
G1 X110.341 Y134.572 E.01923
G1 X110.341 Y150.602 E.80447
G1 X109.958 Y150.602 E.01923
G1 X109.958 Y134.572 E.80447
G1 X109.92 Y134.572 E.00189
G1 X109.92 Y124.394 E.5108
G1 X109.574 Y124.394 E.01735
G1 X109.574 Y157.387 E1.6558
G1 X109.191 Y157.387 E.01923
G1 X109.191 Y124.394 E1.6558
G1 X108.808 Y124.394 E.01923
G1 X108.808 Y157.387 E1.6558
G1 X108.425 Y157.387 E.01923
G1 X108.425 Y124.394 E1.6558
G1 X108.042 Y124.394 E.01923
G1 X108.042 Y157.387 E1.6558
G1 X107.658 Y157.387 E.01923
G1 X107.658 Y124.394 E1.6558
G1 X107.275 Y124.394 E.01923
G1 X107.275 Y157.387 E1.6558
G1 X106.892 Y157.387 E.01923
G1 X106.892 Y124.394 E1.6558
G1 X106.509 Y124.394 E.01923
G1 X106.509 Y157.387 E1.6558
G1 X106.126 Y157.387 E.01923
G1 X106.126 Y124.394 E1.6558
G1 X105.742 Y124.394 E.01923
G1 X105.742 Y157.387 E1.6558
G1 X105.359 Y157.387 E.01923
G1 X105.359 Y124.394 E1.6558
G1 X104.976 Y124.394 E.01923
G1 X104.976 Y157.387 E1.6558
G1 X104.593 Y157.387 E.01923
G1 X104.593 Y124.394 E1.6558
G1 X104.21 Y124.394 E.01923
G1 X104.21 Y157.387 E1.6558
G1 X103.826 Y157.387 E.01923
G1 X103.826 Y124.394 E1.6558
G1 X103.443 Y124.394 E.01923
G1 X103.443 Y157.387 E1.6558
G1 X103.06 Y157.387 E.01923
G1 X103.06 Y124.394 E1.6558
G1 X102.677 Y124.394 E.01923
G1 X102.677 Y157.387 E1.6558
G1 X102.293 Y157.387 E.01923
G1 X102.293 Y124.394 E1.6558
G1 X101.91 Y124.394 E.01923
G1 X101.91 Y157.387 E1.6558
G1 X101.527 Y157.387 E.01923
G1 X101.527 Y124.394 E1.6558
G1 X101.144 Y124.394 E.01923
G1 X101.144 Y157.387 E1.6558
G1 X100.761 Y157.387 E.01923
G1 X100.761 Y124.394 E1.6558
G1 X100.377 Y124.394 E.01923
G1 X100.377 Y157.387 E1.6558
G1 X99.994 Y157.387 E.01923
G1 X99.994 Y124.394 E1.6558
G1 X99.611 Y124.394 E.01923
G1 X99.611 Y157.387 E1.6558
G1 X99.228 Y157.387 E.01923
G1 X99.228 Y124.394 E1.6558
G1 X98.845 Y124.394 E.01923
G1 X98.845 Y157.387 E1.6558
G1 X98.461 Y157.387 E.01923
G1 X98.461 Y124.394 E1.6558
G1 X98.078 Y124.394 E.01923
G1 X98.078 Y157.387 E1.6558
G1 X97.695 Y157.387 E.01923
G1 X97.695 Y124.394 E1.6558
G1 X97.312 Y124.394 E.01923
G1 X97.312 Y157.542 E1.66359
G1 E-.7 F3600
;WIPE_START
G1 F6240
G1 X97.312 Y157.022 E-.285
;WIPE_END
G1 E-.015 F3600
G1 X94.538 Y163.182 F7800
G1 E1 F2400
;TYPE:Perimeter
;WIDTH:0.42
G1 F1800
G1 X81.083 Y163.182 E.67524
G1 X80.726 Y98.906 E3.2258
G1 X80.77 Y19.344 E3.99286
G1 X81.326 Y16.818 E.1298
G1 X95.166 Y16.818 E.69457
G1 X94.615 Y19.384 E.13168
G1 X94.538 Y163.032 E7.20911
G1 X94.883 Y163.527 F7800
;TYPE:External perimeter
M73 P0 R172
G1 F1800
G1 X80.74 Y163.527 E.70975
G1 X80.382 Y98.906 E3.24307
G1 X80.425 Y19.306 E3.99479
G1 X81.049 Y16.473 E.14559
G1 X95.595 Y16.473 E.73
G1 X94.96 Y19.384 E.1495
G1 X94.883 Y163.377 E7.22641
G1 X94.018 Y163.025 F7800
G1 E-.7 F3600
;WIPE_START
G1 F6240
G1 X94.363 Y163.382 E-.285
;WIPE_END
G1 E-.015 F3600
G1 X94.344 Y16.922 F7800
G1 E1 F2400
;TYPE:Solid infill
;WIDTH:0.420215
G1 F1800
G1 X94.782 Y17.36 E.03112
G1 X94.695 Y17.76 E.02057
G1 X94.011 Y17.077 E.04851
G1 X93.523 Y17.077 E.02451
G1 X94.607 Y18.16 E.07693
G1 X94.519 Y18.56 E.02057
G1 X93.035 Y17.077 E.10534
G1 X92.547 Y17.077 E.02451
G1 X94.431 Y18.96 E.13375
G1 X94.357 Y19.374 E.02112
G1 X92.059 Y17.077 E.16315
G1 X91.571 Y17.077 E.02451
G1 X94.356 Y19.862 E.19776
G1 X94.356 Y20.349 E.0245
G1 X91.083 Y17.077 E.2324
G1 X90.595 Y17.077 E.02451
G1 X94.355 Y20.837 E.26704
G1 X94.355 Y21.325 E.0245
G1 X90.107 Y17.077 E.30168
G1 X89.619 Y17.077 E.02451
G1 X94.355 Y21.813 E.33633
G1 X94.354 Y22.301 E.0245
G1 X89.131 Y17.077 E.37097
G1 X88.643 Y17.077 E.02451
G1 X94.354 Y22.788 E.40561
G1 X94.354 Y23.276 E.0245
G1 X88.155 Y17.077 E.44025
G1 X87.667 Y17.077 E.02451
G1 X94.354 Y23.764 E.47489
G1 X94.353 Y24.252 E.0245
G1 X87.179 Y17.077 E.50954
G1 X86.691 Y17.077 E.02451
G1 X94.353 Y24.74 E.54418
G1 X94.353 Y25.227 E.0245
G1 X86.203 Y17.077 E.57882
G1 X85.715 Y17.077 E.02451
G1 X94.353 Y25.715 E.61346
G1 X94.352 Y26.203 E.0245
G1 X85.226 Y17.077 E.6481
G1 X84.738 Y17.077 E.02451
G1 X94.352 Y26.691 E.68274
G1 X94.352 Y27.178 E.0245
G1 X84.25 Y17.077 E.71739
G1 X83.762 Y17.077 E.02451
G1 X94.352 Y27.666 E.75203
G1 X94.351 Y28.154 E.0245
G1 X83.274 Y17.077 E.78667
G1 X82.786 Y17.077 E.02451
G1 X94.351 Y28.642 E.82131
G1 X94.351 Y29.13 E.0245
G1 X82.298 Y17.077 E.85595
G1 X81.81 Y17.077 E.02451
G1 X94.351 Y29.617 E.8906
G1 X94.35 Y30.105 E.0245
G1 X81.496 Y17.251 E.91288
G1 X81.408 Y17.651 E.02057
G1 X94.35 Y30.593 E.91912
G1 X94.35 Y31.081 E.0245
G1 X81.32 Y18.051 E.92536
G1 X81.232 Y18.451 E.02057
G1 X94.35 Y31.569 E.9316
G1 X94.349 Y32.056 E.0245
G1 X81.144 Y18.851 E.93784
G1 X81.056 Y19.251 E.02057
G1 X94.349 Y32.544 E.94408
G1 X94.349 Y33.032 E.0245
G1 X81.029 Y19.712 E.94598
G1 X81.028 Y20.199 E.0245
G1 X94.349 Y33.52 E.94598
G1 X94.348 Y34.008 E.0245
G1 X81.028 Y20.687 E.94598
G1 X81.028 Y21.175 E.0245
G1 X94.348 Y34.495 E.94598
G1 X94.348 Y34.983 E.0245
G1 X81.027 Y21.663 E.94598
G1 X81.027 Y22.151 E.0245
G1 X94.347 Y35.471 E.94598
G1 X94.347 Y35.959 E.0245
G1 X81.027 Y22.638 E.94598
G1 X81.027 Y23.126 E.0245
G1 X94.347 Y36.447 E.94598
G1 X94.347 Y36.934 E.0245
M73 P1 R172
G1 X81.026 Y23.614 E.94598
G1 X81.026 Y24.102 E.0245
G1 X94.346 Y37.422 E.94598
G1 X94.346 Y37.91 E.0245
G1 X81.026 Y24.59 E.94598
G1 X81.026 Y25.077 E.0245
G1 X94.346 Y38.398 E.94598
G1 X94.346 Y38.885 E.0245
G1 X81.025 Y25.565 E.94598
G1 X81.025 Y26.053 E.0245
G1 X94.345 Y39.373 E.94598
G1 X94.345 Y39.861 E.0245
G1 X81.025 Y26.541 E.94599
G1 X81.024 Y27.028 E.0245
G1 X94.345 Y40.349 E.94599
G1 X94.345 Y40.837 E.0245
G1 X81.024 Y27.516 E.94599
G1 X81.024 Y28.004 E.0245
G1 X94.344 Y41.324 E.94599
G1 X94.344 Y41.812 E.0245
G1 X81.024 Y28.492 E.94599
G1 X81.023 Y28.98 E.0245
G1 X94.344 Y42.3 E.94599
G1 X94.344 Y42.788 E.0245
G1 X81.023 Y29.467 E.94599
G1 X81.023 Y29.955 E.0245
G1 X94.343 Y43.276 E.94599
G1 X94.343 Y43.763 E.0245
G1 X81.023 Y30.443 E.94599
G1 X81.022 Y30.931 E.0245
G1 X94.343 Y44.251 E.94599
G1 X94.343 Y44.739 E.0245
G1 X81.022 Y31.418 E.94599
G1 X81.022 Y31.906 E.0245
G1 X94.342 Y45.227 E.94599
G1 X94.342 Y45.715 E.0245
G1 X81.022 Y32.394 E.94599
G1 X81.021 Y32.882 E.0245
G1 X94.342 Y46.202 E.94599
G1 X94.342 Y46.69 E.0245
G1 X81.021 Y33.37 E.94599
G1 X81.021 Y33.857 E.0245
G1 X94.341 Y47.178 E.94599
G1 X94.341 Y47.666 E.0245
G1 X81.02 Y34.345 E.94599
G1 X81.02 Y34.833 E.0245
G1 X94.341 Y48.154 E.94599
G1 X94.34 Y48.641 E.0245
G1 X81.02 Y35.321 E.946
G1 X81.02 Y35.809 E.0245
G1 X94.34 Y49.129 E.946
G1 X94.34 Y49.617 E.0245
G1 X81.019 Y36.296 E.946
G1 X81.019 Y36.784 E.0245
G1 X94.34 Y50.105 E.946
G1 X94.339 Y50.592 E.0245
G1 X81.019 Y37.272 E.946
G1 X81.019 Y37.76 E.0245
G1 X94.339 Y51.08 E.946
G1 X94.339 Y51.568 E.0245
G1 X81.018 Y38.247 E.946
G1 X81.018 Y38.735 E.0245
G1 X94.339 Y52.056 E.946
G1 X94.338 Y52.544 E.0245
G1 X81.018 Y39.223 E.946
G1 X81.018 Y39.711 E.0245
G1 X94.338 Y53.031 E.946
G1 X94.338 Y53.519 E.0245
G1 X81.017 Y40.199 E.946
G1 X81.017 Y40.686 E.0245
G1 X94.338 Y54.007 E.946
G1 X94.337 Y54.495 E.0245
G1 X81.017 Y41.174 E.946
G1 X81.016 Y41.662 E.0245
G1 X94.337 Y54.983 E.946
G1 X94.337 Y55.47 E.0245
G1 X81.016 Y42.15 E.946
G1 X81.016 Y42.638 E.0245
G1 X94.337 Y55.958 E.946
G1 X94.336 Y56.446 E.0245
M73 P1 R171
G1 X81.016 Y43.125 E.946
G1 X81.015 Y43.613 E.0245
G1 X94.336 Y56.934 E.946
G1 X94.336 Y57.422 E.0245
G1 X81.015 Y44.101 E.94601
G1 X81.015 Y44.589 E.0245
G1 X94.336 Y57.909 E.94601
G1 X94.335 Y58.397 E.0245
G1 X81.015 Y45.076 E.94601
G1 X81.014 Y45.564 E.0245
G1 X94.335 Y58.885 E.94601
G1 X94.335 Y59.373 E.0245
G1 X81.014 Y46.052 E.94601
G1 X81.014 Y46.54 E.0245
G1 X94.335 Y59.86 E.94601
G1 X94.334 Y60.348 E.0245
G1 X81.014 Y47.028 E.94601
G1 X81.013 Y47.515 E.0245
G1 X94.334 Y60.836 E.94601
G1 X94.334 Y61.324 E.0245
G1 X81.013 Y48.003 E.94601
G1 X81.013 Y48.491 E.0245
G1 X94.333 Y61.812 E.94601
G1 X94.333 Y62.299 E.0245
G1 X81.012 Y48.979 E.94601
G1 X81.012 Y49.466 E.0245
G1 X94.333 Y62.787 E.94601
G1 X94.333 Y63.275 E.0245
G1 X81.012 Y49.954 E.94601
G1 X81.012 Y50.442 E.0245
G1 X94.332 Y63.763 E.94601
G1 X94.332 Y64.251 E.0245
G1 X81.011 Y50.93 E.94601
G1 X81.011 Y51.418 E.0245
G1 X94.332 Y64.738 E.94601
G1 X94.332 Y65.226 E.0245
G1 X81.011 Y51.905 E.94601
G1 X81.011 Y52.393 E.0245
G1 X94.331 Y65.714 E.94602
G1 X94.331 Y66.202 E.0245
G1 X81.01 Y52.881 E.94602
G1 X81.01 Y53.369 E.0245
G1 X94.331 Y66.69 E.94602
G1 X94.331 Y67.177 E.0245
G1 X81.01 Y53.857 E.94602
G1 X81.01 Y54.344 E.0245
G1 X94.33 Y67.665 E.94602
G1 X94.33 Y68.153 E.0245
G1 X81.009 Y54.832 E.94602
G1 X81.009 Y55.32 E.0245
G1 X94.33 Y68.641 E.94602
G1 X94.33 Y69.129 E.0245
G1 X81.009 Y55.808 E.94602
G1 X81.008 Y56.295 E.0245
G1 X94.329 Y69.616 E.94602
G1 X94.329 Y70.104 E.0245
G1 X81.008 Y56.783 E.94602
G1 X81.008 Y57.271 E.0245
G1 X94.329 Y70.592 E.94602
G1 X94.329 Y71.08 E.0245
G1 X81.008 Y57.759 E.94602
G1 X81.007 Y58.247 E.0245
G1 X94.328 Y71.567 E.94602
G1 X94.328 Y72.055 E.0245
G1 X81.007 Y58.734 E.94602
G1 X81.007 Y59.222 E.0245
G1 X94.328 Y72.543 E.94602
G1 X94.328 Y73.031 E.0245
G1 X81.007 Y59.71 E.94602
G1 X81.006 Y60.198 E.0245
G1 X94.327 Y73.519 E.94602
G1 X94.327 Y74.006 E.0245
G1 X81.006 Y60.685 E.94602
G1 X81.006 Y61.173 E.0245
G1 X94.327 Y74.494 E.94603
G1 X94.326 Y74.982 E.0245
G1 X81.006 Y61.661 E.94603
G1 X81.005 Y62.149 E.0245
G1 X94.326 Y75.47 E.94603
G1 X94.326 Y75.958 E.0245
G1 X81.005 Y62.637 E.94603
G1 X81.005 Y63.124 E.0245
G1 X94.326 Y76.445 E.94603
G1 X94.325 Y76.933 E.0245
G1 X81.004 Y63.612 E.94603
G1 X81.004 Y64.1 E.0245
G1 X94.325 Y77.421 E.94603
G1 X94.325 Y77.909 E.0245
G1 X81.004 Y64.588 E.94603
G1 X81.004 Y65.076 E.0245
G1 X94.325 Y78.397 E.94603
G1 X94.324 Y78.884 E.0245
G1 X81.003 Y65.563 E.94603
G1 X81.003 Y66.051 E.0245
G1 X94.324 Y79.372 E.94603
G1 X94.324 Y79.86 E.0245
G1 X81.003 Y66.539 E.94603
G1 X81.003 Y67.027 E.0245
G1 X94.324 Y80.348 E.94603
G1 X94.323 Y80.836 E.0245
G1 X81.002 Y67.514 E.94603
G1 X81.002 Y68.002 E.0245
G1 X94.323 Y81.323 E.94603
G1 X94.323 Y81.811 E.0245
G1 X81.002 Y68.49 E.94603
G1 X81.002 Y68.978 E.0245
G1 X94.323 Y82.299 E.94603
G1 X94.322 Y82.787 E.0245
G1 X81.001 Y69.466 E.94603
G1 X81.001 Y69.953 E.0245
G1 X94.322 Y83.274 E.94604
G1 X94.322 Y83.762 E.0245
G1 X81.001 Y70.441 E.94604
G1 X81 Y70.929 E.0245
G1 X94.322 Y84.25 E.94604
G1 X94.321 Y84.738 E.0245
G1 X81 Y71.417 E.94604
G1 X81 Y71.905 E.0245
G1 X94.321 Y85.226 E.94604
G1 X94.321 Y85.713 E.0245
G1 X81 Y72.392 E.94604
G1 X80.999 Y72.88 E.0245
G1 X94.321 Y86.201 E.94604
G1 X94.32 Y86.689 E.0245
G1 X80.999 Y73.368 E.94604
G1 X80.999 Y73.856 E.0245
G1 X94.32 Y87.177 E.94604
G1 X94.32 Y87.665 E.0245
G1 X80.999 Y74.343 E.94604
G1 X80.998 Y74.831 E.0245
G1 X94.319 Y88.152 E.94604
G1 X94.319 Y88.64 E.0245
G1 X80.998 Y75.319 E.94604
G1 X80.998 Y75.807 E.0245
G1 X94.319 Y89.128 E.94604
G1 X94.319 Y89.616 E.0245
G1 X80.998 Y76.295 E.94604
G1 X80.997 Y76.782 E.0245
G1 X94.318 Y90.104 E.94604
G1 X94.318 Y90.591 E.0245
G1 X80.997 Y77.27 E.94604
G1 X80.997 Y77.758 E.0245
G1 X94.318 Y91.079 E.94604
G1 X94.318 Y91.567 E.0245
G1 X80.996 Y78.246 E.94604
G1 X80.996 Y78.733 E.0245
G1 X94.317 Y92.055 E.94605
G1 X94.317 Y92.543 E.0245
G1 X80.996 Y79.221 E.94605
G1 X80.996 Y79.709 E.0245
G1 X94.317 Y93.03 E.94605
G1 X94.317 Y93.518 E.0245
G1 X80.995 Y80.197 E.94605
G1 X80.995 Y80.685 E.0245
G1 X94.316 Y94.006 E.94605
G1 X94.316 Y94.494 E.0245
G1 X80.995 Y81.172 E.94605
G1 X80.995 Y81.66 E.0245
G1 X94.316 Y94.981 E.94605
G1 X94.316 Y95.469 E.0245
G1 X80.994 Y82.148 E.94605
G1 X80.994 Y82.636 E.0245
G1 X94.315 Y95.957 E.94605
G1 X94.315 Y96.445 E.0245
G1 X80.994 Y83.124 E.94605
G1 X80.994 Y83.611 E.0245
G1 X94.315 Y96.933 E.94605
G1 X94.315 Y97.42 E.0245
G1 X80.993 Y84.099 E.94605
G1 X80.993 Y84.587 E.0245
G1 X94.314 Y97.908 E.94605
G1 X94.314 Y98.396 E.0245
G1 X80.993 Y85.075 E.94605
M73 P1 R170
G1 X80.992 Y85.562 E.0245
G1 X94.314 Y98.884 E.94605
G1 X94.314 Y99.372 E.0245
G1 X80.992 Y86.05 E.94605
G1 X80.992 Y86.538 E.0245
G1 X94.313 Y99.859 E.94605
G1 X94.313 Y100.347 E.0245
G1 X80.992 Y87.026 E.94606
G1 X80.991 Y87.514 E.0245
G1 X94.313 Y100.835 E.94606
G1 X94.313 Y101.323 E.0245
G1 X80.991 Y88.001 E.94606
G1 X80.991 Y88.489 E.0245
G1 X94.312 Y101.811 E.94606
G1 X94.312 Y102.298 E.0245
G1 X80.991 Y88.977 E.94606
G1 X80.99 Y89.465 E.0245
G1 X94.312 Y102.786 E.94606
G1 X94.311 Y103.274 E.0245
G1 X80.99 Y89.953 E.94606
G1 X80.99 Y90.44 E.0245
G1 X94.311 Y103.762 E.94606
G1 X94.311 Y104.25 E.0245
G1 X80.989 Y90.928 E.94606
G1 X80.989 Y91.416 E.0245
G1 X94.311 Y104.737 E.94606
G1 X94.31 Y105.225 E.0245
G1 X80.989 Y91.904 E.94606
G1 X80.989 Y92.391 E.0245
G1 X94.31 Y105.713 E.94606
G1 X94.31 Y106.201 E.0245
G1 X80.988 Y92.879 E.94606
G1 X80.988 Y93.367 E.0245
G1 X94.31 Y106.688 E.94606
G1 X94.309 Y107.176 E.0245
G1 X80.988 Y93.855 E.94606
G1 X80.988 Y94.343 E.0245
G1 X94.309 Y107.664 E.94606
G1 X94.309 Y108.152 E.0245
G1 X80.987 Y94.83 E.94606
G1 X80.987 Y95.318 E.0245
G1 X94.309 Y108.64 E.94606
G1 X94.308 Y109.127 E.0245
G1 X80.987 Y95.806 E.94607
G1 X80.987 Y96.294 E.0245
G1 X94.308 Y109.615 E.94607
G1 X94.308 Y110.103 E.0245
G1 X80.986 Y96.781 E.94607
G1 X80.986 Y97.269 E.0245
M73 P2 R170
G1 X94.308 Y110.591 E.94607
G1 X94.307 Y111.079 E.0245
G1 X80.986 Y97.757 E.94607
G1 X80.985 Y98.245 E.0245
G1 X94.307 Y111.566 E.94607
G1 X94.307 Y112.054 E.0245
G1 X80.985 Y98.733 E.94607
G1 X80.985 Y98.905 E.00865
G1 X80.987 Y99.222 E.01594
G1 X94.307 Y112.542 E.94593
G1 X94.306 Y113.03 E.0245
G1 X80.99 Y99.713 E.94572
G1 X80.992 Y100.204 E.02465
G1 X94.306 Y113.518 E.94551
G1 X94.306 Y114.005 E.0245
G1 X80.995 Y100.695 E.9453
G1 X80.998 Y101.185 E.02465
G1 X94.306 Y114.493 E.94508
G1 X94.305 Y114.981 E.0245
G1 X81.001 Y101.676 E.94487
G1 X81.003 Y102.167 E.02465
G1 X94.305 Y115.469 E.94466
G1 X94.305 Y115.957 E.0245
G1 X81.006 Y102.658 E.94445
G1 X81.009 Y103.149 E.02465
G1 X94.304 Y116.444 E.94424
G1 X94.304 Y116.932 E.0245
G1 X81.011 Y103.639 E.94402
G1 X81.014 Y104.13 E.02465
G1 X94.304 Y117.42 E.94381
G1 X94.304 Y117.908 E.0245
G1 X81.017 Y104.621 E.9436
G1 X81.02 Y105.112 E.02465
G1 X94.303 Y118.395 E.94339
G1 X94.303 Y118.883 E.0245
G1 X81.022 Y105.602 E.94318
G1 X81.025 Y106.093 E.02465
G1 X94.303 Y119.371 E.94296
G1 X94.303 Y119.859 E.0245
G1 X81.028 Y106.584 E.94275
G1 X81.031 Y107.075 E.02465
