; generated by PrusaSlicer 2.5.0+win64 on 2022-12-07 at 00:11:05 UTC

; 

; external perimeters extrusion width = 1.00mm
; perimeters extrusion width = 1.00mm
; infill extrusion width = 1.00mm
; solid infill extrusion width = 1.00mm
; top infill extrusion width = 1.00mm
; support material extrusion width = 1.00mm
; first layer extrusion width = 0.42mm

M73 P0 R182
M107
;TYPE:Custom
G90 ; use absolute coordinates
M83 ; extruder relative mode
M140 S60 ; set final bed temp
M104 S150 ; set temporary nozzle temp to prevent oozing during homing and auto bed leveling
G4 S10 ; allow partial nozzle warmup
G28 ; home all axisG1 Z50 F240
G1 X7.6 Y10 F3000
M104 S210 ; set final nozzle temp
M190 S60 ; wait for bed temp to stabilize
M109 S210 ; wait for nozzle temp to stabilize
G1 Z0.28 F240
G92 E0
G1 Y140 E10 F1500 ; prime the nozzle
G1 X4 F5000
G92 E0
G1 Y10 E10 F1200 ; prime the nozzle
G92 E0
G21 ; set units to millimeters
G90 ; use absolute coordinates
M83 ; use relative distances for extrusion
; Filament gcode
M107
;LAYER_CHANGE
;Z:0.35
;HEIGHT:0.35
;BEFORE_LAYER_CHANGE
G92 E0
;0.35


G1 E-1 F3600
G1 Z.35 F7800
;AFTER_LAYER_CHANGE
;0.35
G1 X122.897 Y132.041
G1 E1 F2400
;TYPE:Perimeter
;WIDTH:0.42
G1 F1800
G1 X123.014 Y131.933 E.008
G1 X123.102 Y131.692 E.01285
G1 X123.334 Y129.404 E.11542
G1 X127.446 Y129.44 E.20636
G1 X127.7 Y129.375 E.01317
G1 X128.379 Y129.001 E.03889
G1 X128.551 Y128.846 E.01164
G1 X128.644 Y128.594 E.0135
G1 X128.817 Y126.64 E.09843
G1 X131.039 Y126.659 E.11155
G1 X131.039 Y147.919 E1.06698
G1 X120.025 Y154.092 E.63365
G1 X85.716 Y134.304 E1.98772
G1 X85.255 Y134.072 E.02587
G1 X85.003 Y134.087 E.01268
G1 X69.069 Y139.145 E.839
G1 X68.848 Y139.284 E.01311
G1 X68.72 Y139.527 E.01376
G1 X63.518 Y163.182 E1.21552
G1 X49.679 Y163.182 E.69454
G1 X53.259 Y146.934 E.83499
G1 X58.098 Y133.62 E.71095
G1 X60.014 Y132.242 E.11843
G1 X60.164 Y132.006 E.01402
G1 X63.043 Y122.474 E.49971
G1 X65.117 Y120.611 E.13996
G1 X65.239 Y120.376 E.01324
G1 X65.541 Y119.022 E.06966
G1 X68.21 Y118.191 E.14028
G1 X72.661 Y116.748 E.23482
G1 X74.066 Y116.39 E.07277
G1 X74.136 Y116.366 E.00369
G1 X74.412 Y116.137 E.01802
G1 X77.63 Y115.138 E.16909
G1 X82.52 Y113.962 E.25241
G1 X82.687 Y114.04 E.00926
G1 X83.823 Y114.334 E.05889
G1 X83.947 Y114.35 E.00626
G1 X87.372 Y114.39 E.17189
G1 X88.8 Y114.765 E.07412
G1 X92.29 Y115.743 E.18191
G1 X94.553 Y117.042 E.13094
G1 X94.892 Y117.79 E.0412
G1 X95.01 Y117.955 E.01021
G1 X95.234 Y118.078 E.01283
G1 X97.282 Y118.613 E.10619
G1 X101.922 Y121.311 E.26937
G1 X103.718 Y122.382 E.10497
G1 X107.181 Y124.351 E.1999
G1 X108.348 Y124.995 E.06692
G1 X112.146 Y127.19 E.22014
G1 X112.326 Y127.27 E.00986
G1 X117.284 Y130.2 E.28903
G1 X120.702 Y132.146 E.1974
G1 X120.953 Y132.214 E.01306
G1 X122.462 Y132.227 E.07572
G1 X122.558 Y132.219 E.00484
G1 X122.773 Y132.121 E.01186
G1 X122.674 Y131.789 F7800
;TYPE:External perimeter
G1 F1800
G1 X122.759 Y131.657 E.00789
G1 X123.022 Y129.056 E.13121
G1 X126.893 Y129.09 E.19425
G1 X127.534 Y129.073 E.03216
G1 X128.212 Y128.699 E.03889
G1 X128.3 Y128.563 E.00813
G1 X128.501 Y126.292 E.11441
G1 X131.384 Y126.317 E.1447
G1 X131.384 Y148.121 E1.09428
G1 X120.023 Y154.489 E.65363
M73 P0 R181
G1 X85.246 Y134.431 E2.0148
G1 X85.107 Y134.416 E.00698
G1 X69.173 Y139.474 E.839
G1 X69.143 Y139.486 E.00164
G1 X69.057 Y139.601 E.00719
G1 X63.796 Y163.527 E1.22944
G1 X49.25 Y163.527 E.73
G1 X52.927 Y146.837 E.85767
G1 X57.81 Y133.402 E.71745
G1 X59.769 Y131.997 E.12097
G1 X59.834 Y131.907 E.00557
G1 X62.741 Y122.282 E.50456
G1 X64.849 Y120.392 E.1421
G1 X64.902 Y120.301 E.00528
G1 X65.253 Y118.75 E.07981
G1 X68.102 Y117.864 E.14974
G1 X72.565 Y116.416 E.23548
G1 X73.981 Y116.055 E.07333
G1 X74.221 Y115.835 E.01635
G1 X77.538 Y114.805 E.17432
G1 X82.441 Y113.627 E.25305
G1 X82.691 Y113.619 E.01254
G1 X82.774 Y113.706 E.00603
G1 X83.948 Y114.006 E.06081
G1 X87.418 Y114.045 E.17417
G1 X88.89 Y114.432 E.07638
G1 X91.569 Y115.177 E.13955
G1 X92.462 Y115.444 E.04677
G1 X94.822 Y116.798 E.13654
G1 X95.206 Y117.648 E.0468
G1 X95.32 Y117.744 E.00749
G1 X97.307 Y118.254 E.10294
G1 X97.455 Y118.314 E.00803
G1 X102.095 Y121.012 E.26937
G1 X103.889 Y122.082 E.1048
G1 X107.351 Y124.051 E.1999
G1 X108.518 Y124.695 E.06687
G1 X112.318 Y126.892 E.22031
G1 X112.403 Y126.915 E.00438
G1 X117.456 Y129.901 E.29458
G1 X120.873 Y131.846 E.1973
G1 X120.956 Y131.869 E.00435
G1 X122.465 Y131.883 E.07572
G1 X122.537 Y131.85 E.00396
G1 X122.821 Y131.846 F7800
G1 E-.7 F3600
;WIPE_START
G1 F6240
G1 X122.759 Y131.657 E-.16135
G1 X122.782 Y131.433 E-.12365
;WIPE_END
G1 E-.015 F3600
G1 X130.936 Y127.462 F7800
G1 E1 F2400
;TYPE:Solid infill
;WIDTH:0.421353
G1 F1800
G1 X130.386 Y126.912 E.03917
G1 X129.892 Y126.908 E.02488
G1 X130.781 Y127.796 E.0633
G1 X130.781 Y128.286 E.02467
G1 X129.399 Y126.903 E.09849
G1 X129.053 Y126.901 E.0174
G1 X129.041 Y127.036 E.00684
G1 X130.781 Y128.775 E.12396
G1 X130.781 Y129.265 E.02467
G1 X129.001 Y127.485 E.12683
G1 X128.96 Y127.934 E.02273
G1 X130.781 Y129.755 E.12971
G1 X130.781 Y130.244 E.02467
G1 X128.92 Y128.384 E.13258
G1 X128.893 Y128.688 E.0154
G1 X128.846 Y128.8 E.00609
G1 X130.781 Y130.734 E.13784
G1 X130.781 Y131.224 E.02467
G1 X128.653 Y129.096 E.15159
G1 X128.512 Y129.223 E.00955
G1 X128.369 Y129.302 E.00823
G1 X130.781 Y131.713 E.17185
G1 X130.781 Y132.203 E.02467
G1 X128.053 Y129.476 E.19433
G1 X127.728 Y129.64 E.01837
G1 X130.781 Y132.693 E.21754
G1 X130.781 Y133.182 E.02467
G1 X127.295 Y129.697 E.24834
G1 X126.801 Y129.693 E.02489
G1 X130.781 Y133.672 E.28354
G1 X130.781 Y134.162 E.02467
G1 X126.308 Y129.688 E.31873
G1 X125.814 Y129.684 E.02489
G1 X130.781 Y134.651 E.35393
G1 X130.781 Y135.141 E.02467
G1 X125.32 Y129.68 E.38912
G1 X124.826 Y129.676 E.02489
G1 X130.781 Y135.631 E.42431
G1 X130.781 Y136.12 E.02467
G1 X124.332 Y129.671 E.45951
G1 X123.838 Y129.667 E.02489
G1 X130.781 Y136.61 E.4947
G1 X130.781 Y137.1 E.02467
G1 X123.547 Y129.866 E.51541
G1 X123.502 Y130.311 E.02252
G1 X130.781 Y137.589 E.51862
G1 X130.781 Y138.079 E.02467
G1 X123.457 Y130.755 E.52182
G1 X123.412 Y131.2 E.02252
G1 X130.781 Y138.569 E.52503
G1 X130.781 Y139.058 E.02467
G1 X123.367 Y131.645 E.52823
G1 X123.293 Y131.967 E.01667
G1 X123.255 Y132.022 E.00336
G1 X130.781 Y139.548 E.53621
G1 X130.781 Y140.038 E.02467
G1 X123.022 Y132.279 E.55282
G1 X122.851 Y132.384 E.0101
G1 X122.702 Y132.448 E.00821
G1 X130.781 Y140.527 E.57565
G1 X130.781 Y141.017 E.02467
G1 X122.246 Y132.482 E.60814
G1 X121.753 Y132.478 E.02485
G1 X130.781 Y141.507 E.64328
G1 X130.781 Y141.996 E.02467
G1 X121.259 Y132.475 E.67843
G1 X120.946 Y132.472 E.01577
G1 X120.726 Y132.431 E.01131
G1 X130.781 Y142.486 E.71645
G1 X130.781 Y142.976 E.02467
G1 X119.65 Y131.845 E.79309
G1 X118.513 Y131.197 E.06592
G1 X130.781 Y143.465 E.8741
G1 X130.781 Y143.955 E.02467
G1 X117.376 Y130.55 E.95512
G1 X116.19 Y129.854 E.06928
G1 X130.781 Y144.445 E1.03961
G1 X130.781 Y144.934 E.02467
G1 X114.993 Y129.146 E1.12493
G1 X113.795 Y128.438 E.07008
G1 X130.781 Y145.424 E1.21024
G1 X130.781 Y145.914 E.02467
G1 X112.598 Y127.731 E1.29556
G1 X111.485 Y127.107 E.06431
G1 X130.781 Y146.403 E1.3749
G1 X130.781 Y146.893 E.02467
G1 X110.324 Y126.436 E1.45757
G1 X109.164 Y125.766 E.06752
G1 X130.781 Y147.382 E1.54023
G1 X130.781 Y147.768 E.01942
G1 X130.714 Y147.805 E.00386
G1 X108.016 Y125.108 E1.61725
G1 X106.918 Y124.499 E.06324
G1 X130.4 Y147.981 E1.67312
G1 X130.086 Y148.157 E.01812
G1 X105.783 Y123.854 E1.73164
G1 X104.648 Y123.209 E.06579
G1 X129.773 Y148.333 E1.79016
G1 X129.459 Y148.509 E.01812
G1 X103.507 Y122.557 E1.84909
G1 X102.286 Y121.825 E.07175
G1 X129.145 Y148.685 E1.91378
G1 X128.831 Y148.86 E.01812
G1 X101.106 Y121.135 E1.97551
G1 X99.935 Y120.454 E.0682
G1 X128.517 Y149.036 E2.03652
G1 X128.204 Y149.212 E.01812
G1 X98.765 Y119.774 E2.09754
G1 X97.595 Y119.093 E.0682
G1 X127.89 Y149.388 E2.15856
G1 X127.576 Y149.564 E.01812
G1 X96.745 Y118.732 E2.1968
G1 X96.086 Y118.564 E.03426
G1 X127.262 Y149.74 E2.22137
G1 X126.948 Y149.916 E.01812
G1 X95.427 Y118.395 E2.24594
G1 X95.164 Y118.327 E.01367
G1 X94.976 Y118.25 E.01027
G1 X94.834 Y118.145 E.00887
G1 X94.74 Y118.041 E.0071
G1 X94.658 Y117.901 E.00817
G1 X94.43 Y117.397 E.02784
G1 X94.13 Y117.097 E.02141
G1 X92.98 Y116.437 E.06681
G1 X126.635 Y150.092 E2.39797
G1 X126.321 Y150.267 E.01812
G1 X91.967 Y115.914 E2.44776
G1 X91.289 Y115.725 E.03547
G1 X126.007 Y150.443 E2.47373
G1 X125.693 Y150.619 E.01812
G1 X90.611 Y115.537 E2.4997
G1 X89.932 Y115.348 E.03547
G1 X125.379 Y150.795 E2.52567
G1 X125.066 Y150.971 E.01812
G1 X89.254 Y115.159 E2.55164
G1 X88.579 Y114.974 E.03526
G1 X124.752 Y151.147 E2.57737
G1 X124.438 Y151.323 E.01812
G1 X87.915 Y114.8 E2.60231
G1 X87.337 Y114.648 E.03013
G1 X87.273 Y114.647 E.00321
G1 X124.124 Y151.498 E2.62571
G1 X123.81 Y151.674 E.01812
G1 X86.778 Y114.641 E2.63866
G1 X86.282 Y114.636 E.02497
M73 P0 R180
G1 X123.497 Y151.85 E2.65161
G1 X123.183 Y152.026 E.01812
G1 X85.786 Y114.63 E2.66456
G1 X85.291 Y114.624 E.02497
G1 X122.869 Y152.202 E2.67751
G1 X122.555 Y152.378 E.01812
G1 X84.795 Y114.618 E2.69046
G1 X84.3 Y114.612 E.02497
G1 X122.241 Y152.554 E2.70341
G1 X121.928 Y152.729 E.01812
G1 X83.777 Y114.579 E2.71831
G1 X83.124 Y114.416 E.03389
G1 X121.614 Y152.905 E2.74245
G1 X121.3 Y153.081 E.01812
G1 X82.461 Y114.242 E2.76733
G1 X82.067 Y114.337 E.02046
G1 X120.986 Y153.257 E2.7731
G1 X120.672 Y153.433 E.01812
G1 X81.672 Y114.432 E2.77887
G1 X81.277 Y114.527 E.02046
G1 X120.359 Y153.609 E2.78464
G1 X120.045 Y153.785 E.01812
G1 X80.882 Y114.622 E2.79041
G1 X80.487 Y114.717 E.02046
G1 X118.936 Y153.165 E2.73952
G1 X117.779 Y152.498 E.06729
G1 X80.093 Y114.812 E2.68522
G1 X79.698 Y114.907 E.02046
M73 P1 R180
G1 X116.622 Y151.831 E2.63092
G1 X115.465 Y151.164 E.06729
G1 X79.303 Y115.002 E2.57661
G1 X78.908 Y115.096 E.02046
G1 X114.308 Y150.496 E2.52231
G1 X113.151 Y149.829 E.06729
G1 X78.514 Y115.191 E2.468
G1 X78.119 Y115.286 E.02046
G1 X111.994 Y149.162 E2.4137
G1 X110.837 Y148.495 E.06729
G1 X77.724 Y115.381 E2.35939
G1 X77.349 Y115.496 E.01976
G1 X109.681 Y147.827 E2.30368
G1 X108.524 Y147.16 E.06729
G1 X76.975 Y115.612 E2.24787
G1 X76.602 Y115.728 E.01971
G1 X107.367 Y146.493 E2.19206
G1 X106.21 Y145.825 E.06729
G1 X76.228 Y115.844 E2.13624
G1 X75.855 Y115.96 E.01971
G1 X105.053 Y145.158 E2.08043
G1 X103.896 Y144.491 E.06729
G1 X75.481 Y116.076 E2.02462
G1 X75.107 Y116.192 E.01971
G1 X102.739 Y143.824 E1.96881
G1 X101.582 Y143.156 E.06729
G1 X74.734 Y116.308 E1.913
G1 X74.549 Y116.365 E.00972
G1 X74.414 Y116.478 E.00888
G1 X100.425 Y142.489 E1.85335
G1 X99.268 Y141.822 E.06729
G1 X74.094 Y116.648 E1.79369
G1 X73.704 Y116.748 E.02028
G1 X98.111 Y141.155 E1.73904
G1 X96.954 Y140.487 E.06729
G1 X73.314 Y116.847 E1.68439
G1 X72.925 Y116.947 E.02028
G1 X95.798 Y139.82 E1.62975
G1 X94.641 Y139.153 E.06729
G1 X72.545 Y117.057 E1.57437
G1 X72.175 Y117.177 E.01958
G1 X93.484 Y138.486 E1.51828
G1 X92.327 Y137.818 E.06729
G1 X71.805 Y117.297 E1.46219
G1 X71.436 Y117.417 E.01958
G1 X91.17 Y137.151 E1.4061
G1 X90.013 Y136.484 E.06729
G1 X71.066 Y117.537 E1.35001
G1 X70.696 Y117.657 E.01958
M73 P1 R179
G1 X88.856 Y135.817 E1.29392
G1 X87.699 Y135.149 E.06729
G1 X70.326 Y117.777 E1.23783
G1 X69.957 Y117.897 E.01958
G1 X86.542 Y134.482 E1.18175
G1 X85.541 Y133.905 E.05824
G1 X85.436 Y133.866 E.00562
G1 X69.587 Y118.017 E1.12929
G1 X69.217 Y118.137 E.01958
G1 X84.926 Y133.845 E1.11928
G1 X84.554 Y133.963 E.01965
G1 X68.848 Y118.256 E1.11913
G1 X68.478 Y118.376 E.01958
G1 X84.182 Y134.081 E1.11898
G1 X83.811 Y134.199 E.01965
G1 X68.106 Y118.495 E1.11897
G1 X67.733 Y118.611 E.01971
G1 X83.439 Y134.317 E1.11909
G1 X83.067 Y134.435 E.01965
G1 X67.359 Y118.727 E1.11921
G1 X66.986 Y118.843 E.01971
G1 X82.695 Y134.553 E1.11933
G1 X82.324 Y134.67 E.01965
G1 X66.612 Y118.959 E1.11945
G1 X66.239 Y119.075 E.01971
G1 X81.952 Y134.788 E1.11958
G1 X81.58 Y134.906 E.01965
G1 X65.865 Y119.192 E1.1197
G1 X65.761 Y119.224 E.00552
G1 X65.696 Y119.512 E.01487
G1 X81.208 Y135.024 E1.10525
G1 X80.836 Y135.142 E.01965
G1 X65.607 Y119.913 E1.08512
G1 X65.518 Y120.313 E.02067
G1 X80.465 Y135.26 E1.06499
G1 X80.093 Y135.378 E.01965
G1 X65.388 Y120.672 E1.04779
G1 X65.345 Y120.744 E.00419
G1 X65.147 Y120.922 E.0134
G1 X79.721 Y135.496 E1.03841
G1 X79.349 Y135.614 E.01965
G1 X64.89 Y121.154 E1.03025
G1 X64.633 Y121.387 E.01747
G1 X78.978 Y135.731 E1.02209
G1 X78.606 Y135.849 E.01965
G1 X64.376 Y121.619 E1.01393
G1 X64.118 Y121.852 E.01747
G1 X78.234 Y135.967 E1.00577
G1 X77.862 Y136.085 E.01965
G1 X63.861 Y122.084 E.99761
G1 X63.604 Y122.316 E.01747
G1 X77.491 Y136.203 E.98945
G1 X77.119 Y136.321 E.01965
G1 X63.347 Y122.549 E.98129
G1 X63.269 Y122.618 E.00524
G1 X63.19 Y122.882 E.01385
G1 X76.747 Y136.439 E.96597
G1 X76.375 Y136.557 E.01965
G1 X63.076 Y123.258 E.94758
G1 X62.962 Y123.634 E.01979
G1 X76.003 Y136.675 E.9292
G1 X75.632 Y136.792 E.01965
G1 X62.849 Y124.009 E.91081
G1 X62.735 Y124.385 E.01979
G1 X75.26 Y136.91 E.89242
G1 X74.888 Y137.028 E.01965
G1 X62.621 Y124.761 E.87403
G1 X62.508 Y125.137 E.01979
G1 X74.516 Y137.146 E.85564
G1 X74.145 Y137.264 E.01965
G1 X62.394 Y125.513 E.83725
G1 X62.28 Y125.889 E.01979
G1 X73.773 Y137.382 E.81886
G1 X73.401 Y137.5 E.01965
G1 X62.167 Y126.265 E.80048
G1 X62.053 Y126.641 E.01979
G1 X73.029 Y137.618 E.78209
G1 X72.657 Y137.735 E.01965
G1 X61.939 Y127.017 E.7637
G1 X61.825 Y127.393 E.01979
G1 X72.286 Y137.853 E.74531
G1 X71.914 Y137.971 E.01965
G1 X61.712 Y127.769 E.72692
G1 X61.598 Y128.145 E.01979
G1 X71.542 Y138.089 E.70853
G1 X71.17 Y138.207 E.01965
G1 X61.484 Y128.521 E.69014
G1 X61.371 Y128.897 E.01979
G1 X70.799 Y138.325 E.67175
G1 X70.427 Y138.443 E.01965
G1 X61.257 Y129.273 E.65337
G1 X61.143 Y129.649 E.01979
G1 X70.055 Y138.561 E.63498
G1 X69.683 Y138.679 E.01965
G1 X61.03 Y130.025 E.61659
G1 X60.916 Y130.401 E.01979
G1 X69.311 Y138.796 E.5982
G1 X68.945 Y138.919 E.01949
G1 X60.802 Y130.777 E.58017
G1 X60.689 Y131.153 E.01979
G1 X68.657 Y139.121 E.56775
G1 X68.603 Y139.173 E.00375
G1 X68.516 Y139.322 E.00874
G1 X68.479 Y139.433 E.00587
G1 X60.575 Y131.529 E.5632
G1 X60.461 Y131.905 E.01979
G1 X68.388 Y139.832 E.5648
G1 X68.3 Y140.233 E.02071
G1 X60.323 Y132.256 E.56836
G1 X60.25 Y132.372 E.00687
G1 X60.088 Y132.511 E.01078
G1 X68.211 Y140.634 E.57881
G1 X68.123 Y141.036 E.02071
G1 X59.803 Y132.715 E.59284
G1 X59.518 Y132.92 E.01768
G1 X68.035 Y141.437 E.60687
G1 X67.947 Y141.839 E.02071
G1 X59.232 Y133.124 E.6209
G1 X58.947 Y133.329 E.01768
G1 X67.858 Y142.24 E.63493
G1 X67.77 Y142.641 E.02071
G1 X58.662 Y133.533 E.64897
G1 X58.377 Y133.738 E.01768
G1 X67.682 Y143.043 E.663
G1 X67.594 Y143.444 E.02071
G1 X58.212 Y134.063 E.66846
G1 X58.081 Y134.422 E.01925
G1 X67.505 Y143.846 E.67147
G1 X67.417 Y144.247 E.02071
G1 X57.951 Y134.781 E.67448
G1 X57.82 Y135.14 E.01925
G1 X67.329 Y144.648 E.67749
G1 X67.241 Y145.05 E.02071
G1 X57.69 Y135.499 E.6805
G1 X57.559 Y135.858 E.01925
G1 X67.152 Y145.451 E.68351
G1 X67.064 Y145.853 E.02071
G1 X57.429 Y136.217 E.68652
G1 X57.298 Y136.576 E.01925
G1 X66.976 Y146.254 E.68953
G1 X66.887 Y146.655 E.02071
G1 X57.168 Y136.936 E.69255
G1 X57.037 Y137.295 E.01925
G1 X66.799 Y147.057 E.69556
G1 X66.711 Y147.458 E.02071
G1 X56.907 Y137.654 E.69857
G1 X56.776 Y138.013 E.01925
G1 X66.623 Y147.86 E.70158
G1 X66.534 Y148.261 E.02071
G1 X56.646 Y138.372 E.70459
G1 X56.515 Y138.731 E.01925
G1 X66.446 Y148.662 E.7076
G1 X66.358 Y149.064 E.02071
G1 X56.385 Y139.09 E.71061
G1 X56.254 Y139.45 E.01925
G1 X66.27 Y149.465 E.71362
G1 X66.181 Y149.867 E.02071
G1 X56.124 Y139.809 E.71664
G1 X55.993 Y140.168 E.01925
G1 X66.093 Y150.268 E.71965
G1 X66.005 Y150.669 E.02071
G1 X55.863 Y140.527 E.72266
G1 X55.732 Y140.886 E.01925
G1 X65.917 Y151.071 E.72567
G1 X65.828 Y151.472 E.02071
G1 X55.602 Y141.245 E.72868
G1 X55.471 Y141.604 E.01925
G1 X65.74 Y151.873 E.73169
G1 X65.652 Y152.275 E.02071
G1 X55.34 Y141.964 E.7347
G1 X55.21 Y142.323 E.01925
G1 X65.564 Y152.676 E.73771
G1 X65.475 Y153.078 E.02071
G1 X55.079 Y142.682 E.74072
G1 X54.949 Y143.041 E.01925
G1 X65.387 Y153.479 E.74374
