; generated by PrusaSlicer 2.5.0+win64 on 2022-12-07 at 00:11:07 UTC

; 

; external perimeters extrusion width = 1.00mm
; perimeters extrusion width = 1.00mm
; infill extrusion width = 1.00mm
; solid infill extrusion width = 1.00mm
; top infill extrusion width = 1.00mm
; support material extrusion width = 1.00mm
; first layer extrusion width = 0.42mm

M73 P0 R39
M107
;TYPE:Custom
G90 ; use absolute coordinates
M83 ; extruder relative mode
M140 S60 ; set final bed temp
M104 S150 ; set temporary nozzle temp to prevent oozing during homing and auto bed leveling
G4 S10 ; allow partial nozzle warmup
G28 ; home all axisG1 Z50 F240
G1 X7.6 Y10 F3000
M104 S210 ; set final nozzle temp
M190 S60 ; wait for bed temp to stabilize
M109 S210 ; wait for nozzle temp to stabilize
G1 Z0.28 F240
G92 E0
G1 Y140 E10 F1500 ; prime the nozzle
G1 X4 F5000
G92 E0
G1 Y10 E10 F1200 ; prime the nozzle
G92 E0
G21 ; set units to millimeters
G90 ; use absolute coordinates
M83 ; use relative distances for extrusion
; Filament gcode
M107
;LAYER_CHANGE
;Z:0.35
;HEIGHT:0.35
;BEFORE_LAYER_CHANGE
G92 E0
;0.35


G1 E-1 F3600
G1 Z.35 F7800
;AFTER_LAYER_CHANGE
;0.35
G1 X99.02 Y118.029
G1 E1 F2400
;TYPE:Perimeter
;WIDTH:0.42
G1 F1800
G1 X99.026 Y118.087 E.00292
G1 X99.247 Y118.536 E.02512
G1 X99.404 Y118.711 E.01181
G1 X99.625 Y118.799 E.01194
G1 X102.19 Y119.176 E.13012
G1 X102.155 Y123.036 E.19374
G1 X102.235 Y123.289 E.0133
G1 X102.873 Y124.3 E.06002
G1 X102.981 Y124.423 E.00819
G1 X103.242 Y124.537 E.01432
G1 X105.352 Y124.817 E.10681
G1 X105.321 Y128.058 E.16263
G1 X105.398 Y128.335 E.01443
G1 X106.356 Y129.885 E.09147
;WIDTH:0.466662
G1 X106.479 Y129.989 E.00918
;WIDTH:0.513324
G1 X106.603 Y130.092 E.01028
;WIDTH:0.559987
G1 X106.726 Y130.196 E.01137
;WIDTH:0.586848
G1 X106.946 Y130.236 E.0166
G1 X107.593 Y130.294 E.04841
;WIDTH:0.548023
G1 X108.241 Y130.352 E.04474
;WIDTH:0.509198
G1 X108.433 Y130.375 E.01228
G1 X108.43 Y130.785 E.02586
G1 X108.215 Y130.785 E.01358
;WIDTH:0.548023
G1 X107.565 Y130.765 E.04474
;WIDTH:0.586848
G1 X106.915 Y130.746 E.04841
G1 X106.693 Y130.759 E.0166
;WIDTH:0.559987
G1 X106.405 Y130.783 E.02036
;WIDTH:0.513324
G1 X106.117 Y130.806 E.0184
;WIDTH:0.466662
G1 X105.83 Y130.829 E.01644
;WIDTH:0.42
G1 X84.004 Y130.829 E1.09536
G1 X76.162 Y118.319 E.74099
G1 X93.546 Y85.766 E1.85208
G1 X93.82 Y85.221 E.03061
G1 X93.816 Y84.948 E.01368
G1 X88.656 Y67.305 E.92251
G1 X88.64 Y67.258 E.00251
G1 X88.471 Y67.037 E.01396
G1 X88.247 Y66.941 E.01223
G1 X67.289 Y63.353 E1.06709
G1 X67.289 Y49.504 E.69498
G1 X80.639 Y51.791 E.67972
G1 X88.266 Y53.493 E.39218
G1 X103.112 Y58.656 E.78885
G1 X106.051 Y62.206 E.23128
G1 X106.316 Y62.342 E.01496
G1 X106.736 Y62.42 E.02145
G1 X108.866 Y69.799 E.38543
G1 X109.943 Y73.405 E.18886
G1 X110.461 Y75.634 E.11483
G1 X110.501 Y75.745 E.00595
G1 X110.801 Y76.084 E.02271
G1 X111.467 Y78.406 E.12123
G1 X112.541 Y83.362 E.25448
G1 X112.469 Y83.526 E.00902
G1 X111.527 Y87.509 E.20537
G1 X111.52 Y88.17 E.0332
G1 X110.298 Y92.979 E.249
G1 X110.258 Y93.083 E.00558
G1 X108.659 Y96.088 E.17084
G1 X108.259 Y96.268 E.02199
G1 X108.101 Y96.38 E.00974
G1 X107.968 Y96.623 E.01391
G1 X107.669 Y97.917 E.06666
G1 X107.632 Y98.016 E.00531
G1 X104.549 Y103.712 E.32502
G1 X102.349 Y107.899 E.2374
G1 X99.748 Y112.769 E.27706
G1 X99.705 Y112.897 E.00676
G1 X99.112 Y113.98 E.062
G1 X99.048 Y114.224 E.01266
G1 X99.015 Y117.879 E.18343
G1 X99.359 Y117.978 F7800
;TYPE:External perimeter
G1 F1800
G1 X99.549 Y118.37 E.02186
G1 X99.675 Y118.458 E.00771
G1 X102.538 Y118.878 E.14521
G1 X102.5 Y123.011 E.20743
G1 X102.526 Y123.105 E.00489
G1 X103.165 Y124.116 E.06002
G1 X103.288 Y124.195 E.00734
G1 X105.7 Y124.515 E.12212
G1 X105.67 Y127.616 E.15563
G1 X105.691 Y128.153 E.02697
G1 X106.649 Y129.704 E.09147
G1 X106.776 Y129.784 E.00751
G1 X108.826 Y130.03 E.10365
G1 X108.816 Y131.174 E.05742
G1 X83.813 Y131.174 E1.2548
G1 X75.763 Y118.333 E.7606
M73 P1 R39
G1 X93.471 Y85.175 E1.8865
G1 X93.484 Y85.045 E.00654
G1 X88.312 Y67.37 E.92421
G1 X88.189 Y67.281 E.00767
G1 X66.944 Y63.644 E1.08169
G1 X66.944 Y49.095 E.73011
G1 X80.705 Y51.452 E.70068
G1 X88.36 Y53.161 E.39361
G1 X103.317 Y58.362 E.79469
G1 X106.278 Y61.944 E.23323
G1 X106.379 Y62.003 E.0059
G1 X107.009 Y62.12 E.03213
G1 X109.197 Y69.704 E.39611
G1 X110.277 Y73.316 E.18923
G1 X110.797 Y75.556 E.11537
G1 X111.108 Y75.903 E.0234
G1 X111.802 Y78.322 E.12628
G1 X112.812 Y82.98 E.23921
G1 X112.886 Y83.358 E.01934
G1 X112.888 Y83.524 E.00832
G1 X112.805 Y83.607 E.0059
G1 X111.872 Y87.513 E.20152
G1 X111.864 Y88.215 E.03526
G1 X110.633 Y93.064 E.25107
G1 X110.563 Y93.245 E.00973
G1 X108.908 Y96.354 E.17675
G1 X108.401 Y96.582 E.02789
G1 X108.304 Y96.701 E.00768
G1 X108.005 Y97.995 E.06666
G1 X107.935 Y98.18 E.00991
G1 X104.854 Y103.873 E.32486
G1 X102.651 Y108.064 E.23764
G1 X100.053 Y112.932 E.27692
G1 X100.048 Y113.03 E.00495
G1 X100.012 Y113.055 E.00222
G1 X99.751 Y113.53 E.0272
G1 X99.393 Y114.227 E.03933
G1 X99.361 Y117.828 E.1807
G1 X99.054 Y118.289 F7800
G1 E-.7 F3600
;WIPE_START
G1 F6240
G1 X99.531 Y118.319 E-.285
;WIPE_END
G1 E-.015 F3600
G1 X101.964 Y58.366 F7800
G1 E1 F2400
;TYPE:Solid infill
;WIDTH:0.421151
G1 F1800
G1 X106.649 Y63.051 E.33363
G1 X106.847 Y63.739 E.03605
G1 X101.465 Y58.357 E.38326
G1 X100.715 Y58.096 E.04
G1 X107.046 Y64.427 E.45082
G1 X107.245 Y65.115 E.03605
G1 X99.965 Y57.835 E.51839
G1 X99.215 Y57.574 E.04
G1 X107.443 Y65.803 E.58595
G1 X107.642 Y66.491 E.03605
G1 X98.464 Y57.313 E.65352
G1 X97.714 Y57.052 E.04
G1 X107.84 Y67.179 E.72108
G1 X108.039 Y67.866 E.03605
G1 X96.964 Y56.792 E.78865
G1 X96.214 Y56.531 E.04
G1 X108.237 Y68.554 E.85621
G1 X108.436 Y69.242 E.03605
G1 X95.463 Y56.27 E.92378
G1 X94.713 Y56.009 E.04
G1 X108.635 Y69.931 E.9914
G1 X108.844 Y70.629 E.03668
G1 X93.963 Y55.748 E1.05968
G1 X93.213 Y55.487 E.04
G1 X109.052 Y71.327 E1.12796
G1 X109.261 Y72.025 E.03668
G1 X92.462 Y55.226 E1.19624
G1 X91.712 Y54.965 E.04
G1 X109.469 Y72.723 E1.26452
G1 X109.678 Y73.421 E.03668
M73 P1 R38
G1 X90.962 Y54.704 E1.3328
G1 X90.211 Y54.444 E.04
G1 X109.831 Y74.063 E1.39711
G1 X109.979 Y74.701 E.03298
G1 X89.461 Y54.183 E1.46111
G1 X88.711 Y53.922 E.04
G1 X110.128 Y75.339 E1.52511
G1 X110.221 Y75.738 E.02064
G1 X110.311 Y75.937 E.01099
G1 X110.57 Y76.218 E.01925
G1 X110.591 Y76.292 E.00386
G1 X87.998 Y53.698 E1.60887
G1 X87.368 Y53.558 E.0325
G1 X110.788 Y76.978 E1.66776
G1 X110.985 Y77.664 E.03596
G1 X86.738 Y53.417 E1.72665
G1 X86.108 Y53.277 E.0325
M73 P2 R38
G1 X111.182 Y78.351 E1.78554
G1 X111.328 Y78.986 E.03283
G1 X85.478 Y53.136 E1.8408
G1 X84.848 Y52.995 E.0325
G1 X111.464 Y79.611 E1.8953
G1 X111.599 Y80.236 E.03219
G1 X84.218 Y52.855 E1.94981
G1 X83.588 Y52.714 E.0325
G1 X111.735 Y80.86 E2.00431
G1 X111.87 Y81.485 E.03219
G1 X82.958 Y52.574 E2.05881
G1 X82.328 Y52.433 E.0325
G1 X112.005 Y82.11 E2.11332
G1 X112.141 Y82.735 E.03219
G1 X81.698 Y52.292 E2.16782
G1 X81.068 Y52.152 E.0325
G1 X112.267 Y83.35 E2.22166
G1 X112.22 Y83.459 E.00595
G1 X112.155 Y83.728 E.01393
G1 X80.448 Y52.02 E2.25788
G1 X79.857 Y51.919 E.03017
G1 X112.06 Y84.122 E2.29319
G1 X111.966 Y84.517 E.02044
G1 X79.267 Y51.818 E2.3285
G1 X78.676 Y51.717 E.03017
G1 X111.871 Y84.912 E2.36381
G1 X111.776 Y85.307 E.02044
G1 X78.086 Y51.616 E2.39912
G1 X77.495 Y51.515 E.03017
G1 X111.682 Y85.701 E2.43443
G1 X111.587 Y86.096 E.02044
G1 X76.905 Y51.414 E2.46973
G1 X76.314 Y51.313 E.03017
M73 P3 R38
G1 X111.492 Y86.491 E2.50504
G1 X111.398 Y86.885 E.02044
G1 X75.724 Y51.211 E2.54035
G1 X75.133 Y51.11 E.03017
G1 X111.303 Y87.28 E2.57566
G1 X111.285 Y87.355 E.0039
G1 X111.273 Y87.74 E.01938
G1 X74.543 Y51.009 E2.61561
G1 X73.952 Y50.908 E.03017
G1 X111.245 Y88.201 E2.65565
G1 X111.146 Y88.591 E.02027
G1 X73.362 Y50.807 E2.69064
G1 X72.771 Y50.706 E.03017
G1 X111.047 Y88.982 E2.72563
G1 X110.948 Y89.372 E.02027
G1 X88.944 Y67.368 E1.5669
G1 X88.903 Y67.226 E.00743
G1 X88.806 Y67.019 E.01153
G1 X88.629 Y66.831 E.013
G1 X88.468 Y66.738 E.00935
G1 X88.256 Y66.68 E.01108
G1 X72.181 Y50.605 E1.14471
G1 X71.59 Y50.503 E.03017
G1 X87.665 Y66.579 E1.14471
G1 X87.075 Y66.477 E.03016
G1 X71 Y50.402 E1.14472
G1 X70.409 Y50.301 E.03017
G1 X86.484 Y66.376 E1.14472
G1 X85.894 Y66.275 E.03016
G1 X69.819 Y50.2 E1.14472
G1 X69.228 Y50.099 E.03017
G1 X85.303 Y66.174 E1.14473
G1 X84.713 Y66.073 E.03016
G1 X68.638 Y49.998 E1.14473
G1 X68.047 Y49.897 E.03017
G1 X84.122 Y65.972 E1.14473
G1 X83.532 Y65.871 E.03016
G1 X67.548 Y49.887 E1.13825
G1 X67.548 Y50.376 E.02464
G1 X82.942 Y65.77 E1.0962
G1 X82.351 Y65.669 E.03016
G1 X67.548 Y50.865 E1.05415
G1 X67.548 Y51.355 E.02464
G1 X81.761 Y65.568 E1.01211
G1 X81.17 Y65.467 E.03016
M73 P4 R38
G1 X67.548 Y51.844 E.97006
G1 X67.548 Y52.334 E.02464
G1 X80.58 Y65.366 E.92801
G1 X79.989 Y65.264 E.03016
G1 X67.548 Y52.823 E.88597
G1 X67.548 Y53.312 E.02464
G1 X79.399 Y65.163 E.84392
G1 X78.808 Y65.062 E.03016
G1 X67.548 Y53.802 E.80187
G1 X67.548 Y54.291 E.02464
G1 X78.218 Y64.961 E.75983
G1 X77.627 Y64.86 E.03016
G1 X67.548 Y54.78 E.71778
G1 X67.548 Y55.27 E.02464
G1 X77.037 Y64.759 E.67573
G1 X76.447 Y64.658 E.03016
G1 X67.548 Y55.759 E.63369
G1 X67.548 Y56.249 E.02464
M73 P4 R37
G1 X75.856 Y64.557 E.59164
G1 X75.266 Y64.456 E.03016
G1 X67.548 Y56.738 E.54959
G1 X67.548 Y57.227 E.02464
G1 X74.675 Y64.355 E.50755
G1 X74.085 Y64.254 E.03016
G1 X67.548 Y57.717 E.4655
G1 X67.548 Y58.206 E.02464
G1 X73.494 Y64.153 E.42345
G1 X72.904 Y64.051 E.03016
G1 X67.548 Y58.695 E.3814
G1 X67.548 Y59.185 E.02464
G1 X72.313 Y63.95 E.33936
G1 X71.723 Y63.849 E.03016
G1 X67.548 Y59.674 E.29731
G1 X67.548 Y60.164 E.02464
G1 X71.132 Y63.748 E.25526
G1 X70.542 Y63.647 E.03016
G1 X67.548 Y60.653 E.21322
G1 X67.548 Y61.142 E.02464
G1 X69.951 Y63.546 E.17117
G1 X69.361 Y63.445 E.03016
G1 X67.548 Y61.632 E.12912
G1 X67.548 Y62.121 E.02464
G1 X68.771 Y63.344 E.08708
G1 X68.18 Y63.243 E.03016
G1 X67.548 Y62.61 E.04503
G1 X67.548 Y63.1 E.02464
G1 X67.78 Y63.332 E.01651
G1 E-.7 F3600
;WIPE_START
G1 F6240
G1 X67.548 Y63.1 E-.17972
G1 X67.548 Y62.908 E-.10528
;WIPE_END
G1 E-.015 F3600
G1 X88.918 Y67.831 F7800
G1 E1 F2400
G1 F1800
G1 X110.849 Y89.762 E1.56171
G1 X110.75 Y90.152 E.02027
G1 X89.349 Y68.751 E1.52397
G1 X89.551 Y69.443 E.03628
G1 X110.65 Y90.543 E1.50251
G1 X110.551 Y90.933 E.02027
G1 X89.753 Y70.135 E1.48105
G1 X89.955 Y70.826 E.03628
G1 X110.452 Y91.323 E1.45959
G1 X110.353 Y91.713 E.02027
G1 X90.158 Y71.518 E1.43813
G1 X90.36 Y72.209 E.03628
G1 X110.254 Y92.104 E1.41667
G1 X110.155 Y92.494 E.02027
G1 X90.562 Y72.901 E1.39521
G1 X90.764 Y73.593 E.03628
G1 X110.056 Y92.884 E1.37375
G1 X110.039 Y92.948 E.00332
G1 X109.897 Y93.215 E.01523
G1 X90.967 Y74.284 E1.34806
G1 X91.169 Y74.976 E.03628
G1 X109.727 Y93.534 E1.32154
G1 X109.557 Y93.853 E.01821
G1 X91.371 Y75.668 E1.29502
G1 X91.573 Y76.359 E.03628
G1 X109.387 Y94.172 E1.2685
G1 X109.217 Y94.492 E.01821
G1 X91.776 Y77.051 E1.24198
G1 X91.978 Y77.742 E.03628
M73 P5 R37
G1 X109.046 Y94.811 E1.21546
G1 X108.876 Y95.13 E.01821
G1 X92.18 Y78.434 E1.18894
G1 X92.382 Y79.126 E.03628
G1 X108.706 Y95.449 E1.16242
G1 X108.536 Y95.769 E.01821
G1 X92.585 Y79.817 E1.1359
G1 X92.787 Y80.509 E.03628
G1 X108.261 Y95.983 E1.10195
G1 X108.148 Y96.035 E.00627
G1 X107.954 Y96.165 E.01178
G1 X92.989 Y81.2 E1.06565
G1 X93.191 Y81.892 E.03628
G1 X107.756 Y96.457 E1.03715
G1 X107.652 Y96.842 E.0201
G1 X93.394 Y82.584 E1.01535
G1 X93.596 Y83.275 E.03628
G1 X107.56 Y97.24 E.9944
G1 X107.468 Y97.637 E.02054
G1 X93.798 Y83.967 E.97345
G1 X94 Y84.659 E.03628
G1 X107.347 Y98.005 E.95041
G1 X107.175 Y98.323 E.01819
G1 X94.082 Y85.229 E.93241
G1 X94.006 Y85.453 E.0119
G1 X93.94 Y85.577 E.00707
G1 X107.004 Y98.641 E.93028
G1 X106.833 Y98.959 E.01819
G1 X93.77 Y85.896 E.93021
G1 X93.6 Y86.215 E.01821
G1 X106.661 Y99.277 E.93014
G1 X106.49 Y99.595 E.01819
G1 X93.429 Y86.534 E.93007
G1 X93.259 Y86.853 E.01821
G1 X106.319 Y99.913 E.93001
G1 X106.147 Y100.231 E.01819
G1 X93.088 Y87.172 E.92994
G1 X92.918 Y87.491 E.01821
G1 X105.976 Y100.549 E.92987
G1 X105.805 Y100.867 E.01819
G1 X92.748 Y87.81 E.9298
G1 X92.577 Y88.129 E.01821
G1 X105.633 Y101.185 E.92973
G1 X105.462 Y101.504 E.01819
G1 X92.407 Y88.448 E.92966
G1 X92.237 Y88.767 E.01821
G1 X105.291 Y101.822 E.92959
G1 X105.119 Y102.14 E.01819
G1 X92.066 Y89.086 E.92952
G1 X91.896 Y89.405 E.01821
G1 X104.948 Y102.458 E.92945
G1 X104.776 Y102.775 E.01818
G1 X91.726 Y89.724 E.92936
G1 X91.555 Y90.043 E.01821
G1 X104.601 Y103.089 E.92899
G1 X104.425 Y103.403 E.01811
G1 X91.385 Y90.362 E.92863
G1 X91.214 Y90.681 E.01821
G1 X104.253 Y103.72 E.92847
G1 X104.084 Y104.041 E.01825
G1 X91.044 Y91 E.92861
G1 X90.874 Y91.319 E.01821
G1 X103.916 Y104.362 E.92874
G1 X103.748 Y104.683 E.01825
G1 X90.703 Y91.639 E.92888
G1 X90.533 Y91.958 E.01821
G1 X103.579 Y105.004 E.92902
G1 X103.411 Y105.325 E.01825
G1 X90.363 Y92.277 E.92915
G1 X90.192 Y92.596 E.01821
M73 P6 R37
G1 X103.242 Y105.645 E.92929
G1 X103.074 Y105.966 E.01825
G1 X90.022 Y92.915 E.92943
G1 X89.852 Y93.234 E.01821
G1 X102.905 Y106.287 E.92956
G1 X102.737 Y106.608 E.01825
G1 X89.681 Y93.553 E.9297
G1 X89.511 Y93.872 E.01821
G1 X102.568 Y106.929 E.92984
G1 X102.4 Y107.25 E.01825
G1 X89.34 Y94.191 E.92997
G1 X89.17 Y94.51 E.01821
G1 X102.232 Y107.571 E.93011
G1 X102.062 Y107.891 E.01823
G1 X89 Y94.829 E.93018
G1 X88.829 Y95.148 E.01821
G1 X101.892 Y108.21 E.93018
G1 X101.721 Y108.529 E.01821
G1 X88.659 Y95.467 E.93017
G1 X88.489 Y95.786 E.01821
G1 X101.551 Y108.848 E.93017
G1 X101.38 Y109.167 E.01821
G1 X88.318 Y96.105 E.93016
G1 X88.148 Y96.424 E.01821
G1 X101.21 Y109.486 E.93015
G1 X101.039 Y109.805 E.01821
G1 X87.977 Y96.743 E.93015
G1 X87.807 Y97.062 E.01821
G1 X100.869 Y110.124 E.93014
G1 X100.699 Y110.443 E.01821
G1 X87.637 Y97.381 E.93014
G1 X87.466 Y97.7 E.01821
G1 X100.528 Y110.761 E.93013
G1 X100.358 Y111.08 E.01821
G1 X87.296 Y98.019 E.93013
G1 X87.126 Y98.338 E.01821
G1 X100.187 Y111.399 E.93012
G1 X100.017 Y111.718 E.01821
G1 X86.955 Y98.657 E.93012
G1 X86.785 Y98.976 E.01821
G1 X99.846 Y112.037 E.93011
G1 X99.676 Y112.356 E.01821
G1 X86.615 Y99.295 E.93011
G1 X86.444 Y99.614 E.01821
G1 X99.509 Y112.678 E.93031
G1 X99.47 Y112.788 E.00586
G1 X99.35 Y113.009 E.01266
G1 X86.274 Y99.933 E.93113
G1 X86.103 Y100.252 E.01821
G1 X99.177 Y113.325 E.93096
G1 X99.004 Y113.642 E.01816
G1 X85.933 Y100.571 E.93079
G1 X85.763 Y100.89 E.01821
G1 X98.838 Y113.965 E.93109
G1 X98.789 Y114.217 E.01291
M73 P6 R36
G1 X98.788 Y114.404 E.00943
G1 X85.592 Y101.209 E.93964
G1 X85.422 Y101.528 E.01821
G1 X98.783 Y114.889 E.95146
G1 X98.779 Y115.374 E.02442
G1 X85.252 Y101.847 E.96328
G1 X85.081 Y102.166 E.01821
G1 X98.775 Y115.859 E.97511
G1 X98.77 Y116.344 E.02442
G1 X84.911 Y102.485 E.98693
G1 X84.741 Y102.804 E.01821
G1 X98.766 Y116.829 E.99875
G1 X98.762 Y117.314 E.02442
G1 X84.57 Y103.123 E1.01058
G1 X84.4 Y103.442 E.01821
G1 X98.911 Y117.953 E1.03335
G1 E-.7 F3600
;WIPE_START
M73 P7 R36
G1 F6240
G1 X98.543 Y117.585 E-.285
;WIPE_END
G1 E-.015 F3600
G1 X102.083 Y119.656 F7800
G1 E1 F2400
G1 F1800
G1 X101.807 Y119.381 E.01963
G1 X101.233 Y119.296 E.0292
G1 X101.924 Y119.988 E.04921
G1 X101.92 Y120.472 E.02442
G1 X100.659 Y119.212 E.08974
G1 X100.086 Y119.128 E.0292
G1 X101.915 Y120.957 E.13027
G1 X101.911 Y121.442 E.02442
G1 X84.229 Y103.761 E1.25909
G1 X84.059 Y104.08 E.01821
G1 X101.906 Y121.927 E1.2709
G1 X101.902 Y122.412 E.02442
G1 X83.889 Y104.399 E1.28271
G1 X83.718 Y104.718 E.01821
G1 X102.055 Y123.055 E1.30578
G1 E-.7 F3600
;WIPE_START
G1 F6240
G1 X101.688 Y122.687 E-.285
;WIPE_END
G1 E-.015 F3600
G1 X104.832 Y124.852 F7800
G1 E1 F2400
G1 F1800
G1 X105.091 Y125.111 E.01844
G1 X105.086 Y125.596 E.02441
G1 X104.448 Y124.958 E.04543
G1 X103.883 Y124.883 E.02867
G1 X105.081 Y126.081 E.08529
G1 X105.076 Y126.565 E.02441
G1 X103.319 Y124.808 E.12514
G1 X103.056 Y124.758 E.01346
G1 X102.927 Y124.699 E.00715
G1 X102.813 Y124.621 E.00698
G1 X102.658 Y124.444 E.01185
G1 X102.166 Y123.655 E.0468
G1 X83.548 Y105.037 E1.3258
G1 X83.378 Y105.356 E.01821
G1 X105.072 Y127.05 E1.54484
G1 X105.067 Y127.535 E.02441
G1 X83.207 Y105.675 E1.55664
G1 X83.037 Y105.994 E.01821
