; generated by PrusaSlicer 2.5.0+win64 on 2022-12-07 at 00:11:40 UTC

; 

; external perimeters extrusion width = 1.00mm
; perimeters extrusion width = 1.00mm
; infill extrusion width = 1.00mm
; solid infill extrusion width = 1.00mm
; top infill extrusion width = 1.00mm
; support material extrusion width = 1.00mm
; first layer extrusion width = 0.42mm

M73 P0 R139
M107
;TYPE:Custom
G90 ; use absolute coordinates
M83 ; extruder relative mode
M140 S60 ; set final bed temp
M104 S150 ; set temporary nozzle temp to prevent oozing during homing and auto bed leveling
G4 S10 ; allow partial nozzle warmup
G28 ; home all axisG1 Z50 F240
G1 X7.6 Y10 F3000
M104 S210 ; set final nozzle temp
M190 S60 ; wait for bed temp to stabilize
M109 S210 ; wait for nozzle temp to stabilize
G1 Z0.28 F240
G92 E0
G1 Y140 E10 F1500 ; prime the nozzle
G1 X4 F5000
G92 E0
G1 Y10 E10 F1200 ; prime the nozzle
G92 E0
G21 ; set units to millimeters
G90 ; use absolute coordinates
M83 ; use relative distances for extrusion
; Filament gcode
M107
;LAYER_CHANGE
;Z:0.35
;HEIGHT:0.35
;BEFORE_LAYER_CHANGE
G92 E0
;0.35


G1 E-1 F3600
G1 Z.35 F7800
;AFTER_LAYER_CHANGE
;0.35
G1 X116.271 Y18.783
G1 E1 F2400
;TYPE:Perimeter
;WIDTH:0.42
M73 P0 R138
G1 F1800
G1 X116.266 Y56.942 E1.91503
G1 X112.293 Y66.23 E.50697
G1 X109.941 Y71.889 E.30755
G1 X108.332 Y76.153 E.22872
G1 X101.77 Y93.048 E.90964
G1 X100.671 Y95.977 E.15698
G1 X94.925 Y110.844 E.79992
G1 X93.819 Y113.609 E.14942
G1 X92.977 Y115.801 E.11785
G1 X91.117 Y120.77 E.26629
G1 X89.207 Y125.718 E.26618
G1 X87.227 Y130.673 E.26778
G1 X83.443 Y140.594 E.53287
G1 X82.47 Y143.571 E.15717
G1 X82.027 Y145.652 E.10678
G1 X79.825 Y155.566 E.50969
G1 X78.795 Y160.548 E.25533
G1 X78.133 Y163.438 E.14878
G1 X64.024 Y163.436 E.70809
G1 X64.172 Y162.568 E.04417
G1 X69.608 Y137.686 E1.27819
G1 X96.976 Y66.787 E3.81402
G1 X109.791 Y36.45 E1.65274
G1 X116.22 Y18.924 E.93689
G1 E-.7 F3600
;WIPE_START
G1 F6240
G1 X116.22 Y19.444 E-.285
;WIPE_END
G1 E-.015 F3600
G1 X116.617 Y16.84 F7800
G1 E1 F2400
;TYPE:External perimeter
G1 F1800
G1 X116.611 Y57.013 E2.01607
G1 X112.61 Y66.365 E.51051
G1 X110.263 Y72.012 E.30688
G1 X108.655 Y76.276 E.22872
G1 X102.092 Y93.172 E.90967
G1 X100.993 Y96.1 E.15692
G1 X95.246 Y110.971 E.80011
G1 X94.141 Y113.731 E.1492
G1 X93.299 Y115.924 E.11793
G1 X91.44 Y120.893 E.26622
G1 X89.528 Y125.844 E.26638
G1 X87.55 Y130.795 E.26758
G1 X83.765 Y140.717 E.5329
G1 X82.807 Y143.644 E.15459
G1 X82.364 Y145.725 E.10676
G1 X80.162 Y155.639 E.50967
G1 X79.132 Y160.622 E.25535
G1 X78.408 Y163.783 E.16275
G1 X63.615 Y163.781 E.74239
G1 X63.833 Y162.503 E.06507
G1 X69.276 Y137.587 E1.27992
G1 X96.656 Y66.658 E3.81562
G1 X109.476 Y36.308 E1.65343
G1 X116.565 Y16.981 E1.03313
G1 X116.49 Y17.832 F7800
G1 E-.7 F3600
;WIPE_START
G1 F6240
G1 X116.565 Y17.501 E-.285
;WIPE_END
G1 E-.015 F3600
G1 X116.168 Y20.893 F7800
G1 E1 F2400
;TYPE:Solid infill
;WIDTH:0.420233
G1 F1800
G1 X115.879 Y20.604 E.02051
G1 X115.748 Y20.961 E.0191
G1 X116.012 Y21.226 E.01878
G1 X116.012 Y21.714 E.02451
G1 X115.617 Y21.318 E.02808
G1 X115.486 Y21.676 E.0191
G1 X116.012 Y22.202 E.03738
G1 X116.012 Y22.69 E.02451
G1 X115.355 Y22.033 E.04668
G1 X115.224 Y22.39 E.0191
G1 X116.012 Y23.178 E.05598
G1 X116.012 Y23.666 E.02451
G1 X115.093 Y22.747 E.06528
G1 X114.962 Y23.104 E.0191
G1 X116.012 Y24.154 E.07457
G1 X116.012 Y24.642 E.02451
G1 X114.831 Y23.461 E.08387
G1 X114.7 Y23.818 E.0191
G1 X116.012 Y25.13 E.09317
G1 X116.012 Y25.618 E.02451
G1 X114.569 Y24.175 E.10247
G1 X114.438 Y24.532 E.0191
G1 X116.012 Y26.106 E.11177
G1 X116.012 Y26.594 E.02451
G1 X114.307 Y24.889 E.12106
G1 X114.176 Y25.246 E.0191
G1 X116.012 Y27.082 E.13036
G1 X116.011 Y27.57 E.02451
G1 X114.045 Y25.603 E.13966
G1 X113.914 Y25.961 E.0191
G1 X116.011 Y28.058 E.14896
G1 X116.011 Y28.546 E.02451
G1 X113.783 Y26.318 E.15826
G1 X113.652 Y26.675 E.0191
G1 X116.011 Y29.034 E.16756
G1 X116.011 Y29.522 E.02451
G1 X113.521 Y27.032 E.17685
G1 X113.39 Y27.389 E.0191
G1 X116.011 Y30.01 E.18615
G1 X116.011 Y30.498 E.02451
G1 X113.259 Y27.746 E.19545
G1 X113.128 Y28.103 E.0191
G1 X116.011 Y30.986 E.20475
G1 X116.011 Y31.474 E.02451
G1 X112.997 Y28.46 E.21405
G1 X112.866 Y28.817 E.0191
G1 X116.011 Y31.962 E.22334
G1 X116.011 Y32.45 E.02451
G1 X112.735 Y29.174 E.23264
G1 X112.604 Y29.531 E.0191
G1 X116.011 Y32.938 E.24194
G1 X116.011 Y33.426 E.02451
G1 X112.473 Y29.888 E.25124
G1 X112.342 Y30.246 E.0191
G1 X116.011 Y33.914 E.26054
G1 X116.01 Y34.402 E.02451
G1 X112.211 Y30.603 E.26984
G1 X112.08 Y30.96 E.0191
G1 X116.01 Y34.89 E.27913
G1 X116.01 Y35.378 E.02451
G1 X111.949 Y31.317 E.28843
G1 X111.818 Y31.674 E.0191
G1 X116.01 Y35.866 E.29773
G1 X116.01 Y36.354 E.02451
G1 X111.687 Y32.031 E.30703
G1 X111.556 Y32.388 E.0191
G1 X116.01 Y36.842 E.31633
G1 X116.01 Y37.33 E.02451
G1 X111.425 Y32.745 E.32563
G1 X111.294 Y33.102 E.0191
G1 X116.01 Y37.818 E.33492
G1 X116.01 Y38.306 E.02451
G1 X111.163 Y33.459 E.34422
G1 X111.032 Y33.816 E.0191
G1 X116.01 Y38.794 E.35352
G1 X116.01 Y39.282 E.02451
G1 X110.901 Y34.174 E.36282
G1 X110.77 Y34.531 E.0191
G1 X116.01 Y39.77 E.37212
G1 X116.01 Y40.258 E.02451
G1 X110.639 Y34.888 E.38141
G1 X110.508 Y35.245 E.0191
G1 X116.01 Y40.746 E.39071
G1 X116.009 Y41.234 E.02451
G1 X110.377 Y35.602 E.40001
G1 X110.246 Y35.959 E.0191
G1 X116.009 Y41.722 E.40931
G1 X116.009 Y42.21 E.02451
G1 X110.115 Y36.316 E.41861
G1 X109.979 Y36.668 E.01896
G1 X116.009 Y42.698 E.42825
G1 X116.009 Y43.186 E.02451
G1 X109.834 Y37.011 E.43854
G1 X109.69 Y37.355 E.01871
G1 X116.009 Y43.674 E.44883
G1 X116.009 Y44.162 E.02451
G1 X109.545 Y37.698 E.45912
G1 X109.4 Y38.041 E.01871
G1 X116.009 Y44.65 E.46941
G1 X116.009 Y45.138 E.02451
G1 X109.255 Y38.384 E.47969
G1 X109.11 Y38.727 E.01871
G1 X116.009 Y45.626 E.48998
G1 X116.009 Y46.114 E.02451
G1 X108.965 Y39.07 E.50027
G1 X108.82 Y39.413 E.01871
G1 X116.009 Y46.602 E.51056
G1 X116.009 Y47.09 E.02451
G1 X108.675 Y39.756 E.52085
G1 X108.53 Y40.1 E.01871
G1 X116.009 Y47.578 E.53114
G1 X116.009 Y48.066 E.02451
G1 X108.385 Y40.443 E.54143
G1 X108.24 Y40.786 E.01871
G1 X116.008 Y48.554 E.55172
G1 X116.008 Y49.042 E.02451
G1 X108.095 Y41.129 E.56201
G1 X107.95 Y41.472 E.01871
G1 X116.008 Y49.53 E.57229
G1 X116.008 Y50.018 E.02451
G1 X107.805 Y41.815 E.58258
G1 X107.66 Y42.158 E.01871
G1 X116.008 Y50.506 E.59287
G1 X116.008 Y50.994 E.02451
G1 X107.515 Y42.502 E.60316
G1 X107.37 Y42.845 E.01871
G1 X116.008 Y51.482 E.61345
G1 X116.008 Y51.97 E.02451
G1 X107.226 Y43.188 E.62374
G1 X107.081 Y43.531 E.01871
G1 X116.008 Y52.458 E.63403
G1 X116.008 Y52.946 E.02451
G1 X106.936 Y43.874 E.64432
G1 X106.791 Y44.217 E.01871
G1 X116.008 Y53.434 E.65461
G1 X116.008 Y53.922 E.02451
G1 X106.646 Y44.56 E.66489
G1 X106.501 Y44.904 E.01871
G1 X116.008 Y54.41 E.67518
G1 X116.008 Y54.898 E.02451
G1 X106.356 Y45.247 E.68547
G1 X106.211 Y45.59 E.01871
G1 X116.007 Y55.386 E.69576
G1 X116.007 Y55.874 E.02451
G1 X106.066 Y45.933 E.70605
G1 X105.921 Y46.276 E.01871
G1 X116.007 Y56.362 E.71634
G1 X116.007 Y56.85 E.02451
G1 X105.776 Y46.619 E.72663
G1 X105.631 Y46.962 E.01871
G1 X115.873 Y57.204 E.72736
G1 X115.726 Y57.546 E.01867
G1 X105.486 Y47.305 E.72727
G1 X105.341 Y47.649 E.01871
G1 X115.58 Y57.887 E.72718
G1 X115.434 Y58.229 E.01867
G1 X105.196 Y47.992 E.72708
G1 X105.051 Y48.335 E.01871
G1 X115.288 Y58.571 E.72699
G1 X115.141 Y58.913 E.01867
G1 X104.906 Y48.678 E.7269
G1 X104.762 Y49.021 E.01871
G1 X114.995 Y59.255 E.72681
G1 X114.849 Y59.597 E.01867
G1 X104.617 Y49.364 E.72672
G1 X104.472 Y49.707 E.01871
G1 X114.703 Y59.939 E.72663
G1 X114.557 Y60.28 E.01867
G1 X104.327 Y50.051 E.72654
G1 X104.182 Y50.394 E.01871
G1 X114.41 Y60.622 E.72645
G1 X114.264 Y60.964 E.01867
G1 X104.037 Y50.737 E.72636
G1 X103.892 Y51.08 E.01871
G1 X114.118 Y61.306 E.72627
G1 X113.972 Y61.648 E.01867
G1 X103.747 Y51.423 E.72617
G1 X103.602 Y51.766 E.01871
G1 X113.825 Y61.99 E.72608
G1 X113.679 Y62.332 E.01867
G1 X103.457 Y52.109 E.72599
G1 X103.312 Y52.452 E.01871
G1 X113.533 Y62.673 E.7259
G1 X113.387 Y63.015 E.01867
G1 X103.167 Y52.796 E.72581
G1 X103.022 Y53.139 E.01871
G1 X113.241 Y63.357 E.72572
G1 X113.094 Y63.699 E.01867
G1 X102.877 Y53.482 E.72563
G1 X102.732 Y53.825 E.01871
G1 X112.948 Y64.041 E.72554
G1 X112.802 Y64.383 E.01867
G1 X102.587 Y54.168 E.72545
G1 X102.442 Y54.511 E.01871
G1 X112.656 Y64.725 E.72536
G1 X112.509 Y65.066 E.01867
G1 X102.298 Y54.854 E.72527
G1 X102.153 Y55.198 E.01871
G1 X112.363 Y65.408 E.72517
G1 X112.217 Y65.75 E.01867
G1 X102.008 Y55.541 E.72508
G1 X101.863 Y55.884 E.01871
G1 X112.071 Y66.092 E.72499
G1 X111.927 Y66.436 E.01874
M73 P0 R137
G1 X101.718 Y56.227 E.72509
G1 X101.573 Y56.57 E.01871
G1 X111.784 Y66.781 E.7252
G1 X111.641 Y67.126 E.01875
G1 X101.428 Y56.913 E.72532
G1 X101.283 Y57.256 E.01871
G1 X111.497 Y67.471 E.72544
G1 X111.354 Y67.815 E.01875
G1 X101.138 Y57.6 E.72555
G1 X100.993 Y57.943 E.01871
G1 X111.211 Y68.16 E.72567
G1 X111.067 Y68.505 E.01875
G1 X100.848 Y58.286 E.72579
G1 X100.703 Y58.629 E.01871
G1 X110.924 Y68.85 E.7259
G1 X110.781 Y69.195 E.01875
G1 X100.558 Y58.972 E.72602
G1 X100.413 Y59.315 E.01871
G1 X110.638 Y69.539 E.72614
G1 X110.494 Y69.884 E.01875
G1 X100.268 Y59.658 E.72626
G1 X100.123 Y60.001 E.01871
G1 X110.351 Y70.229 E.72637
G1 X110.208 Y70.574 E.01875
G1 X99.979 Y60.345 E.72649
G1 X99.834 Y60.688 E.01871
G1 X110.064 Y70.919 E.72661
G1 X109.921 Y71.263 E.01875
G1 X99.689 Y61.031 E.72672
G1 X99.544 Y61.374 E.01871
G1 X109.778 Y71.608 E.72684
G1 X109.639 Y71.957 E.01887
G1 X99.399 Y61.717 E.72727
G1 X99.254 Y62.06 E.01871
G1 X109.505 Y72.312 E.72807
G1 X109.371 Y72.666 E.01902
G1 X99.109 Y62.403 E.72887
G1 X98.964 Y62.747 E.01871
G1 X109.238 Y73.02 E.72966
G1 X109.104 Y73.375 E.01902
G1 X98.819 Y63.09 E.73046
G1 X98.674 Y63.433 E.01871
M73 P1 R137
G1 X108.97 Y73.729 E.73126
G1 X108.837 Y74.084 E.01902
G1 X98.529 Y63.776 E.73206
G1 X98.384 Y64.119 E.01871
G1 X108.703 Y74.438 E.73286
G1 X108.569 Y74.792 E.01902
G1 X98.239 Y64.462 E.73365
G1 X98.094 Y64.805 E.01871
G1 X108.436 Y75.147 E.73445
G1 X108.302 Y75.501 E.01902
G1 X97.949 Y65.149 E.73525
G1 X97.804 Y65.492 E.01871
G1 X108.168 Y75.855 E.73605
G1 X108.033 Y76.209 E.01899
G1 X97.659 Y65.835 E.73676
G1 X97.515 Y66.178 E.01871
G1 X107.897 Y76.56 E.73736
G1 X107.76 Y76.912 E.01894
G1 X97.37 Y66.521 E.73795
G1 X97.225 Y66.864 E.01871
G1 X107.624 Y77.263 E.73855
G1 X107.487 Y77.615 E.01894
G1 X97.088 Y67.216 E.73855
G1 X96.952 Y67.568 E.01896
G1 X107.351 Y77.966 E.7385
G1 X107.214 Y78.318 E.01894
G1 X96.816 Y67.92 E.73846
G1 X96.68 Y68.272 E.01896
G1 X107.077 Y78.669 E.73842
G1 X106.941 Y79.021 E.01894
G1 X96.544 Y68.624 E.73837
G1 X96.408 Y68.977 E.01896
G1 X106.804 Y79.372 E.73833
G1 X106.668 Y79.724 E.01894
G1 X96.273 Y69.329 E.73829
G1 X96.137 Y69.681 E.01896
G1 X106.531 Y80.075 E.73825
G1 X106.395 Y80.427 E.01894
G1 X96.001 Y70.033 E.7382
G1 X95.865 Y70.385 E.01896
G1 X106.258 Y80.779 E.73816
G1 X106.122 Y81.13 E.01894
G1 X95.729 Y70.737 E.73812
G1 X95.593 Y71.089 E.01896
G1 X105.985 Y81.482 E.73807
G1 X105.849 Y81.833 E.01894
G1 X95.457 Y71.441 E.73803
G1 X95.321 Y71.794 E.01896
G1 X105.712 Y82.185 E.73799
G1 X105.576 Y82.536 E.01894
G1 X95.185 Y72.146 E.73795
G1 X95.049 Y72.498 E.01896
G1 X105.439 Y82.888 E.7379
G1 X105.302 Y83.239 E.01894
G1 X94.913 Y72.85 E.73786
G1 X94.777 Y73.202 E.01896
G1 X105.166 Y83.591 E.73782
G1 X105.029 Y83.942 E.01894
G1 X94.641 Y73.554 E.73777
G1 X94.505 Y73.906 E.01896
G1 X104.893 Y84.294 E.73773
G1 X104.756 Y84.645 E.01894
G1 X94.369 Y74.259 E.73769
G1 X94.234 Y74.611 E.01896
G1 X104.62 Y84.997 E.73765
G1 X104.483 Y85.349 E.01894
G1 X94.098 Y74.963 E.7376
G1 X93.962 Y75.315 E.01896
G1 X104.347 Y85.7 E.73756
G1 X104.21 Y86.052 E.01894
G1 X93.826 Y75.667 E.73752
G1 X93.69 Y76.019 E.01896
G1 X104.074 Y86.403 E.73747
G1 X103.937 Y86.755 E.01894
G1 X93.554 Y76.371 E.73743
G1 X93.418 Y76.724 E.01896
G1 X103.801 Y87.106 E.73739
G1 X103.664 Y87.458 E.01894
G1 X93.282 Y77.076 E.73735
G1 X93.146 Y77.428 E.01896
G1 X103.527 Y87.809 E.7373
G1 X103.391 Y88.161 E.01894
G1 X93.01 Y77.78 E.73726
G1 X92.874 Y78.132 E.01896
G1 X103.254 Y88.512 E.73722
G1 X103.118 Y88.864 E.01894
G1 X92.738 Y78.484 E.73717
G1 X92.602 Y78.836 E.01896
G1 X102.981 Y89.215 E.73713
G1 X102.845 Y89.567 E.01894
G1 X92.466 Y79.189 E.73709
G1 X92.33 Y79.541 E.01896
G1 X102.708 Y89.919 E.73705
G1 X102.572 Y90.27 E.01894
G1 X92.195 Y79.893 E.737
G1 X92.059 Y80.245 E.01896
G1 X102.435 Y90.622 E.73696
G1 X102.299 Y90.973 E.01894
G1 X91.923 Y80.597 E.73692
G1 X91.787 Y80.949 E.01896
G1 X102.162 Y91.325 E.73687
G1 X102.026 Y91.676 E.01894
G1 X91.651 Y81.301 E.73683
G1 X91.515 Y81.654 E.01896
G1 X101.889 Y92.028 E.73679
G1 X101.752 Y92.379 E.01894
G1 X91.379 Y82.006 E.73675
G1 X91.243 Y82.358 E.01896
G1 X101.616 Y92.731 E.7367
G1 X101.481 Y93.084 E.01897
G1 X91.107 Y82.71 E.73675
G1 X90.971 Y83.062 E.01896
G1 X101.347 Y93.438 E.73694
G1 X101.214 Y93.793 E.01904
G1 X90.835 Y83.414 E.73714
G1 X90.699 Y83.766 E.01896
G1 X101.081 Y94.148 E.73733
G1 X100.948 Y94.503 E.01904
G1 X90.563 Y84.119 E.73753
G1 X90.427 Y84.471 E.01896
G1 X100.815 Y94.858 E.73772
G1 X100.682 Y95.213 E.01904
G1 X90.291 Y84.823 E.73792
G1 X90.155 Y85.175 E.01896
G1 X100.548 Y95.568 E.73811
G1 X100.415 Y95.922 E.01903
G1 X90.02 Y85.527 E.73829
G1 X89.884 Y85.879 E.01896
G1 X100.279 Y96.274 E.73828
G1 X100.143 Y96.626 E.01895
G1 X89.748 Y86.231 E.73827
G1 X89.612 Y86.584 E.01896
G1 X100.007 Y96.978 E.73826
G1 X99.871 Y97.331 E.01895
G1 X89.476 Y86.936 E.73825
G1 X89.34 Y87.288 E.01896
G1 X99.735 Y97.683 E.73825
G1 X99.599 Y98.035 E.01895
G1 X89.204 Y87.64 E.73824
G1 X89.068 Y87.992 E.01896
G1 X99.462 Y98.387 E.73823
G1 X99.326 Y98.739 E.01895
G1 X88.932 Y88.344 E.73822
G1 X88.796 Y88.696 E.01896
G1 X99.19 Y99.091 E.73821
G1 X99.054 Y99.443 E.01895
G1 X88.66 Y89.049 E.73821
G1 X88.524 Y89.401 E.01896
G1 X98.918 Y99.795 E.7382
G1 X98.782 Y100.147 E.01895
G1 X88.388 Y89.753 E.73819
G1 X88.252 Y90.105 E.01896
G1 X98.646 Y100.499 E.73818
G1 X98.51 Y100.851 E.01895
G1 X88.116 Y90.457 E.73817
G1 X87.981 Y90.809 E.01896
G1 X98.374 Y101.203 E.73817
G1 X98.238 Y101.555 E.01895
G1 X87.845 Y91.161 E.73816
G1 X87.709 Y91.514 E.01896
G1 X98.102 Y101.907 E.73815
G1 X97.966 Y102.259 E.01895
G1 X87.573 Y91.866 E.73814
G1 X87.437 Y92.218 E.01896
G1 X97.83 Y102.611 E.73813
G1 X97.694 Y102.963 E.01895
G1 X87.301 Y92.57 E.73813
G1 X87.165 Y92.922 E.01896
G1 X97.558 Y103.315 E.73812
G1 X97.422 Y103.667 E.01895
G1 X87.029 Y93.274 E.73811
G1 X86.893 Y93.626 E.01896
G1 X97.286 Y104.019 E.7381
G1 X97.15 Y104.371 E.01895
G1 X86.757 Y93.979 E.73809
G1 X86.621 Y94.331 E.01896
G1 X97.014 Y104.723 E.73809
G1 X96.878 Y105.075 E.01895
G1 X86.485 Y94.683 E.73808
G1 X86.349 Y95.035 E.01896
M73 P1 R136
G1 X96.742 Y105.427 E.73807
G1 X96.605 Y105.779 E.01895
G1 X86.213 Y95.387 E.73806
G1 X86.077 Y95.739 E.01896
G1 X96.469 Y106.131 E.73805
G1 X96.333 Y106.483 E.01895
G1 X85.942 Y96.091 E.73805
G1 X85.806 Y96.444 E.01896
G1 X96.197 Y106.835 E.73804
G1 X96.061 Y107.187 E.01895
G1 X85.67 Y96.796 E.73803
G1 X85.534 Y97.148 E.01896
G1 X95.925 Y107.539 E.73802
G1 X95.789 Y107.891 E.01895
G1 X85.398 Y97.5 E.73801
G1 X85.262 Y97.852 E.01896
G1 X95.653 Y108.243 E.73801
G1 X95.517 Y108.595 E.01895
G1 X85.126 Y98.204 E.738
G1 X84.99 Y98.556 E.01896
G1 X95.381 Y108.947 E.73799
G1 X95.245 Y109.3 E.01895
G1 X84.854 Y98.909 E.73798
G1 X84.718 Y99.261 E.01896
G1 X95.109 Y109.652 E.73797
G1 X94.973 Y110.004 E.01895
G1 X84.582 Y99.613 E.73797
G1 X84.446 Y99.965 E.01896
G1 X94.837 Y110.356 E.73796
G1 X94.701 Y110.708 E.01895
G1 X84.31 Y100.317 E.73795
G1 X84.174 Y100.669 E.01896
G1 X94.562 Y111.057 E.73773
G1 X94.422 Y111.405 E.01885
G1 X84.038 Y101.021 E.73747
G1 X83.902 Y101.374 E.01896
G1 X94.283 Y111.754 E.73722
G1 X94.143 Y112.102 E.01885
G1 X83.767 Y101.726 E.73696
G1 X83.631 Y102.078 E.01896
G1 X94.004 Y112.451 E.73671
G1 X93.864 Y112.799 E.01885
G1 X83.495 Y102.43 E.73646
G1 X83.359 Y102.782 E.01896
G1 X93.725 Y113.148 E.7362
G1 X93.585 Y113.497 E.01885
G1 X83.223 Y103.134 E.73595
G1 X83.087 Y103.486 E.01896
G1 X93.449 Y113.849 E.73597
