; generated by PrusaSlicer 2.5.0+win64 on 2022-12-07 at 00:11:34 UTC

; 

; external perimeters extrusion width = 1.00mm
; perimeters extrusion width = 1.00mm
; infill extrusion width = 1.00mm
; solid infill extrusion width = 1.00mm
; top infill extrusion width = 1.00mm
; support material extrusion width = 1.00mm
; first layer extrusion width = 0.42mm

M73 P0 R133
M107
;TYPE:Custom
G90 ; use absolute coordinates
M83 ; extruder relative mode
M140 S60 ; set final bed temp
M104 S150 ; set temporary nozzle temp to prevent oozing during homing and auto bed leveling
G4 S10 ; allow partial nozzle warmup
G28 ; home all axisG1 Z50 F240
G1 X7.6 Y10 F3000
M104 S210 ; set final nozzle temp
M190 S60 ; wait for bed temp to stabilize
M109 S210 ; wait for nozzle temp to stabilize
G1 Z0.28 F240
G92 E0
G1 Y140 E10 F1500 ; prime the nozzle
G1 X4 F5000
G92 E0
G1 Y10 E10 F1200 ; prime the nozzle
G92 E0
G21 ; set units to millimeters
G90 ; use absolute coordinates
M83 ; use relative distances for extrusion
; Filament gcode
M107
;LAYER_CHANGE
;Z:0.35
;HEIGHT:0.35
;BEFORE_LAYER_CHANGE
G92 E0
;0.35


G1 E-1 F3600
G1 Z.35 F7800
;AFTER_LAYER_CHANGE
;0.35
G1 X77.274 Y122.545
G1 E1 F2400
;TYPE:Perimeter
;WIDTH:0.42
G1 F1800
G1 X77.278 Y122.466 E.00395
G1 X64.969 Y56.746 E3.35557
G1 X58.293 Y22.564 E1.74786
G1 X72.799 Y22.564 E.72796
G1 X91.53 Y122.626 E5.10895
G1 X91.761 Y123.788 E.05943
G1 X88.369 Y131.94 E.44311
G1 X87.602 Y133.889 E.10514
G1 X86.813 Y134.433 E.04807
G1 X57.228 Y156.344 E1.8476
G1 X57.228 Y137.798 E.93074
G1 X76.946 Y123.075 E1.23498
G1 X77.12 Y122.941 E.01099
G1 X77.267 Y122.694 E.01441
G1 X76.939 Y122.53 F7800
;TYPE:External perimeter
G1 F1800
G1 X64.63 Y56.809 E3.35556
G1 X57.875 Y22.219 E1.76874
G1 X73.085 Y22.219 E.76334
G1 X91.868 Y122.557 E5.12303
G1 X92.12 Y123.823 E.06479
G1 X88.691 Y132.064 E.44792
G1 X87.887 Y134.107 E.11018
G1 X87.378 Y134.487 E.03191
G1 X87.019 Y134.71 E.0212
G1 X56.883 Y157.028 E1.88196
G1 X56.883 Y137.625 E.97378
G1 X76.899 Y122.674 E1.25379
G1 X77.829 Y122.075 F7800
M73 P0 R132
G1 E-.7 F3600
;WIPE_START
G1 F6240
G1 X76.804 Y122.163 E-.285
;WIPE_END
G1 E-.015 F3600
G1 X72.874 Y23.53 F7800
G1 E1 F2400
;TYPE:Solid infill
;WIDTH:0.420399
G1 F1800
G1 X72.167 Y22.823 E.05025
G1 X71.679 Y22.823 E.02453
G1 X72.793 Y23.936 E.07914
G1 X72.905 Y24.537 E.03071
G1 X71.19 Y22.823 E.12183
G1 X70.702 Y22.823 E.02453
G1 X73.017 Y25.138 E.16451
G1 X73.13 Y25.739 E.03071
G1 X70.214 Y22.823 E.2072
G1 X69.726 Y22.823 E.02453
G1 X73.242 Y26.339 E.24989
G1 X73.355 Y26.94 E.03071
G1 X69.237 Y22.823 E.29258
G1 X68.749 Y22.823 E.02453
G1 X73.467 Y27.541 E.33527
G1 X73.58 Y28.142 E.03071
G1 X68.261 Y22.823 E.37796
G1 X67.772 Y22.823 E.02453
G1 X73.692 Y28.743 E.42064
G1 X73.805 Y29.343 E.03071
G1 X67.284 Y22.823 E.46333
G1 X66.796 Y22.823 E.02453
G1 X73.917 Y29.944 E.50602
G1 X74.03 Y30.545 E.03071
G1 X66.307 Y22.823 E.54871
G1 X65.819 Y22.823 E.02453
G1 X74.142 Y31.146 E.5914
G1 X74.255 Y31.746 E.03071
G1 X65.331 Y22.823 E.63409
G1 X64.842 Y22.823 E.02453
G1 X74.367 Y32.347 E.67678
G1 X74.479 Y32.948 E.03071
G1 X64.354 Y22.823 E.71946
G1 X63.866 Y22.823 E.02453
G1 X74.592 Y33.549 E.76215
G1 X74.704 Y34.15 E.03071
G1 X63.377 Y22.823 E.80484
G1 X62.889 Y22.823 E.02453
G1 X74.817 Y34.75 E.84753
G1 X74.929 Y35.351 E.03071
G1 X62.401 Y22.823 E.89022
G1 X61.913 Y22.823 E.02453
G1 X75.042 Y35.952 E.93291
G1 X75.154 Y36.553 E.03071
G1 X61.424 Y22.823 E.97559
G1 X60.936 Y22.823 E.02453
G1 X75.267 Y37.153 E1.01828
G1 X75.379 Y37.754 E.03071
G1 X60.448 Y22.823 E1.06097
G1 X59.959 Y22.823 E.02453
G1 X75.492 Y38.355 E1.10366
G1 X75.604 Y38.956 E.03071
G1 X59.471 Y22.823 E1.14635
G1 X58.983 Y22.823 E.02453
G1 X75.717 Y39.556 E1.18904
G1 X75.829 Y40.157 E.03071
G1 X58.635 Y22.963 E1.22173
G1 X58.754 Y23.57 E.03107
G1 X75.941 Y40.758 E1.2213
G1 X76.054 Y41.359 E.03071
G1 X58.872 Y24.177 E1.22087
G1 X58.991 Y24.784 E.03107
G1 X76.166 Y41.96 E1.22044
G1 X76.279 Y42.56 E.03071
G1 X59.109 Y25.391 E1.22001
G1 X59.228 Y25.997 E.03107
G1 X76.391 Y43.161 E1.21958
G1 X76.504 Y43.762 E.03071
G1 X59.346 Y26.604 E1.21915
G1 X59.465 Y27.211 E.03107
G1 X76.616 Y44.363 E1.21872
G1 X76.729 Y44.963 E.03071
G1 X59.583 Y27.818 E1.21829
G1 X59.702 Y28.425 E.03107
G1 X76.841 Y45.564 E1.21786
G1 X76.954 Y46.165 E.03071
G1 X59.82 Y29.032 E1.21743
G1 X59.939 Y29.638 E.03107
G1 X77.066 Y46.766 E1.217
G1 X77.179 Y47.367 E.03071
G1 X60.057 Y30.245 E1.21657
G1 X60.176 Y30.852 E.03107
G1 X77.291 Y47.967 E1.21614
G1 X77.404 Y48.568 E.03071
G1 X60.294 Y31.459 E1.21571
G1 X60.413 Y32.066 E.03107
G1 X77.516 Y49.169 E1.21528
G1 X77.628 Y49.77 E.03071
G1 X60.531 Y32.672 E1.21485
G1 X60.65 Y33.279 E.03107
G1 X77.741 Y50.37 E1.21442
G1 X77.853 Y50.971 E.03071
G1 X60.768 Y33.886 E1.21399
G1 X60.887 Y34.493 E.03107
G1 X77.966 Y51.572 E1.21356
G1 X78.078 Y52.173 E.03071
G1 X61.005 Y35.1 E1.21313
G1 X61.124 Y35.707 E.03107
G1 X78.191 Y52.774 E1.2127
G1 X78.303 Y53.374 E.03071
G1 X61.242 Y36.313 E1.21227
G1 X61.361 Y36.92 E.03107
G1 X78.416 Y53.975 E1.21184
G1 X78.528 Y54.576 E.03071
G1 X61.479 Y37.527 E1.21141
G1 X61.598 Y38.134 E.03107
G1 X78.641 Y55.177 E1.21098
G1 X78.753 Y55.777 E.03071
G1 X61.716 Y38.741 E1.21055
G1 X61.835 Y39.348 E.03107
G1 X78.866 Y56.378 E1.21012
G1 X78.978 Y56.979 E.03071
G1 X61.953 Y39.954 E1.20969
G1 X62.072 Y40.561 E.03107
G1 X79.09 Y57.58 E1.20926
G1 X79.203 Y58.181 E.03071
G1 X62.19 Y41.168 E1.20883
G1 X62.309 Y41.775 E.03107
G1 X79.315 Y58.781 E1.2084
G1 X79.428 Y59.382 E.03071
G1 X62.428 Y42.382 E1.20797
G1 X62.546 Y42.989 E.03107
G1 X79.54 Y59.983 E1.20754
G1 X79.653 Y60.584 E.03071
G1 X62.665 Y43.595 E1.20711
G1 X62.783 Y44.202 E.03107
G1 X79.765 Y61.184 E1.20668
G1 X79.878 Y61.785 E.03071
M73 P1 R132
G1 X62.902 Y44.809 E1.20625
G1 X63.02 Y45.416 E.03107
G1 X79.99 Y62.386 E1.20582
G1 X80.103 Y62.987 E.03071
G1 X63.139 Y46.023 E1.20539
G1 X63.257 Y46.629 E.03107
G1 X80.215 Y63.587 E1.20496
G1 X80.328 Y64.188 E.03071
G1 X63.376 Y47.236 E1.20453
G1 X63.494 Y47.843 E.03107
G1 X80.44 Y64.789 E1.2041
G1 X80.553 Y65.39 E.03071
G1 X63.613 Y48.45 E1.20367
G1 X63.731 Y49.057 E.03107
G1 X80.665 Y65.991 E1.20324
G1 X80.777 Y66.591 E.03071
G1 X63.85 Y49.664 E1.20281
G1 X63.968 Y50.27 E.03107
G1 X80.89 Y67.192 E1.20238
G1 X81.002 Y67.793 E.03071
G1 X64.087 Y50.877 E1.20195
G1 X64.205 Y51.484 E.03107
G1 X81.115 Y68.394 E1.20152
G1 X81.227 Y68.994 E.03071
G1 X64.324 Y52.091 E1.20109
G1 X64.442 Y52.698 E.03107
G1 X81.34 Y69.595 E1.20066
G1 X81.452 Y70.196 E.03071
G1 X64.561 Y53.305 E1.20023
G1 X64.679 Y53.911 E.03107
G1 X81.565 Y70.797 E1.1998
G1 X81.677 Y71.398 E.03071
G1 X64.798 Y54.518 E1.19937
M73 P1 R131
G1 X64.916 Y55.125 E.03107
G1 X81.79 Y71.998 E1.19894
G1 X81.902 Y72.599 E.03071
G1 X65.035 Y55.732 E1.19851
G1 X65.153 Y56.339 E.03107
G1 X82.015 Y73.2 E1.19808
G1 X82.127 Y73.801 E.03071
G1 X65.269 Y56.943 E1.19783
G1 X65.382 Y57.544 E.03071
G1 X82.239 Y74.401 E1.19783
G1 X82.352 Y75.002 E.03071
G1 X65.494 Y58.144 E1.19784
G1 X65.607 Y58.745 E.03071
G1 X82.464 Y75.603 E1.19784
G1 X82.577 Y76.204 E.03071
G1 X65.719 Y59.346 E1.19785
G1 X65.831 Y59.947 E.03071
G1 X82.689 Y76.805 E1.19785
G1 X82.802 Y77.405 E.03071
G1 X65.944 Y60.547 E1.19785
G1 X66.056 Y61.148 E.03071
G1 X82.914 Y78.006 E1.19786
G1 X83.027 Y78.607 E.03071
G1 X66.169 Y61.749 E1.19786
G1 X66.281 Y62.35 E.03071
G1 X83.139 Y79.208 E1.19787
G1 X83.252 Y79.808 E.03071
G1 X66.393 Y62.95 E1.19787
G1 X66.506 Y63.551 E.03071
G1 X83.364 Y80.409 E1.19787
G1 X83.477 Y81.01 E.03071
G1 X66.618 Y64.152 E1.19788
G1 X66.731 Y64.752 E.03071
G1 X83.589 Y81.611 E1.19788
G1 X83.702 Y82.212 E.03071
G1 X66.843 Y65.353 E1.19789
G1 X66.956 Y65.954 E.03071
G1 X83.814 Y82.812 E1.19789
G1 X83.926 Y83.413 E.03071
G1 X67.068 Y66.555 E1.19789
G1 X67.18 Y67.155 E.03071
G1 X84.039 Y84.014 E1.1979
G1 X84.151 Y84.615 E.03071
G1 X67.293 Y67.756 E1.1979
G1 X67.405 Y68.357 E.03071
G1 X84.264 Y85.215 E1.19791
G1 X84.376 Y85.816 E.03071
G1 X67.518 Y68.957 E1.19791
G1 X67.63 Y69.558 E.03071
G1 X84.489 Y86.417 E1.19791
G1 X84.601 Y87.018 E.03071
G1 X67.742 Y70.159 E1.19792
G1 X67.855 Y70.76 E.03071
G1 X84.714 Y87.618 E1.19792
G1 X84.826 Y88.219 E.03071
G1 X67.967 Y71.36 E1.19793
G1 X68.08 Y71.961 E.03071
G1 X84.939 Y88.82 E1.19793
G1 X85.051 Y89.421 E.03071
G1 X68.192 Y72.562 E1.19793
G1 X68.304 Y73.162 E.03071
G1 X85.164 Y90.022 E1.19794
G1 X85.276 Y90.622 E.03071
G1 X68.417 Y73.763 E1.19794
G1 X68.529 Y74.364 E.03071
G1 X85.388 Y91.223 E1.19795
G1 X85.501 Y91.824 E.03071
G1 X68.642 Y74.965 E1.19795
G1 X68.754 Y75.565 E.03071
G1 X85.613 Y92.425 E1.19795
G1 X85.726 Y93.025 E.03071
G1 X68.866 Y76.166 E1.19796
G1 X68.979 Y76.767 E.03071
G1 X85.838 Y93.626 E1.19796
G1 X85.951 Y94.227 E.03071
G1 X69.091 Y77.367 E1.19797
G1 X69.204 Y77.968 E.03071
G1 X86.063 Y94.828 E1.19797
G1 X86.176 Y95.429 E.03071
G1 X69.316 Y78.569 E1.19798
G1 X69.428 Y79.17 E.03071
G1 X86.288 Y96.029 E1.19798
G1 X86.401 Y96.63 E.03071
G1 X69.541 Y79.77 E1.19798
G1 X69.653 Y80.371 E.03071
G1 X86.513 Y97.231 E1.19799
G1 X86.626 Y97.832 E.03071
G1 X69.766 Y80.972 E1.19799
G1 X69.878 Y81.572 E.03071
G1 X86.738 Y98.432 E1.198
G1 X86.851 Y99.033 E.03071
G1 X69.99 Y82.173 E1.198
G1 X70.103 Y82.774 E.03071
G1 X86.963 Y99.634 E1.198
G1 X87.075 Y100.235 E.03071
G1 X70.215 Y83.375 E1.19801
G1 X70.328 Y83.975 E.03071
G1 X87.188 Y100.836 E1.19801
G1 X87.3 Y101.436 E.03071
G1 X70.44 Y84.576 E1.19802
G1 X70.553 Y85.177 E.03071
G1 X87.413 Y102.037 E1.19802
G1 X87.525 Y102.638 E.03071
G1 X70.665 Y85.778 E1.19802
G1 X70.777 Y86.378 E.03071
G1 X87.638 Y103.239 E1.19803
G1 X87.75 Y103.839 E.03071
G1 X70.89 Y86.979 E1.19803
G1 X71.002 Y87.58 E.03071
G1 X87.863 Y104.44 E1.19804
G1 X87.975 Y105.041 E.03071
G1 X71.115 Y88.18 E1.19804
G1 X71.227 Y88.781 E.03071
G1 X88.088 Y105.642 E1.19804
G1 X88.2 Y106.243 E.03071
G1 X71.339 Y89.382 E1.19805
G1 X71.452 Y89.983 E.03071
G1 X88.313 Y106.843 E1.19805
G1 X88.425 Y107.444 E.03071
G1 X71.564 Y90.583 E1.19806
G1 X71.677 Y91.184 E.03071
G1 X88.537 Y108.045 E1.19806
G1 X88.65 Y108.646 E.03071
G1 X71.789 Y91.785 E1.19806
G1 X71.901 Y92.385 E.03071
G1 X88.762 Y109.246 E1.19807
G1 X88.875 Y109.847 E.03071
G1 X72.014 Y92.986 E1.19807
G1 X72.126 Y93.587 E.03071
G1 X88.987 Y110.448 E1.19808
G1 X89.1 Y111.049 E.03071
G1 X72.239 Y94.188 E1.19808
G1 X72.351 Y94.788 E.03071
G1 X89.212 Y111.649 E1.19808
G1 X89.325 Y112.25 E.03071
G1 X72.463 Y95.389 E1.19809
G1 X72.576 Y95.99 E.03071
G1 X89.437 Y112.851 E1.19809
G1 X89.55 Y113.452 E.03071
G1 X72.688 Y96.59 E1.1981
G1 X72.801 Y97.191 E.03071
M73 P1 R130
G1 X89.662 Y114.053 E1.1981
G1 X89.775 Y114.653 E.03071
G1 X72.913 Y97.792 E1.19811
G1 X73.025 Y98.393 E.03071
G1 X89.887 Y115.254 E1.19811
G1 X90 Y115.855 E.03071
G1 X73.138 Y98.993 E1.19811
G1 X73.25 Y99.594 E.03071
G1 X90.112 Y116.456 E1.19812
G1 X90.224 Y117.056 E.03071
G1 X73.363 Y100.195 E1.19812
G1 X73.475 Y100.795 E.03071
G1 X90.337 Y117.657 E1.19813
G1 X90.449 Y118.258 E.03071
M73 P2 R130
G1 X73.588 Y101.396 E1.19813
G1 X73.7 Y101.997 E.03071
G1 X90.562 Y118.859 E1.19813
G1 X90.674 Y119.46 E.03071
G1 X73.812 Y102.598 E1.19814
G1 X73.925 Y103.198 E.03071
G1 X90.787 Y120.06 E1.19814
G1 X90.899 Y120.661 E.03071
G1 X74.037 Y103.799 E1.19815
G1 X74.15 Y104.4 E.03071
G1 X91.012 Y121.262 E1.19815
G1 X91.124 Y121.863 E.03071
G1 X74.262 Y105 E1.19815
G1 X74.374 Y105.601 E.03071
G1 X91.237 Y122.463 E1.19816
G1 X91.355 Y123.07 E.03104
G1 X74.487 Y106.202 E1.19857
G1 X74.599 Y106.803 E.03071
G1 X91.476 Y123.679 E1.19919
G1 X91.492 Y123.761 E.00419
G1 X91.368 Y124.06 E.01625
G1 X74.712 Y107.403 E1.18353
G1 X74.824 Y108.004 E.03071
G1 X91.224 Y124.404 E1.16534
G1 X91.081 Y124.749 E.01877
G1 X74.936 Y108.605 E1.14716
G1 X75.049 Y109.206 E.03071
G1 X90.937 Y125.094 E1.12898
G1 X90.794 Y125.439 E.01877
G1 X75.161 Y109.806 E1.11079
G1 X75.274 Y110.407 E.03071
G1 X90.65 Y125.784 E1.09261
G1 X90.507 Y126.129 E.01877
G1 X75.386 Y111.008 E1.07443
G1 X75.498 Y111.608 E.03071
G1 X90.363 Y126.473 E1.05624
G1 X90.22 Y126.818 E.01877
G1 X75.611 Y112.209 E1.03806
G1 X75.723 Y112.81 E.03071
G1 X90.076 Y127.163 E1.01988
G1 X89.933 Y127.508 E.01877
G1 X75.836 Y113.411 E1.00169
G1 X75.948 Y114.011 E.03071
G1 X89.789 Y127.853 E.98351
G1 X89.646 Y128.197 E.01877
G1 X76.06 Y114.612 E.96533
G1 X76.173 Y115.213 E.03071
G1 X89.502 Y128.542 E.94715
G1 X89.359 Y128.887 E.01877
G1 X76.285 Y115.813 E.92896
G1 X76.398 Y116.414 E.03071
G1 X89.216 Y129.232 E.91078
G1 X89.072 Y129.577 E.01877
G1 X76.51 Y117.015 E.8926
G1 X76.622 Y117.616 E.03071
G1 X88.929 Y129.922 E.87441
G1 X88.785 Y130.266 E.01877
G1 X76.735 Y118.216 E.85623
G1 X76.847 Y118.817 E.03071
G1 X88.642 Y130.611 E.83805
G1 X88.498 Y130.956 E.01877
G1 X76.96 Y119.418 E.81986
G1 X77.072 Y120.018 E.03071
G1 X88.355 Y131.301 E.80168
G1 X88.211 Y131.646 E.01877
G1 X77.185 Y120.619 E.7835
G1 X77.297 Y121.22 E.03071
G1 X88.07 Y131.993 E.76549
G1 X87.932 Y132.343 E.01892
G1 X77.409 Y121.821 E.74771
G1 X77.522 Y122.421 E.03071
G1 X87.794 Y132.694 E.72992
G1 X87.656 Y133.044 E.01892
G1 X77.477 Y122.865 E.72332
G1 X77.451 Y122.933 E.00367
G1 X77.353 Y123.072 E.00855
G1 X77.272 Y123.148 E.00559
G1 X87.518 Y133.395 E.72808
G1 X87.388 Y133.726 E.01789
G1 X87.373 Y133.737 E.00095
G1 X76.996 Y123.36 E.73734
G1 X76.716 Y123.569 E.01753
G1 X87.093 Y133.946 E.73735
G1 X86.802 Y134.143 E.01767
G1 X76.437 Y123.778 E.73653
G1 X76.157 Y123.987 E.01753
G1 X86.508 Y134.337 E.73549
G1 X86.227 Y134.545 E.01754
G1 X75.878 Y124.195 E.73542
G1 X75.598 Y124.404 E.01753
G1 X85.947 Y134.753 E.73535
G1 X85.666 Y134.961 E.01754
G1 X75.318 Y124.613 E.73528
G1 X75.039 Y124.822 E.01753
G1 X85.386 Y135.169 E.73521
G1 X85.105 Y135.376 E.01754
G1 X74.759 Y125.03 E.73514
G1 X74.48 Y125.239 E.01753
G1 X84.825 Y135.584 E.73507
G1 X84.544 Y135.792 E.01754
G1 X74.2 Y125.448 E.735
G1 X73.921 Y125.657 E.01753
G1 X84.264 Y136 E.73493
G1 X83.983 Y136.207 E.01754
G1 X73.641 Y125.865 E.73486
G1 X73.362 Y126.074 E.01753
G1 X83.703 Y136.415 E.73479
G1 X83.422 Y136.623 E.01754
G1 X73.082 Y126.283 E.73472
G1 X72.802 Y126.492 E.01753
G1 X83.142 Y136.831 E.73465
G1 X82.861 Y137.038 E.01754
G1 X72.523 Y126.7 E.73458
G1 X72.243 Y126.909 E.01753
G1 X82.58 Y137.246 E.73451
G1 X82.3 Y137.454 E.01754
G1 X71.964 Y127.118 E.73444
G1 X71.684 Y127.327 E.01753
G1 X82.019 Y137.662 E.73437
G1 X81.739 Y137.869 E.01754
G1 X71.405 Y127.535 E.7343
G1 X71.125 Y127.744 E.01753
G1 X81.458 Y138.077 E.73424
G1 X81.178 Y138.285 E.01754
G1 X70.845 Y127.953 E.73417
G1 X70.566 Y128.162 E.01753
G1 X80.897 Y138.493 E.7341
G1 X80.617 Y138.701 E.01754
G1 X70.286 Y128.37 E.73403
G1 X70.007 Y128.579 E.01753
G1 X80.336 Y138.908 E.73396
G1 X80.056 Y139.116 E.01754
G1 X69.727 Y128.788 E.73389
G1 X69.448 Y128.996 E.01753
G1 X79.775 Y139.324 E.73382
G1 X79.494 Y139.532 E.01754
G1 X69.168 Y129.205 E.73375
G1 X68.888 Y129.414 E.01753
G1 X79.214 Y139.739 E.73368
G1 X78.933 Y139.947 E.01754
G1 X68.609 Y129.623 E.73361
G1 X68.329 Y129.831 E.01753
G1 X78.653 Y140.155 E.73354
G1 X78.372 Y140.363 E.01754
G1 X68.05 Y130.04 E.73347
G1 X67.77 Y130.249 E.01753
G1 X78.092 Y140.57 E.7334
G1 X77.811 Y140.778 E.01754
G1 X67.491 Y130.458 E.73333
G1 X67.211 Y130.666 E.01753
G1 X77.531 Y140.986 E.73326
G1 X77.25 Y141.194 E.01754
G1 X66.932 Y130.875 E.73319
G1 X66.652 Y131.084 E.01753
G1 X76.97 Y141.402 E.73312
G1 X76.689 Y141.609 E.01754
G1 X66.372 Y131.293 E.73305
G1 X66.093 Y131.501 E.01753
G1 X76.408 Y141.817 E.73298
G1 X76.128 Y142.025 E.01754
G1 X65.813 Y131.71 E.73291
G1 X65.534 Y131.919 E.01753
G1 X75.847 Y142.233 E.73284
G1 X75.567 Y142.44 E.01754
G1 X65.254 Y132.128 E.73278
G1 X64.975 Y132.336 E.01753
G1 X75.286 Y142.648 E.73271
G1 X75.006 Y142.856 E.01754
G1 X64.695 Y132.545 E.73264
G1 X64.415 Y132.754 E.01753
G1 X74.725 Y143.064 E.73257
G1 X74.445 Y143.271 E.01754
G1 X64.136 Y132.963 E.7325
G1 X63.856 Y133.171 E.01753
G1 X74.164 Y143.479 E.73243
G1 X73.884 Y143.687 E.01754
M73 P2 R129
G1 X63.577 Y133.38 E.73236
G1 X63.297 Y133.589 E.01753
G1 X73.603 Y143.895 E.73229
G1 X73.322 Y144.103 E.01754
G1 X63.018 Y133.798 E.73222
G1 X62.738 Y134.006 E.01753
G1 X73.042 Y144.31 E.73215
G1 X72.761 Y144.518 E.01754
