; generated by PrusaSlicer 2.5.0+win64 on 2022-12-07 at 00:11:55 UTC

; 

; external perimeters extrusion width = 1.00mm
; perimeters extrusion width = 1.00mm
; infill extrusion width = 1.00mm
; solid infill extrusion width = 1.00mm
; top infill extrusion width = 1.00mm
; support material extrusion width = 1.00mm
; first layer extrusion width = 0.42mm

M73 P0 R245
M107
;TYPE:Custom
G90 ; use absolute coordinates
M83 ; extruder relative mode
M140 S60 ; set final bed temp
M104 S150 ; set temporary nozzle temp to prevent oozing during homing and auto bed leveling
G4 S10 ; allow partial nozzle warmup
G28 ; home all axisG1 Z50 F240
G1 X7.6 Y10 F3000
M104 S210 ; set final nozzle temp
M190 S60 ; wait for bed temp to stabilize
M109 S210 ; wait for nozzle temp to stabilize
G1 Z0.28 F240
G92 E0
G1 Y140 E10 F1500 ; prime the nozzle
G1 X4 F5000
G92 E0
G1 Y10 E10 F1200 ; prime the nozzle
G92 E0
G21 ; set units to millimeters
G90 ; use absolute coordinates
M83 ; use relative distances for extrusion
; Filament gcode
M107
;LAYER_CHANGE
;Z:0.35
;HEIGHT:0.35
;BEFORE_LAYER_CHANGE
G92 E0
;0.35


G1 E-1 F3600
G1 Z.35 F7800
;AFTER_LAYER_CHANGE
;0.35
G1 X46.673 Y98.65
G1 E1 F2400
;TYPE:Perimeter
;WIDTH:0.42
G1 F1800
M73 P0 R244
G1 X46.751 Y98.681 E.00422
G1 X106.56 Y105.554 E3.0213
G1 X152.1 Y124.534 E2.47602
G1 X152.1 Y161.584 E1.85941
G1 X145.527 Y135.703 E1.34011
G1 X145.435 Y135.514 E.01056
G1 X145.224 Y135.353 E.01328
G1 X107.132 Y119.468 E2.07126
G1 X106.992 Y119.431 E.00726
G1 X28.179 Y110.372 E3.98134
G1 X28.989 Y105.005 E.27242
G1 X31.782 Y83.912 E1.0678
G1 X32.703 Y81.135 E.14686
G1 X98.405 Y74.582 E3.3137
G1 X127.229 Y74.54 E1.44654
G1 X127.478 Y74.475 E.01293
G1 X127.669 Y74.293 E.01322
G1 X127.742 Y74.081 E.01126
G1 X128.01 Y71.745 E.11801
G1 X128.043 Y71.3 E.0224
G1 X119.037 Y11.113 E3.05415
G1 X133.331 Y11.113 E.71737
G1 X133.704 Y13.398 E.11618
G1 X133.998 Y15.389 E.101
G1 X134.388 Y18.314 E.14813
G1 X134.686 Y20.365 E.10401
G1 X135.46 Y25.34 E.25268
G1 X136.19 Y30.324 E.25278
G1 X136.632 Y33.125 E.14231
G1 X137.331 Y38.057 E.25
G1 X141.385 Y65.118 E1.37321
G1 X141.443 Y68.403 E.16489
G1 X141.516 Y68.66 E.01342
G1 X142.013 Y69.489 E.0485
G1 X142.103 Y70.045 E.0283
G1 X141.359 Y74.851 E.24403
G1 X138.532 Y79.689 E.2812
G1 X134.59 Y82.49 E.24271
G1 X129.694 Y84.663 E.26884
G1 X127.606 Y84.697 E.1048
G1 X127.485 Y84.713 E.0061
G1 X120.827 Y86.425 E.34501
G1 X78.305 Y90.475 E2.14368
G1 X78.058 Y90.566 E.01319
G1 X77.896 Y90.749 E.01225
G1 X77.836 Y91.002 E.01305
G1 X77.902 Y93.992 E.15012
G1 X52.173 Y95.839 E1.29454
G1 X52.149 Y93.624 E.11114
G1 X52.13 Y93.493 E.00667
G1 X52.054 Y93.331 E.00899
G1 X51.9 Y93.188 E.01052
G1 X51.639 Y93.113 E.01364
G1 X51.368 Y93.185 E.01404
G1 X46.494 Y96.066 E.28417
G1 X46.326 Y96.261 E.0129
G1 X46.273 Y96.496 E.01212
G1 X46.293 Y98.173 E.08416
G1 X46.35 Y98.404 E.01192
G1 X46.503 Y98.583 E.01182
G1 X46.534 Y98.595 E.00165
G1 X46.791 Y98.338 F7800
;TYPE:External perimeter
G1 F1800
G1 X106.648 Y105.217 E3.02375
G1 X152.445 Y124.304 E2.49
G1 X152.445 Y164.343 E2.00941
G1 X145.193 Y135.788 E1.47857
G1 X145.092 Y135.671 E.00774
G1 X106.953 Y119.774 E2.07365
G1 X27.785 Y110.674 E3.99927
G1 X28.646 Y104.963 E.28988
G1 X31.444 Y83.835 E1.06959
G1 X32.446 Y80.814 E.15973
G1 X98.388 Y74.237 E3.32578
G1 X127.229 Y74.195 E1.44739
G1 X127.324 Y74.165 E.00503
G1 X127.4 Y74.042 E.00726
G1 X127.702 Y71.351 E.1359
G1 X118.637 Y10.768 E3.07424
G1 X133.625 Y10.768 E.75217
G1 X134.045 Y13.345 E.13103
G1 X134.339 Y15.341 E.10125
G1 X134.73 Y18.269 E.14825
G1 X135.027 Y20.316 E.10382
G1 X135.801 Y25.289 E.25258
G1 X136.531 Y30.274 E.25286
G1 X136.973 Y33.074 E.14225
G1 X137.673 Y38.009 E.25013
G1 X141.729 Y65.089 E1.37421
G1 X141.787 Y68.397 E.16603
G1 X141.812 Y68.483 E.00447
G1 X142.343 Y69.368 E.05183
G1 X142.452 Y70.044 E.03437
G1 X141.689 Y74.968 E.25005
G1 X138.792 Y79.927 E.28821
G1 X134.761 Y82.791 E.24817
G1 X129.769 Y85.007 E.2741
G1 X127.571 Y85.047 E.11034
G1 X120.887 Y86.766 E.34637
G1 X78.337 Y90.818 E2.14504
G1 X78.242 Y90.859 E.0052
G1 X78.181 Y90.994 E.00743
G1 X78.254 Y94.312 E.16658
G1 X51.832 Y96.209 E1.3294
G1 X51.804 Y93.628 E.12954
G1 X51.786 Y93.553 E.00389
G1 X51.689 Y93.468 E.00647
G1 X51.544 Y93.482 E.00732
G1 X46.681 Y96.357 E.2835
G1 X46.618 Y96.492 E.00752
G1 X46.638 Y98.169 E.08416
G1 X46.664 Y98.258 E.00466
G1 X46.746 Y99.337 F7800
G1 E-.7 F3600
;WIPE_START
G1 F6240
G1 X47.181 Y98.318 E-.285
;WIPE_END
G1 E-.015 F3600
G1 X151.997 Y124.897 F7800
G1 E1 F2400
;TYPE:Solid infill
;WIDTH:0.420338
G1 F1800
G1 X151.779 Y124.68 E.01543
G1 X150.942 Y124.331 E.04556
G1 X151.841 Y125.23 E.06387
G1 X151.841 Y125.719 E.02453
G1 X150.105 Y123.982 E.12334
G1 X149.268 Y123.634 E.04556
G1 X151.841 Y126.207 E.18281
G1 X151.841 Y126.695 E.02453
G1 X148.431 Y123.285 E.24228
G1 X147.594 Y122.936 E.04556
G1 X151.841 Y127.183 E.30175
G1 X151.841 Y127.671 E.02453
G1 X146.757 Y122.587 E.36122
G1 X145.92 Y122.238 E.04556
G1 X151.841 Y128.16 E.42069
G1 X151.841 Y128.648 E.02453
G1 X145.083 Y121.889 E.48016
G1 X144.246 Y121.54 E.04556
G1 X151.841 Y129.136 E.53963
G1 X151.841 Y129.624 E.02453
G1 X143.408 Y121.191 E.5991
G1 X142.571 Y120.843 E.04556
G1 X151.841 Y130.113 E.65857
G1 X151.841 Y130.601 E.02453
G1 X141.734 Y120.494 E.71805
G1 X140.897 Y120.145 E.04556
G1 X151.841 Y131.089 E.77752
G1 X151.841 Y131.577 E.02453
G1 X140.06 Y119.796 E.83699
G1 X139.223 Y119.447 E.04556
G1 X151.841 Y132.066 E.89646
G1 X151.841 Y132.554 E.02453
G1 X138.386 Y119.098 E.95593
G1 X137.549 Y118.749 E.04556
G1 X151.841 Y133.042 E1.0154
G1 X151.841 Y133.53 E.02453
G1 X136.712 Y118.4 E1.07487
G1 X135.875 Y118.052 E.04556
G1 X151.841 Y134.018 E1.13434
G1 X151.841 Y134.507 E.02453
G1 X135.037 Y117.703 E1.19381
G1 X134.2 Y117.354 E.04556
G1 X151.841 Y134.995 E1.25328
G1 X151.841 Y135.483 E.02453
G1 X133.363 Y117.005 E1.31275
G1 X132.526 Y116.656 E.04556
G1 X151.841 Y135.971 E1.37222
G1 X151.841 Y136.46 E.02453
G1 X131.689 Y116.307 E1.43169
G1 X130.852 Y115.958 E.04556
M73 P0 R243
G1 X151.841 Y136.948 E1.49116
G1 X151.841 Y137.436 E.02453
G1 X130.015 Y115.609 E1.55063
G1 X129.178 Y115.261 E.04556
G1 X151.841 Y137.924 E1.6101
G1 X151.841 Y138.412 E.02453
G1 X128.341 Y114.912 E1.66957
G1 X127.504 Y114.563 E.04556
G1 X151.841 Y138.901 E1.72904
G1 X151.841 Y139.389 E.02453
G1 X126.666 Y114.214 E1.78851
G1 X125.829 Y113.865 E.04556
G1 X151.841 Y139.877 E1.84798
G1 X151.841 Y140.365 E.02453
G1 X124.992 Y113.516 E1.90745
G1 X124.155 Y113.167 E.04556
G1 X151.841 Y140.854 E1.96692
G1 X151.841 Y141.342 E.02453
G1 X123.318 Y112.818 E2.02639
G1 X122.481 Y112.469 E.04556
G1 X144.983 Y134.972 E1.59864
G1 X145.331 Y135.117 E.0189
G1 X145.538 Y135.247 E.01231
G1 X145.64 Y135.355 E.00746
G1 X145.722 Y135.487 E.00778
G1 X145.821 Y135.809 E.01694
G1 X151.841 Y141.83 E.42773
G1 X151.841 Y142.318 E.02453
G1 X145.987 Y136.464 E.41593
G1 X146.153 Y137.118 E.03392
G1 X151.841 Y142.806 E.40412
G1 X151.841 Y143.295 E.02453
G1 X146.319 Y137.773 E.39231
G1 X146.486 Y138.427 E.03392
G1 X151.841 Y143.783 E.3805
G1 X151.841 Y144.271 E.02453
G1 X146.652 Y139.081 E.36869
G1 X146.818 Y139.736 E.03392
G1 X151.841 Y144.759 E.35688
G1 X151.841 Y145.248 E.02453
G1 X146.984 Y140.39 E.34508
G1 X147.15 Y141.045 E.03392
G1 X151.841 Y145.736 E.33327
G1 X151.841 Y146.224 E.02453
G1 X147.317 Y141.699 E.32146
G1 X147.483 Y142.354 E.03392
G1 X151.841 Y146.712 E.30965
G1 X151.841 Y147.2 E.02453
G1 X147.649 Y143.008 E.29784
G1 X147.815 Y143.663 E.03392
G1 X151.841 Y147.689 E.28603
G1 X151.841 Y148.177 E.02453
G1 X147.981 Y144.317 E.27422
G1 X148.148 Y144.971 E.03392
G1 X151.841 Y148.665 E.26242
G1 X151.841 Y149.153 E.02453
G1 X148.314 Y145.626 E.25061
G1 X148.48 Y146.28 E.03392
G1 X151.841 Y149.642 E.2388
G1 X151.841 Y150.13 E.02453
G1 X148.646 Y146.935 E.22699
G1 X148.813 Y147.589 E.03392
G1 X151.841 Y150.618 E.21518
G1 X151.841 Y151.106 E.02453
G1 X148.979 Y148.244 E.20337
G1 X149.145 Y148.898 E.03392
G1 X151.841 Y151.595 E.19157
G1 X151.841 Y152.083 E.02453
G1 X149.311 Y149.552 E.17976
G1 X149.477 Y150.207 E.03392
G1 X151.841 Y152.571 E.16795
G1 X151.841 Y153.059 E.02453
G1 X149.644 Y150.861 E.15614
G1 X149.81 Y151.516 E.03392
G1 X151.841 Y153.547 E.14433
G1 X151.841 Y154.036 E.02453
G1 X149.976 Y152.17 E.13252
G1 X150.142 Y152.825 E.03392
G1 X151.841 Y154.524 E.12071
G1 X151.841 Y155.012 E.02453
G1 X150.308 Y153.479 E.10891
G1 X150.475 Y154.134 E.03392
G1 X151.841 Y155.5 E.0971
G1 X151.841 Y155.989 E.02453
G1 X150.641 Y154.788 E.08529
G1 X150.807 Y155.442 E.03392
G1 X151.841 Y156.477 E.07348
G1 X151.841 Y156.965 E.02453
G1 X150.973 Y156.097 E.06167
G1 X151.14 Y156.751 E.03392
G1 X151.841 Y157.453 E.04986
G1 X151.841 Y157.941 E.02453
G1 X151.306 Y157.406 E.03806
G1 X151.472 Y158.06 E.03392
G1 X151.841 Y158.43 E.02625
G1 X151.841 Y158.918 E.02453
G1 X151.638 Y158.715 E.01444
G1 X151.804 Y159.369 E.03392
G1 X151.968 Y159.533 E.01162
G1 E-.7 F3600
;WIPE_START
G1 F6240
G1 X151.804 Y159.369 E-.12677
G1 X151.733 Y159.089 E-.15823
;WIPE_END
G1 E-.015 F3600
G1 X144.434 Y134.911 F7800
G1 E1 F2400
G1 F1800
G1 X121.644 Y112.121 E1.61911
G1 X120.807 Y111.772 E.04556
G1 X143.308 Y134.273 E1.59859
G1 X142.471 Y133.924 E.04558
G1 X119.97 Y111.423 E1.59856
G1 X119.133 Y111.074 E.04556
G1 X141.633 Y133.575 E1.59854
G1 X140.796 Y133.226 E.04558
G1 X118.295 Y110.725 E1.59851
G1 X117.458 Y110.376 E.04556
G1 X139.959 Y132.876 E1.59849
G1 X139.121 Y132.527 E.04558
G1 X116.621 Y110.027 E1.59846
G1 X115.784 Y109.678 E.04556
G1 X138.284 Y132.178 E1.59844
G1 X137.446 Y131.829 E.04558
G1 X114.947 Y109.33 E1.59841
G1 X114.11 Y108.981 E.04556
G1 X136.609 Y131.48 E1.59839
G1 X135.771 Y131.13 E.04558
G1 X113.273 Y108.632 E1.59836
G1 X112.436 Y108.283 E.04556
G1 X134.934 Y130.781 E1.59834
G1 X134.096 Y130.432 E.04558
G1 X111.599 Y107.934 E1.59831
G1 X110.762 Y107.585 E.04556
G1 X133.259 Y130.083 E1.59829
G1 X132.421 Y129.733 E.04558
G1 X109.924 Y107.236 E1.59826
G1 X109.087 Y106.887 E.04556
G1 X131.584 Y129.384 E1.59823
G1 X130.747 Y129.035 E.04558
G1 X108.25 Y106.539 E1.59821
G1 X107.413 Y106.19 E.04556
G1 X129.909 Y128.686 E1.59818
G1 X129.072 Y128.336 E.04558
G1 X106.576 Y105.841 E1.59816
G1 X106.494 Y105.807 E.00445
G1 X105.996 Y105.75 E.02517
G1 X128.234 Y127.987 E1.57983
G1 X127.397 Y127.638 E.04558
G1 X105.445 Y105.686 E1.55953
G1 X104.893 Y105.623 E.02789
G1 X126.559 Y127.289 E1.53922
G1 X125.722 Y126.94 E.04558
G1 X104.342 Y105.559 E1.51891
G1 X103.79 Y105.496 E.02789
G1 X124.884 Y126.59 E1.4986
G1 X124.047 Y126.241 E.04558
G1 X103.238 Y105.433 E1.4783
G1 X102.687 Y105.369 E.02789
G1 X123.209 Y125.892 E1.45799
G1 X122.372 Y125.543 E.04558
G1 X102.135 Y105.306 E1.43768
G1 X101.584 Y105.242 E.02789
G1 X121.534 Y125.193 E1.41738
G1 X120.697 Y124.844 E.04558
G1 X101.032 Y105.179 E1.39707
G1 X100.48 Y105.116 E.02789
G1 X119.86 Y124.495 E1.37676
G1 X119.022 Y124.146 E.04558
G1 X99.929 Y105.052 E1.35645
G1 X99.377 Y104.989 E.02789
G1 X118.185 Y123.796 E1.33615
G1 X117.347 Y123.447 E.04558
G1 X98.825 Y104.925 E1.31584
G1 X98.274 Y104.862 E.02789
G1 X116.51 Y123.098 E1.29553
G1 X115.672 Y122.749 E.04558
G1 X97.722 Y104.799 E1.27522
G1 X97.171 Y104.735 E.02789
G1 X114.835 Y122.399 E1.25492
G1 X113.997 Y122.05 E.04558
M73 P0 R242
G1 X96.619 Y104.672 E1.23461
G1 X96.067 Y104.609 E.02789
G1 X113.16 Y121.701 E1.2143
G1 X112.322 Y121.352 E.04558
G1 X95.516 Y104.545 E1.19399
G1 X94.964 Y104.482 E.02789
G1 X111.485 Y121.003 E1.17369
G1 X110.648 Y120.653 E.04558
G1 X94.413 Y104.418 E1.15338
G1 X93.861 Y104.355 E.02789
G1 X109.81 Y120.304 E1.13307
G1 X108.973 Y119.955 E.04558
G1 X93.309 Y104.292 E1.11277
G1 X92.758 Y104.228 E.02789
G1 X108.135 Y119.606 E1.09246
G1 X107.298 Y119.256 E.04558
G1 X92.206 Y104.165 E1.07215
G1 X91.655 Y104.101 E.02789
G1 X106.689 Y119.136 E1.0681
G1 X106.137 Y119.073 E.02789
G1 X91.103 Y104.038 E1.0681
G1 X90.551 Y103.975 E.02789
G1 X105.586 Y119.009 E1.0681
G1 X105.034 Y118.946 E.02789
G1 X90 Y103.911 E1.06809
G1 X89.448 Y103.848 E.02789
G1 X104.483 Y118.882 E1.06809
G1 X103.931 Y118.819 E.02789
G1 X88.896 Y103.784 E1.06809
G1 X88.345 Y103.721 E.02789
G1 X103.379 Y118.756 E1.06809
G1 X102.828 Y118.692 E.02789
G1 X87.793 Y103.658 E1.06809
G1 X87.242 Y103.594 E.02789
M73 P1 R242
G1 X102.276 Y118.629 E1.06809
G1 X101.724 Y118.565 E.02789
G1 X86.69 Y103.531 E1.06809
G1 X86.138 Y103.468 E.02789
G1 X101.173 Y118.502 E1.06809
G1 X100.621 Y118.439 E.02789
G1 X85.587 Y103.404 E1.06809
G1 X85.035 Y103.341 E.02789
G1 X100.07 Y118.375 E1.06809
G1 X99.518 Y118.312 E.02789
G1 X84.484 Y103.277 E1.06808
G1 X83.932 Y103.214 E.02789
G1 X98.966 Y118.248 E1.06808
G1 X98.415 Y118.185 E.02789
G1 X83.38 Y103.151 E1.06808
G1 X82.829 Y103.087 E.02789
G1 X97.863 Y118.121 E1.06808
G1 X97.311 Y118.058 E.02789
G1 X82.277 Y103.024 E1.06808
G1 X81.725 Y102.96 E.02789
G1 X96.76 Y117.995 E1.06808
G1 X96.208 Y117.931 E.02789
G1 X81.174 Y102.897 E1.06808
G1 X80.622 Y102.834 E.02789
G1 X95.656 Y117.868 E1.06808
G1 X95.105 Y117.804 E.02789
G1 X80.071 Y102.77 E1.06808
G1 X79.519 Y102.707 E.02789
G1 X94.553 Y117.741 E1.06807
G1 X94.002 Y117.678 E.02789
G1 X78.967 Y102.643 E1.06807
G1 X78.416 Y102.58 E.02789
G1 X93.45 Y117.614 E1.06807
G1 X92.898 Y117.551 E.02789
G1 X77.864 Y102.517 E1.06807
G1 X77.313 Y102.453 E.02789
G1 X92.347 Y117.487 E1.06807
G1 X91.795 Y117.424 E.02789
G1 X76.761 Y102.39 E1.06807
G1 X76.209 Y102.327 E.02789
G1 X91.243 Y117.361 E1.06807
G1 X90.692 Y117.297 E.02789
G1 X75.658 Y102.263 E1.06807
G1 X75.106 Y102.2 E.02789
G1 X90.14 Y117.234 E1.06807
G1 X89.589 Y117.17 E.02789
G1 X74.555 Y102.136 E1.06807
G1 X74.003 Y102.073 E.02789
G1 X89.037 Y117.107 E1.06806
G1 X88.485 Y117.044 E.02789
G1 X73.451 Y102.01 E1.06806
G1 X72.9 Y101.946 E.02789
G1 X87.934 Y116.98 E1.06806
G1 X87.382 Y116.917 E.02789
G1 X72.348 Y101.883 E1.06806
G1 X71.796 Y101.819 E.02789
G1 X86.83 Y116.853 E1.06806
G1 X86.279 Y116.79 E.02789
G1 X71.245 Y101.756 E1.06806
G1 X70.693 Y101.693 E.02789
G1 X85.727 Y116.727 E1.06806
G1 X85.176 Y116.663 E.02789
G1 X70.142 Y101.629 E1.06806
G1 X69.59 Y101.566 E.02789
G1 X84.624 Y116.6 E1.06806
G1 X84.072 Y116.536 E.02789
G1 X69.038 Y101.503 E1.06805
G1 X68.487 Y101.439 E.02789
G1 X83.521 Y116.473 E1.06805
G1 X82.969 Y116.41 E.02789
G1 X67.935 Y101.376 E1.06805
G1 X67.384 Y101.312 E.02789
G1 X82.417 Y116.346 E1.06805
G1 X81.866 Y116.283 E.02789
G1 X66.832 Y101.249 E1.06805
G1 X66.28 Y101.186 E.02789
G1 X81.314 Y116.219 E1.06805
G1 X80.763 Y116.156 E.02789
G1 X65.729 Y101.122 E1.06805
G1 X65.177 Y101.059 E.02789
G1 X80.211 Y116.093 E1.06805
G1 X79.659 Y116.029 E.02789
G1 X64.625 Y100.995 E1.06805
G1 X64.074 Y100.932 E.02789
G1 X79.108 Y115.966 E1.06804
G1 X78.556 Y115.902 E.02789
G1 X63.522 Y100.869 E1.06804
G1 X62.971 Y100.805 E.02789
G1 X78.004 Y115.839 E1.06804
G1 X77.453 Y115.776 E.02789
G1 X62.419 Y100.742 E1.06804
G1 X61.867 Y100.678 E.02789
G1 X76.901 Y115.712 E1.06804
G1 X76.349 Y115.649 E.02789
G1 X61.316 Y100.615 E1.06804
G1 X60.764 Y100.552 E.02789
G1 X75.798 Y115.585 E1.06804
G1 X75.246 Y115.522 E.02789
G1 X60.213 Y100.488 E1.06804
G1 X59.661 Y100.425 E.02789
G1 X74.695 Y115.459 E1.06804
G1 X74.143 Y115.395 E.02789
G1 X59.109 Y100.362 E1.06804
G1 X58.558 Y100.298 E.02789
G1 X73.591 Y115.332 E1.06803
G1 X73.04 Y115.268 E.02789
G1 X58.006 Y100.235 E1.06803
G1 X57.455 Y100.171 E.02789
G1 X72.488 Y115.205 E1.06803
G1 X71.936 Y115.142 E.02789
G1 X56.903 Y100.108 E1.06803
G1 X56.351 Y100.045 E.02789
G1 X71.385 Y115.078 E1.06803
G1 X70.833 Y115.015 E.02789
G1 X55.8 Y99.981 E1.06803
G1 X55.248 Y99.918 E.02789
G1 X70.282 Y114.951 E1.06803
G1 X69.73 Y114.888 E.02789
G1 X54.696 Y99.854 E1.06803
G1 X54.145 Y99.791 E.02789
M73 P1 R241
G1 X69.178 Y114.825 E1.06803
G1 X68.627 Y114.761 E.02789
G1 X53.593 Y99.728 E1.06802
G1 X53.042 Y99.664 E.02789
G1 X68.075 Y114.698 E1.06802
G1 X67.523 Y114.634 E.02789
G1 X52.49 Y99.601 E1.06802
G1 X51.938 Y99.537 E.02789
G1 X66.972 Y114.571 E1.06802
G1 X66.42 Y114.507 E.02789
G1 X51.387 Y99.474 E1.06802
G1 X50.835 Y99.411 E.02789
G1 X65.869 Y114.444 E1.06802
G1 X65.317 Y114.381 E.02789
G1 X50.284 Y99.347 E1.06802
G1 X49.732 Y99.284 E.02789
