; generated by PrusaSlicer 2.5.0+win64 on 2022-12-07 at 00:11:48 UTC

; 

; external perimeters extrusion width = 1.00mm
; perimeters extrusion width = 1.00mm
; infill extrusion width = 1.00mm
; solid infill extrusion width = 1.00mm
; top infill extrusion width = 1.00mm
; support material extrusion width = 1.00mm
; first layer extrusion width = 0.42mm

M73 P0 R202
M107
;TYPE:Custom
G90 ; use absolute coordinates
M83 ; extruder relative mode
M140 S60 ; set final bed temp
M104 S150 ; set temporary nozzle temp to prevent oozing during homing and auto bed leveling
G4 S10 ; allow partial nozzle warmup
G28 ; home all axisG1 Z50 F240
G1 X7.6 Y10 F3000
M104 S210 ; set final nozzle temp
M190 S60 ; wait for bed temp to stabilize
M109 S210 ; wait for nozzle temp to stabilize
G1 Z0.28 F240
G92 E0
G1 Y140 E10 F1500 ; prime the nozzle
G1 X4 F5000
G92 E0
G1 Y10 E10 F1200 ; prime the nozzle
G92 E0
G21 ; set units to millimeters
G90 ; use absolute coordinates
M83 ; use relative distances for extrusion
; Filament gcode
M107
;LAYER_CHANGE
;Z:0.35
;HEIGHT:0.35
;BEFORE_LAYER_CHANGE
G92 E0
;0.35


G1 E-1 F3600
G1 Z.35 F7800
;AFTER_LAYER_CHANGE
;0.35
G1 X105.51 Y81.875
G1 E1 F2400
;TYPE:Perimeter
;WIDTH:0.42
G1 F1800
G1 X105.461 Y81.674 E.01038
G1 X105.269 Y81.475 E.01386
G1 X105.041 Y81.403 E.01204
G1 X86.104 Y80.113 E.95256
G1 X76.819 Y54.213 E1.38083
G1 X76.683 Y54.006 E.01242
G1 X76.445 Y53.882 E.01345
G1 X11.114 Y39.286 E3.35953
G1 X11.122 Y22.374 E.84876
G1 X13.733 Y22.967 E.13436
G1 X17.161 Y23.693 E.17587
G1 X18.715 Y24.056 E.08008
G1 X23.686 Y25.14 E.25532
G1 X26.886 Y25.936 E.16553
G1 X28.667 Y26.345 E.09167
G1 X33.471 Y27.384 E.24669
G1 X36.679 Y28.107 E.16501
G1 X38.641 Y28.512 E.10056
G1 X60.834 Y33.46 E1.1411
G1 X63.538 Y34.085 E.13934
G1 X68.357 Y35.129 E.24744
G1 X73.507 Y36.281 E.2648
G1 X78.492 Y37.431 E.25675
G1 X81.516 Y38.074 E.15516
G1 X82.22 Y40.007 E.10322
G1 X82.265 Y40.1 E.00518
G1 X82.407 Y40.252 E.01047
G1 X83.257 Y40.853 E.05227
G1 X83.448 Y40.937 E.01043
G1 X86.38 Y41.565 E.15051
G1 X88.032 Y46.147 E.24443
G1 X88.908 Y48.058 E.10548
G1 X89.134 Y48.738 E.03597
G1 X89.732 Y50.903 E.11271
G1 X92.892 Y59.732 E.47062
G1 X92.876 Y61.998 E.11376
G1 X92.944 Y62.258 E.01347
G1 X93.122 Y62.442 E.01286
G1 X93.358 Y62.518 E.01242
G1 X96.728 Y62.752 E.16955
G1 X97.006 Y62.998 E.01861
G1 X97.197 Y63.049 E.00994
G1 X103.355 Y63.46 E.30971
G1 X107.305 Y63.686 E.19857
G1 X108.127 Y63.859 E.04216
G1 X111.904 Y67.261 E.25509
G1 X112.904 Y68.011 E.06276
G1 X116.241 Y75.112 E.39377
G1 X117.71 Y79.914 E.25202
G1 X117.701 Y81.759 E.09257
G1 X118.358 Y98.9 E.86088
G1 X117.72 Y99.675 E.05039
G1 X117.63 Y99.837 E.00928
G1 X113.859 Y110.873 E.5853
G1 X113.833 Y110.999 E.00645
G1 X112.457 Y128.117 E.86184
G1 X112.321 Y152.825 E1.24004
G1 X110.508 Y158.123 E.28103
G1 X97.911 Y158.123 E.63219
G1 X105.515 Y82.023 E3.83818
G1 X105.177 Y81.937 F7800
;TYPE:External perimeter
G1 F1800
G1 X105.147 Y81.822 E.00595
G1 X105.017 Y81.747 E.00753
G1 X85.855 Y80.442 E.96388
G1 X76.489 Y54.314 E1.39295
G1 X76.37 Y54.219 E.00764
G1 X10.769 Y39.562 E3.3734
G1 X10.777 Y21.942 E.88431
G1 X13.809 Y22.631 E.15603
G1 X17.236 Y23.356 E.17579
G1 X18.786 Y23.718 E.07988
G1 X23.764 Y24.805 E.2557
G1 X26.97 Y25.601 E.16578
G1 X28.741 Y26.009 E.0912
G1 X33.546 Y27.047 E.24671
G1 X36.755 Y27.77 E.16508
G1 X38.713 Y28.175 E.10038
G1 X60.91 Y33.123 E1.1413
G1 X63.612 Y33.749 E.13921
G1 X68.431 Y34.792 E.24745
G1 X73.583 Y35.945 E.26492
G1 X78.561 Y37.093 E.25637
G1 X81.774 Y37.777 E.1649
G1 X82.544 Y39.889 E.11281
G1 X82.673 Y40.018 E.00916
G1 X83.52 Y40.6 E.05158
G1 X86.64 Y41.268 E.16013
G1 X88.346 Y46.003 E.25259
G1 X89.23 Y47.931 E.10643
G1 X89.464 Y48.638 E.03736
G1 X90.056 Y50.786 E.11186
G1 X93.237 Y59.673 E.47369
G1 X93.221 Y62.001 E.11683
G1 X93.249 Y62.096 E.00496
G1 X93.379 Y62.174 E.00763
G1 X96.973 Y62.423 E.1808
G1 X97.081 Y62.617 E.01113
G1 X97.22 Y62.705 E.00825
G1 X103.377 Y63.116 E.30969
G1 X107.35 Y63.343 E.19971
G1 X108.289 Y63.54 E.04813
G1 X112.111 Y66.985 E.25821
G1 X113.18 Y67.787 E.06707
G1 X116.564 Y74.988 E.39931
G1 X118.055 Y79.864 E.25589
G1 X118.046 Y81.746 E.09445
G1 X118.708 Y99.018 E.86746
G1 X117.957 Y99.948 E.06002
G1 X114.177 Y111.026 E.58743
G1 X112.802 Y128.118 E.86055
G1 X112.665 Y152.883 E1.24287
G1 X110.754 Y158.468 E.29623
G1 X97.53 Y158.468 E.66369
G1 X105.162 Y82.086 E3.8524
G1 X105.266 Y81.859 F7800
G1 E-.7 F3600
;WIPE_START
G1 F6240
G1 X105.147 Y81.822 E-.14497
G1 X105.017 Y81.747 E-.08225
G1 X104.912 Y81.74 E-.05777
;WIPE_END
G1 E-.015 F3600
G1 X107.963 Y63.93 F7800
G1 E1 F2400
;TYPE:Solid infill
;WIDTH:0.421391
G1 F1800
G1 X113.127 Y69.094 E.36797
G1 X113.561 Y70.018 E.05144
G1 X107.544 Y64.001 E.42877
G1 X107.271 Y63.943 E.01408
G1 X106.98 Y63.927 E.01465
G1 X113.995 Y70.942 E.49988
G1 X114.43 Y71.865 E.05144
G1 X106.461 Y63.897 E.56784
G1 X105.941 Y63.867 E.02622
G1 X114.864 Y72.789 E.6358
G1 X115.298 Y73.713 E.05144
G1 X105.422 Y63.837 E.70376
G1 X104.902 Y63.808 E.02622
G1 X115.732 Y74.637 E.77171
G1 X115.999 Y75.206 E.03164
G1 X116.082 Y75.477 E.0143
G1 X104.383 Y63.778 E.83368
G1 X103.863 Y63.748 E.02622
G1 X116.298 Y76.183 E.88608
G1 X116.514 Y76.888 E.03718
G1 X103.344 Y63.718 E.93848
G1 X102.819 Y63.683 E.0265
G1 X116.73 Y77.594 E.99124
G1 X116.945 Y78.299 E.03718
G1 X102.295 Y63.648 E1.04401
G1 X101.77 Y63.613 E.0265
G1 X117.161 Y79.005 E1.09678
G1 X117.377 Y79.71 E.03718
G1 X101.245 Y63.578 E1.14956
G1 X100.72 Y63.543 E.0265
G1 X117.45 Y80.272 E1.19212
G1 X117.447 Y80.76 E.02456
G1 X100.196 Y63.508 E1.22935
G1 X99.671 Y63.473 E.0265
G1 X117.445 Y81.247 E1.26657
G1 X117.443 Y81.734 E.02456
G1 X99.146 Y63.438 E1.3038
G1 X98.621 Y63.403 E.0265
M73 P0 R201
G1 X117.461 Y82.242 E1.34248
G1 X117.48 Y82.751 E.02568
G1 X98.097 Y63.368 E1.38126
G1 X97.572 Y63.333 E.0265
G1 X117.5 Y83.261 E1.42005
G1 X117.519 Y83.77 E.02568
G1 X97.03 Y63.28 E1.46008
G1 X96.884 Y63.228 E.00781
G1 X96.649 Y63.005 E.0163
G1 X96.236 Y62.977 E.02083
G1 X117.539 Y84.279 E1.51801
G1 X117.558 Y84.788 E.02568
G1 X95.71 Y62.94 E1.55689
G1 X95.184 Y62.904 E.02658
G1 X117.578 Y85.298 E1.59578
G1 X117.597 Y85.807 E.02568
G1 X94.658 Y62.867 E1.63467
G1 X94.132 Y62.831 E.02658
G1 X117.617 Y86.316 E1.67355
G1 X117.636 Y86.825 E.02568
G1 X93.438 Y62.627 E1.72435
G1 E-.7 F3600
;WIPE_START
G1 F6240
G1 X93.806 Y62.995 E-.285
;WIPE_END
G1 E-.015 F3600
G1 X86.649 Y42.615 F7800
G1 E1 F2400
G1 F1800
G1 X85.72 Y41.687 E.06615
G1 X85.095 Y41.551 E.03224
G1 X86.666 Y43.123 E.11199
G1 X86.942 Y43.889 E.041
G1 X84.47 Y41.416 E.17621
G1 X83.844 Y41.28 E.03224
G1 X87.476 Y44.912 E.2588
G1 E-.7 F3600
;WIPE_START
G1 F6240
G1 X87.108 Y44.544 E-.285
;WIPE_END
G1 E-.015 F3600
G1 X81.845 Y39.281 F7800
G1 E1 F2400
G1 F1800
G1 X80.737 Y38.173 E.07899
G1 X80.115 Y38.04 E.03205
G1 X81.866 Y39.792 E.12481
G1 X81.979 Y40.102 E.01662
G1 X82.097 Y40.313 E.01218
G1 X82.253 Y40.46 E.01078
G1 X83.175 Y41.101 E.05662
G1 X87.494 Y45.42 E.30775
G1 X87.77 Y46.185 E.041
G1 X79.493 Y37.908 E.58983
G1 X78.87 Y37.776 E.03205
G1 X88.177 Y47.082 E.66316
G1 X88.591 Y47.985 E.05008
G1 X78.244 Y37.639 E.73728
G1 X77.608 Y37.492 E.03291
G1 X88.865 Y48.749 E.80219
G1 X89.057 Y49.431 E.03569
G1 X76.971 Y37.345 E.86123
G1 X76.335 Y37.199 E.03291
G1 X89.244 Y50.108 E.91993
G1 X89.431 Y50.785 E.03539
G1 X75.698 Y37.052 E.97863
G1 X75.062 Y36.905 E.03291
G1 X89.679 Y51.522 E1.04161
G1 X89.952 Y52.285 E.04082
G1 X74.425 Y36.758 E1.10642
G1 X73.789 Y36.611 E.03291
G1 X90.225 Y53.048 E1.17123
G1 X90.498 Y53.81 E.04082
G1 X73.155 Y36.467 E1.23585
G1 X72.524 Y36.326 E.03257
G1 X90.771 Y54.573 E1.30026
G1 X91.044 Y55.336 E.04082
G1 X71.893 Y36.185 E1.36467
G1 X71.262 Y36.044 E.03257
G1 X91.317 Y56.098 E1.42907
G1 X91.59 Y56.861 E.04082
G1 X70.631 Y35.903 E1.49348
G1 X70 Y35.762 E.03257
G1 X91.863 Y57.624 E1.55789
G1 X92.136 Y58.386 E.04082
G1 X69.37 Y35.62 E1.62229
G1 X68.739 Y35.479 E.03257
G1 X92.409 Y59.149 E1.6867
G1 X92.633 Y59.776 E.03355
G1 X92.632 Y59.863 E.00437
G1 X68.11 Y35.34 E1.74749
G1 X67.485 Y35.205 E.03223
G1 X92.63 Y60.35 E1.79186
G1 X92.628 Y60.837 E.02456
G1 X66.86 Y35.069 E1.83623
G1 X66.234 Y34.934 E.03223
G1 X92.625 Y61.325 E1.8806
G1 X92.623 Y61.812 E.02456
G1 X65.609 Y34.798 E1.92498
G1 X64.984 Y34.663 E.03223
G1 X117.656 Y87.335 E3.75336
G1 X117.675 Y87.844 E.02568
G1 X64.359 Y34.528 E3.7993
G1 X63.734 Y34.392 E.03223
G1 X117.695 Y88.353 E3.84523
G1 X117.714 Y88.862 E.02568
G1 X63.102 Y34.25 E3.89168
G1 X62.465 Y34.102 E.03295
G1 X117.734 Y89.372 E3.93847
G1 X117.754 Y89.881 E.02568
G1 X61.828 Y33.955 E3.98526
G1 X61.191 Y33.808 E.03295
G1 X117.773 Y90.39 E4.03205
G1 X117.793 Y90.899 E.02568
G1 X60.556 Y33.663 E4.07867
G1 X59.926 Y33.522 E.03253
G1 X117.812 Y91.409 E4.12497
G1 X117.832 Y91.918 E.02568
G1 X59.296 Y33.382 E4.17127
G1 X58.665 Y33.241 E.03253
M73 P0 R200
G1 X117.851 Y92.427 E4.21757
G1 X117.871 Y92.936 E.02568
G1 X58.035 Y33.101 E4.26387
G1 X57.405 Y32.96 E.03253
M73 P1 R200
G1 X117.89 Y93.446 E4.31017
G1 X117.91 Y93.955 E.02568
G1 X105.762 Y81.807 E.86563
G1 X105.754 Y81.709 E.00499
G1 X105.647 Y81.481 E.01266
G1 X105.535 Y81.352 E.00861
G1 X105.402 Y81.252 E.00839
G1 X105.259 Y81.185 E.00797
G1 X105.11 Y81.155 E.00764
G1 X56.775 Y32.82 E3.44437
G1 X56.145 Y32.679 E.03253
G1 X104.578 Y81.113 E3.45135
G1 X104.052 Y81.077 E.02654
G1 X55.514 Y32.539 E3.45881
G1 X54.884 Y32.398 E.03253
G1 X76.02 Y53.534 E1.50612
G1 X75.389 Y53.393 E.03257
G1 X54.254 Y32.258 E1.50608
G1 X53.624 Y32.117 E.03253
G1 X74.758 Y53.252 E1.50604
G1 X74.128 Y53.111 E.03257
G1 X52.994 Y31.977 E1.506
G1 X52.363 Y31.836 E.03253
G1 X73.497 Y52.97 E1.50597
G1 X72.866 Y52.829 E.03257
G1 X51.733 Y31.696 E1.50593
G1 X51.103 Y31.555 E.03253
G1 X72.235 Y52.688 E1.50589
G1 X71.605 Y52.547 E.03257
G1 X50.473 Y31.415 E1.50585
G1 X49.843 Y31.274 E.03253
G1 X70.974 Y52.406 E1.50581
G1 X70.343 Y52.265 E.03257
G1 X49.212 Y31.134 E1.50577
G1 X48.582 Y30.993 E.03253
G1 X69.712 Y52.124 E1.50573
G1 X69.082 Y51.983 E.03257
G1 X47.952 Y30.853 E1.50569
G1 X47.322 Y30.712 E.03253
G1 X68.451 Y51.842 E1.50565
G1 X67.82 Y51.701 E.03257
G1 X46.691 Y30.572 E1.50561
G1 X46.061 Y30.432 E.03253
G1 X67.189 Y51.559 E1.50558
G1 X66.559 Y51.418 E.03257
G1 X45.431 Y30.291 E1.50554
G1 X44.801 Y30.151 E.03253
G1 X65.928 Y51.277 E1.5055
G1 X65.297 Y51.136 E.03257
G1 X44.171 Y30.01 E1.50546
G1 X43.54 Y29.87 E.03253
G1 X64.666 Y50.995 E1.50542
G1 X64.036 Y50.854 E.03257
G1 X42.91 Y29.729 E1.50538
G1 X42.28 Y29.589 E.03253
G1 X63.405 Y50.713 E1.50534
G1 X62.774 Y50.572 E.03257
G1 X41.65 Y29.448 E1.5053
G1 X41.02 Y29.308 E.03253
G1 X62.143 Y50.431 E1.50526
G1 X61.513 Y50.29 E.03257
G1 X40.389 Y29.167 E1.50522
G1 X39.759 Y29.027 E.03253
G1 X60.882 Y50.149 E1.50519
G1 X60.251 Y50.008 E.03257
G1 X39.129 Y28.886 E1.50515
G1 X38.501 Y28.747 E.03243
G1 X59.62 Y49.867 E1.50498
G1 X58.99 Y49.726 E.03257
G1 X37.883 Y28.62 E1.50403
G1 X37.266 Y28.492 E.03177
G1 X58.359 Y49.585 E1.50308
G1 X57.728 Y49.444 E.03257
G1 X36.648 Y28.364 E1.50212
G1 X36.017 Y28.223 E.03261
G1 X57.097 Y49.303 E1.50218
G1 X56.467 Y49.162 E.03257
G1 X35.385 Y28.08 E1.50228
G1 X34.753 Y27.938 E.03265
G1 X55.836 Y49.021 E1.50237
G1 X55.205 Y48.88 E.03257
G1 X34.121 Y27.795 E1.50247
G1 X33.489 Y27.653 E.03265
G1 X54.574 Y48.739 E1.50256
G1 X53.944 Y48.598 E.03257
G1 X32.863 Y27.517 E1.5022
G1 X32.238 Y27.382 E.03221
G1 X53.313 Y48.457 E1.50177
G1 X52.682 Y48.316 E.03257
G1 X31.613 Y27.247 E1.50135
G1 X30.989 Y27.112 E.03221
G1 X52.051 Y48.175 E1.50092
G1 X51.421 Y48.034 E.03257
G1 X30.364 Y26.977 E1.50049
G1 X29.739 Y26.842 E.03221
G1 X50.79 Y47.893 E1.50007
G1 X50.159 Y47.752 E.03257
M73 P1 R199
G1 X29.114 Y26.707 E1.49964
G1 X28.487 Y26.57 E.03234
G1 X49.528 Y47.61 E1.49937
G1 X48.898 Y47.469 E.03257
G1 X27.851 Y26.423 E1.49975
G1 X27.215 Y26.277 E.03289
G1 X48.267 Y47.328 E1.50014
G1 X47.636 Y47.187 E.03257
G1 X26.573 Y26.124 E1.50095
G1 X25.921 Y25.962 E.03383
G1 X47.005 Y47.046 E1.50244
G1 X46.375 Y46.905 E.03257
G1 X25.27 Y25.801 E1.50392
G1 X24.618 Y25.639 E.03383
G1 X45.744 Y46.764 E1.50541
G1 X45.113 Y46.623 E.03257
G1 X23.967 Y25.477 E1.50689
G1 X23.327 Y25.327 E.0331
G1 X44.482 Y46.482 E1.50752
G1 X43.852 Y46.341 E.03257
G1 X22.701 Y25.19 E1.50721
G1 X22.074 Y25.054 E.0323
G1 X43.221 Y46.2 E1.50689
G1 X42.59 Y46.059 E.03257
G1 X21.448 Y24.917 E1.50658
G1 X20.822 Y24.78 E.0323
G1 X41.959 Y45.918 E1.50627
G1 X41.329 Y45.777 E.03257
G1 X20.195 Y24.644 E1.50596
G1 X19.569 Y24.507 E.0323
G1 X40.698 Y45.636 E1.50565
G1 X40.067 Y45.495 E.03257
G1 X18.942 Y24.37 E1.50533
G1 X18.309 Y24.227 E.03272
G1 X39.436 Y45.354 E1.50552
G1 X38.806 Y45.213 E.03257
G1 X17.67 Y24.077 E1.50612
G1 X17.033 Y23.93 E.03295
G1 X38.175 Y45.072 E1.50657
G1 X37.544 Y44.931 E.03257
G1 X16.412 Y23.798 E1.50589
G1 X15.79 Y23.667 E.032
G1 X36.913 Y44.79 E1.50521
G1 X36.283 Y44.649 E.03257
G1 X15.169 Y23.535 E1.50453
G1 X14.548 Y23.404 E.032
G1 X35.652 Y44.508 E1.50385
G1 X35.021 Y44.367 E.03257
G1 X13.927 Y23.272 E1.50317
G1 X13.298 Y23.133 E.03244
G1 X34.39 Y44.226 E1.50302
G1 X33.76 Y44.085 E.03257
G1 X12.664 Y22.989 E1.50324
G1 X12.031 Y22.845 E.03275
G1 X33.129 Y43.944 E1.50345
G1 X32.498 Y43.803 E.03257
G1 X11.381 Y22.698 E1.50437
G1 X11.38 Y23.175 E.02403
G1 X31.867 Y43.661 E1.45989
G1 X31.237 Y43.52 E.03257
G1 X11.38 Y23.664 E1.41496
G1 X11.38 Y24.154 E.02466
G1 X30.606 Y43.379 E1.37003
G1 X29.975 Y43.238 E.03257
G1 X11.38 Y24.643 E1.3251
G1 X11.379 Y25.133 E.02466
G1 X29.344 Y43.097 E1.28017
G1 X28.714 Y42.956 E.03257
G1 X11.379 Y25.622 E1.23524
G1 X11.379 Y26.111 E.02466
G1 X28.083 Y42.815 E1.19031
G1 X27.452 Y42.674 E.03257
G1 X11.379 Y26.601 E1.14538
G1 X11.379 Y27.09 E.02466
G1 X26.821 Y42.533 E1.10044
G1 X26.191 Y42.392 E.03257
G1 X11.378 Y27.58 E1.05551
G1 X11.378 Y28.069 E.02466
G1 X25.56 Y42.251 E1.01058
G1 X24.929 Y42.11 E.03257
G1 X11.378 Y28.559 E.96565
G1 X11.378 Y29.048 E.02466
G1 X24.298 Y41.969 E.92072
G1 X23.668 Y41.828 E.03257
G1 X11.377 Y29.538 E.87579
G1 X11.377 Y30.027 E.02466
G1 X23.037 Y41.687 E.83086
G1 X22.406 Y41.546 E.03257
G1 X11.377 Y30.517 E.78593
G1 X11.377 Y31.006 E.02466
G1 X21.775 Y41.405 E.741
G1 X21.145 Y41.264 E.03257
G1 X11.376 Y31.496 E.69607
G1 X11.376 Y31.985 E.02466
G1 X20.514 Y41.123 E.65114
G1 X19.883 Y40.982 E.03257
G1 X11.376 Y32.475 E.60621
G1 X11.376 Y32.964 E.02466
G1 X19.252 Y40.841 E.56128
G1 X18.622 Y40.7 E.03257
G1 X11.375 Y33.454 E.51635
G1 X11.375 Y33.943 E.02466
G1 X17.991 Y40.559 E.47142
G1 X17.36 Y40.418 E.03257
G1 X11.375 Y34.433 E.42649
G1 X11.375 Y34.922 E.02466
G1 X16.729 Y40.277 E.38156
G1 X16.099 Y40.136 E.03257
G1 X11.375 Y35.412 E.33663
G1 X11.374 Y35.901 E.02466
G1 X15.468 Y39.995 E.2917
G1 X14.837 Y39.853 E.03257
G1 X11.374 Y36.391 E.24677
G1 X11.374 Y36.88 E.02466
G1 X14.206 Y39.712 E.20184
G1 X13.576 Y39.571 E.03257
G1 X11.374 Y37.37 E.15691
G1 X11.373 Y37.859 E.02466
G1 X12.945 Y39.43 E.11198
G1 X12.314 Y39.289 E.03257
G1 X11.373 Y38.348 E.06705
G1 X11.373 Y38.838 E.02466
G1 X11.888 Y39.353 E.03671
G1 E-.7 F3600
;WIPE_START
G1 F6240
G1 X11.52 Y38.985 E-.285
;WIPE_END
G1 E-.015 F3600
G1 X77.058 Y54.572 F7800
G1 E1 F2400
G1 F1800
G1 X103.527 Y81.041 E1.88615
G1 X103.001 Y81.005 E.02654
G1 X77.589 Y55.593 E1.81089
G1 X77.862 Y56.356 E.04086
G1 X102.476 Y80.969 E1.75394
G1 X101.95 Y80.934 E.02654
G1 X78.136 Y57.119 E1.69699
G1 X78.41 Y57.883 E.04086
G1 X101.425 Y80.898 E1.64004
G1 X100.899 Y80.862 E.02654
G1 X78.683 Y58.646 E1.5831
G1 X78.957 Y59.409 E.04086
G1 X100.374 Y80.826 E1.52615
G1 X99.848 Y80.79 E.02654
G1 X79.231 Y60.173 E1.4692
G1 X79.504 Y60.936 E.04086
M73 P1 R198
G1 X99.323 Y80.755 E1.41225
G1 X98.797 Y80.719 E.02654
G1 X79.778 Y61.7 E1.3553
G1 X80.052 Y62.463 E.04086
G1 X98.272 Y80.683 E1.29835
G1 X97.746 Y80.647 E.02654
G1 X80.325 Y63.226 E1.24141
G1 X80.599 Y63.99 E.04086
G1 X97.221 Y80.611 E1.18446
G1 X96.695 Y80.575 E.02654
G1 X80.872 Y64.753 E1.12751
G1 X81.146 Y65.516 E.04086
G1 X96.169 Y80.54 E1.07056
G1 X95.644 Y80.504 E.02654
G1 X81.42 Y66.28 E1.01361
G1 X81.693 Y67.043 E.04086
G1 X95.118 Y80.468 E.95667
G1 X94.593 Y80.432 E.02654
G1 X81.967 Y67.806 E.89972
G1 X82.241 Y68.57 E.04086
