; generated by PrusaSlicer 2.5.0+win64 on 2022-12-07 at 00:11:45 UTC

; 

; external perimeters extrusion width = 1.00mm
; perimeters extrusion width = 1.00mm
; infill extrusion width = 1.00mm
; solid infill extrusion width = 1.00mm
; top infill extrusion width = 1.00mm
; support material extrusion width = 1.00mm
; first layer extrusion width = 0.42mm

M73 P0 R134
M107
;TYPE:Custom
G90 ; use absolute coordinates
M83 ; extruder relative mode
M140 S60 ; set final bed temp
M104 S150 ; set temporary nozzle temp to prevent oozing during homing and auto bed leveling
G4 S10 ; allow partial nozzle warmup
G28 ; home all axisG1 Z50 F240
G1 X7.6 Y10 F3000
M104 S210 ; set final nozzle temp
M190 S60 ; wait for bed temp to stabilize
M109 S210 ; wait for nozzle temp to stabilize
G1 Z0.28 F240
G92 E0
G1 Y140 E10 F1500 ; prime the nozzle
G1 X4 F5000
G92 E0
G1 Y10 E10 F1200 ; prime the nozzle
G92 E0
G21 ; set units to millimeters
G90 ; use absolute coordinates
M83 ; use relative distances for extrusion
; Filament gcode
M107
;LAYER_CHANGE
;Z:0.35
;HEIGHT:0.35
;BEFORE_LAYER_CHANGE
G92 E0
;0.35


G1 E-1 F3600
G1 Z.35 F7800
;AFTER_LAYER_CHANGE
;0.35
G1 X86.584 Y45.944
G1 E1 F2400
;TYPE:Support material
;WIDTH:0.42
G1 F1800
G1 X89.976 Y45.944 E.17027
G1 X89.976 Y55.809 E.49509
G1 X83.191 Y55.809 E.34053
G1 X83.191 Y59.202 E.17027
G1 X76.406 Y59.202 E.34053
G1 X76.406 Y62.594 E.17027
G1 X66.54 Y62.594 E.49509
G1 X66.54 Y55.809 E.34053
G1 X59.755 Y55.809 E.34053
G1 X59.755 Y42.551 E.66536
G1 X86.584 Y42.551 E1.34642
G1 X86.584 Y45.892 E.16767
G1 X89.366 Y55.654 F7800
G1 F1800
G1 X89.366 Y46.254 E.47173
G1 X88.983 Y46.254 E.01923
G1 X88.983 Y55.499 E.46394
G1 X88.6 Y55.499 E.01923
G1 X88.6 Y46.254 E.46394
G1 X88.217 Y46.254 E.01923
G1 X88.217 Y55.499 E.46394
G1 X87.833 Y55.499 E.01923
G1 X87.833 Y46.254 E.46394
G1 X87.45 Y46.254 E.01923
G1 X87.45 Y55.499 E.46394
G1 X87.067 Y55.499 E.01923
G1 X87.067 Y46.254 E.46394
G1 X86.684 Y46.254 E.01923
G1 X86.684 Y55.499 E.46394
G1 X86.301 Y55.499 E.01923
G1 X86.301 Y46.254 E.46394
G1 X86.273 Y46.254 E.00138
G1 X86.273 Y42.861 E.17027
G1 X85.917 Y42.861 E.01785
G1 X85.917 Y55.499 E.6342
G1 X85.534 Y55.499 E.01923
G1 X85.534 Y42.861 E.6342
G1 X85.151 Y42.861 E.01923
G1 X85.151 Y55.499 E.6342
G1 X84.768 Y55.499 E.01923
G1 X84.768 Y42.861 E.6342
G1 X84.385 Y42.861 E.01923
G1 X84.385 Y55.499 E.6342
G1 X84.001 Y55.499 E.01923
G1 X84.001 Y42.861 E.6342
G1 X83.618 Y42.861 E.01923
G1 X83.618 Y55.499 E.6342
G1 X83.235 Y55.499 E.01923
G1 X83.235 Y42.861 E.6342
G1 X82.852 Y42.861 E.01923
G1 X82.852 Y58.891 E.80447
G1 X82.469 Y58.891 E.01923
G1 X82.469 Y42.861 E.80447
G1 X82.085 Y42.861 E.01923
G1 X82.085 Y58.891 E.80447
G1 X81.702 Y58.891 E.01923
G1 X81.702 Y42.861 E.80447
G1 X81.319 Y42.861 E.01923
G1 X81.319 Y58.891 E.80447
G1 X80.936 Y58.891 E.01923
G1 X80.936 Y42.861 E.80447
G1 X80.553 Y42.861 E.01923
G1 X80.553 Y58.891 E.80447
G1 X80.169 Y58.891 E.01923
G1 X80.169 Y42.861 E.80447
G1 X79.786 Y42.861 E.01923
M73 P0 R133
G1 X79.786 Y58.891 E.80447
G1 X79.403 Y58.891 E.01923
G1 X79.403 Y42.861 E.80447
G1 X79.02 Y42.861 E.01923
G1 X79.02 Y58.891 E.80447
G1 X78.636 Y58.891 E.01923
G1 X78.636 Y42.861 E.80447
G1 X78.253 Y42.861 E.01923
G1 X78.253 Y58.891 E.80447
G1 X77.87 Y58.891 E.01923
G1 X77.87 Y42.861 E.80447
G1 X77.487 Y42.861 E.01923
G1 X77.487 Y58.891 E.80447
G1 X77.104 Y58.891 E.01923
G1 X77.104 Y42.861 E.80447
G1 X76.72 Y42.861 E.01923
G1 X76.72 Y58.891 E.80447
G1 X76.337 Y58.891 E.01923
G1 X76.337 Y42.861 E.80447
G1 X75.954 Y42.861 E.01923
G1 X75.954 Y62.284 E.97474
G1 X75.571 Y62.284 E.01923
G1 X75.571 Y42.861 E.97474
G1 X75.188 Y42.861 E.01923
G1 X75.188 Y62.284 E.97474
G1 X74.804 Y62.284 E.01923
G1 X74.804 Y42.861 E.97474
G1 X74.421 Y42.861 E.01923
G1 X74.421 Y62.284 E.97474
G1 X74.038 Y62.284 E.01923
G1 X74.038 Y42.861 E.97474
G1 X73.655 Y42.861 E.01923
G1 X73.655 Y62.284 E.97474
G1 X73.272 Y62.284 E.01923
G1 X73.272 Y42.861 E.97474
G1 X72.888 Y42.861 E.01923
G1 X72.888 Y62.284 E.97474
G1 X72.505 Y62.284 E.01923
G1 X72.505 Y42.861 E.97474
G1 X72.122 Y42.861 E.01923
G1 X72.122 Y62.284 E.97474
G1 X71.739 Y62.284 E.01923
G1 X71.739 Y42.861 E.97474
G1 X71.355 Y42.861 E.01923
G1 X71.355 Y62.284 E.97474
G1 X70.972 Y62.284 E.01923
G1 X70.972 Y42.861 E.97474
G1 X70.589 Y42.861 E.01923
G1 X70.589 Y62.284 E.97474
G1 X70.206 Y62.284 E.01923
G1 X70.206 Y42.861 E.97474
G1 X69.823 Y42.861 E.01923
G1 X69.823 Y62.284 E.97474
G1 X69.439 Y62.284 E.01923
G1 X69.439 Y42.861 E.97474
G1 X69.056 Y42.861 E.01923
G1 X69.056 Y62.284 E.97474
G1 X68.673 Y62.284 E.01923
G1 X68.673 Y42.861 E.97474
G1 X68.29 Y42.861 E.01923
G1 X68.29 Y62.284 E.97474
G1 X67.907 Y62.284 E.01923
G1 X67.907 Y42.861 E.97474
G1 X67.523 Y42.861 E.01923
G1 X67.523 Y62.284 E.97474
G1 X67.14 Y62.284 E.01923
G1 X67.14 Y42.861 E.97474
G1 X66.757 Y42.861 E.01923
G1 X66.757 Y55.499 E.6342
G1 X66.374 Y55.499 E.01923
G1 X66.374 Y42.861 E.6342
G1 X65.991 Y42.861 E.01923
G1 X65.991 Y55.499 E.6342
G1 X65.607 Y55.499 E.01923
G1 X65.607 Y42.861 E.6342
G1 X65.224 Y42.861 E.01923
G1 X65.224 Y55.499 E.6342
G1 X64.841 Y55.499 E.01923
G1 X64.841 Y42.861 E.6342
G1 X64.458 Y42.861 E.01923
G1 X64.458 Y55.499 E.6342
G1 X64.074 Y55.499 E.01923
G1 X64.074 Y42.861 E.6342
G1 X63.691 Y42.861 E.01923
G1 X63.691 Y55.499 E.6342
G1 X63.308 Y55.499 E.01923
G1 X63.308 Y42.861 E.6342
G1 X62.925 Y42.861 E.01923
G1 X62.925 Y55.499 E.6342
G1 X62.542 Y55.499 E.01923
G1 X62.542 Y42.861 E.6342
G1 X62.158 Y42.861 E.01923
G1 X62.158 Y55.499 E.6342
G1 X61.775 Y55.499 E.01923
G1 X61.775 Y42.861 E.6342
G1 X61.392 Y42.861 E.01923
G1 X61.392 Y55.499 E.6342
G1 X61.009 Y55.499 E.01923
G1 X61.009 Y42.861 E.6342
G1 X60.626 Y42.861 E.01923
G1 X60.626 Y55.499 E.6342
G1 X60.242 Y55.499 E.01923
G1 X60.242 Y42.706 E.64199
G1 E-.7 F3600
;WIPE_START
G1 F6240
G1 X60.242 Y43.226 E-.285
;WIPE_END
G1 E-.015 F3600
G1 X73.618 Y103.061 F7800
G1 E1 F2400
;TYPE:Support material interface
;WIDTH:1
G1 F1800
G1 X73.618 Y107.689 E.62286
G1 X74.51 Y107.443 E.12463
G1 X74.51 Y103.463 E.53564
G1 X75.403 Y103.463 E.12014
G1 X75.403 Y107.197 E.50249
G1 X76.296 Y106.951 E.12463
G1 X76.296 Y103.463 E.46934
G1 X77.189 Y103.463 E.12014
G1 X77.189 Y107.115 E.49154
G1 X78.081 Y106.869 E.12463
G1 X78.081 Y103.463 E.45839
G1 X78.974 Y103.463 E.12014
G1 X78.974 Y104.707 E.16736
G1 X79.867 Y104.451 E.12496
G1 X79.867 Y103.463 E.13301
G1 X80.759 Y103.463 E.12014
G1 X80.759 Y104.196 E.09866
G1 X81.652 Y103.946 E.12476
G1 X81.652 Y103.463 E.06502
G1 X82.545 Y103.463 E.12014
G1 X82.545 Y104.109 E.08689
G1 E-.7 F3600
;WIPE_START
G1 F6240
G1 X82.545 Y103.589 E-.285
;WIPE_END
G1 E-.015 F3600
G1 X80.863 Y105.889 F7800
G1 E1 F2400
;TYPE:Support material
;WIDTH:0.42
G1 F1800
G1 X81.254 Y105.778 E.02041
G1 X81.462 Y106.531 E.03922
G1 X78.976 Y107.217 E.12944
G1 X78.624 Y105.968 E.06511
G1 X78.942 Y105.398 E.03274
G1 X80.588 Y104.928 E.08591
G1 X80.849 Y105.839 E.04756
G1 X80.936 Y106.515 F7800
G1 F1800
G1 X80.936 Y106.191 E.01628
G1 X80.65 Y106.272 E.01492
G1 X80.552 Y105.932 E.01776
G1 X80.552 Y106.46 E.02651
G1 X80.169 Y106.566 E.01995
G1 X80.169 Y105.371 E.05998
G1 X79.786 Y105.48 E.02
G1 X79.786 Y106.671 E.05979
G1 X79.403 Y106.777 E.01995
G1 X79.403 Y105.59 E.0596
G1 X79.151 Y105.662 E.01315
G1 X79.02 Y105.897 E.01352
G1 X79.02 Y106.8 E.04531
G1 E-.7 F3600
;WIPE_START
G1 F6240
G1 X79.02 Y106.28 E-.285
;WIPE_END
G1 E-.015 F3600
G1 X72.513 Y108.675 F7800
G1 E1 F2400
G1 F1800
G1 X75.905 Y107.739 E.17663
G1 X75.905 Y108.064 E.01631
G1 X70.958 Y109.429 E.25759
G1 X69.985 Y106.261 E.16635
G1 X72.513 Y105.563 E.13159
G1 X72.513 Y108.624 E.15359
G1 X72.122 Y108.947 F7800
G1 F1800
G1 X72.122 Y105.993 E.14825
G1 X71.739 Y106.099 E.01995
G1 X71.739 Y108.892 E.14017
G1 X71.355 Y108.998 E.01995
G1 X71.355 Y106.205 E.14017
G1 X70.972 Y106.31 E.01995
G1 X70.972 Y108.419 E.10581
G1 X70.589 Y107.17 E.06555
G1 X70.589 Y106.255 E.04593
G1 E-.7 F3600
;WIPE_START
G1 F6240
G1 X70.589 Y106.775 E-.285
;WIPE_END
G1 E-.015 F3600
G1 X96.508 Y97.21 F7800
G1 E1 F2400
G1 F1800
G1 X95.133 Y97.585 E.07149
G1 X94.841 Y97.975 E.02449
G1 X94.869 Y99.456 E.07436
G1 X94.892 Y99.593 E.00698
G1 X93.682 Y99.923 E.06294
G1 X93.682 Y93.442 E.32527
G1 X97.04 Y93.442 E.16853
G1 X96.515 Y97.159 E.1884
G1 X96.647 Y95.112 F7800
G1 F1800
G1 X96.647 Y93.752 E.06824
G1 X96.264 Y93.752 E.01923
G1 X96.264 Y96.715 E.14871
G1 X96.229 Y96.964 E.01262
G1 X95.881 Y97.059 E.01811
G1 X95.881 Y93.752 E.16597
G1 X95.498 Y93.752 E.01923
G1 X95.498 Y97.164 E.17122
G1 X95.114 Y97.268 E.01993
G1 X95.114 Y93.752 E.17645
G1 X94.731 Y93.752 E.01923
G1 X94.731 Y97.604 E.19329
G1 X94.528 Y97.874 E.01697
G1 X94.557 Y99.363 E.07473
G1 X94.348 Y99.42 E.01085
G1 X94.348 Y93.597 E.29224
G1 E-.7 F3600
;WIPE_START
G1 F6240
G1 X94.348 Y94.117 E-.285
;WIPE_END
G1 E-.015 F3600
G1 X130.689 Y46.501 F7800
G1 E1 F2400
G1 F1800
G1 X117.431 Y46.501 E.66536
G1 X117.431 Y42.551 E.19825
G1 X130.689 Y42.551 E.66536
G1 X130.689 Y46.45 E.19566
G1 X130.37 Y46.346 F7800
G1 F1800
G1 X130.37 Y42.861 E.17489
G1 X129.987 Y42.861 E.01923
G1 X129.987 Y46.191 E.1671
G1 X129.603 Y46.191 E.01923
G1 X129.603 Y42.861 E.1671
G1 X129.22 Y42.861 E.01923
G1 X129.22 Y46.191 E.1671
G1 X128.837 Y46.191 E.01923
G1 X128.837 Y42.861 E.1671
G1 X128.454 Y42.861 E.01923
G1 X128.454 Y46.191 E.1671
G1 X128.071 Y46.191 E.01923
G1 X128.071 Y42.861 E.1671
G1 X127.687 Y42.861 E.01923
G1 X127.687 Y46.191 E.1671
G1 X127.304 Y46.191 E.01923
G1 X127.304 Y42.861 E.1671
G1 X126.921 Y42.861 E.01923
G1 X126.921 Y46.191 E.1671
G1 X126.538 Y46.191 E.01923
G1 X126.538 Y42.861 E.1671
G1 X126.154 Y42.861 E.01923
G1 X126.154 Y46.191 E.1671
G1 X125.771 Y46.191 E.01923
G1 X125.771 Y42.861 E.1671
G1 X125.388 Y42.861 E.01923
G1 X125.388 Y46.191 E.1671
G1 X125.005 Y46.191 E.01923
G1 X125.005 Y42.861 E.1671
G1 X124.622 Y42.861 E.01923
G1 X124.622 Y46.191 E.1671
G1 X124.238 Y46.191 E.01923
G1 X124.238 Y42.861 E.1671
G1 X123.855 Y42.861 E.01923
G1 X123.855 Y46.191 E.1671
G1 X123.472 Y46.191 E.01923
G1 X123.472 Y42.861 E.1671
G1 X123.089 Y42.861 E.01923
G1 X123.089 Y46.191 E.1671
G1 X122.706 Y46.191 E.01923
G1 X122.706 Y42.861 E.1671
G1 X122.322 Y42.861 E.01923
G1 X122.322 Y46.191 E.1671
G1 X121.939 Y46.191 E.01923
G1 X121.939 Y42.861 E.1671
G1 X121.556 Y42.861 E.01923
G1 X121.556 Y46.191 E.1671
G1 X121.173 Y46.191 E.01923
G1 X121.173 Y42.861 E.1671
G1 X120.79 Y42.861 E.01923
G1 X120.79 Y46.191 E.1671
G1 X120.406 Y46.191 E.01923
G1 X120.406 Y42.861 E.1671
G1 X120.023 Y42.861 E.01923
G1 X120.023 Y46.191 E.1671
G1 X119.64 Y46.191 E.01923
G1 X119.64 Y42.861 E.1671
G1 X119.257 Y42.861 E.01923
G1 X119.257 Y46.191 E.1671
G1 X118.874 Y46.191 E.01923
G1 X118.874 Y42.861 E.1671
G1 X118.49 Y42.861 E.01923
G1 X118.49 Y46.191 E.1671
G1 X118.107 Y46.191 E.01923
G1 X118.107 Y42.706 E.17489
G1 E-.7 F3600
;WIPE_START
G1 F6240
G1 X118.107 Y43.226 E-.285
;WIPE_END
G1 E-.015 F3600
G1 X97.659 Y97.951 F7800
G1 E1 F2400
;TYPE:Perimeter
;WIDTH:0.42
G1 F1800
G1 X97.691 Y97.874 E.00419
G1 X100.251 Y79.748 E.91869
G1 X103.567 Y55.25 E1.24068
G1 X103.562 Y55.08 E.0085
G1 X103.078 Y52.623 E.1257
G1 X103.763 Y47.766 E.24615
G1 X141.332 Y47.766 E1.88541
G1 X141.332 Y78.747 E1.55478
M73 P1 R133
G1 X135.957 Y76.413 E.29405
G1 X135.793 Y76.372 E.00848
G1 X135.528 Y76.421 E.01353
G1 X135.343 Y76.57 E.01191
G1 X135.239 Y76.816 E.0134
G1 X132.415 Y96.847 E1.01523
G1 X109.456 Y118.544 E1.58533
G1 X101.81 Y120.838 E.40063
G1 X61.902 Y131.759 E2.07646
G1 X61.3 Y129.7 E.10767
G1 X51.632 Y97.923 E1.66691
G1 X39.485 Y47.766 E2.58992
G1 X53.767 Y47.766 E.71678
M73 P1 R132
G1 X65.218 Y94.967 E2.4375
G1 X69.961 Y110.494 E.81482
G1 X70.102 Y110.721 E.01338
G1 X70.347 Y110.849 E.01384
G1 X70.593 Y110.842 E.01236
G1 X84.261 Y107.072 E.71158
G1 X84.487 Y106.942 E.01307
G1 X84.623 Y106.709 E.01353
G1 X84.622 Y106.433 E.01385
G1 X84.161 Y104.795 E.08542
G1 X96.086 Y101.383 E.62252
G1 X96.308 Y101.254 E.01287
G1 X96.437 Y101.044 E.01236
G1 X96.449 Y100.774 E.01357
G1 X96.132 Y99.342 E.07363
G1 X96.118 Y98.627 E.03586
G1 X97.467 Y98.231 E.07056
G1 X97.6 Y98.089 E.00976
G1 X97.35 Y97.826 F7800
;TYPE:External perimeter
G1 F1800
G1 X99.91 Y79.7 E.91869
G1 X103.225 Y55.203 E1.24058
G1 X102.728 Y52.632 E.13142
G1 X103.464 Y47.421 E.26411
G1 X141.677 Y47.421 E1.91776
G1 X141.677 Y79.272 E1.59848
G1 X135.82 Y76.73 E.32043
G1 X135.666 Y76.738 E.00774
G1 X135.581 Y76.864 E.00763
G1 X132.74 Y97.015 E1.02129
G1 X109.634 Y118.851 E1.5955
G1 X101.905 Y121.17 E.40494
G1 X61.666 Y132.181 E2.09368
G1 X60.969 Y129.796 E.12468
G1 X51.299 Y98.014 E1.66722
G1 X39.046 Y47.421 E2.61242
G1 X54.038 Y47.421 E.7524
G1 X65.548 Y94.866 E2.45012
G1 X70.291 Y110.394 E.8148
G1 X70.351 Y110.48 E.00527
G1 X70.502 Y110.51 E.0077
G1 X84.17 Y106.74 E.71155
G1 X84.263 Y106.676 E.00567
G1 X84.29 Y106.527 E.00759
G1 X83.736 Y104.558 E.10266
G1 X95.992 Y101.052 E.63975
G1 X96.081 Y100.99 E.00545
G1 X96.112 Y100.849 E.00729
G1 X95.788 Y99.383 E.07536
G1 X95.768 Y98.365 E.05108
G1 X97.266 Y97.947 E.07804
G1 X98.336 Y97.659 F7800
G1 E-.7 F3600
;WIPE_START
G1 F6240
G1 X97.341 Y97.433 E-.285
;WIPE_END
G1 E-.015 F3600
G1 X141.228 Y48.568 F7800
G1 E1 F2400
;TYPE:Solid infill
;WIDTH:0.420376
G1 F1800
G1 X140.686 Y48.025 E.03857
G1 X140.197 Y48.025 E.02453
G1 X141.073 Y48.901 E.06223
G1 X141.073 Y49.389 E.02453
G1 X139.709 Y48.025 E.09693
G1 X139.221 Y48.025 E.02453
G1 X141.073 Y49.877 E.13162
G1 X141.073 Y50.366 E.02453
G1 X138.732 Y48.025 E.16631
G1 X138.244 Y48.025 E.02453
G1 X141.073 Y50.854 E.201
G1 X141.073 Y51.342 E.02453
G1 X137.756 Y48.025 E.2357
G1 X137.268 Y48.025 E.02453
G1 X141.073 Y51.83 E.27039
G1 X141.073 Y52.319 E.02453
G1 X136.779 Y48.025 E.30508
G1 X136.291 Y48.025 E.02453
G1 X141.073 Y52.807 E.33978
G1 X141.073 Y53.295 E.02453
G1 X135.803 Y48.025 E.37447
G1 X135.314 Y48.025 E.02453
G1 X141.073 Y53.784 E.40916
G1 X141.073 Y54.272 E.02453
G1 X134.826 Y48.025 E.44385
G1 X134.338 Y48.025 E.02453
G1 X141.073 Y54.76 E.47855
G1 X141.073 Y55.248 E.02453
G1 X133.85 Y48.025 E.51324
G1 X133.361 Y48.025 E.02453
G1 X141.073 Y55.737 E.54793
G1 X141.073 Y56.225 E.02453
G1 X132.873 Y48.025 E.58263
G1 X132.385 Y48.025 E.02453
G1 X141.073 Y56.713 E.61732
G1 X141.073 Y57.202 E.02453
G1 X131.897 Y48.025 E.65201
G1 X131.408 Y48.025 E.02453
G1 X141.073 Y57.69 E.6867
G1 X141.073 Y58.178 E.02453
G1 X130.92 Y48.025 E.7214
G1 X130.432 Y48.025 E.02453
G1 X141.073 Y58.666 E.75609
G1 X141.073 Y59.155 E.02453
G1 X129.943 Y48.025 E.79078
G1 X129.455 Y48.025 E.02453
G1 X141.073 Y59.643 E.82548
G1 X141.073 Y60.131 E.02453
G1 X128.967 Y48.025 E.86017
G1 X128.479 Y48.025 E.02453
G1 X141.073 Y60.619 E.89486
G1 X141.073 Y61.108 E.02453
G1 X127.99 Y48.025 E.92955
G1 X127.502 Y48.025 E.02453
G1 X141.073 Y61.596 E.96425
G1 X141.073 Y62.084 E.02453
G1 X127.014 Y48.025 E.99894
G1 X126.525 Y48.025 E.02453
G1 X141.073 Y62.573 E1.03363
G1 X141.073 Y63.061 E.02453
G1 X126.037 Y48.025 E1.06833
G1 X125.549 Y48.025 E.02453
G1 X141.073 Y63.549 E1.10302
G1 X141.073 Y64.037 E.02453
G1 X125.061 Y48.025 E1.13771
G1 X124.572 Y48.025 E.02453
G1 X141.073 Y64.526 E1.1724
G1 X141.073 Y65.014 E.02453
G1 X124.084 Y48.025 E1.2071
G1 X123.596 Y48.025 E.02453
G1 X141.073 Y65.502 E1.24179
G1 X141.073 Y65.991 E.02453
G1 X123.107 Y48.025 E1.27648
G1 X122.619 Y48.025 E.02453
G1 X141.073 Y66.479 E1.31118
G1 X141.073 Y66.967 E.02453
G1 X122.131 Y48.025 E1.34587
G1 X121.643 Y48.025 E.02453
G1 X141.073 Y67.455 E1.38056
G1 X141.073 Y67.944 E.02453
G1 X121.154 Y48.025 E1.41525
G1 X120.666 Y48.025 E.02453
G1 X141.073 Y68.432 E1.44995
G1 X141.073 Y68.92 E.02453
G1 X120.178 Y48.025 E1.48464
G1 X119.689 Y48.025 E.02453
G1 X141.073 Y69.409 E1.51933
G1 X141.073 Y69.897 E.02453
G1 X119.201 Y48.025 E1.55403
G1 X118.713 Y48.025 E.02453
G1 X141.073 Y70.385 E1.58872
G1 X141.073 Y70.873 E.02453
G1 X118.225 Y48.025 E1.62341
G1 X117.736 Y48.025 E.02453
G1 X141.073 Y71.362 E1.6581
G1 X141.073 Y71.85 E.02453
G1 X117.248 Y48.025 E1.6928
G1 X116.76 Y48.025 E.02453
G1 X141.073 Y72.338 E1.72749
G1 X141.073 Y72.826 E.02453
G1 X116.272 Y48.025 E1.76218
G1 X115.783 Y48.025 E.02453
G1 X141.073 Y73.315 E1.79688
G1 X141.073 Y73.803 E.02453
