; generated by PrusaSlicer 2.5.0+win64 on 2022-12-07 at 00:12:10 UTC

; 

; external perimeters extrusion width = 1.00mm
; perimeters extrusion width = 1.00mm
; infill extrusion width = 1.00mm
; solid infill extrusion width = 1.00mm
; top infill extrusion width = 1.00mm
; support material extrusion width = 1.00mm
; first layer extrusion width = 0.42mm

M73 P0 R169
M107
;TYPE:Custom
G90 ; use absolute coordinates
M83 ; extruder relative mode
M140 S60 ; set final bed temp
M104 S150 ; set temporary nozzle temp to prevent oozing during homing and auto bed leveling
G4 S10 ; allow partial nozzle warmup
G28 ; home all axisG1 Z50 F240
G1 X7.6 Y10 F3000
M104 S210 ; set final nozzle temp
M190 S60 ; wait for bed temp to stabilize
M109 S210 ; wait for nozzle temp to stabilize
G1 Z0.28 F240
G92 E0
G1 Y140 E10 F1500 ; prime the nozzle
G1 X4 F5000
G92 E0
G1 Y10 E10 F1200 ; prime the nozzle
G92 E0
G21 ; set units to millimeters
G90 ; use absolute coordinates
M83 ; use relative distances for extrusion
; Filament gcode
M107
;LAYER_CHANGE
;Z:0.35
;HEIGHT:0.35
;BEFORE_LAYER_CHANGE
G92 E0
;0.35


G1 E-1 F3600
G1 Z.35 F7800
;AFTER_LAYER_CHANGE
;0.35
G1 X91.452 Y11.113
G1 E1 F2400
;TYPE:Perimeter
;WIDTH:0.42
G1 F1800
G1 X91.949 Y15.406 E.21688
G1 X93.119 Y24.536 E.46194
G1 X93.939 Y31.498 E.35184
G1 X94.971 Y39.473 E.40355
G1 X95.564 Y44.44 E.25106
G1 X96.211 Y49.418 E.25193
G1 X100.511 Y84.265 E1.76208
G1 X101.006 Y87.904 E.18429
G1 X101.602 Y92.958 E.25543
G1 X102.377 Y99.197 E.31547
G1 X103.027 Y104.172 E.2518
G1 X104.105 Y113.116 E.45214
G1 X104.88 Y119.107 E.30317
G1 X105.471 Y124.08 E.25131
G1 X106.117 Y129.071 E.25258
G1 X108.489 Y148.26 E.97031
G1 X109.141 Y153.269 E.2535
G1 X109.735 Y158.271 E.25282
G1 X111.066 Y168.887 E.53694
G1 X97.075 Y168.887 E.70215
G1 X77.451 Y11.113 E7.97903
G1 X91.302 Y11.113 E.69512
G1 X91.759 Y10.768 F7800
;TYPE:External perimeter
G1 F1800
G1 X92.291 Y15.36 E.23198
G1 X93.461 Y24.494 E.46213
G1 X94.282 Y31.455 E.35176
G1 X95.313 Y39.43 E.40361
G1 X95.906 Y44.399 E.25115
G1 X96.553 Y49.375 E.25181
G1 X100.854 Y84.223 E1.76213
G1 X101.348 Y87.86 E.18423
G1 X101.945 Y92.918 E.25558
G1 X102.72 Y99.154 E.31537
G1 X103.369 Y104.129 E.25178
G1 X104.447 Y113.075 E.45223
G1 X105.222 Y119.065 E.30311
G1 X105.814 Y124.039 E.2514
G1 X106.459 Y129.028 E.25245
G1 X108.831 Y148.217 E.97036
G1 X109.483 Y153.226 E.25349
G1 X110.078 Y158.23 E.25292
G1 X111.457 Y169.232 E.55644
G1 X96.771 Y169.232 E.73705
G1 X77.061 Y10.768 E8.01392
G1 X91.609 Y10.768 E.73014
G1 X91.847 Y11.764 F7800
G1 X91.452 Y12.008
;TYPE:Solid infill
;WIDTH:0.420309
G1 F1800
G1 X90.815 Y11.372 E.04519
G1 X90.327 Y11.372 E.02452
G1 X91.339 Y12.383 E.07185
G1 X91.403 Y12.935 E.02792
G1 X89.839 Y11.372 E.11107
G1 X89.351 Y11.372 E.02452
G1 X91.466 Y13.487 E.15028
G1 X91.53 Y14.039 E.02792
G1 X88.863 Y11.372 E.1895
G1 X88.375 Y11.372 E.02452
G1 X91.594 Y14.591 E.22872
G1 X91.658 Y15.143 E.02792
G1 X87.886 Y11.372 E.26793
G1 X87.398 Y11.372 E.02452
G1 X91.726 Y15.699 E.30742
G1 X91.798 Y16.259 E.02836
G1 X86.91 Y11.372 E.3472
G1 X86.422 Y11.372 E.02452
G1 X91.869 Y16.819 E.38698
G1 X91.941 Y17.379 E.02836
G1 X85.934 Y11.372 E.42675
G1 X85.445 Y11.372 E.02452
G1 X92.013 Y17.939 E.46653
G1 X92.085 Y18.499 E.02836
G1 X84.957 Y11.372 E.50631
G1 X84.469 Y11.372 E.02452
G1 X92.156 Y19.059 E.54609
G1 X92.228 Y19.619 E.02836
M73 P0 R168
G1 X83.981 Y11.372 E.58586
G1 X83.493 Y11.372 E.02452
G1 X92.3 Y20.179 E.62564
G1 X92.372 Y20.739 E.02836
G1 X83.005 Y11.372 E.66542
G1 X82.516 Y11.372 E.02452
G1 X92.443 Y21.299 E.7052
G1 X92.515 Y21.859 E.02836
G1 X82.028 Y11.372 E.74497
G1 X81.54 Y11.372 E.02452
G1 X92.587 Y22.419 E.78475
G1 X92.659 Y22.979 E.02836
G1 X81.052 Y11.372 E.82453
G1 X80.564 Y11.372 E.02452
G1 X92.731 Y23.539 E.86431
G1 X92.802 Y24.099 E.02836
G1 X80.075 Y11.372 E.90408
G1 X79.587 Y11.372 E.02452
G1 X92.873 Y24.657 E.94378
G1 X92.938 Y25.211 E.02799
G1 X79.099 Y11.372 E.9831
G1 X78.611 Y11.372 E.02452
G1 X93.003 Y25.764 E1.02241
G1 X93.069 Y26.318 E.02799
G1 X78.123 Y11.372 E1.06172
G1 X77.744 Y11.372 E.01902
G1 X77.76 Y11.497 E.00633
G1 X93.134 Y26.871 E1.09214
G1 X93.199 Y27.424 E.02799
G1 X77.829 Y12.054 E1.09185
G1 X77.898 Y12.612 E.02822
G1 X93.264 Y27.978 E1.09155
G1 X93.329 Y28.531 E.02799
G1 X77.968 Y13.169 E1.09126
G1 X78.037 Y13.727 E.02822
G1 X93.395 Y29.085 E1.09096
G1 X93.46 Y29.638 E.02799
G1 X78.106 Y14.284 E1.09067
G1 X78.176 Y14.842 E.02822
G1 X93.525 Y30.191 E1.09037
G1 X93.59 Y30.745 E.02799
G1 X78.245 Y15.4 E1.09008
G1 X78.314 Y15.957 E.02822
G1 X93.655 Y31.298 E1.08978
G1 X93.725 Y31.856 E.02823
G1 X78.384 Y16.515 E1.08979
G1 X78.453 Y17.072 E.02822
G1 X93.797 Y32.416 E1.09002
G1 X93.87 Y32.977 E.0284
G1 X78.522 Y17.63 E1.09024
G1 X78.592 Y18.187 E.02822
G1 X93.942 Y33.538 E1.09047
G1 X94.015 Y34.099 E.0284
G1 X78.661 Y18.745 E1.0907
G1 X78.73 Y19.302 E.02822
G1 X94.088 Y34.659 E1.09093
G1 X94.16 Y35.22 E.0284
G1 X78.8 Y19.86 E1.09115
G1 X78.869 Y20.417 E.02822
G1 X94.233 Y35.781 E1.09138
G1 X94.305 Y36.342 E.0284
G1 X78.938 Y20.975 E1.09161
G1 X79.008 Y21.532 E.02822
G1 X94.378 Y36.902 E1.09184
G1 X94.45 Y37.463 E.0284
G1 X79.077 Y22.09 E1.09206
G1 X79.147 Y22.647 E.02822
G1 X94.523 Y38.024 E1.09229
G1 X94.595 Y38.584 E.0284
G1 X79.216 Y23.205 E1.09252
G1 X79.285 Y23.762 E.02822
G1 X94.668 Y39.145 E1.09275
G1 X94.738 Y39.704 E.02827
G1 X79.355 Y24.32 E1.09281
G1 X79.424 Y24.878 E.02822
G1 X94.804 Y40.258 E1.09259
G1 X94.871 Y40.812 E.02804
G1 X79.493 Y25.435 E1.09236
G1 X79.563 Y25.993 E.02822
G1 X94.937 Y41.367 E1.09213
G1 X95.003 Y41.921 E.02804
G1 X79.632 Y26.55 E1.0919
G1 X79.701 Y27.108 E.02822
G1 X95.069 Y42.475 E1.09168
G1 X95.135 Y43.03 E.02804
G1 X79.771 Y27.665 E1.09145
G1 X79.84 Y28.223 E.02822
G1 X95.201 Y43.584 E1.09122
G1 X95.267 Y44.138 E.02804
G1 X79.909 Y28.78 E1.091
G1 X79.979 Y29.338 E.02822
G1 X95.336 Y44.695 E1.09096
G1 X95.409 Y45.256 E.02842
G1 X80.048 Y29.895 E1.09121
G1 X80.117 Y30.453 E.02822
G1 X95.482 Y45.818 E1.09147
G1 X95.555 Y46.379 E.02842
G1 X80.187 Y31.01 E1.09172
G1 X80.256 Y31.568 E.02822
G1 X95.628 Y46.94 E1.09198
G1 X95.701 Y47.501 E.02842
G1 X80.325 Y32.125 E1.09223
G1 X80.395 Y32.683 E.02822
G1 X95.774 Y48.062 E1.09249
G1 X95.847 Y48.623 E.02842
G1 X80.464 Y33.24 E1.09274
G1 X80.533 Y33.798 E.02822
G1 X95.92 Y49.184 E1.09299
G1 X95.99 Y49.743 E.0283
G1 X80.603 Y34.356 E1.09309
G1 X80.672 Y34.913 E.02822
G1 X96.059 Y50.3 E1.09305
G1 X96.128 Y50.857 E.02819
G1 X80.741 Y35.471 E1.093
G1 X80.811 Y36.028 E.02822
G1 X96.197 Y51.414 E1.09296
G1 X96.265 Y51.971 E.02819
G1 X80.88 Y36.586 E1.09292
G1 X80.95 Y37.143 E.02822
G1 X96.334 Y52.528 E1.09287
G1 X96.403 Y53.085 E.02819
G1 X81.019 Y37.701 E1.09283
G1 X81.088 Y38.258 E.02822
G1 X96.472 Y53.642 E1.09278
G1 X96.54 Y54.198 E.02819
G1 X81.158 Y38.816 E1.09274
G1 X81.227 Y39.373 E.02822
G1 X96.609 Y54.755 E1.0927
G1 X96.678 Y55.312 E.02819
G1 X81.296 Y39.931 E1.09265
G1 X81.366 Y40.488 E.02822
G1 X96.746 Y55.869 E1.09261
G1 X96.815 Y56.426 E.02819
G1 X81.435 Y41.046 E1.09256
G1 X81.504 Y41.603 E.02822
G1 X96.884 Y56.983 E1.09252
G1 X96.953 Y57.54 E.02819
G1 X81.574 Y42.161 E1.09248
G1 X81.643 Y42.718 E.02822
G1 X97.021 Y58.097 E1.09243
G1 X97.09 Y58.654 E.02819
G1 X81.712 Y43.276 E1.09239
G1 X81.782 Y43.834 E.02822
G1 X97.159 Y59.211 E1.09235
G1 X97.228 Y59.768 E.02819
G1 X81.851 Y44.391 E1.0923
G1 X81.92 Y44.949 E.02822
G1 X97.296 Y60.324 E1.09226
G1 X97.365 Y60.881 E.02819
G1 X81.99 Y45.506 E1.09221
G1 X82.059 Y46.064 E.02822
G1 X97.434 Y61.438 E1.09217
G1 X97.502 Y61.995 E.02819
G1 X82.128 Y46.621 E1.09213
G1 X82.198 Y47.179 E.02822
G1 X97.571 Y62.552 E1.09208
G1 X97.64 Y63.109 E.02819
G1 X82.267 Y47.736 E1.09204
G1 X82.336 Y48.294 E.02822
M73 P0 R167
G1 X97.709 Y63.666 E1.09199
G1 X97.777 Y64.223 E.02819
G1 X82.406 Y48.851 E1.09195
G1 X82.475 Y49.409 E.02822
M73 P1 R167
G1 X97.846 Y64.78 E1.09191
G1 X97.915 Y65.337 E.02819
G1 X82.545 Y49.966 E1.09186
G1 X82.614 Y50.524 E.02822
G1 X97.984 Y65.894 E1.09182
G1 X98.052 Y66.451 E.02819
G1 X82.683 Y51.081 E1.09177
G1 X82.753 Y51.639 E.02822
G1 X98.121 Y67.007 E1.09173
G1 X98.19 Y67.564 E.02819
G1 X82.822 Y52.197 E1.09169
G1 X82.891 Y52.754 E.02822
G1 X98.258 Y68.121 E1.09164
G1 X98.327 Y68.678 E.02819
G1 X82.961 Y53.312 E1.0916
G1 X83.03 Y53.869 E.02822
G1 X98.396 Y69.235 E1.09155
G1 X98.465 Y69.792 E.02819
G1 X83.099 Y54.427 E1.09151
G1 X83.169 Y54.984 E.02822
G1 X98.533 Y70.349 E1.09147
G1 X98.602 Y70.906 E.02819
G1 X83.238 Y55.542 E1.09142
G1 X83.307 Y56.099 E.02822
G1 X98.671 Y71.463 E1.09138
G1 X98.74 Y72.02 E.02819
G1 X83.377 Y56.657 E1.09134
G1 X83.446 Y57.214 E.02822
G1 X98.808 Y72.577 E1.09129
G1 X98.877 Y73.133 E.02819
G1 X83.515 Y57.772 E1.09125
G1 X83.585 Y58.329 E.02822
G1 X98.946 Y73.69 E1.0912
G1 X99.014 Y74.247 E.02819
G1 X83.654 Y58.887 E1.09116
G1 X83.723 Y59.444 E.02822
G1 X99.083 Y74.804 E1.09112
G1 X99.152 Y75.361 E.02819
G1 X83.793 Y60.002 E1.09107
G1 X83.862 Y60.559 E.02822
G1 X99.221 Y75.918 E1.09103
G1 X99.289 Y76.475 E.02819
G1 X83.931 Y61.117 E1.09098
G1 X84.001 Y61.675 E.02822
G1 X99.358 Y77.032 E1.09094
G1 X99.427 Y77.589 E.02819
G1 X84.07 Y62.232 E1.0909
G1 X84.139 Y62.79 E.02822
G1 X99.496 Y78.146 E1.09085
G1 X99.564 Y78.703 E.02819
G1 X84.209 Y63.347 E1.09081
G1 X84.278 Y63.905 E.02822
G1 X99.633 Y79.26 E1.09076
G1 X99.702 Y79.816 E.02819
G1 X84.348 Y64.462 E1.09072
G1 X84.417 Y65.02 E.02822
G1 X99.77 Y80.373 E1.09068
G1 X99.839 Y80.93 E.02819
G1 X84.486 Y65.577 E1.09063
G1 X84.556 Y66.135 E.02822
G1 X99.908 Y81.487 E1.09059
G1 X99.977 Y82.044 E.02819
G1 X84.625 Y66.692 E1.09054
G1 X84.694 Y67.25 E.02822
G1 X100.045 Y82.601 E1.0905
G1 X100.114 Y83.158 E.02819
G1 X84.764 Y67.807 E1.09046
G1 X84.833 Y68.365 E.02822
G1 X100.183 Y83.715 E1.09041
G1 X100.252 Y84.272 E.02819
G1 X84.902 Y68.922 E1.09037
G1 X84.972 Y69.48 E.02822
G1 X100.328 Y84.836 E1.09087
G1 X100.405 Y85.401 E.02864
G1 X85.041 Y70.037 E1.09141
G1 X85.11 Y70.595 E.02822
G1 X100.482 Y85.966 E1.09194
G1 X100.559 Y86.531 E.02864
G1 X85.18 Y71.153 E1.09247
G1 X85.249 Y71.71 E.02822
G1 X100.635 Y87.096 E1.093
G1 X100.712 Y87.661 E.02864
G1 X85.318 Y72.268 E1.09354
G1 X85.388 Y72.825 E.02822
G1 X100.783 Y88.221 E1.09365
G1 X100.848 Y88.774 E.02799
G1 X85.457 Y73.383 E1.09336
G1 X85.526 Y73.94 E.02822
G1 X100.914 Y89.327 E1.09307
G1 X100.979 Y89.881 E.02799
G1 X85.596 Y74.498 E1.09278
G1 X85.665 Y75.055 E.02822
G1 X101.044 Y90.434 E1.09249
G1 X101.11 Y90.988 E.02799
G1 X85.734 Y75.613 E1.0922
G1 X85.804 Y76.17 E.02822
G1 X101.175 Y91.541 E1.09191
G1 X101.24 Y92.095 E.02799
G1 X85.873 Y76.728 E1.09162
G1 X85.943 Y77.285 E.02822
G1 X101.305 Y92.648 E1.09133
G1 X101.372 Y93.203 E.02808
G1 X86.012 Y77.843 E1.09115
G1 X86.081 Y78.4 E.02822
G1 X101.441 Y93.761 E1.09114
G1 X101.511 Y94.318 E.02822
G1 X86.151 Y78.958 E1.09114
G1 X86.22 Y79.516 E.02822
G1 X101.58 Y94.876 E1.09113
G1 X101.649 Y95.433 E.02822
G1 X86.289 Y80.073 E1.09112
G1 X86.359 Y80.631 E.02822
G1 X101.718 Y95.99 E1.09112
G1 X101.788 Y96.548 E.02822
G1 X86.428 Y81.188 E1.09111
G1 X86.497 Y81.746 E.02822
G1 X101.857 Y97.105 E1.09111
G1 X101.926 Y97.663 E.02822
G1 X86.567 Y82.303 E1.0911
G1 X86.636 Y82.861 E.02822
G1 X101.995 Y98.22 E1.0911
G1 X102.065 Y98.778 E.02822
G1 X86.705 Y83.418 E1.09109
G1 X86.775 Y83.976 E.02822
G1 X102.135 Y99.336 E1.09114
G1 X102.208 Y99.897 E.02845
G1 X86.844 Y84.533 E1.09142
G1 X86.913 Y85.091 E.02822
G1 X102.281 Y100.459 E1.09171
G1 X102.355 Y101.02 E.02845
G1 X86.983 Y85.648 E1.09199
G1 X87.052 Y86.206 E.02822
G1 X102.428 Y101.582 E1.09227
G1 X102.501 Y102.143 E.02845
G1 X87.121 Y86.763 E1.09256
G1 X87.191 Y87.321 E.02822
G1 X102.575 Y102.705 E1.09284
G1 X102.648 Y103.267 E.02845
G1 X87.26 Y87.878 E1.09312
G1 X87.329 Y88.436 E.02822
G1 X102.721 Y103.828 E1.09341
G1 X102.793 Y104.387 E.02832
G1 X87.399 Y88.994 E1.09354
G1 X87.468 Y89.551 E.02822
G1 X102.86 Y104.942 E1.09336
G1 X102.926 Y105.498 E.02808
G1 X87.537 Y90.109 E1.09318
G1 X87.607 Y90.666 E.02822
G1 X102.993 Y106.053 E1.09301
G1 X103.06 Y106.608 E.02808
M73 P1 R166
G1 X87.676 Y91.224 E1.09283
G1 X87.746 Y91.781 E.02822
G1 X103.127 Y107.163 E1.09265
G1 X103.194 Y107.718 E.02808
G1 X87.815 Y92.339 E1.09248
G1 X87.884 Y92.896 E.02822
G1 X103.261 Y108.273 E1.0923
G1 X103.328 Y108.828 E.02808
G1 X87.954 Y93.454 E1.09212
G1 X88.023 Y94.011 E.02822
G1 X103.394 Y109.383 E1.09195
G1 X103.461 Y109.938 E.02808
G1 X88.092 Y94.569 E1.09177
G1 X88.162 Y95.126 E.02822
G1 X103.528 Y110.493 E1.09159
G1 X103.595 Y111.048 E.02808
G1 X88.231 Y95.684 E1.09141
G1 X88.3 Y96.241 E.02822
G1 X103.662 Y111.603 E1.09124
G1 X103.729 Y112.158 E.02808
G1 X88.37 Y96.799 E1.09106
G1 X88.439 Y97.356 E.02822
G1 X103.796 Y112.713 E1.09088
G1 X103.864 Y113.269 E.02815
G1 X88.508 Y97.914 E1.09079
G1 X88.578 Y98.472 E.02822
G1 X103.936 Y113.83 E1.09102
G1 X104.009 Y114.391 E.0284
G1 X88.647 Y99.029 E1.09125
G1 X88.716 Y99.587 E.02822
G1 X104.081 Y114.951 E1.09147
G1 X104.154 Y115.512 E.0284
G1 X88.786 Y100.144 E1.0917
G1 X88.855 Y100.702 E.02822
G1 X104.226 Y116.073 E1.09193
G1 X104.299 Y116.634 E.0284
G1 X88.924 Y101.259 E1.09215
G1 X88.994 Y101.817 E.02822
G1 X104.371 Y117.194 E1.09238
G1 X104.444 Y117.755 E.0284
G1 X89.063 Y102.374 E1.09261
G1 X89.132 Y102.932 E.02822
G1 X104.516 Y118.316 E1.09283
G1 X104.589 Y118.877 E.0284
G1 X89.202 Y103.489 E1.09306
G1 X89.271 Y104.047 E.02822
G1 X104.658 Y119.434 E1.09304
G1 X104.724 Y119.988 E.02803
G1 X89.34 Y104.604 E1.0928
G1 X89.41 Y105.162 E.02822
G1 X104.79 Y120.542 E1.09255
G1 X104.856 Y121.096 E.02803
G1 X89.479 Y105.719 E1.09231
G1 X89.549 Y106.277 E.02822
G1 X104.922 Y121.65 E1.09206
G1 X104.988 Y122.204 E.02803
G1 X89.618 Y106.834 E1.09182
G1 X89.687 Y107.392 E.02822
G1 X105.054 Y122.758 E1.09158
G1 X105.119 Y123.312 E.02803
G1 X89.757 Y107.95 E1.09133
G1 X89.826 Y108.507 E.02822
G1 X105.185 Y123.867 E1.09109
G1 X105.255 Y124.424 E.02824
G1 X89.895 Y109.065 E1.09111
G1 X89.965 Y109.622 E.02822
G1 X105.328 Y124.985 E1.09134
G1 X105.4 Y125.546 E.0284
G1 X90.034 Y110.18 E1.09157
G1 X90.103 Y110.737 E.02822
G1 X105.473 Y126.107 E1.0918
G1 X105.545 Y126.667 E.0284
G1 X90.173 Y111.295 E1.09203
G1 X90.242 Y111.852 E.02822
G1 X105.618 Y127.228 E1.09226
G1 X105.69 Y127.789 E.0284
G1 X90.311 Y112.41 E1.09249
G1 X90.381 Y112.967 E.02822
G1 X105.763 Y128.35 E1.09272
G1 X105.836 Y128.91 E.0284
G1 X90.45 Y113.525 E1.09295
G1 X90.519 Y114.082 E.02822
G1 X105.906 Y129.469 E1.093
G1 X105.975 Y130.026 E.02819
G1 X90.589 Y114.64 E1.09297
G1 X90.658 Y115.197 E.02822
G1 X106.043 Y130.583 E1.09293
G1 X106.112 Y131.14 E.02819
G1 X90.727 Y115.755 E1.0929
G1 X90.797 Y116.313 E.02822
G1 X106.181 Y131.697 E1.09286
G1 X106.25 Y132.254 E.02819
G1 X90.866 Y116.87 E1.09282
G1 X90.935 Y117.428 E.02822
G1 X106.319 Y132.811 E1.09279
G1 X106.388 Y133.368 E.02819
G1 X91.005 Y117.985 E1.09275
G1 X91.074 Y118.543 E.02822
G1 X106.457 Y133.925 E1.09272
G1 X106.525 Y134.482 E.02819
G1 X91.144 Y119.1 E1.09268
G1 X91.213 Y119.658 E.02822
G1 X106.594 Y135.039 E1.09265
G1 X106.663 Y135.596 E.02819
G1 X91.282 Y120.215 E1.09261
G1 X91.352 Y120.773 E.02822
G1 X106.732 Y136.153 E1.09258
G1 X106.801 Y136.71 E.02819
G1 X91.421 Y121.33 E1.09254
G1 X91.49 Y121.888 E.02822
M73 P2 R166
G1 X106.87 Y137.267 E1.0925
G1 X106.938 Y137.824 E.02819
G1 X91.56 Y122.445 E1.09247
G1 X91.629 Y123.003 E.02822
G1 X107.007 Y138.381 E1.09243
G1 X107.076 Y138.938 E.02819
G1 X91.698 Y123.56 E1.0924
G1 X91.768 Y124.118 E.02822
G1 X107.145 Y139.495 E1.09236
G1 X107.214 Y140.052 E.02819
G1 X91.837 Y124.675 E1.09233
G1 X91.906 Y125.233 E.02822
G1 X107.283 Y140.609 E1.09229
G1 X107.351 Y141.166 E.02819
G1 X91.976 Y125.791 E1.09225
G1 X92.045 Y126.348 E.02822
G1 X107.42 Y141.723 E1.09222
G1 X107.489 Y142.28 E.02819
G1 X92.114 Y126.906 E1.09218
G1 X92.184 Y127.463 E.02822
G1 X107.558 Y142.837 E1.09215
G1 X107.627 Y143.394 E.02819
G1 X92.253 Y128.021 E1.09211
G1 X92.322 Y128.578 E.02822
G1 X107.696 Y143.952 E1.09208
G1 X107.765 Y144.509 E.02819
G1 X92.392 Y129.136 E1.09204
G1 X92.461 Y129.693 E.02822
G1 X107.833 Y145.066 E1.09201
G1 X107.902 Y145.623 E.02819
G1 X92.53 Y130.251 E1.09197
