; generated by PrusaSlicer 2.5.0+win64 on 2022-12-07 at 00:12:07 UTC

; 

; external perimeters extrusion width = 1.00mm
; perimeters extrusion width = 1.00mm
; infill extrusion width = 1.00mm
; solid infill extrusion width = 1.00mm
; top infill extrusion width = 1.00mm
; support material extrusion width = 1.00mm
; first layer extrusion width = 0.42mm

M73 P0 R110
M107
;TYPE:Custom
G90 ; use absolute coordinates
M83 ; extruder relative mode
M140 S60 ; set final bed temp
M104 S150 ; set temporary nozzle temp to prevent oozing during homing and auto bed leveling
G4 S10 ; allow partial nozzle warmup
G28 ; home all axisG1 Z50 F240
G1 X7.6 Y10 F3000
M104 S210 ; set final nozzle temp
M190 S60 ; wait for bed temp to stabilize
M109 S210 ; wait for nozzle temp to stabilize
G1 Z0.28 F240
G92 E0
G1 Y140 E10 F1500 ; prime the nozzle
G1 X4 F5000
G92 E0
G1 Y10 E10 F1200 ; prime the nozzle
G92 E0
G21 ; set units to millimeters
G90 ; use absolute coordinates
M83 ; use relative distances for extrusion
; Filament gcode
M107
;LAYER_CHANGE
;Z:0.35
;HEIGHT:0.35
;BEFORE_LAYER_CHANGE
G92 E0
;0.35


G1 E-1 F3600
G1 Z.35 F7800
;AFTER_LAYER_CHANGE
;0.35
G1 X87.253 Y107.205
G1 E1 F2400
;TYPE:Perimeter
;WIDTH:0.42
G1 F1800
G1 X87.197 Y107.144 E.00417
G1 X78.216 Y101.161 E.54158
G1 X78.218 Y84.441 E.83913
G1 X97.349 Y97.185 E1.15363
G1 X101.366 Y104.767 E.43063
G1 X101.356 Y104.874 E.00541
G1 X101.417 Y105.168 E.01505
G1 X101.726 Y105.737 E.03251
G1 X100.988 Y111.357 E.28448
G1 X100.695 Y112.785 E.07315
G1 X95.949 Y126.822 E.74362
G1 X81.214 Y126.822 E.73952
G1 X87.271 Y108.908 E.94902
G1 X87.428 Y107.577 E.06729
G1 X87.353 Y107.317 E.01358
G1 X87.006 Y107.431 F7800
;TYPE:External perimeter
G1 F1800
G1 X77.871 Y101.346 E.55085
G1 X77.873 Y83.796 E.88072
G1 X97.613 Y96.946 E1.19034
G1 X101.732 Y104.721 E.44154
G1 X101.711 Y104.783 E.00328
G1 X101.72 Y105.003 E.01109
G1 X102.083 Y105.671 E.03813
G1 X101.328 Y111.415 E.29073
G1 X101.029 Y112.876 E.07485
G1 X96.197 Y127.167 E.75711
G1 X80.733 Y127.167 E.77606
G1 X86.944 Y108.798 E.97315
G1 X87.08 Y107.561 E.06243
G1 X87.48 Y106.55 F7800
G1 E-.7 F3600
;WIPE_START
G1 F6240
G1 X86.649 Y107.27 E-.285
;WIPE_END
G1 E-.015 F3600
G1 X95.149 Y95.844 F7800
G1 E1 F2400
;TYPE:Solid infill
;WIDTH:0.420606
G1 F1800
G1 X97.694 Y98.389 E.18091
G1 X98.244 Y99.428 E.05913
G1 X94.244 Y95.428 E.28441
G1 X92.78 Y94.453 E.08841
G1 X98.795 Y100.467 E.42762
G1 X99.346 Y101.506 E.05913
G1 X91.317 Y93.478 E.57083
G1 X89.853 Y92.503 E.08841
G1 X99.896 Y102.546 E.71404
G1 X100.447 Y103.585 E.05913
G1 X88.39 Y91.528 E.85725
G1 X86.926 Y90.553 E.08841
G1 X100.998 Y104.624 E1.00047
G1 X101.105 Y104.826 E.0115
G1 X101.121 Y105.124 E.01499
G1 X101.205 Y105.321 E.01075
G1 X85.462 Y89.577 E1.11931
G1 X83.999 Y88.602 E.08841
G1 X101.427 Y106.03 E1.2391
G1 X101.37 Y106.462 E.0219
G1 X82.535 Y87.627 E1.33913
G1 X81.071 Y86.652 E.08841
G1 X101.313 Y106.894 E1.43915
G1 X101.256 Y107.326 E.0219
G1 X79.608 Y85.677 E1.53918
G1 X78.476 Y84.924 E.06835
G1 X78.476 Y85.034 E.00557
G1 X101.2 Y107.758 E1.6156
G1 X101.143 Y108.19 E.0219
G1 X78.476 Y85.523 E1.61157
G1 X78.476 Y86.012 E.02456
G1 X101.086 Y108.622 E1.60754
G1 X101.03 Y109.054 E.0219
G1 X78.476 Y86.5 E1.60351
G1 X78.476 Y86.989 E.02456
G1 X100.973 Y109.485 E1.59947
G1 X100.916 Y109.917 E.0219
G1 X78.476 Y87.477 E1.59544
G1 X78.476 Y87.966 E.02456
G1 X100.859 Y110.349 E1.59141
G1 X100.803 Y110.781 E.0219
G1 X78.476 Y88.454 E1.58738
G1 X78.476 Y88.943 E.02456
G1 X100.746 Y111.213 E1.58335
G1 X100.669 Y111.625 E.02106
G1 X78.476 Y89.431 E1.57789
G1 X78.476 Y89.92 E.02456
G1 X100.586 Y112.03 E1.57198
G1 X100.503 Y112.436 E.02081
G1 X78.476 Y90.409 E1.56608
G1 X78.476 Y90.897 E.02456
G1 X100.407 Y112.829 E1.5593
G1 X100.284 Y113.194 E.01938
G1 X78.476 Y91.386 E1.55053
G1 X78.476 Y91.874 E.02456
G1 X100.16 Y113.559 E1.54176
G1 X100.037 Y113.924 E.01938
G1 X78.476 Y92.363 E1.53298
G1 X78.475 Y92.851 E.02456
G1 X99.914 Y114.289 E1.52421
G1 X99.79 Y114.654 E.01938
G1 X78.475 Y93.34 E1.51543
G1 X78.475 Y93.828 E.02456
G1 X99.667 Y115.02 E1.50666
G1 X99.543 Y115.385 E.01938
G1 X78.475 Y94.317 E1.49789
G1 X78.475 Y94.805 E.02456
M73 P0 R109
G1 X99.42 Y115.75 E1.48911
G1 X99.296 Y116.115 E.01938
G1 X78.475 Y95.294 E1.48034
G1 X78.475 Y95.783 E.02456
G1 X99.173 Y116.48 E1.47157
G1 X99.049 Y116.845 E.01938
G1 X78.475 Y96.271 E1.46279
G1 X78.475 Y96.76 E.02456
G1 X98.926 Y117.211 E1.45402
G1 X98.802 Y117.576 E.01938
G1 X78.475 Y97.248 E1.44525
G1 X78.475 Y97.737 E.02456
G1 X98.679 Y117.941 E1.43647
G1 X98.556 Y118.306 E.01938
G1 X78.475 Y98.225 E1.4277
G1 X78.475 Y98.714 E.02456
G1 X85.39 Y105.629 E.49166
G1 X83.927 Y104.654 E.08841
G1 X78.475 Y99.202 E.38761
G1 X78.475 Y99.691 E.02456
G1 X82.463 Y103.679 E.28357
G1 X81 Y102.704 E.08841
G1 X78.475 Y100.18 E.17952
G1 X78.475 Y100.668 E.02456
G1 X80.095 Y102.288 E.11518
G1 E-.7 F3600
;WIPE_START
G1 F6240
G1 X79.727 Y101.92 E-.285
;WIPE_END
G1 E-.015 F3600
G1 X87.514 Y107.753 F7800
G1 E1 F2400
G1 F1800
G1 X98.432 Y118.671 E.77625
G1 X98.309 Y119.036 E.01938
G1 X87.601 Y108.329 E.76129
G1 X87.549 Y108.765 E.02208
G1 X98.185 Y119.401 E.75624
G1 X98.062 Y119.767 E.01938
G1 X87.458 Y109.163 E.75392
G1 X87.334 Y109.528 E.01938
G1 X97.938 Y120.132 E.75392
G1 X97.815 Y120.497 E.01938
G1 X87.211 Y109.893 E.75392
G1 X87.087 Y110.258 E.01938
G1 X97.691 Y120.862 E.75392
G1 X97.568 Y121.227 E.01938
G1 X86.964 Y110.623 E.75392
G1 X86.841 Y110.988 E.01938
M73 P1 R109
G1 X97.444 Y121.592 E.75392
G1 X97.321 Y121.957 E.01938
G1 X86.717 Y111.354 E.75392
G1 X86.594 Y111.719 E.01938
G1 X97.198 Y122.323 E.75392
G1 X97.074 Y122.688 E.01938
G1 X86.47 Y112.084 E.75392
G1 X86.347 Y112.449 E.01938
G1 X96.951 Y123.053 E.75392
G1 X96.827 Y123.418 E.01938
G1 X86.223 Y112.814 E.75392
G1 X86.1 Y113.179 E.01938
G1 X96.704 Y123.783 E.75392
G1 X96.58 Y124.148 E.01938
G1 X85.976 Y113.544 E.75392
G1 X85.853 Y113.91 E.01938
G1 X96.457 Y124.514 E.75392
G1 X96.333 Y124.879 E.01938
G1 X85.729 Y114.275 E.75392
G1 X85.606 Y114.64 E.01938
G1 X96.21 Y125.244 E.75392
G1 X96.086 Y125.609 E.01938
G1 X85.482 Y115.005 E.75392
G1 X85.359 Y115.37 E.01938
G1 X95.963 Y125.974 E.75393
G1 X95.84 Y126.339 E.01938
G1 X85.236 Y115.735 E.75393
G1 X85.112 Y116.1 E.01938
G1 X95.575 Y126.564 E.74391
G1 X95.087 Y126.564 E.02456
G1 X84.989 Y116.466 E.71795
G1 X84.865 Y116.831 E.01938
G1 X94.598 Y126.564 E.69199
G1 X94.109 Y126.564 E.02456
G1 X84.742 Y117.196 E.66603
G1 X84.618 Y117.561 E.01938
G1 X93.621 Y126.564 E.64007
G1 X93.132 Y126.564 E.02456
G1 X84.495 Y117.926 E.61411
G1 X84.371 Y118.291 E.01938
G1 X92.644 Y126.564 E.58815
G1 X92.155 Y126.564 E.02456
G1 X84.248 Y118.656 E.56219
G1 X84.124 Y119.022 E.01938
G1 X91.666 Y126.564 E.53622
G1 X91.178 Y126.564 E.02456
G1 X84.001 Y119.387 E.51026
G1 X83.877 Y119.752 E.01938
G1 X90.689 Y126.564 E.4843
G1 X90.201 Y126.564 E.02456
G1 X83.754 Y120.117 E.45834
G1 X83.63 Y120.482 E.01938
G1 X89.712 Y126.564 E.43238
G1 X89.223 Y126.564 E.02456
G1 X83.507 Y120.847 E.40642
G1 X83.384 Y121.212 E.01938
G1 X88.735 Y126.564 E.38046
G1 X88.246 Y126.564 E.02456
G1 X83.26 Y121.578 E.3545
G1 X83.137 Y121.943 E.01938
G1 X87.758 Y126.564 E.32854
G1 X87.269 Y126.564 E.02456
G1 X83.013 Y122.308 E.30258
G1 X82.89 Y122.673 E.01938
G1 X86.78 Y126.564 E.27662
G1 X86.292 Y126.564 E.02456
G1 X82.766 Y123.038 E.25065
G1 X82.643 Y123.403 E.01938
G1 X85.803 Y126.564 E.22469
G1 X85.315 Y126.564 E.02456
G1 X82.519 Y123.768 E.19873
G1 X82.396 Y124.133 E.01938
G1 X84.826 Y126.564 E.17277
G1 X84.337 Y126.564 E.02456
G1 X82.272 Y124.499 E.14681
G1 X82.149 Y124.864 E.01938
G1 X83.849 Y126.564 E.12085
G1 X83.36 Y126.564 E.02456
G1 X82.025 Y125.229 E.09489
G1 X81.902 Y125.594 E.01938
G1 X82.871 Y126.564 E.06893
G1 X82.383 Y126.564 E.02456
G1 X81.779 Y125.959 E.04297
G1 X81.655 Y126.324 E.01938
G1 X82.049 Y126.719 E.02804
M106 S255
;LAYER_CHANGE
;Z:0.85
;HEIGHT:0.5
;BEFORE_LAYER_CHANGE
G92 E0
;0.85


G1 E-.7 F3600
;WIPE_START
G1 F6240
G1 X81.682 Y126.351 E-.285
;WIPE_END
G1 E-.015 F3600
G1 Z.85 F7800
;AFTER_LAYER_CHANGE
;0.85
M104 S205 ; set temperature
G1 X87.749 Y106.436
G1 E1 F2400
;TYPE:Perimeter
;WIDTH:1
G1 F2016.357
G1 X87.649 Y106.343 E.02542
G1 X79.054 Y100.617 E1.9165
G1 X79.055 Y85.91 E2.7293
G1 X96.703 Y97.666 E3.93509
G1 X100.511 Y104.852 E1.50907
G1 X100.478 Y105.251 E.07436
G1 X100.504 Y105.642 E.0726
G1 X100.783 Y106.271 E.12775
G1 X100.152 Y111.076 E.89941
G1 X99.867 Y112.456 E.26152
G1 X95.295 Y125.984 E2.64994
G1 X82.326 Y125.984 E2.4067
G1 X88.043 Y109.075 E3.31233
G1 X88.106 Y108.794 E.05352
G1 X88.245 Y107.485 E.24421
G1 X88.18 Y107.044 E.08273
G1 X87.964 Y106.635 E.08587
G1 X87.859 Y106.538 E.02645
G1 X87.154 Y107.086 F7800
;TYPE:External perimeter
G1 F1800
G1 X78.161 Y101.095 E2.00511
G1 X78.163 Y84.243 E3.12737
G1 X97.386 Y97.049 E4.28638
G1 X101.423 Y104.673 E1.60083
G1 X101.368 Y105.324 E.12132
G1 X101.421 Y105.574 E.04734
G1 X101.706 Y106.099 E.11098
G1 X101.033 Y111.225 E.95928
G1 X100.73 Y112.69 E.27771
G1 X95.936 Y126.877 E2.77896
G1 X81.082 Y126.877 E2.75646
G1 X87.198 Y108.79 E3.54321
G1 X87.353 Y107.467 E.24715
G1 X87.303 Y107.252 E.04095
G1 X87.254 Y107.197 E.0136
G1 X87.383 Y106.112 F7800
G1 E-.7 F3600
;WIPE_START
G1 F6240
G1 X86.822 Y106.908 E-.285
;WIPE_END
G1 E-.015 F3600
G1 X96.048 Y122.919 F7800
G1 E1 F2400
;TYPE:Solid infill
;WIDTH:1.01652
G1 F1200
G1 X93.652 Y125.315 E.64043
G1 X92.367 Y125.315 E.24303
G1 X96.064 Y121.617 E.98838
G1 X96.721 Y119.675 E.38749
G1 X91.081 Y125.315 E1.50753
G1 X89.795 Y125.315 E.24303
G1 X97.377 Y117.733 E2.02668
G1 X98.034 Y115.79 E.38749
G1 X88.509 Y125.315 E2.54584
G1 X87.223 Y125.315 E.24303
G1 X98.69 Y113.848 E3.06499
G1 X99.22 Y112.281 E.31273
G1 X99.284 Y111.968 E.06034
G1 X85.937 Y125.315 E3.56754
G1 X84.652 Y125.315 E.24303
G1 X99.565 Y110.401 E3.9864
G1 X99.76 Y108.921 E.28219
G1 X83.366 Y125.315 E4.38209
G1 X83.259 Y125.315 E.02018
G1 X83.861 Y123.534 E.35541
G1 X99.954 Y107.44 E4.30162
G1 X100.091 Y106.399 E.1985
G1 X99.978 Y106.13 E.05506
G1 X84.518 Y121.591 E4.13248
G1 X85.175 Y119.648 E.38758
G1 X99.828 Y104.992 E3.9171
G1 X99.384 Y104.154 E.17937
G1 X85.832 Y117.706 E3.62237
G1 X86.488 Y115.763 E.38758
G1 X98.938 Y103.313 E3.32776
G1 X98.493 Y102.473 E.17978
G1 X87.145 Y113.82 E3.03315
G1 X87.802 Y111.878 E.38758
G1 X98.047 Y101.632 E2.73854
G1 X97.602 Y100.792 E.17978
G1 X88.459 Y109.935 E2.44393
G1 X88.697 Y109.231 E.14049
G1 X88.766 Y108.915 E.06106
G1 X88.837 Y108.271 E.12254
G1 X97.157 Y99.951 E2.22374
G1 X96.711 Y99.111 E.17978
G1 X88.847 Y106.975 E2.102
G1 X88.819 Y106.84 E.02616
G1 X88.681 Y106.514 E.06685
G1 X88.41 Y106.127 E.08935
G1 X96.266 Y98.271 E2.09987
G1 X96.191 Y98.13 E.03015
G1 X95.549 Y97.702 E.14587
G1 X87.687 Y105.564 E2.10148
G1 X86.915 Y105.05 E.17526
G1 X94.777 Y97.188 E2.10148
G1 X94.005 Y96.674 E.17526
G1 X86.143 Y104.536 E2.10148
G1 X85.372 Y104.022 E.17526
G1 X93.234 Y96.159 E2.10149
G1 X92.462 Y95.645 E.17526
G1 X84.6 Y103.507 E2.10149
G1 X83.828 Y102.993 E.17526
M73 P1 R108
G1 X91.69 Y95.131 E2.10149
G1 X90.918 Y94.617 E.17526
G1 X83.056 Y102.479 E2.1015
G1 X82.285 Y101.965 E.17526
G1 X90.147 Y94.103 E2.1015
G1 X89.375 Y93.589 E.17526
G1 X81.513 Y101.451 E2.1015
G1 X80.741 Y100.937 E.17526
G1 X88.603 Y93.075 E2.1015
G1 X87.831 Y92.561 E.17526
G1 X79.969 Y100.423 E2.10151
G1 X79.723 Y100.259 E.05587
G1 X79.723 Y99.383 E.16558
G1 X87.06 Y92.047 E1.96096
G1 X86.288 Y91.532 E.17526
G1 X79.724 Y98.097 E1.75464
G1 X79.724 Y96.811 E.24306
G1 X85.516 Y91.018 E1.54833
G1 X84.745 Y90.504 E.17526
G1 X79.724 Y95.525 E1.34201
G1 X79.724 Y94.239 E.24306
G1 X83.973 Y89.99 E1.13569
G1 X83.201 Y89.476 E.17526
G1 X79.724 Y92.953 E.92938
G1 X79.724 Y91.667 E.24306
G1 X82.429 Y88.962 E.72306
G1 X81.658 Y88.448 E.17526
G1 X79.724 Y90.381 E.51675
G1 X79.725 Y89.095 E.24306
G1 X80.886 Y87.934 E.31043
G1 X80.114 Y87.42 E.17526
G1 X79.323 Y88.211 E.2115
;LAYER_CHANGE
;Z:1.35
;HEIGHT:0.5
;BEFORE_LAYER_CHANGE
G92 E0
;1.35


G1 E-.7 F3600
;WIPE_START
G1 F6240
G1 X79.691 Y87.843 E-.285
;WIPE_END
G1 E-.015 F3600
G1 Z1.35 F7800
;AFTER_LAYER_CHANGE
;1.35
G1 X87.725 Y106.308
G1 E1 F2400
;TYPE:Perimeter
;WIDTH:1
G1 F2016.357
G1 X87.624 Y106.215 E.02536
G1 X79.054 Y100.506 E1.91104
G1 X79.055 Y85.798 E2.72941
G1 X96.698 Y97.551 E3.93395
G1 X100.512 Y104.745 E1.51101
G1 X100.429 Y105.765 E.18995
G1 X100.449 Y106.129 E.0676
G1 X100.693 Y106.709 E.1168
G1 X100.142 Y110.908 E.78597
G1 X99.846 Y112.327 E.26883
G1 X95.232 Y125.984 E2.6752
G1 X82.26 Y125.984 E2.40724
G1 X88.018 Y108.958 E3.3353
G1 X88.08 Y108.677 E.05351
G1 X88.221 Y107.325 E.25219
G1 X88.156 Y106.916 E.07684
G1 X87.939 Y106.507 E.08587
G1 X87.834 Y106.41 E.02648
G1 X87.13 Y106.959 F7800
;TYPE:External perimeter
G1 F1800
G1 X78.161 Y100.984 E2
G1 X78.163 Y84.13 E3.12748
G1 X97.381 Y96.933 E4.28524
G1 X101.423 Y104.558 E1.60153
G1 X101.319 Y105.838 E.23819
G1 X101.371 Y106.087 E.04727
G1 X101.616 Y106.538 E.09522
G1 X101.022 Y111.058 E.84597
G1 X100.709 Y112.561 E.28501
G1 X95.873 Y126.877 E2.80409
G1 X81.016 Y126.877 E2.75702
G1 X87.172 Y108.672 E3.56618
G1 X87.328 Y107.328 E.25114
G1 X87.276 Y107.12 E.03971
G1 X87.231 Y107.07 E.01254
G1 X87.356 Y105.985 F7800
G1 E-.7 F3600
;WIPE_START
G1 F6240
G1 X86.799 Y106.781 E-.285
;WIPE_END
G1 E-.015 F3600
G1 X98.574 Y101.662 F7800
G1 E1 F2400
;TYPE:Solid infill
;WIDTH:1.00751
G1 F1200
G1 X92.413 Y95.501 E1.63045
G1 X88.6 Y92.96 E.85752
G1 X99.043 Y103.403 E2.76372
G1 X99.829 Y104.886 E.31396
G1 X99.785 Y105.419 E.1001
G1 X84.786 Y90.42 E3.96947
G1 X80.972 Y87.879 E.85752
G1 X99.993 Y106.9 E5.03371
G1 X99.845 Y108.025 E.21238
G1 X79.725 Y87.904 E5.32478
G1 X79.725 Y89.177 E.23821
M73 P2 R108
G1 X99.697 Y109.15 E5.28569
G1 X99.549 Y110.275 E.21238
G1 X79.724 Y90.45 E5.2466
G1 X79.724 Y91.723 E.23821
G1 X99.363 Y111.362 E5.19735
G1 X99.199 Y112.151 E.15069
G1 X99.118 Y112.39 E.04735
G1 X79.724 Y92.996 E5.13253
G1 X79.724 Y94.269 E.23821
G1 X98.797 Y113.342 E5.04749
G1 X98.475 Y114.294 E.18797
G1 X79.724 Y95.542 E4.96245
G1 X79.724 Y96.815 E.23821
G1 X98.154 Y115.245 E4.87741
G1 X97.832 Y116.197 E.18797
G1 X88.884 Y107.248 E2.36821
G1 X88.885 Y107.164 E.01584
G1 X88.818 Y106.788 E.07134
G1 X88.652 Y106.377 E.08291
G1 X88.403 Y106.017 E.08202
G1 X88.244 Y105.853 E.04269
G1 X88.003 Y105.663 E.05746
G1 X85.892 Y104.257 E.47466
G1 X79.724 Y98.088 E1.63245
G1 X79.723 Y99.361 E.23821
G1 X83.524 Y103.162 E1.00592
G1 E-.7 F3600
;WIPE_START
G1 F6240
G1 X83.157 Y102.794 E-.285
;WIPE_END
G1 E-.015 F3600
G1 X88.418 Y108.056 F7800
G1 E1 F2400
G1 F1200
G1 X97.511 Y117.148 E2.40632
G1 X97.189 Y118.1 E.18797
G1 X88.553 Y109.463 E2.28562
G1 X88.231 Y110.415 E.18794
G1 X96.868 Y119.052 E2.28567
G1 X96.546 Y120.003 E.18797
G1 X87.909 Y111.366 E2.28572
G1 X87.588 Y112.318 E.18794
G1 X96.225 Y120.955 E2.28577
G1 X95.903 Y121.906 E.18797
G1 X87.266 Y113.269 E2.28582
G1 X86.944 Y114.221 E.18794
G1 X95.582 Y122.858 E2.28588
G1 X95.26 Y123.81 E.18797
G1 X86.623 Y115.172 E2.28593
G1 X86.301 Y116.123 E.18794
G1 X94.939 Y124.761 E2.28598
G1 X94.752 Y125.315 E.10934
G1 X94.219 Y125.315 E.09966
G1 X85.979 Y117.075 E2.18068
G1 X85.658 Y118.026 E.18794
G1 X92.946 Y125.315 E1.92889
G1 X91.673 Y125.315 E.23824
G1 X85.336 Y118.978 E1.6771
G1 X85.014 Y119.929 E.18794
G1 X90.4 Y125.315 E1.42531
G1 X89.127 Y125.315 E.23824
G1 X84.693 Y120.881 E1.17352
G1 X84.371 Y121.832 E.18794
G1 X87.854 Y125.315 E.92173
G1 X86.581 Y125.315 E.23824
G1 X84.049 Y122.783 E.66994
G1 X83.728 Y123.735 E.18794
G1 X85.308 Y125.315 E.41815
G1 X84.035 Y125.315 E.23824
G1 X83.089 Y124.369 E.25023
;LAYER_CHANGE
;Z:1.85
;HEIGHT:0.5
;BEFORE_LAYER_CHANGE
G92 E0
;1.85


G1 E-.7 F3600
;WIPE_START
G1 F6240
G1 X83.457 Y124.737 E-.285
;WIPE_END
G1 E-.015 F3600
G1 Z1.85 F7800
;AFTER_LAYER_CHANGE
;1.85
G1 X87.7 Y106.18
G1 E1 F2400
;TYPE:Perimeter
;WIDTH:1
G1 F919
G1 X87.6 Y106.087 E.02536
G1 X79.054 Y100.394 E1.90558
G1 X79.055 Y85.685 E2.72952
G1 X96.693 Y97.435 E3.93282
G1 X100.513 Y104.639 E1.51311
G1 X100.379 Y106.279 E.30526
G1 X100.394 Y106.614 E.06229
G1 X100.603 Y107.147 E.10632
G1 X100.131 Y110.741 E.67255
G1 X99.826 Y112.197 E.27614
G1 X95.17 Y125.984 E2.70045
