; generated by PrusaSlicer 2.5.0+win64 on 2022-12-07 at 00:12:08 UTC

; 

; external perimeters extrusion width = 1.00mm
; perimeters extrusion width = 1.00mm
; infill extrusion width = 1.00mm
; solid infill extrusion width = 1.00mm
; top infill extrusion width = 1.00mm
; support material extrusion width = 1.00mm
; first layer extrusion width = 0.42mm

M73 P0 R49
M107
;TYPE:Custom
G90 ; use absolute coordinates
M83 ; extruder relative mode
M140 S60 ; set final bed temp
M104 S150 ; set temporary nozzle temp to prevent oozing during homing and auto bed leveling
G4 S10 ; allow partial nozzle warmup
G28 ; home all axisG1 Z50 F240
G1 X7.6 Y10 F3000
M104 S210 ; set final nozzle temp
M190 S60 ; wait for bed temp to stabilize
M109 S210 ; wait for nozzle temp to stabilize
G1 Z0.28 F240
G92 E0
G1 Y140 E10 F1500 ; prime the nozzle
G1 X4 F5000
G92 E0
G1 Y10 E10 F1200 ; prime the nozzle
G92 E0
G21 ; set units to millimeters
G90 ; use absolute coordinates
M83 ; use relative distances for extrusion
; Filament gcode
M107
;LAYER_CHANGE
;Z:0.35
;HEIGHT:0.35
;BEFORE_LAYER_CHANGE
G92 E0
;0.35


G1 E-1 F3600
G1 Z.35 F7800
;AFTER_LAYER_CHANGE
;0.35
G1 X151.411 Y55.489
G1 E1 F2400
;TYPE:Support material interface
;WIDTH:1
G1 F1800
G1 X151.411 Y56.736 E.16788
G1 X152.069 Y56.988 E.09478
G1 X152.069 Y56.189 E.10745
G1 X152.303 Y56.189 E.03161
G1 X152.303 Y55.89 E.04019
G1 X153.196 Y55.89 E.12014
G1 X153.196 Y56.189 E.04019
G1 X154.089 Y56.189 E.12014
G1 X154.089 Y55.89 E.04019
G1 X154.981 Y55.89 E.12014
G1 X154.981 Y56.309 E.05637
G1 X155.874 Y56.65 E.12861
G1 X155.874 Y55.89 E.10226
G1 X156.767 Y55.89 E.12014
G1 X156.767 Y56.991 E.14815
G1 X157.66 Y57.332 E.12861
G1 X157.66 Y55.89 E.19404
G1 X158.552 Y55.89 E.12014
G1 X158.552 Y57.673 E.23992
G1 X159.445 Y58.014 E.12861
G1 X159.445 Y55.89 E.28581
G1 X160.338 Y55.89 E.12014
G1 X160.338 Y58.355 E.3317
G1 X161.23 Y58.696 E.12861
G1 X161.23 Y55.89 E.37759
G1 X162.123 Y55.89 E.12014
G1 X162.123 Y59.037 E.42347
G1 X163.016 Y59.378 E.12861
G1 X163.016 Y55.89 E.46936
G1 X163.908 Y55.89 E.12014
G1 X163.908 Y59.719 E.51525
G1 X164.801 Y60.06 E.12861
G1 X164.801 Y55.89 E.56114
G1 X165.694 Y55.89 E.12014
G1 X165.694 Y60.401 E.60702
G1 X166.587 Y60.742 E.12861
G1 X166.587 Y55.89 E.65291
G1 X167.479 Y55.89 E.12014
G1 X167.479 Y61.083 E.6988
G1 X168.372 Y61.424 E.12861
G1 X168.372 Y55.89 E.74469
G1 X169.265 Y55.89 E.12014
G1 X169.265 Y61.782 E.79297
G1 X169.758 Y62.499 E.11712
G1 X169.758 Y66.069 E.48037
G1 X170.157 Y66.069 E.05372
G1 X170.157 Y55.89 E1.36981
G1 X171.05 Y55.89 E.12014
G1 X171.05 Y66.47 E1.42387
G1 E-.7 F3600
;WIPE_START
G1 F6240
G1 X171.05 Y65.95 E-.285
;WIPE_END
G1 E-.015 F3600
G1 X168.257 Y121.067 F7800
G1 E1 F2400
;TYPE:Perimeter
;WIDTH:0.42
G1 F1800
G1 X163.974 Y119.39 E.23082
G1 X161.56 Y118.364 E.13164
G1 X158.978 Y117.389 E.1385
G1 X155.513 Y116.145 E.18479
G1 X149.045 Y113.599 E.34881
G1 X144.056 Y111.687 E.26815
G1 X139.087 Y109.921 E.26466
G1 X134.093 Y107.777 E.27276
G1 X129.874 Y106.337 E.22374
G1 X125.081 Y104.446 E.25857
G1 X120.248 Y102.689 E.25807
G1 X119.181 Y102.282 E.05733
G1 X115.45 Y100.75 E.20238
G1 X114.202 Y100.289 E.06679
G1 X110.599 Y98.873 E.19427
G1 X109.209 Y98.389 E.07385
G1 X104.231 Y96.474 E.26768
G1 X99.267 Y94.704 E.26449
G1 X97.657 Y94.045 E.0873
G1 X94.303 Y92.763 E.1802
G1 X91.923 Y91.783 E.12919
G1 X89.316 Y90.753 E.14069
G1 X87.491 Y90.113 E.09705
G1 X82.431 Y88.075 E.27373
G1 X79.36 Y86.983 E.16358
G1 X74.393 Y85.05 E.2675
G1 X72.291 Y84.345 E.11125
G1 X69.412 Y83.229 E.15496
G1 X67.215 Y82.329 E.11915
G1 X64.413 Y81.376 E.14852
G1 X62.193 Y80.561 E.11871
G1 X59.455 Y79.445 E.14838
G1 X54.489 Y77.524 E.26721
G1 X52.032 Y76.527 E.13307
G1 X46.96 Y74.625 E.27185
G1 X41.464 Y72.667 E.29279
G1 X39.566 Y71.902 E.10273
G1 X35.711 Y70.248 E.21051
G1 X29.287 Y67.948 E.34242
G1 X29.054 Y67.665 E.01842
G1 X24.748 Y64.589 E.26558
G1 X22.733 Y63.362 E.11837
G1 X22.544 Y62.89 E.02552
G1 X22.387 Y62.739 E.01093
G1 X19.761 Y61.117 E.15492
G1 X14.664 Y57.69 E.30825
G1 X145.727 Y57.69 E6.57753
G1 X168.257 Y66.291 E1.21028
G1 X168.257 Y120.917 E2.74142
M73 P1 R49
G1 X168.602 Y121.572 F7800
;TYPE:External perimeter
G1 F1800
G1 X163.844 Y119.709 E.25644
G1 X161.439 Y118.686 E.13117
G1 X158.864 Y117.715 E.13808
G1 X155.391 Y116.468 E.1852
G1 X148.919 Y113.92 E.34907
G1 X143.933 Y112.009 E.26799
G1 X138.961 Y110.242 E.26479
G1 X133.985 Y108.104 E.27182
G1 X129.755 Y106.661 E.22431
G1 X124.954 Y104.767 E.25897
G1 X120.128 Y103.012 E.25774
G1 X119.054 Y102.602 E.05768
G1 X115.319 Y101.069 E.2026
G1 X114.079 Y100.611 E.06635
G1 X110.473 Y99.194 E.19445
G1 X109.091 Y98.713 E.07345
G1 X104.115 Y96.799 E.26753
G1 X99.144 Y95.026 E.26489
G1 X97.534 Y94.367 E.08729
G1 X94.176 Y93.083 E.18042
G1 X91.798 Y92.105 E.12904
G1 X89.189 Y91.073 E.14081
G1 X87.369 Y90.436 E.09677
G1 X82.303 Y88.395 E.27413
G1 X79.24 Y87.307 E.16312
G1 X74.268 Y85.371 E.26776
G1 X72.174 Y84.669 E.11083
G1 X69.284 Y83.55 E.15553
G1 X67.104 Y82.656 E.11826
G1 X64.299 Y81.701 E.14873
G1 X62.068 Y80.883 E.11922
G1 X59.333 Y79.768 E.14822
G1 X54.362 Y77.845 E.26751
G1 X51.911 Y76.85 E.13275
G1 X46.847 Y74.951 E.27142
G1 X41.342 Y72.99 E.29329
G1 X39.433 Y72.221 E.10328
G1 X35.595 Y70.573 E.2096
G1 X29.546 Y68.422 E.32219
G1 X29.063 Y68.23 E.02611
G1 X28.853 Y67.946 E.01773
G1 X24.547 Y64.869 E.26558
G1 X22.451 Y63.594 E.12315
G1 X22.277 Y63.12 E.02534
G1 X22.206 Y63.033 E.00566
G1 X19.574 Y61.407 E.15523
G1 X13.53 Y57.345 E.36547
G1 X145.791 Y57.345 E6.6376
G1 X168.602 Y66.054 E1.22539
G1 X168.602 Y121.422 E2.77871
G1 X167.811 Y120.96 F7800
G1 E-.7 F3600
;WIPE_START
G1 F6240
G1 X168.113 Y121.246 E-.285
;WIPE_END
G1 E-.015 F3600
G1 X167.016 Y65.928 F7800
G1 E1 F2400
;TYPE:Solid infill
;WIDTH:0.420363
G1 F1800
G1 X167.998 Y66.911 E.0698
G1 X167.998 Y67.399 E.02453
G1 X166.495 Y65.896 E.10682
G1 X165.705 Y65.594 E.04247
G1 X167.998 Y67.887 E.16293
G1 X167.998 Y68.376 E.02453
G1 X164.915 Y65.293 E.21904
G1 X164.126 Y64.991 E.04247
G1 X167.998 Y68.864 E.27516
G1 X167.998 Y69.352 E.02453
G1 X163.336 Y64.69 E.33127
G1 X162.546 Y64.388 E.04247
G1 X167.998 Y69.84 E.38738
G1 X167.998 Y70.329 E.02453
G1 X161.756 Y64.087 E.44349
G1 X160.966 Y63.785 E.04247
G1 X167.998 Y70.817 E.4996
G1 X167.998 Y71.305 E.02453
G1 X160.177 Y63.484 E.55571
G1 X159.387 Y63.182 E.04247
G1 X167.998 Y71.793 E.61182
G1 X167.998 Y72.282 E.02453
G1 X158.597 Y62.881 E.66793
G1 X157.807 Y62.579 E.04247
G1 X167.998 Y72.77 E.72405
G1 X167.998 Y73.258 E.02453
G1 X157.018 Y62.278 E.78016
G1 X156.228 Y61.976 E.04247
G1 X167.998 Y73.747 E.83627
G1 X167.998 Y74.235 E.02453
G1 X155.438 Y61.675 E.89238
G1 X154.648 Y61.373 E.04247
G1 X167.998 Y74.723 E.94849
G1 X167.998 Y75.211 E.02453
G1 X153.859 Y61.072 E1.0046
G1 X153.069 Y60.77 E.04247
G1 X167.998 Y75.7 E1.06071
G1 X167.998 Y76.188 E.02453
G1 X152.279 Y60.469 E1.11682
G1 X151.489 Y60.167 E.04247
G1 X167.998 Y76.676 E1.17294
G1 X167.998 Y77.164 E.02453
G1 X150.7 Y59.866 E1.22905
G1 X149.91 Y59.564 E.04247
G1 X167.998 Y77.653 E1.28516
G1 X167.998 Y78.141 E.02453
M73 P1 R48
G1 X149.12 Y59.263 E1.34127
G1 X148.33 Y58.961 E.04247
G1 X167.998 Y78.629 E1.39738
G1 X167.998 Y79.117 E.02453
G1 X147.54 Y58.66 E1.45349
G1 X146.751 Y58.358 E.04247
M73 P2 R48
G1 X167.998 Y79.606 E1.5096
G1 X167.998 Y80.094 E.02453
G1 X145.961 Y58.057 E1.56571
G1 X145.679 Y57.949 E.01515
G1 X145.365 Y57.949 E.01578
G1 X167.998 Y80.582 E1.60804
G1 X167.998 Y81.07 E.02453
G1 X144.877 Y57.949 E1.64273
G1 X144.389 Y57.949 E.02453
G1 X167.998 Y81.559 E1.67742
G1 X167.998 Y82.047 E.02453
G1 X143.9 Y57.949 E1.71211
G1 X143.412 Y57.949 E.02453
G1 X167.998 Y82.535 E1.7468
G1 X167.998 Y83.023 E.02453
G1 X142.924 Y57.949 E1.78149
G1 X142.436 Y57.949 E.02453
G1 X167.998 Y83.512 E1.81618
G1 X167.998 Y84 E.02453
G1 X141.947 Y57.949 E1.85087
G1 X141.459 Y57.949 E.02453
G1 X167.998 Y84.488 E1.88556
G1 X167.998 Y84.976 E.02453
G1 X140.971 Y57.949 E1.92025
G1 X140.483 Y57.949 E.02453
G1 X167.998 Y85.465 E1.95494
G1 X167.998 Y85.953 E.02453
G1 X139.994 Y57.949 E1.98963
G1 X139.506 Y57.949 E.02453
G1 X167.998 Y86.441 E2.02432
G1 X167.998 Y86.93 E.02453
G1 X139.018 Y57.949 E2.05901
G1 X138.53 Y57.949 E.02453
G1 X167.998 Y87.418 E2.0937
G1 X167.998 Y87.906 E.02453
G1 X138.041 Y57.949 E2.12839
G1 X137.553 Y57.949 E.02453
G1 X167.998 Y88.394 E2.16308
G1 X167.998 Y88.883 E.02453
G1 X137.065 Y57.949 E2.19777
G1 X136.577 Y57.949 E.02453
G1 X167.998 Y89.371 E2.23246
G1 X167.998 Y89.859 E.02453
G1 X136.088 Y57.949 E2.26715
G1 X135.6 Y57.949 E.02453
G1 X167.998 Y90.347 E2.30184
G1 X167.998 Y90.836 E.02453
M73 P3 R48
G1 X135.112 Y57.949 E2.33653
G1 X134.623 Y57.949 E.02453
G1 X167.998 Y91.324 E2.37122
G1 X167.998 Y91.812 E.02453
G1 X134.135 Y57.949 E2.40591
G1 X133.647 Y57.949 E.02453
G1 X167.998 Y92.3 E2.4406
G1 X167.998 Y92.789 E.02453
G1 X133.159 Y57.949 E2.47529
G1 X132.67 Y57.949 E.02453
G1 X167.998 Y93.277 E2.50998
G1 X167.998 Y93.765 E.02453
G1 X132.182 Y57.949 E2.54467
G1 X131.694 Y57.949 E.02453
G1 X167.998 Y94.253 E2.57936
G1 X167.998 Y94.742 E.02453
G1 X131.206 Y57.949 E2.61405
G1 X130.717 Y57.949 E.02453
G1 X167.998 Y95.23 E2.64874
G1 X167.998 Y95.718 E.02453
G1 X130.229 Y57.949 E2.68343
G1 X129.741 Y57.949 E.02453
G1 X167.998 Y96.206 E2.71812
G1 X167.998 Y96.695 E.02453
G1 X129.253 Y57.949 E2.75281
G1 X128.764 Y57.949 E.02453
G1 X167.998 Y97.183 E2.7875
G1 X167.998 Y97.671 E.02453
G1 X128.276 Y57.949 E2.82219
G1 X127.788 Y57.949 E.02453
M73 P3 R47
G1 X167.998 Y98.16 E2.85688
G1 X167.998 Y98.648 E.02453
G1 X127.3 Y57.949 E2.89157
G1 X126.811 Y57.949 E.02453
M73 P4 R47
G1 X167.998 Y99.136 E2.92626
G1 X167.998 Y99.624 E.02453
G1 X126.323 Y57.949 E2.96095
G1 X125.835 Y57.949 E.02453
G1 X167.998 Y100.113 E2.99564
G1 X167.998 Y100.601 E.02453
G1 X125.347 Y57.949 E3.03033
G1 X124.858 Y57.949 E.02453
G1 X167.998 Y101.089 E3.06502
G1 X167.998 Y101.577 E.02453
G1 X124.37 Y57.949 E3.09971
G1 X123.882 Y57.949 E.02453
G1 X167.998 Y102.066 E3.1344
G1 X167.998 Y102.554 E.02453
G1 X123.393 Y57.949 E3.16909
G1 X122.905 Y57.949 E.02453
G1 X167.998 Y103.042 E3.20378
G1 X167.998 Y103.53 E.02453
G1 X122.417 Y57.949 E3.23847
G1 X121.929 Y57.949 E.02453
G1 X167.998 Y104.019 E3.27316
G1 X167.998 Y104.507 E.02453
G1 X121.44 Y57.949 E3.30785
G1 X120.952 Y57.949 E.02453
G1 X167.998 Y104.995 E3.34254
G1 X167.998 Y105.483 E.02453
G1 X120.464 Y57.949 E3.37723
G1 X119.976 Y57.949 E.02453
M73 P5 R47
G1 X167.998 Y105.972 E3.41192
G1 X167.998 Y106.46 E.02453
G1 X119.487 Y57.949 E3.44661
G1 X118.999 Y57.949 E.02453
G1 X167.998 Y106.948 E3.4813
G1 X167.998 Y107.436 E.02453
G1 X118.511 Y57.949 E3.51599
G1 X118.023 Y57.949 E.02453
G1 X167.998 Y107.925 E3.55068
G1 X167.998 Y108.413 E.02453
G1 X117.534 Y57.949 E3.58537
G1 X117.046 Y57.949 E.02453
G1 X167.998 Y108.901 E3.62006
G1 X167.998 Y109.389 E.02453
G1 X116.558 Y57.949 E3.65475
G1 X116.07 Y57.949 E.02453
G1 X167.998 Y109.878 E3.68944
G1 X167.998 Y110.366 E.02453
G1 X115.581 Y57.949 E3.72413
G1 X115.093 Y57.949 E.02453
G1 X167.998 Y110.854 E3.75882
G1 X167.998 Y111.343 E.02453
M73 P5 R46
G1 X114.605 Y57.949 E3.79351
G1 X114.117 Y57.949 E.02453
M73 P6 R46
G1 X167.998 Y111.831 E3.8282
G1 X167.998 Y112.319 E.02453
G1 X113.628 Y57.949 E3.86289
G1 X113.14 Y57.949 E.02453
G1 X167.998 Y112.807 E3.89758
G1 X167.998 Y113.296 E.02453
G1 X112.652 Y57.949 E3.93227
G1 X112.164 Y57.949 E.02453
G1 X167.998 Y113.784 E3.96696
G1 X167.998 Y114.272 E.02453
G1 X111.675 Y57.949 E4.00165
G1 X111.187 Y57.949 E.02453
G1 X167.998 Y114.76 E4.03634
G1 X167.998 Y115.249 E.02453
G1 X110.699 Y57.949 E4.07103
G1 X110.21 Y57.949 E.02453
G1 X167.998 Y115.737 E4.10572
G1 X167.998 Y116.225 E.02453
G1 X109.722 Y57.949 E4.14041
G1 X109.234 Y57.949 E.02453
G1 X167.998 Y116.713 E4.1751
G1 X167.998 Y117.202 E.02453
M73 P7 R46
G1 X108.746 Y57.949 E4.20979
G1 X108.257 Y57.949 E.02453
G1 X167.998 Y117.69 E4.24448
G1 X167.998 Y118.178 E.02453
G1 X107.769 Y57.949 E4.27917
G1 X107.281 Y57.949 E.02453
G1 X167.998 Y118.666 E4.31386
G1 X167.998 Y119.155 E.02453
G1 X106.793 Y57.949 E4.34855
G1 X106.304 Y57.949 E.02453
G1 X167.998 Y119.643 E4.38324
G1 X167.998 Y120.131 E.02453
G1 X105.816 Y57.949 E4.41793
G1 X105.328 Y57.949 E.02453
G1 X167.998 Y120.619 E4.45262
G1 X167.998 Y120.688 E.00344
G1 X167.308 Y120.418 E.03724
G1 X104.84 Y57.949 E4.43828
G1 X104.351 Y57.949 E.02453
M73 P7 R45
G1 X166.506 Y120.103 E4.41595
G1 X165.703 Y119.789 E.0433
M73 P8 R45
G1 X103.863 Y57.949 E4.39362
G1 X103.375 Y57.949 E.02453
G1 X164.901 Y119.475 E4.3713
G1 X164.098 Y119.16 E.0433
G1 X102.887 Y57.949 E4.34897
G1 X102.398 Y57.949 E.02453
G1 X163.25 Y118.801 E4.32343
G1 X162.401 Y118.44 E.04635
G1 X101.91 Y57.949 E4.29779
G1 X101.422 Y57.949 E.02453
G1 X161.56 Y118.087 E4.2727
G1 X160.776 Y117.791 E.04211
G1 X100.934 Y57.949 E4.25168
G1 X100.445 Y57.949 E.02453
G1 X159.991 Y117.495 E4.23065
G1 X159.207 Y117.199 E.04211
G1 X99.957 Y57.949 E4.20962
G1 X99.469 Y57.949 E.02453
G1 X158.442 Y116.922 E4.18991
G1 X157.68 Y116.648 E.04065
M73 P9 R45
G1 X98.98 Y57.949 E4.17049
G1 X98.492 Y57.949 E.02453
G1 X156.918 Y116.375 E4.15107
G1 X156.157 Y116.102 E.04065
G1 X98.004 Y57.949 E4.13165
G1 X97.516 Y57.949 E.02453
G1 X155.383 Y115.817 E4.11138
G1 X154.578 Y115.499 E.04348
G1 X97.027 Y57.949 E4.08885
G1 X96.539 Y57.949 E.02453
G1 X153.773 Y115.182 E4.06633
G1 X152.967 Y114.865 E.04348
G1 X96.051 Y57.949 E4.0438
G1 X95.563 Y57.949 E.02453
G1 X152.162 Y114.548 E4.02127
G1 X151.356 Y114.231 E.04348
G1 X95.074 Y57.949 E3.99874
G1 X94.586 Y57.949 E.02453
G1 X150.551 Y113.914 E3.97621
G1 X149.746 Y113.597 E.04348
M73 P9 R44
G1 X94.098 Y57.949 E3.95369
G1 X93.61 Y57.949 E.02453
M73 P10 R44
G1 X148.944 Y113.283 E3.9314
G1 X148.152 Y112.98 E.0426
G1 X93.121 Y57.949 E3.90984
G1 X92.633 Y57.949 E.02453
G1 X147.36 Y112.676 E3.88828
G1 X146.569 Y112.373 E.0426
G1 X92.145 Y57.949 E3.86672
G1 X91.657 Y57.949 E.02453
G1 X145.777 Y112.069 E3.84516
G1 X144.985 Y111.766 E.0426
G1 X91.168 Y57.949 E3.8236
G1 X90.68 Y57.949 E.02453
G1 X144.194 Y111.462 E3.80204
G1 X143.434 Y111.191 E.04051
G1 X90.192 Y57.949 E3.78277
G1 X89.704 Y57.949 E.02453
G1 X142.677 Y110.922 E3.76365
G1 X141.919 Y110.653 E.04038
G1 X89.215 Y57.949 E3.74453
G1 X88.727 Y57.949 E.02453
G1 X141.162 Y110.384 E3.72541
G1 X140.404 Y110.115 E.04038
G1 X88.239 Y57.949 E3.70628
G1 X87.75 Y57.949 E.02453
M73 P11 R44
G1 X139.647 Y109.846 E3.68716
G1 X139.182 Y109.68 E.02482
G1 X138.852 Y109.538 E.01804
G1 X87.262 Y57.949 E3.66534
G1 X86.774 Y57.949 E.02453
G1 X137.996 Y109.171 E3.6392
G1 X137.139 Y108.803 E.04681
G1 X86.286 Y57.949 E3.61306
G1 X85.797 Y57.949 E.02453
G1 X136.283 Y108.435 E3.58693
G1 X135.427 Y108.067 E.04681
G1 X85.309 Y57.949 E3.56079
G1 X84.821 Y57.949 E.02453
G1 X134.571 Y107.699 E3.53466
G1 X134.211 Y107.544 E.01971
G1 X133.781 Y107.398 E.02279
G1 X84.333 Y57.949 E3.51324
G1 X83.844 Y57.949 E.02453
G1 X133.04 Y107.145 E3.49525
G1 X132.299 Y106.891 E.03936
G1 X83.356 Y57.949 E3.47727
G1 X82.868 Y57.949 E.02453
G1 X131.557 Y106.638 E3.45928
G1 X130.816 Y106.385 E.03936
M73 P11 R43
G1 X82.38 Y57.949 E3.4413
G1 X81.891 Y57.949 E.02453
M73 P12 R43
G1 X130.074 Y106.132 E3.42331
G1 X129.278 Y105.824 E.04291
G1 X81.403 Y57.949 E3.40141
G1 X80.915 Y57.949 E.02453
G1 X128.472 Y105.506 E3.37882
G1 X127.665 Y105.188 E.04354
G1 X80.427 Y57.949 E3.35622
G1 X79.938 Y57.949 E.02453
G1 X126.859 Y104.87 E3.33363
G1 X126.053 Y104.552 E.04354
G1 X79.45 Y57.949 E3.31104
G1 X78.962 Y57.949 E.02453
G1 X125.247 Y104.234 E3.28845
G1 X124.476 Y103.951 E.04124
G1 X78.474 Y57.949 E3.26837
G1 X77.985 Y57.949 E.02453
G1 X123.708 Y103.672 E3.24855
G1 X122.941 Y103.393 E.04102
G1 X77.497 Y57.949 E3.22872
G1 X77.009 Y57.949 E.02453
G1 X122.174 Y103.114 E3.20889
G1 X121.406 Y102.835 E.04102
G1 X76.521 Y57.949 E3.18906
G1 X76.032 Y57.949 E.02453
G1 X120.639 Y102.556 E3.16924
G1 X119.858 Y102.263 E.04189
G1 X75.544 Y57.949 E3.14846
G1 X75.056 Y57.949 E.02453
M73 P13 R43
G1 X119.059 Y101.952 E3.12634
G1 X118.23 Y101.612 E.04498
G1 X74.567 Y57.949 E3.10218
G1 X74.079 Y57.949 E.02453
G1 X117.402 Y101.272 E3.07802
G1 X116.574 Y100.932 E.04498
G1 X73.591 Y57.949 E3.05386
