; generated by PrusaSlicer 2.5.0+win64 on 2022-12-07 at 00:12:03 UTC

; 

; external perimeters extrusion width = 1.00mm
; perimeters extrusion width = 1.00mm
; infill extrusion width = 1.00mm
; solid infill extrusion width = 1.00mm
; top infill extrusion width = 1.00mm
; support material extrusion width = 1.00mm
; first layer extrusion width = 0.42mm

M73 P0 R25
M107
;TYPE:Custom
G90 ; use absolute coordinates
M83 ; extruder relative mode
M140 S60 ; set final bed temp
M104 S150 ; set temporary nozzle temp to prevent oozing during homing and auto bed leveling
G4 S10 ; allow partial nozzle warmup
G28 ; home all axisG1 Z50 F240
G1 X7.6 Y10 F3000
M104 S210 ; set final nozzle temp
M190 S60 ; wait for bed temp to stabilize
M109 S210 ; wait for nozzle temp to stabilize
G1 Z0.28 F240
G92 E0
G1 Y140 E10 F1500 ; prime the nozzle
G1 X4 F5000
G92 E0
G1 Y10 E10 F1200 ; prime the nozzle
G92 E0
G21 ; set units to millimeters
G90 ; use absolute coordinates
M83 ; use relative distances for extrusion
; Filament gcode
M107
;LAYER_CHANGE
;Z:0.35
;HEIGHT:0.35
;BEFORE_LAYER_CHANGE
G92 E0
;0.35


G1 E-1 F3600
G1 Z.35 F7800
;AFTER_LAYER_CHANGE
;0.35
G1 X90.051 Y82.895
G1 E1 F2400
;TYPE:Perimeter
;WIDTH:0.42
G1 F1800
G1 X90.156 Y83.027 E.00846
G1 X90.369 Y83.127 E.01181
G1 X92.693 Y83.626 E.11929
G1 X95.649 Y85.692 E.18098
G1 X95.776 Y86.429 E.03755
G1 X95.891 Y86.592 E.01001
G1 X96.136 Y86.723 E.01395
G1 X97.659 Y87.061 E.07827
G1 X101.307 Y89.578 E.22242
G1 X101.41 Y90.047 E.0241
G1 X101.524 Y90.18 E.00875
G1 X101.746 Y90.288 E.01239
G1 X102.626 Y90.477 E.04518
G1 X106.838 Y93.373 E.25652
G1 X106.935 Y93.614 E.01307
G1 X107.113 Y93.77 E.01186
G1 X107.603 Y93.9 E.02547
G1 X112.681 Y97.328 E.30746
G1 X125.016 Y102.281 E.66713
G1 X127.517 Y103.261 E.13479
G1 X133.689 Y105.762 E.33421
G1 X94.149 Y105.762 E1.98436
M73 P1 R25
G1 X73.38 Y91.435 E1.26624
G1 X72.612 Y90.932 E.04608
G1 X72.345 Y90.919 E.01342
G1 X72.123 Y91.027 E.0124
G1 X60.826 Y100.418 E.73723
G1 X60.692 Y100.589 E.01091
G1 X58.172 Y105.762 E.28876
G1 X43.913 Y105.762 E.71563
G1 X52.194 Y88.779 E.94823
G1 X52.794 Y87.616 E.06567
G1 X53.033 Y87.257 E.02161
G1 X53.541 Y86.862 E.0323
G1 X53.662 Y86.729 E.00906
G1 X58.341 Y82.819 E.306
G1 X62.071 Y80.277 E.22655
G1 X62.245 Y80.076 E.0133
G1 X62.654 Y79.239 E.04678
G1 X63.347 Y78.669 E.04503
G1 X68.25 Y75.317 E.29809
G1 X73.076 Y74.352 E.24696
G1 X73.343 Y74.425 E.01392
G1 X77.478 Y75.236 E.21142
G1 X77.728 Y75.601 E.02223
G1 X77.935 Y75.699 E.01151
G1 X82.752 Y76.772 E.24765
G1 X83.623 Y77.363 E.05282
G1 X83.968 Y79.142 E.09093
G1 X84.097 Y79.332 E.01152
G1 X84.339 Y79.459 E.01372
G1 X87.73 Y80.202 E.17421
G1 X89.787 Y81.602 E.12488
G1 X89.985 Y82.763 E.05909
G1 X90.322 Y82.695 F7800
;TYPE:External perimeter
G1 F1800
G1 X90.441 Y82.79 E.00767
G1 X92.834 Y83.303 E.12278
G1 X95.968 Y85.495 E.19195
G1 X96.091 Y86.288 E.04031
G1 X96.208 Y86.386 E.00766
G1 X97.799 Y86.739 E.08178
G1 X101.629 Y89.382 E.23351
G1 X101.707 Y89.87 E.02483
G1 X101.818 Y89.95 E.0069
G1 X102.765 Y90.154 E.04859
G1 X107.165 Y93.175 E.26788
G1 X107.184 Y93.332 E.00794
G1 X107.257 Y93.455 E.00717
G1 X107.743 Y93.578 E.02515
G1 X112.809 Y97.008 E.30704
G1 X125.145 Y101.961 E.66713
G1 X127.645 Y102.94 E.13475
G1 X132.616 Y104.964 E.26937
G1 X135.491 Y106.106 E.15522
G1 X94.042 Y106.106 E2.08015
G1 X72.495 Y91.257 E1.31326
G1 X72.343 Y91.292 E.00783
G1 X61.047 Y100.683 E.73723
G1 X61.002 Y100.74 E.00364
G1 X58.388 Y106.106 E.29958
G1 X43.361 Y106.106 E.75415
G1 X52.277 Y87.821 E1.02095
G1 X52.507 Y87.424 E.02301
G1 X52.773 Y87.025 E.02407
G1 X58.133 Y82.543 E.35064
G1 X61.877 Y79.992 E.2274
G1 X61.935 Y79.925 E.00443
G1 X62.377 Y79.02 E.05054
G1 X63.14 Y78.393 E.04956
G1 X68.114 Y74.992 E.30239
G1 X72.986 Y74.018 E.24935
G1 X73.328 Y74.006 E.01719
G1 X73.41 Y74.087 E.00575
G1 X77.822 Y74.952 E.22563
G1 X77.879 Y75.229 E.01421
G1 X77.941 Y75.33 E.00595
G1 X78.01 Y75.363 E.00384
G1 X82.891 Y76.449 E.25095
G1 X83.935 Y77.158 E.06332
G1 X84.299 Y79.038 E.09608
G1 X84.413 Y79.122 E.00709
M73 P1 R24
G1 X87.869 Y79.879 E.17756
G1 X90.103 Y81.401 E.13566
G1 X90.291 Y82.549 E.05838
G1 X90.29 Y82.845 F7800
G1 E-.7 F3600
;WIPE_START
G1 F6240
G1 X90.441 Y82.79 E-.1559
G1 X90.672 Y82.839 E-.1291
;WIPE_END
G1 E-.015 F3600
G1 X132.029 Y105.658 F7800
G1 E1 F2400
;TYPE:Solid infill
;WIDTH:0.421754
G1 F1800
G1 X131.55 Y105.179 E.03419
G1 X130.724 Y104.843 E.04496
G1 X131.384 Y105.503 E.04706
G1 X130.894 Y105.503 E.02473
G1 X129.898 Y104.508 E.071
G1 X129.073 Y104.172 E.04496
G1 X130.403 Y105.503 E.09494
G1 X129.913 Y105.503 E.02473
G1 X128.247 Y103.836 E.11888
G1 X127.421 Y103.501 E.04496
G1 X129.423 Y105.503 E.14282
G1 X128.933 Y105.503 E.02473
G1 X126.615 Y103.185 E.16533
G1 X125.809 Y102.87 E.04365
G1 X128.443 Y105.503 E.18784
M73 P2 R24
G1 X127.952 Y105.503 E.02473
G1 X125.004 Y102.554 E.21035
G1 X124.186 Y102.227 E.04443
G1 X127.462 Y105.503 E.23371
G1 X126.972 Y105.503 E.02473
G1 X123.367 Y101.898 E.25718
G1 X122.547 Y101.569 E.04453
G1 X126.482 Y105.503 E.28064
G1 X125.991 Y105.503 E.02473
G1 X121.728 Y101.24 E.3041
G1 X120.909 Y100.911 E.04453
G1 X125.501 Y105.503 E.32757
G1 X125.011 Y105.503 E.02473
G1 X120.09 Y100.582 E.35103
G1 X119.271 Y100.253 E.04453
G1 X124.521 Y105.503 E.3745
G1 X124.031 Y105.503 E.02473
G1 X118.452 Y99.924 E.39796
G1 X117.633 Y99.595 E.04453
G1 X123.54 Y105.503 E.42142
G1 X123.05 Y105.503 E.02473
G1 X116.813 Y99.266 E.44489
G1 X115.994 Y98.937 E.04453
G1 X122.56 Y105.503 E.46835
G1 X122.07 Y105.503 E.02473
G1 X115.175 Y98.608 E.49181
G1 X114.356 Y98.28 E.04453
G1 X121.579 Y105.503 E.51528
G1 X121.089 Y105.503 E.02473
G1 X113.537 Y97.951 E.53874
G1 X112.718 Y97.622 E.04453
G1 X120.599 Y105.503 E.5622
G1 X120.109 Y105.503 E.02473
G1 X111.376 Y96.77 E.62294
G1 X109.853 Y95.738 E.09281
G1 X119.618 Y105.503 E.6966
G1 X119.128 Y105.503 E.02473
G1 X108.33 Y94.705 E.77026
G1 X107.498 Y94.141 E.05073
G1 X107.204 Y94.068 E.01529
G1 X118.638 Y105.503 E.81567
G1 X118.148 Y105.503 E.02473
G1 X105.209 Y92.565 E.92295
G1 X103.645 Y91.491 E.09569
G1 X117.658 Y105.503 E.99955
G1 X117.167 Y105.503 E.02473
G1 X102.142 Y90.477 E1.07185
G1 E-.7 F3600
;WIPE_START
G1 F6240
G1 X102.509 Y90.845 E-.285
;WIPE_END
G1 E-.015 F3600
G1 X99.924 Y88.75 F7800
G1 E1 F2400
G1 F1800
G1 X116.677 Y105.503 E1.19508
G1 X116.187 Y105.503 E.02473
G1 X98.95 Y88.267 E1.22955
G1 X97.553 Y87.302 E.08562
G1 X97.48 Y87.286 E.0038
G1 X115.697 Y105.503 E1.29949
G1 X115.206 Y105.503 E.02473
G1 X96.645 Y86.942 E1.32404
G1 E-.7 F3600
;WIPE_START
G1 F6240
G1 X97.013 Y87.31 E-.285
;WIPE_END
G1 E-.015 F3600
G1 X93.598 Y84.384 F7800
G1 E1 F2400
G1 F1800
G1 X95.47 Y86.256 E.13354
G1 X95.539 Y86.536 E.01451
G1 X95.664 Y86.73 E.01163
G1 X95.809 Y86.859 E.00982
G1 X96.061 Y86.971 E.01392
G1 X96.22 Y87.006 E.00817
G1 X114.716 Y105.503 E1.31944
G1 X114.226 Y105.503 E.02473
G1 X92.598 Y83.875 E1.54281
G1 X91.968 Y83.735 E.03258
M73 P3 R24
G1 X113.736 Y105.503 E1.55282
G1 X113.246 Y105.503 E.02473
G1 X91.141 Y83.399 E1.57679
G1 X89.75 Y82.008 F7800
G1 F1800
G1 X89.383 Y81.641 E.02617
G1 X87.846 Y80.594 E.0938
G1 X89.661 Y82.409 E.12947
G1 X89.739 Y82.862 E.02316
G1 X89.848 Y83.077 E.01217
G1 X90.034 Y83.259 E.01315
G1 X90.18 Y83.338 E.00837
G1 X90.719 Y83.467 E.02797
G1 X112.755 Y105.503 E1.57193
G1 X112.265 Y105.503 E.02473
G1 X87.088 Y80.326 E1.79599
G1 X86.46 Y80.188 E.03242
G1 X111.775 Y105.503 E1.80581
G1 X111.285 Y105.503 E.02473
G1 X85.832 Y80.051 E1.81562
G1 X85.205 Y79.913 E.03242
G1 X110.95 Y105.658 E1.83651
G1 E-.7 F3600
;WIPE_START
G1 F6240
G1 X110.582 Y105.29 E-.285
;WIPE_END
G1 E-.015 F3600
G1 X83.607 Y77.826 F7800
G1 E1 F2400
G1 F1800
G1 X83.108 Y77.326 E.03564
G1 X82.647 Y77.014 E.02807
G1 X82.207 Y76.915 E.02277
G1 X83.727 Y78.435 E.10844
G1 E-.7 F3600
;WIPE_START
G1 F6240
G1 X83.359 Y78.068 E-.285
;WIPE_END
G1 E-.015 F3600
G1 X81.371 Y76.57 F7800
G1 E1 F2400
G1 F1800
G1 X83.65 Y78.848 E.16254
G1 X83.725 Y79.235 E.01984
G1 X83.829 Y79.42 E.0107
G1 X84.007 Y79.591 E.01247
G1 X84.153 Y79.671 E.00838
G1 X84.577 Y79.776 E.02204
G1 X110.304 Y105.503 E1.83525
G1 X109.814 Y105.503 E.02473
G1 X80.945 Y76.634 E2.05935
G1 X80.314 Y76.493 E.03261
G1 X109.324 Y105.503 E2.06939
G1 X108.833 Y105.503 E.02473
G1 X79.683 Y76.353 E2.07942
G1 X79.052 Y76.212 E.03261
M73 P4 R24
G1 X108.343 Y105.503 E2.08946
G1 X107.853 Y105.503 E.02473
G1 X78.217 Y75.867 E2.11409
G1 X77.134 Y75.274 F7800
G1 F1800
G1 X107.363 Y105.503 E2.15638
G1 X106.873 Y105.503 E.02473
G1 X76.721 Y75.351 E2.15087
G1 X76.111 Y75.231 E.03134
G1 X106.382 Y105.503 E2.1594
G1 X105.892 Y105.503 E.02473
G1 X75.501 Y75.112 E2.16793
G1 X74.891 Y74.992 E.03134
G1 X105.402 Y105.503 E2.17645
G1 X104.912 Y105.503 E.02473
G1 X74.282 Y74.873 E2.18498
G1 X73.672 Y74.753 E.03134
G1 X104.421 Y105.503 E2.19351
G1 X103.931 Y105.503 E.02473
G1 X73.049 Y74.621 E2.20295
G1 X72.641 Y74.703 E.02102
M73 P5 R24
G1 X103.441 Y105.503 E2.19712
G1 X102.951 Y105.503 E.02473
G1 X72.232 Y74.784 E2.19129
G1 X71.824 Y74.866 E.02102
G1 X102.461 Y105.503 E2.18547
G1 X101.97 Y105.503 E.02473
G1 X71.415 Y74.948 E2.17964
G1 X71.007 Y75.029 E.02102
G1 X101.48 Y105.503 E2.17381
G1 X100.99 Y105.503 E.02473
G1 X70.598 Y75.111 E2.16799
G1 X70.189 Y75.193 E.02102
G1 X100.5 Y105.503 E2.16216
G1 X100.009 Y105.503 E.02473
G1 X69.781 Y75.274 E2.15634
G1 X69.372 Y75.356 E.02102
M73 P5 R23
G1 X99.519 Y105.503 E2.15051
G1 X99.029 Y105.503 E.02473
G1 X68.964 Y75.438 E2.14468
G1 X68.555 Y75.519 E.02102
M73 P6 R23
G1 X98.539 Y105.503 E2.13886
G1 X98.048 Y105.503 E.02473
G1 X68.206 Y75.66 E2.1288
G1 X67.915 Y75.859 E.01779
G1 X97.558 Y105.503 E2.1146
G1 X97.068 Y105.503 E.02473
G1 X67.624 Y76.059 E2.1004
G1 X67.332 Y76.258 E.01779
G1 X96.578 Y105.503 E2.0862
G1 X96.088 Y105.503 E.02473
G1 X67.041 Y76.457 E2.072
G1 X66.75 Y76.656 E.01779
G1 X95.597 Y105.503 E2.0578
G1 X95.107 Y105.503 E.02473
G1 X66.459 Y76.855 E2.0436
G1 X66.168 Y77.054 E.01779
G1 X94.617 Y105.503 E2.0294
G1 X94.23 Y105.503 E.01953
G1 X93.897 Y105.274 E.02036
G1 X65.877 Y77.253 E1.99884
G1 X65.586 Y77.452 E.01779
G1 X92.317 Y104.184 E1.90688
G1 X90.737 Y103.094 E.09684
M73 P7 R23
G1 X65.294 Y77.651 E1.81492
G1 X65.003 Y77.85 E.01779
G1 X89.156 Y102.003 E1.72296
G1 X87.576 Y100.913 E.09684
G1 X64.712 Y78.049 E1.63099
G1 X64.421 Y78.248 E.01779
G1 X85.996 Y99.823 E1.53903
G1 X84.416 Y98.733 E.09684
G1 X64.13 Y78.447 E1.44707
G1 X63.839 Y78.647 E.01779
G1 X82.835 Y97.643 E1.35511
G1 X81.255 Y96.553 E.09684
G1 X63.548 Y78.846 E1.26314
G1 X63.275 Y79.063 E.01759
G1 X79.675 Y95.463 E1.16985
G1 X78.094 Y94.373 E.09684
G1 X63.006 Y79.285 E1.07631
G1 X62.862 Y79.403 E.00941
G1 X62.787 Y79.556 E.00858
G1 X76.514 Y93.283 E.9792
G1 X74.934 Y92.193 E.09684
G1 X62.626 Y79.885 E.87795
G1 X62.463 Y80.213 E.01845
G1 X73.353 Y91.102 E.77682
G1 X72.889 Y90.782 E.02846
G1 X72.691 Y90.684 E.01115
G1 X72.413 Y90.652 E.01412
G1 X62.235 Y80.474 E.72602
G1 X61.944 Y80.673 E.01779
G1 X72.044 Y90.774 E.72051
G1 X71.767 Y90.986 E.01764
G1 X61.652 Y80.872 E.7215
G1 X61.361 Y81.071 E.01779
G1 X71.499 Y91.209 E.7232
G1 X71.231 Y91.432 E.01756
G1 X61.069 Y81.27 E.72489
G1 X60.778 Y81.469 E.01779
G1 X70.964 Y91.654 E.72658
G1 X70.696 Y91.877 E.01756
G1 X60.487 Y81.668 E.72828
G1 X60.195 Y81.866 E.01779
M73 P8 R23
G1 X70.428 Y92.099 E.72997
G1 X70.161 Y92.322 E.01756
G1 X59.904 Y82.065 E.73166
G1 X59.613 Y82.264 E.01779
G1 X69.893 Y92.545 E.73336
G1 X69.626 Y92.767 E.01756
G1 X59.321 Y82.463 E.73505
G1 X59.03 Y82.662 E.01779
G1 X69.358 Y92.99 E.73674
G1 X69.09 Y93.212 E.01756
G1 X58.739 Y82.861 E.73843
G1 X58.451 Y83.064 E.01774
G1 X68.823 Y93.435 E.73983
G1 X68.555 Y93.658 E.01756
G1 X58.184 Y83.287 E.73979
G1 X57.917 Y83.51 E.01755
G1 X68.287 Y93.88 E.73975
G1 X68.02 Y94.103 E.01756
G1 X57.65 Y83.733 E.73971
G1 X57.383 Y83.957 E.01755
G1 X67.752 Y94.325 E.73967
G1 X67.485 Y94.548 E.01756
G1 X57.116 Y84.18 E.73963
G1 X56.849 Y84.403 E.01755
G1 X67.217 Y94.771 E.73958
G1 X66.949 Y94.993 E.01756
G1 X56.582 Y84.626 E.73954
G1 X56.315 Y84.849 E.01755
G1 X66.682 Y95.216 E.7395
G1 X66.414 Y95.438 E.01756
G1 X56.048 Y85.072 E.73946
G1 X55.781 Y85.296 E.01755
G1 X66.146 Y95.661 E.73942
G1 X65.879 Y95.884 E.01756
G1 X55.514 Y85.519 E.73938
G1 X55.247 Y85.742 E.01755
G1 X65.611 Y96.106 E.73934
G1 X65.344 Y96.329 E.01756
G1 X54.98 Y85.965 E.7393
G1 X54.713 Y86.188 E.01755
G1 X65.076 Y96.552 E.73926
G1 X64.808 Y96.774 E.01756
G1 X54.446 Y86.411 E.73922
G1 X54.179 Y86.635 E.01755
G1 X64.541 Y96.997 E.73918
G1 X64.273 Y97.219 E.01756
G1 X53.912 Y86.858 E.73913
G1 X53.797 Y86.986 E.00865
G1 X53.654 Y87.09 E.00896
G1 X64.005 Y97.442 E.73842
G1 X63.738 Y97.665 E.01756
G1 X53.378 Y87.305 E.73901
G1 X53.228 Y87.432 E.00992
G1 X53.142 Y87.559 E.00775
G1 X63.47 Y97.887 E.73673
G1 X63.203 Y98.11 E.01756
G1 X52.946 Y87.853 E.73163
G1 X52.777 Y88.174 E.0183
G1 X62.935 Y98.332 E.72463
M73 P9 R23
G1 X62.667 Y98.555 E.01756
G1 X52.616 Y88.504 E.717
G1 X52.455 Y88.833 E.01849
G1 X62.4 Y98.778 E.70937
G1 X62.132 Y99 E.01756
G1 X52.295 Y89.163 E.70174
G1 X52.134 Y89.492 E.01849
G1 X61.864 Y99.223 E.69411
G1 X61.597 Y99.445 E.01756
G1 X51.973 Y89.822 E.68649
G1 X51.813 Y90.151 E.01849
G1 X61.329 Y99.668 E.67886
G1 X61.062 Y99.891 E.01756
G1 X51.652 Y90.481 E.67123
G1 X51.491 Y90.81 E.01849
G1 X60.794 Y100.113 E.6636
G1 X60.6 Y100.275 E.01275
G1 X60.544 Y100.354 E.00486
G1 X51.331 Y91.14 E.65725
G1 X51.17 Y91.47 E.01849
G1 X60.367 Y100.666 E.65605
G1 X60.206 Y100.996 E.0185
G1 X51.009 Y91.799 E.65606
G1 X50.848 Y92.129 E.01849
G1 X60.046 Y101.326 E.65607
G1 X59.885 Y101.655 E.0185
G1 X50.688 Y92.458 E.65607
G1 X50.527 Y92.788 E.01849
G1 X59.724 Y101.985 E.65608
G1 X59.564 Y102.315 E.0185
G1 X50.366 Y93.117 E.65609
G1 X50.206 Y93.447 E.01849
G1 X59.403 Y102.644 E.6561
G1 X59.243 Y102.974 E.0185
G1 X50.045 Y93.776 E.65611
G1 X49.884 Y94.106 E.01849
G1 X59.082 Y103.304 E.65612
G1 X58.921 Y103.633 E.0185
G1 X49.724 Y94.435 E.65612
G1 X49.563 Y94.765 E.01849
G1 X58.761 Y103.963 E.65613
G1 X58.6 Y104.292 E.0185
G1 X49.402 Y95.094 E.65614
G1 X49.242 Y95.424 E.01849
G1 X58.44 Y104.622 E.65615
G1 X58.279 Y104.952 E.0185
M73 P9 R22
G1 X49.081 Y95.753 E.65616
G1 X48.92 Y96.083 E.01849
G1 X58.119 Y105.281 E.65617
G1 X58.011 Y105.503 E.01243
G1 X57.85 Y105.503 E.00811
G1 X48.759 Y96.413 E.64846
G1 X48.599 Y96.742 E.01849
G1 X57.36 Y105.503 E.62495
G1 X56.869 Y105.503 E.02473
G1 X48.438 Y97.072 E.60144
G1 X48.277 Y97.401 E.01849
G1 X56.379 Y105.503 E.57794
G1 X55.889 Y105.503 E.02473
G1 X48.117 Y97.731 E.55443
G1 X47.956 Y98.06 E.01849
G1 X55.399 Y105.503 E.53092
G1 X54.908 Y105.503 E.02473
G1 X47.795 Y98.39 E.50742
G1 X47.635 Y98.719 E.01849
M73 P10 R22
G1 X54.418 Y105.503 E.48391
G1 X53.928 Y105.503 E.02473
G1 X47.474 Y99.049 E.4604
G1 X47.313 Y99.378 E.01849
G1 X53.438 Y105.503 E.43689
G1 X52.948 Y105.503 E.02473
G1 X47.153 Y99.708 E.41339
G1 X46.992 Y100.037 E.01849
G1 X52.457 Y105.503 E.38988
G1 X51.967 Y105.503 E.02473
G1 X46.831 Y100.367 E.36637
G1 X46.67 Y100.696 E.01849
G1 X51.477 Y105.503 E.34287
G1 X50.987 Y105.503 E.02473
G1 X46.51 Y101.026 E.31936
G1 X46.349 Y101.356 E.01849
G1 X50.496 Y105.503 E.29585
G1 X50.006 Y105.503 E.02473
G1 X46.188 Y101.685 E.27234
G1 X46.028 Y102.015 E.01849
G1 X49.516 Y105.503 E.24884
G1 X49.026 Y105.503 E.02473
G1 X45.867 Y102.344 E.22533
G1 X45.706 Y102.674 E.01849
G1 X48.536 Y105.503 E.20182
G1 X48.045 Y105.503 E.02473
G1 X45.546 Y103.003 E.17832
G1 X45.385 Y103.333 E.01849
G1 X47.555 Y105.503 E.15481
G1 X47.065 Y105.503 E.02473
G1 X45.224 Y103.662 E.1313
G1 X45.064 Y103.992 E.01849
G1 X46.575 Y105.503 E.10779
G1 X46.084 Y105.503 E.02473
G1 X44.903 Y104.321 E.08429
G1 X44.742 Y104.651 E.01849
G1 X45.594 Y105.503 E.06078
G1 X45.104 Y105.503 E.02473
G1 X44.581 Y104.98 E.03727
G1 X44.421 Y105.31 E.01849
G1 X44.769 Y105.658 E.02484
M106 S255
;LAYER_CHANGE
;Z:0.85
;HEIGHT:0.5
;BEFORE_LAYER_CHANGE
G92 E0
;0.85


G1 E-.7 F3600
;WIPE_START
G1 F6240
G1 X44.421 Y105.31 E-.26986
G1 X44.433 Y105.285 E-.01514
;WIPE_END
G1 E-.015 F3600
G1 Z.85 F7800
;AFTER_LAYER_CHANGE
;0.85
M104 S205 ; set temperature
G1 X83.586 Y80.36
G1 E1 F2400
;TYPE:Perimeter
;WIDTH:1
