; generated by PrusaSlicer 2.5.0+win64 on 2022-12-07 at 00:12:16 UTC

; 

; external perimeters extrusion width = 1.00mm
; perimeters extrusion width = 1.00mm
; infill extrusion width = 1.00mm
; solid infill extrusion width = 1.00mm
; top infill extrusion width = 1.00mm
; support material extrusion width = 1.00mm
; first layer extrusion width = 0.42mm

M73 P0 R6
M107
;TYPE:Custom
G90 ; use absolute coordinates
M83 ; extruder relative mode
M140 S60 ; set final bed temp
M104 S150 ; set temporary nozzle temp to prevent oozing during homing and auto bed leveling
G4 S10 ; allow partial nozzle warmup
G28 ; home all axisG1 Z50 F240
G1 X7.6 Y10 F3000
M104 S210 ; set final nozzle temp
M190 S60 ; wait for bed temp to stabilize
M109 S210 ; wait for nozzle temp to stabilize
G1 Z0.28 F240
G92 E0
G1 Y140 E10 F1500 ; prime the nozzle
G1 X4 F5000
G92 E0
M73 P1 R6
G1 Y10 E10 F1200 ; prime the nozzle
G92 E0
G21 ; set units to millimeters
G90 ; use absolute coordinates
M83 ; use relative distances for extrusion
; Filament gcode
M107
;LAYER_CHANGE
;Z:0.35
;HEIGHT:0.35
;BEFORE_LAYER_CHANGE
G92 E0
;0.35


G1 E-1 F3600
M73 P3 R6
G1 Z.35 F7800
;AFTER_LAYER_CHANGE
;0.35
G1 X99.424 Y70.731
G1 E1 F2400
;TYPE:Perimeter
;WIDTH:0.42
G1 F1800
G1 X99.424 Y106.16 E1.77802
G1 X96.976 Y100.266 E.32031
G1 X85.979 Y80.417 E1.13877
G1 X81.454 Y70.731 E.53653
M73 P4 R6
G1 X99.274 Y70.731 E.89434
G1 X99.769 Y70.386 F7800
;TYPE:External perimeter
G1 F1800
G1 X99.769 Y107.891 E1.88222
G1 X96.674 Y100.433 E.40526
G1 X85.671 Y80.574 E1.13937
G1 X80.912 Y70.386 E.56432
G1 X99.619 Y70.386 E.93883
G1 X99.459 Y71.337 F7800
M73 P5 R6
G1 X98.616 Y70.835
;TYPE:Solid infill
;WIDTH:0.42341
G1 F1800
G1 X99.166 Y71.384 E.03937
G1 X99.166 Y71.877 E.02496
G1 X98.279 Y70.99 E.06355
G1 X97.786 Y70.99 E.02496
G1 X99.166 Y72.369 E.09885
G1 X99.166 Y72.862 E.02496
G1 X97.294 Y70.99 E.13416
G1 X96.801 Y70.99 E.02496
G1 X99.166 Y73.354 E.16946
G1 X99.166 Y73.847 E.02496
G1 X96.309 Y70.99 E.20477
G1 X95.816 Y70.99 E.02496
G1 X99.166 Y74.339 E.24007
G1 X99.166 Y74.832 E.02496
G1 X95.324 Y70.99 E.27538
G1 X94.831 Y70.99 E.02496
G1 X99.166 Y75.325 E.31068
G1 X99.166 Y75.817 E.02496
G1 X94.338 Y70.99 E.34599
G1 X93.846 Y70.99 E.02496
G1 X99.166 Y76.31 E.38129
G1 X99.166 Y76.802 E.02496
G1 X93.353 Y70.99 E.4166
G1 X92.861 Y70.99 E.02496
G1 X99.166 Y77.295 E.4519
G1 X99.166 Y77.787 E.02496
G1 X92.368 Y70.99 E.48721
G1 X91.876 Y70.99 E.02496
G1 X99.166 Y78.28 E.52251
M73 P6 R6
G1 X99.166 Y78.773 E.02496
G1 X91.383 Y70.99 E.55782
G1 X90.89 Y70.99 E.02496
G1 X99.166 Y79.265 E.59312
G1 X99.166 Y79.758 E.02496
G1 X90.398 Y70.99 E.62843
G1 X89.905 Y70.99 E.02496
G1 X99.166 Y80.25 E.66373
G1 X99.166 Y80.743 E.02496
G1 X89.413 Y70.99 E.69904
G1 X88.92 Y70.99 E.02496
G1 X99.166 Y81.235 E.73434
G1 X99.166 Y81.728 E.02496
G1 X88.428 Y70.99 E.76965
G1 X87.935 Y70.99 E.02496
G1 X99.166 Y82.22 E.80495
G1 X99.166 Y82.713 E.02496
M73 P7 R6
G1 X87.442 Y70.99 E.84026
G1 X86.95 Y70.99 E.02496
G1 X99.166 Y83.206 E.87556
G1 X99.166 Y83.698 E.02496
G1 X86.457 Y70.99 E.91087
G1 X85.965 Y70.99 E.02496
G1 X99.166 Y84.191 E.94617
G1 X99.166 Y84.683 E.02496
G1 X85.472 Y70.99 E.98148
G1 X84.98 Y70.99 E.02496
G1 X99.166 Y85.176 E1.01678
G1 X99.166 Y85.668 E.02496
M73 P8 R6
G1 X84.487 Y70.99 E1.05209
G1 X83.994 Y70.99 E.02496
G1 X99.166 Y86.161 E1.08739
G1 X99.166 Y86.654 E.02496
M73 P8 R5
G1 X83.502 Y70.99 E1.1227
G1 X83.009 Y70.99 E.02496
G1 X99.166 Y87.146 E1.158
G1 X99.166 Y87.639 E.02496
G1 X82.517 Y70.99 E1.19331
G1 X82.024 Y70.99 E.02496
M73 P9 R5
G1 X99.166 Y88.131 E1.22861
G1 X99.166 Y88.624 E.02496
G1 X82.148 Y71.606 E1.21973
G1 X82.58 Y72.531 E.05171
G1 X99.166 Y89.116 E1.18878
G1 X99.166 Y89.609 E.02496
G1 X83.012 Y73.455 E1.15782
G1 X83.444 Y74.38 E.05171
M73 P10 R5
G1 X99.166 Y90.102 E1.12686
G1 X99.166 Y90.594 E.02496
G1 X83.876 Y75.304 E1.09591
G1 X84.308 Y76.229 E.05171
G1 X99.166 Y91.087 E1.06495
G1 X99.166 Y91.579 E.02496
G1 X84.739 Y77.153 E1.034
G1 X85.171 Y78.078 E.05171
G1 X99.166 Y92.072 E1.00304
G1 X99.166 Y92.564 E.02496
M73 P11 R5
G1 X85.603 Y79.002 E.97209
G1 X86.035 Y79.927 E.05171
G1 X99.166 Y93.057 E.94113
G1 X99.166 Y93.55 E.02496
G1 X86.574 Y80.958 E.90248
G1 X87.186 Y82.063 E.064
G1 X99.166 Y94.042 E.85862
G1 X99.166 Y94.535 E.02496
G1 X87.798 Y83.167 E.81476
G1 X88.41 Y84.272 E.064
G1 X99.166 Y95.027 E.7709
G1 X99.166 Y95.52 E.02496
M73 P12 R5
G1 X89.022 Y85.376 E.72704
G1 X89.634 Y86.481 E.064
G1 X99.166 Y96.012 E.68318
G1 X99.166 Y96.505 E.02496
G1 X90.246 Y87.585 E.63932
G1 X90.858 Y88.69 E.064
G1 X99.166 Y96.998 E.59545
G1 X99.166 Y97.49 E.02496
G1 X91.47 Y89.794 E.55159
G1 X92.082 Y90.899 E.064
G1 X99.166 Y97.983 E.50773
G1 X99.166 Y98.475 E.02496
G1 X92.694 Y92.003 E.46387
G1 X93.306 Y93.108 E.064
G1 X99.166 Y98.968 E.42001
G1 X99.166 Y99.46 E.02496
G1 X93.918 Y94.212 E.37615
G1 X94.53 Y95.317 E.064
M73 P13 R5
G1 X99.166 Y99.953 E.33229
G1 X99.166 Y100.446 E.02496
G1 X95.141 Y96.421 E.28843
G1 X95.753 Y97.526 E.064
G1 X99.166 Y100.938 E.24457
G1 X99.166 Y101.431 E.02496
G1 X96.365 Y98.63 E.20071
G1 X96.977 Y99.735 E.064
G1 X99.166 Y101.923 E.15685
G1 X99.166 Y102.416 E.02496
G1 X97.425 Y100.675 E.12477
G1 X97.775 Y101.518 E.04627
G1 X99.166 Y102.908 E.09965
G1 X99.166 Y103.401 E.02496
G1 X98.126 Y102.361 E.07453
G1 X98.476 Y103.204 E.04627
G1 X99.166 Y103.894 E.04941
G1 X99.166 Y104.386 E.02496
G1 X98.539 Y103.76 E.0449
M106 S255
;LAYER_CHANGE
;Z:0.85
;HEIGHT:0.5
;BEFORE_LAYER_CHANGE
G92 E0
;0.85


G1 E-.7 F3600
;WIPE_START
G1 F6240
G1 X98.907 Y104.127 E-.285
;WIPE_END
G1 E-.015 F3600
G1 Z.85 F7800
;AFTER_LAYER_CHANGE
;0.85
M104 S205 ; set temperature
G1 X98.586 Y71.569
G1 E1 F2400
;TYPE:Perimeter
;WIDTH:1
G1 F1355
G1 X98.586 Y100.962 E5.45449
G1 X98.255 Y100.186 E.15662
G1 X87.022 Y79.911 E4.3013
G1 X83.125 Y71.569 E1.7086
M73 P14 R5
G1 X98.436 Y71.569 E2.84135
G1 X99.479 Y70.676 F7800
;TYPE:External perimeter
G1 F1355
G1 X99.479 Y105.444 E6.45184
G1 X97.474 Y100.619 E.96967
G1 X86.226 Y80.317 E4.30701
G1 X81.723 Y70.676 E1.97454
M73 P15 R5
G1 X99.329 Y70.676 E3.26725
G1 X99.17 Y71.627 F7800
G1 E-.7 F3600
;WIPE_START
G1 F6240
G1 X99.331 Y71.196 E-.285
;WIPE_END
G1 E-.015 F3600
G1 X98.319 Y96.501 F7800
G1 E1 F2400
;TYPE:Solid infill
;WIDTH:1.02426
G1 F1200
G1 X97.456 Y97.363 E.2324
G1 X96.994 Y96.528 E.18184
G1 X97.917 Y95.606 E.24873
G1 X97.917 Y94.309 E.24718
G1 X96.532 Y95.694 E.37336
G1 X96.07 Y94.859 E.18184
G1 X97.917 Y93.012 E.49799
G1 X97.917 Y91.715 E.24718
G1 X95.607 Y94.025 E.62261
G1 X95.145 Y93.191 E.18184
G1 X97.917 Y90.419 E.74724
G1 X97.917 Y89.122 E.24718
M73 P16 R5
G1 X94.683 Y92.356 E.87186
G1 X94.22 Y91.522 E.18184
G1 X97.917 Y87.825 E.99649
G1 X97.917 Y86.528 E.24718
G1 X93.758 Y90.687 E1.12112
G1 X93.296 Y89.853 E.18184
G1 X97.917 Y85.231 E1.24574
G1 X97.917 Y83.935 E.24718
G1 X92.833 Y89.018 E1.37037
G1 X92.371 Y88.184 E.18184
G1 X97.917 Y82.638 E1.495
G1 X97.917 Y81.341 E.24718
G1 X91.909 Y87.349 E1.61962
G1 X91.446 Y86.515 E.18184
G1 X97.917 Y80.044 E1.74425
G1 X97.917 Y78.748 E.24718
G1 X90.984 Y85.68 E1.86887
G1 X90.522 Y84.846 E.18184
M73 P17 R5
G1 X97.917 Y77.451 E1.9935
G1 X97.917 Y76.154 E.24718
G1 X90.059 Y84.012 E2.11813
G1 X89.597 Y83.177 E.18184
G1 X97.917 Y74.857 E2.24275
G1 X97.917 Y73.561 E.24718
G1 X89.135 Y82.343 E2.36738
G1 X88.672 Y81.508 E.18184
G1 X97.917 Y72.264 E2.492
G1 X97.917 Y72.239 E.00479
G1 X96.645 Y72.239 E.24239
G1 X88.21 Y80.674 E2.27384
G1 X87.748 Y79.839 E.18184
M73 P18 R5
G1 X95.348 Y72.239 E2.0489
G1 X94.052 Y72.239 E.24718
G1 X87.321 Y78.969 E1.81435
G1 X86.908 Y78.085 E.18595
G1 X92.755 Y72.239 E1.57609
G1 X91.458 Y72.239 E.24718
G1 X86.495 Y77.201 E1.33783
G1 X86.082 Y76.318 E.18595
G1 X90.161 Y72.239 E1.09957
G1 X88.865 Y72.239 E.24718
G1 X85.669 Y75.434 E.86131
G1 X85.257 Y74.55 E.18595
G1 X87.568 Y72.239 E.62306
G1 X86.271 Y72.239 E.24718
G1 X84.844 Y73.666 E.3848
G1 X84.431 Y72.782 E.18595
G1 X85.376 Y71.837 E.25483
;LAYER_CHANGE
;Z:1.35
;HEIGHT:0.5
;BEFORE_LAYER_CHANGE
G92 E0
;1.35


G1 E-.7 F3600
;WIPE_START
G1 F6240
G1 X85.008 Y72.205 E-.285
;WIPE_END
G1 E-.015 F3600
G1 Z1.35 F7800
;AFTER_LAYER_CHANGE
;1.35
G1 X98.586 Y71.569
G1 E1 F2400
;TYPE:Perimeter
;WIDTH:1
M73 P19 R5
G1 F1192
G1 X98.586 Y100.007 E5.27716
G1 X87.371 Y79.763 E4.29461
G1 X83.543 Y71.569 E1.67833
G1 X98.436 Y71.569 E2.76383
G1 X99.479 Y70.676 F7800
;TYPE:External perimeter
M73 P20 R5
G1 F1192
G1 X99.479 Y104.278 E6.23538
G1 X98.117 Y101.001 E.65842
G1 X86.575 Y80.169 E4.41958
G1 X82.14 Y70.676 E1.94427
G1 X99.329 Y70.676 E3.18973
G1 X99.172 Y71.628 F7800
M73 P21 R5
G1 E-.7 F3600
;WIPE_START
G1 F6240
G1 X99.331 Y71.196 E-.285
;WIPE_END
G1 E-.015 F3600
G1 X98.319 Y73.659 F7800
G1 E1 F2400
;TYPE:Solid infill
;WIDTH:1.0083
G1 F1192
G1 X96.898 Y72.239 E.37623
G1 X95.624 Y72.239 E.23865
G1 X97.917 Y74.531 E.60734
G1 X97.917 Y75.806 E.23865
G1 X94.35 Y72.239 E.94485
G1 X93.076 Y72.239 E.23865
G1 X97.917 Y77.08 E1.28235
G1 X97.917 Y78.354 E.23866
G1 X91.801 Y72.239 E1.61986
G1 X90.527 Y72.239 E.23865
G1 X97.917 Y79.628 E1.95737
G1 X97.917 Y80.903 E.23865
G1 X89.253 Y72.239 E2.29488
G1 X87.979 Y72.239 E.23865
M73 P22 R5
G1 X97.917 Y82.177 E2.63239
G1 X97.917 Y83.451 E.23866
G1 X86.705 Y72.239 E2.9699
G1 X85.43 Y72.239 E.23866
G1 X97.917 Y84.725 E3.30741
G1 X97.917 Y85.999 E.23865
G1 X84.979 Y73.061 E3.42701
G1 X86.096 Y75.453 E.49438
G1 X97.917 Y87.274 E3.13108
G1 X97.917 Y88.548 E.23866
M73 P23 R5
G1 X87.213 Y77.844 E2.83515
G1 X87.968 Y79.459 E.3338
G1 X88.482 Y80.387 E.19872
G1 X97.917 Y89.822 E2.49915
G1 X97.917 Y91.096 E.23865
G1 X90.065 Y83.244 E2.07984
G1 X91.648 Y86.101 E.61179
M73 P23 R4
G1 X97.917 Y92.37 E1.66054
G1 X97.917 Y93.645 E.23866
G1 X93.231 Y88.959 E1.24124
G1 X94.814 Y91.816 E.61179
M73 P24 R4
G1 X97.917 Y94.919 E.82194
G1 X97.917 Y96.193 E.23865
G1 X95.367 Y93.643 E.67541
;LAYER_CHANGE
;Z:1.85
;HEIGHT:0.5
;BEFORE_LAYER_CHANGE
G92 E0
;1.85


G1 E-.7 F3600
;WIPE_START
G1 F6240
G1 X95.735 Y94.011 E-.285
;WIPE_END
G1 E-.015 F3600
G1 Z1.85 F7800
;AFTER_LAYER_CHANGE
;1.85
G1 X98.586 Y71.569
G1 E1 F2400
;TYPE:Perimeter
;WIDTH:1
G1 F900
G1 X98.586 Y99.229 E5.13294
G1 X87.719 Y79.615 E4.16109
G1 X83.96 Y71.569 E1.64806
M73 P25 R4
G1 X98.436 Y71.569 E2.68631
G1 X99.479 Y70.676 F7800
;TYPE:External perimeter
G1 F900
G1 X99.479 Y103.111 E6.01893
G1 X98.76 Y101.384 E.34717
M73 P26 R4
G1 X86.924 Y80.021 E4.53215
G1 X82.558 Y70.676 E1.914
G1 X99.329 Y70.676 E3.11221
G1 X99.174 Y71.629 F7800
M73 P27 R4
G1 E-.7 F3600
;WIPE_START
G1 F6240
G1 X99.332 Y71.196 E-.285
;WIPE_END
G1 E-.015 F3600
G1 X85.179 Y72.239 F7800
G1 E1 F2400
;TYPE:Internal infill
;WIDTH:0.842699
;HEIGHT:1
G1 F900
G1 X90.535 Y72.239 E1.24201
G1 X93.363 Y75.067 E.92737
G1 X97.917 Y75.067 E1.05601
G1 X97.917 Y86.61 E2.67669
G1 X93.363 Y86.61 E1.05601
G1 X92.718 Y87.255 E.21159
G1 X90.122 Y82.57 E1.24201
;LAYER_CHANGE
;Z:2.35
;HEIGHT:0.5
;BEFORE_LAYER_CHANGE
G92 E0
;2.35


G1 E-.7 F3600
;WIPE_START
G1 F6240
G1 X90.374 Y83.025 E-.285
;WIPE_END
G1 E-.015 F3600
G1 Z2.35 F7800
;AFTER_LAYER_CHANGE
;2.35
G1 X98.586 Y71.569
G1 E1 F2400
;TYPE:Perimeter
;WIDTH:1
M73 P28 R4
G1 F900
G1 X98.586 Y98.452 E4.98872
G1 X88.068 Y79.468 E4.02758
G1 X84.378 Y71.569 E1.61778
G1 X98.436 Y71.569 E2.6088
M73 P29 R4
G1 X99.479 Y70.676 F7800
;TYPE:External perimeter
G1 F900
G1 X99.479 Y101.945 E5.80247
G1 X99.402 Y101.767 E.03592
G1 X87.272 Y79.873 E4.64472
G1 X82.976 Y70.676 E1.88373
M73 P30 R4
G1 X99.329 Y70.676 E3.03469
G1 X99.176 Y71.629 F7800
G1 E-.7 F3600
;WIPE_START
G1 F6240
G1 X99.332 Y71.196 E-.285
;WIPE_END
G1 E-.015 F3600
G1 X90.535 Y72.239 F7800
G1 E1 F2400
;TYPE:Internal infill
;WIDTH:0.842699
;HEIGHT:1
G1 F900
G1 X93.009 Y74.713 E.81143
G1 X93.009 Y86.963 E2.84066
G1 X92.995 Y86.978 E.00479
;LAYER_CHANGE
;Z:2.85
;HEIGHT:0.5
;BEFORE_LAYER_CHANGE
G92 E0
;2.85


M73 P31 R4
G1 E-.7 F3600
;WIPE_START
G1 F6240
G1 X93.009 Y86.963 E-.01133
G1 X93.009 Y86.464 E-.27367
;WIPE_END
G1 E-.015 F3600
G1 Z2.85 F7800
;AFTER_LAYER_CHANGE
;2.85
G1 X98.586 Y71.569
G1 E1 F2400
;TYPE:Perimeter
;WIDTH:1
G1 F900
G1 X98.586 Y97.675 E4.84451
G1 X88.417 Y79.32 E3.89406
G1 X84.796 Y71.569 E1.58751
M73 P32 R4
G1 X98.436 Y71.569 E2.53128
G1 X99.479 Y70.676 F7800
;TYPE:External perimeter
G1 F900
G1 X99.479 Y101.128 E5.65099
G1 X87.621 Y79.725 E4.54059
G1 X83.394 Y70.676 E1.85346
M73 P33 R4
G1 X99.329 Y70.676 E2.95717
G1 X99.178 Y71.63 F7800
G1 E-.7 F3600
;WIPE_START
G1 F6240
G1 X99.332 Y71.196 E-.285
;WIPE_END
G1 E-.015 F3600
G1 X86.131 Y72.845 F7800
G1 E1 F2400
;TYPE:Internal infill
;WIDTH:0.842699
;HEIGHT:1
G1 F900
G1 X85.848 Y72.239 E.15512
G1 X90.535 Y72.239 E1.08689
G1 X92.656 Y74.359 E.69549
M73 P34 R4
G1 X97.917 Y74.359 E1.21997
G1 X97.917 Y87.317 E3.00462
G1 X93.613 Y87.317 E.99799
G1 X91.017 Y82.632 E1.24201
;LAYER_CHANGE
;Z:3.35
;HEIGHT:0.5
;BEFORE_LAYER_CHANGE
G92 E0
;3.35


G1 E-.7 F3600
;WIPE_START
G1 F6240
G1 X91.269 Y83.087 E-.285
;WIPE_END
G1 E-.015 F3600
G1 Z3.35 F7800
;AFTER_LAYER_CHANGE
;3.35
G1 X98.586 Y71.569
G1 E1 F2400
;TYPE:Perimeter
;WIDTH:1
G1 F900
G1 X98.586 Y96.898 E4.70029
G1 X88.766 Y79.172 E3.76054
M73 P35 R4
G1 X85.214 Y71.569 E1.55724
G1 X98.436 Y71.569 E2.45376
G1 X99.479 Y70.676 F7800
;TYPE:External perimeter
G1 F900
G1 X99.479 Y100.351 E5.50678
G1 X87.97 Y79.578 E4.40708
M73 P36 R4
G1 X83.811 Y70.676 E1.82319
G1 X99.329 Y70.676 E2.87965
G1 X99.18 Y71.63 F7800
M73 P37 R4
G1 E-.7 F3600
;WIPE_START
G1 F6240
G1 X99.332 Y71.196 E-.285
;WIPE_END
G1 E-.015 F3600
G1 X90.535 Y72.239 F7800
G1 E1 F2400
;TYPE:Internal infill
;WIDTH:0.842699
;HEIGHT:1
G1 F900
G1 X92.302 Y74.006 E.57955
G1 X92.302 Y84.174 E2.35777
;LAYER_CHANGE
;Z:3.85
;HEIGHT:0.5
;BEFORE_LAYER_CHANGE
G92 E0
;3.85


G1 E-.7 F3600
;WIPE_START
G1 F6240
G1 X92.302 Y83.654 E-.285
;WIPE_END
G1 E-.015 F3600
G1 Z3.85 F7800
;AFTER_LAYER_CHANGE
;3.85
G1 X98.586 Y71.569
G1 E1 F2400
;TYPE:Perimeter
;WIDTH:1
G1 F900
G1 X98.586 Y96.121 E4.55607
G1 X89.114 Y79.024 E3.62702
M73 P38 R4
G1 X85.631 Y71.569 E1.52697
G1 X98.436 Y71.569 E2.37624
G1 X99.479 Y70.676 F7800
;TYPE:External perimeter
G1 F900
G1 X99.479 Y99.574 E5.36256
G1 X88.318 Y79.43 E4.27356
M73 P39 R3
G1 X84.229 Y70.676 E1.79292
G1 X99.329 Y70.676 E2.80214
G1 X99.182 Y71.631 F7800
M73 P40 R3
G1 E-.7 F3600
;WIPE_START
G1 F6240
G1 X99.332 Y71.196 E-.285
;WIPE_END
G1 E-.015 F3600
G1 X87.32 Y73.602 F7800
G1 E1 F2400
;TYPE:Internal infill
;WIDTH:0.842699
;HEIGHT:1
G1 F900
G1 X86.683 Y72.239 E.34885
G1 X90.535 Y72.239 E.89316
G1 X91.949 Y73.652 E.4636
G1 X97.917 Y73.652 E1.38394
G1 X97.917 Y88.024 E3.33256
G1 X94.866 Y88.024 E.70747
G1 X92.27 Y83.339 E1.24201
;LAYER_CHANGE
;Z:4.35
;HEIGHT:0.5
;BEFORE_LAYER_CHANGE
G92 E0
;4.35


G1 E-.7 F3600
;WIPE_START
G1 F6240
G1 X92.522 Y83.794 E-.285
;WIPE_END
G1 E-.015 F3600
G1 Z4.35 F7800
;AFTER_LAYER_CHANGE
;4.35
G1 X98.586 Y71.569
G1 E1 F2400
;TYPE:Perimeter
;WIDTH:1
M73 P41 R3
G1 F900
G1 X98.586 Y95.344 E4.41186
G1 X89.543 Y79.022 E3.46266
G1 X86.049 Y71.569 E1.52747
G1 X98.436 Y71.569 E2.29872
G1 X99.479 Y70.676 F7800
;TYPE:External perimeter
M73 P42 R3
G1 F900
G1 X99.479 Y98.797 E5.21835
G1 X88.763 Y79.454 E4.10349
G1 X88.584 Y79.104 E.07306
G1 X84.647 Y70.676 E1.7261
G1 X99.329 Y70.676 E2.72462
M73 P43 R3
G1 X99.18 Y71.63 F7800
G1 E-.7 F3600
;WIPE_START
G1 F6240
G1 X99.332 Y71.196 E-.285
;WIPE_END
G1 E-.015 F3600
G1 X90.535 Y72.239 F7800
G1 E1 F2400
;TYPE:Internal infill
;WIDTH:0.842699
;HEIGHT:1
G1 F900
G1 X91.595 Y73.299 E.34766
G1 X91.595 Y81.343 E1.86537
;LAYER_CHANGE
;Z:4.85
;HEIGHT:0.5
;BEFORE_LAYER_CHANGE
G92 E0
;4.85


G1 E-.7 F3600
;WIPE_START
G1 F6240
G1 X91.595 Y80.823 E-.285
;WIPE_END
G1 E-.015 F3600
G1 Z4.85 F7800
;AFTER_LAYER_CHANGE
;4.85
G1 X98.586 Y71.569
G1 E1 F2400
;TYPE:Perimeter
;WIDTH:1
G1 F900
G1 X98.586 Y94.566 E4.26764
G1 X89.812 Y78.729 E3.35999
M73 P44 R3
G1 X86.467 Y71.569 E1.46643
G1 X98.436 Y71.569 E2.2212
G1 X99.479 Y70.676 F7800
;TYPE:External perimeter
G1 F900
G1 X99.479 Y98.02 E5.07413
G1 X89.016 Y79.134 E4.00652
M73 P45 R3
G1 X85.064 Y70.676 E1.73238
G1 X99.329 Y70.676 E2.6471
G1 X99.186 Y71.633 F7800
M73 P46 R3
G1 E-.7 F3600
;WIPE_START
G1 F6240
G1 X99.332 Y71.196 E-.285
;WIPE_END
