; generated by PrusaSlicer 2.5.0+win64 on 2022-12-07 at 00:08:46 UTC

; 

; external perimeters extrusion width = 1.00mm
; perimeters extrusion width = 1.00mm
; infill extrusion width = 1.00mm
; solid infill extrusion width = 1.00mm
; top infill extrusion width = 1.00mm
; support material extrusion width = 1.00mm
; first layer extrusion width = 0.42mm

M73 P0 R253
M107
;TYPE:Custom
G90 ; use absolute coordinates
M83 ; extruder relative mode
M140 S60 ; set final bed temp
M104 S150 ; set temporary nozzle temp to prevent oozing during homing and auto bed leveling
G4 S10 ; allow partial nozzle warmup
G28 ; home all axisG1 Z50 F240
G1 X7.6 Y10 F3000
M104 S210 ; set final nozzle temp
M190 S60 ; wait for bed temp to stabilize
M109 S210 ; wait for nozzle temp to stabilize
G1 Z0.28 F240
G92 E0
G1 Y140 E10 F1500 ; prime the nozzle
G1 X4 F5000
G92 E0
G1 Y10 E10 F1200 ; prime the nozzle
G92 E0
G21 ; set units to millimeters
G90 ; use absolute coordinates
M83 ; use relative distances for extrusion
; Filament gcode
M107
;LAYER_CHANGE
;Z:0.35
;HEIGHT:0.35
;BEFORE_LAYER_CHANGE
G92 E0
;0.35


G1 E-1 F3600
G1 Z.35 F7800
;AFTER_LAYER_CHANGE
;0.35
G1 X83.305 Y14.959
G1 E1 F2400
;TYPE:Support material interface
;WIDTH:1
G1 F1800
G1 X83.305 Y18.753 E.51067
G1 X84.197 Y18.753 E.12014
G1 X84.197 Y15.361 E.45661
G1 X85.09 Y15.361 E.12014
G1 X85.09 Y18.753 E.45661
G1 X85.983 Y18.753 E.12014
G1 X85.983 Y15.361 E.45661
G1 X86.876 Y15.361 E.12014
G1 X86.876 Y28.931 E1.82641
G1 X87.768 Y28.931 E.12014
G1 X87.768 Y15.361 E1.82641
G1 X88.661 Y15.361 E.12014
G1 X88.661 Y28.931 E1.82641
G1 X89.554 Y28.931 E.12014
G1 X89.554 Y15.361 E1.82641
G1 X90.446 Y15.361 E.12014
G1 X90.446 Y39.11 E3.19621
G1 X91.339 Y39.11 E.12014
G1 X91.339 Y15.361 E3.19621
G1 X92.232 Y15.361 E.12014
G1 X92.232 Y39.11 E3.19621
G1 X93.124 Y39.11 E.12014
G1 X93.124 Y15.361 E3.19621
G1 X94.017 Y15.361 E.12014
G1 X94.017 Y49.288 E4.56602
G1 X94.91 Y49.288 E.12014
G1 X94.91 Y15.361 E4.56602
G1 X95.802 Y15.361 E.12014
G1 X95.802 Y49.288 E4.56602
G1 X96.695 Y49.288 E.12014
G1 X96.695 Y15.361 E4.56602
G1 X97.588 Y15.361 E.12014
G1 X97.588 Y62.858 E6.39242
G1 X98.481 Y62.858 E.12014
G1 X98.481 Y15.361 E6.39242
G1 X99.373 Y15.361 E.12014
G1 X99.373 Y63.26 E6.44649
G1 E-.7 F3600
;WIPE_START
G1 F6240
G1 X99.373 Y62.74 E-.285
;WIPE_END
G1 E-.015 F3600
G1 X104.729 Y37.372 F7800
G1 E1 F2400
G1 F1800
G1 X104.729 Y35.717 E.22272
G1 X105.622 Y35.717 E.12014
G1 X105.622 Y36.502 E.10574
G1 E-.7 F3600
;WIPE_START
G1 F6240
G1 X105.622 Y35.982 E-.285
;WIPE_END
G1 E-.015 F3600
G1 X107.408 Y31.922 F7800
G1 E1 F2400
G1 F1800
G1 X107.408 Y34.204 E.307
G1 X108.3 Y33.334 E.16768
G1 X108.3 Y32.324 E.13597
G1 X109.193 Y32.324 E.12014
G1 X109.193 Y33.026 E.09445
G1 E-.7 F3600
;WIPE_START
G1 F6240
G1 X109.193 Y32.506 E-.285
;WIPE_END
G1 E-.015 F3600
G1 X110.978 Y28.53 F7800
G1 E1 F2400
G1 F1800
G1 X110.978 Y30.727 E.29571
G1 X111.871 Y29.858 E.16768
G1 X111.871 Y28.931 E.12467
G1 X112.764 Y28.931 E.12014
G1 X112.764 Y29.549 E.08316
G1 E-.7 F3600
;WIPE_START
G1 F6240
G1 X112.764 Y29.029 E-.285
;WIPE_END
G1 E-.015 F3600
G1 X114.549 Y27.811 F7800
G1 E1 F2400
G1 F1800
G1 X114.549 Y25.539 E.30581
G1 X115.442 Y25.539 E.12014
G1 X115.442 Y26.942 E.18884
G1 E-.7 F3600
;WIPE_START
G1 F6240
G1 X115.442 Y26.422 E-.285
;WIPE_END
G1 E-.015 F3600
G1 X85.558 Y14.704 F7800
G1 E1 F2400
;TYPE:Support material
;WIDTH:0.42
G1 F1800
G1 X82.558 Y14.704 E.15056
G1 X82.558 Y19.41 E.23616
G1 X85.951 Y19.41 E.17027
G1 X85.951 Y29.588 E.5108
G1 X89.344 Y29.588 E.17027
G1 X89.344 Y39.766 E.5108
G1 X92.736 Y39.766 E.17027
M73 P0 R252
G1 X92.736 Y49.944 E.5108
G1 X96.129 Y49.944 E.17027
G1 X96.129 Y63.515 E.68106
G1 X99.522 Y63.515 E.17027
G1 X99.522 Y73.693 E.5108
G1 X102.914 Y73.693 E.17027
G1 X102.914 Y83.871 E.5108
G1 X106.307 Y83.871 E.17027
G1 X106.307 Y94.049 E.5108
G1 X109.7 Y94.049 E.17027
G1 X109.7 Y104.227 E.5108
G1 X113.092 Y104.227 E.17027
G1 X113.092 Y114.405 E.5108
G1 X116.485 Y114.405 E.17027
G1 X116.485 Y124.583 E.5108
G1 X119.878 Y124.583 E.17027
G1 X119.878 Y134.762 E.5108
G1 X123.271 Y134.762 E.17027
G1 X123.271 Y144.94 E.5108
G1 X126.663 Y144.94 E.17027
G1 X126.663 Y158.51 E.68106
G1 X130.056 Y158.51 E.17027
G1 X130.056 Y165.296 E.34053
G1 X133.056 Y165.296 E.15056
G1 X133.056 Y167.876 E.12947
G1 X8.732 Y167.876 E6.23933
G1 X8.732 Y12.124 E7.81652
G1 X85.558 Y12.124 E3.85561
G1 X85.558 Y14.652 E.12687
G1 E-.7 F3600
;WIPE_START
G1 F6240
G1 X85.558 Y14.132 E-.285
;WIPE_END
G1 E-.015 F3600
G1 X132.536 Y167.72 F7800
G1 E1 F2400
G1 F1800
G1 X132.536 Y165.606 E.1061
G1 X132.153 Y165.606 E.01923
G1 X132.153 Y167.565 E.09831
G1 X131.77 Y167.565 E.01923
G1 X131.77 Y165.606 E.09831
G1 X131.387 Y165.606 E.01923
G1 X131.387 Y167.565 E.09831
G1 X131.003 Y167.565 E.01923
G1 X131.003 Y165.606 E.09831
G1 X130.62 Y165.606 E.01923
G1 X130.62 Y167.565 E.09831
G1 X130.237 Y167.565 E.01923
G1 X130.237 Y165.606 E.09831
G1 X129.854 Y165.606 E.01923
G1 X129.854 Y167.565 E.09831
G1 X129.471 Y167.565 E.01923
G1 X129.471 Y158.821 E.43885
G1 X129.087 Y158.821 E.01923
G1 X129.087 Y167.565 E.43885
G1 X128.704 Y167.565 E.01923
G1 X128.704 Y158.821 E.43885
G1 X128.321 Y158.821 E.01923
G1 X128.321 Y167.565 E.43885
G1 X127.938 Y167.565 E.01923
G1 X127.938 Y158.821 E.43885
G1 X127.555 Y158.821 E.01923
G1 X127.555 Y167.565 E.43885
G1 X127.171 Y167.565 E.01923
G1 X127.171 Y158.821 E.43885
G1 X126.788 Y158.821 E.01923
G1 X126.788 Y167.565 E.43885
G1 X126.405 Y167.565 E.01923
G1 X126.405 Y158.821 E.43885
G1 X126.353 Y158.821 E.00262
G1 X126.353 Y145.25 E.68106
G1 X126.022 Y145.25 E.01662
G1 X126.022 Y167.565 E1.11991
G1 X125.639 Y167.565 E.01923
G1 X125.639 Y145.25 E1.11991
G1 X125.255 Y145.25 E.01923
G1 X125.255 Y167.565 E1.11991
G1 X124.872 Y167.565 E.01923
G1 X124.872 Y145.25 E1.11991
G1 X124.489 Y145.25 E.01923
G1 X124.489 Y167.565 E1.11991
G1 X124.106 Y167.565 E.01923
G1 X124.106 Y145.25 E1.11991
G1 X123.722 Y145.25 E.01923
G1 X123.722 Y167.565 E1.11991
G1 X123.339 Y167.565 E.01923
G1 X123.339 Y145.25 E1.11991
G1 X122.96 Y145.25 E.01903
G1 X122.96 Y135.072 E.5108
G1 X122.956 Y167.565 E1.63071
G1 X122.573 Y167.565 E.01923
G1 X122.573 Y135.072 E1.63071
G1 X122.19 Y135.072 E.01923
G1 X122.19 Y167.565 E1.63071
G1 X121.806 Y167.565 E.01923
G1 X121.806 Y135.072 E1.63071
G1 X121.423 Y135.072 E.01923
G1 X121.423 Y167.565 E1.63071
G1 X121.04 Y167.565 E.01923
G1 X121.04 Y135.072 E1.63071
G1 X120.657 Y135.072 E.01923
G1 X120.657 Y167.565 E1.63071
G1 X120.274 Y167.565 E.01923
G1 X120.274 Y135.072 E1.63071
G1 X119.89 Y135.072 E.01923
G1 X119.89 Y167.565 E1.63071
G1 X119.507 Y167.565 E.01923
G1 X119.507 Y124.894 E2.1415
G1 X119.124 Y124.894 E.01923
G1 X119.124 Y167.565 E2.1415
G1 X118.741 Y167.565 E.01923
G1 X118.741 Y124.894 E2.1415
G1 X118.358 Y124.894 E.01923
G1 X118.358 Y167.565 E2.1415
G1 X117.974 Y167.565 E.01923
G1 X117.974 Y124.894 E2.1415
G1 X117.591 Y124.894 E.01923
G1 X117.591 Y167.565 E2.1415
G1 X117.208 Y167.565 E.01923
G1 X117.208 Y124.894 E2.1415
G1 X116.825 Y124.894 E.01923
G1 X116.825 Y167.565 E2.1415
G1 X116.441 Y167.565 E.01923
G1 X116.441 Y124.894 E2.1415
G1 X116.175 Y124.894 E.01339
G1 X116.175 Y114.716 E.5108
G1 X116.058 Y114.716 E.00584
G1 X116.058 Y167.565 E2.6523
G1 X115.675 Y167.565 E.01923
G1 X115.675 Y114.716 E2.6523
G1 X115.292 Y114.716 E.01923
G1 X115.292 Y167.565 E2.6523
G1 X114.909 Y167.565 E.01923
M73 P0 R251
G1 X114.909 Y114.716 E2.6523
G1 X114.525 Y114.716 E.01923
G1 X114.525 Y167.565 E2.6523
G1 X114.142 Y167.565 E.01923
G1 X114.142 Y114.716 E2.6523
G1 X113.759 Y114.716 E.01923
G1 X113.759 Y167.565 E2.6523
G1 X113.376 Y167.565 E.01923
G1 X113.376 Y114.716 E2.6523
G1 X112.993 Y114.716 E.01923
G1 X112.993 Y167.565 E2.6523
G1 X112.609 Y167.565 E.01923
G1 X112.609 Y104.538 E3.1631
G1 X112.226 Y104.538 E.01923
G1 X112.226 Y167.565 E3.1631
G1 X111.843 Y167.565 E.01923
G1 X111.843 Y104.538 E3.1631
G1 X111.46 Y104.538 E.01923
G1 X111.46 Y167.565 E3.1631
G1 X111.077 Y167.565 E.01923
G1 X111.077 Y104.538 E3.1631
G1 X110.693 Y104.538 E.01923
G1 X110.693 Y167.565 E3.1631
G1 X110.31 Y167.565 E.01923
G1 X110.31 Y104.538 E3.1631
G1 X109.927 Y104.538 E.01923
G1 X109.927 Y167.565 E3.1631
G1 X109.544 Y167.565 E.01923
G1 X109.544 Y104.538 E3.1631
G1 X109.389 Y104.538 E.00775
G1 X109.389 Y94.36 E.5108
G1 X109.16 Y94.36 E.01148
G1 X109.16 Y167.565 E3.67389
G1 X108.777 Y167.565 E.01923
G1 X108.777 Y94.36 E3.67389
G1 X108.394 Y94.36 E.01923
G1 X108.394 Y167.565 E3.67389
G1 X108.011 Y167.565 E.01923
G1 X108.011 Y94.36 E3.67389
G1 X107.628 Y94.36 E.01923
G1 X107.628 Y167.565 E3.67389
G1 X107.244 Y167.565 E.01923
G1 X107.244 Y94.36 E3.67389
G1 X106.861 Y94.36 E.01923
G1 X106.861 Y167.565 E3.67389
G1 X106.478 Y167.565 E.01923
G1 X106.478 Y94.36 E3.67389
G1 X106.095 Y94.36 E.01923
G1 X106.095 Y167.565 E3.67389
G1 X105.712 Y167.565 E.01923
G1 X105.712 Y84.181 E4.18469
G1 X105.328 Y84.181 E.01923
G1 X105.328 Y167.565 E4.18469
G1 X104.945 Y167.565 E.01923
M73 P1 R250
G1 X104.945 Y84.181 E4.18469
G1 X104.562 Y84.181 E.01923
G1 X104.562 Y167.565 E4.18469
G1 X104.179 Y167.565 E.01923
G1 X104.179 Y84.181 E4.18469
G1 X103.796 Y84.181 E.01923
G1 X103.796 Y167.565 E4.18469
G1 X103.412 Y167.565 E.01923
G1 X103.412 Y84.181 E4.18469
G1 X103.029 Y84.181 E.01923
G1 X103.029 Y167.565 E4.18469
G1 X102.646 Y167.565 E.01923
G1 X102.646 Y84.181 E4.18469
G1 X102.604 Y84.181 E.00211
G1 X102.604 Y74.003 E.5108
G1 X102.263 Y74.003 E.01712
G1 X102.263 Y167.565 E4.69549
G1 X101.879 Y167.565 E.01923
G1 X101.88 Y74.003 E4.69549
G1 X101.496 Y74.003 E.01923
G1 X101.496 Y167.565 E4.69549
G1 X101.113 Y167.565 E.01923
G1 X101.113 Y74.003 E4.69549
G1 X100.73 Y74.003 E.01923
G1 X100.73 Y167.565 E4.69549
G1 X100.347 Y167.565 E.01923
G1 X100.347 Y74.003 E4.69549
G1 X99.963 Y74.003 E.01923
G1 X99.963 Y167.565 E4.69549
G1 X99.58 Y167.565 E.01923
G1 X99.58 Y74.003 E4.69549
G1 X99.211 Y74.003 E.01852
G1 X99.211 Y63.825 E.5108
G1 X99.197 Y63.825 E.00071
G1 X99.197 Y167.565 E5.20629
G1 X98.814 Y167.565 E.01923
G1 X98.814 Y63.825 E5.20629
G1 X98.431 Y63.825 E.01923
G1 X98.431 Y167.565 E5.20629
G1 X98.047 Y167.565 E.01923
G1 X98.047 Y63.825 E5.20629
G1 X97.664 Y63.825 E.01923
M73 P1 R249
G1 X97.664 Y167.565 E5.20629
G1 X97.281 Y167.565 E.01923
G1 X97.281 Y63.825 E5.20629
G1 X96.898 Y63.825 E.01923
G1 X96.898 Y167.565 E5.20629
G1 X96.515 Y167.565 E.01923
G1 X96.515 Y63.825 E5.20629
G1 X96.131 Y63.825 E.01923
G1 X96.131 Y167.565 E5.20629
G1 X95.748 Y167.565 E.01923
G1 X95.748 Y50.254 E5.88735
G1 X95.365 Y50.254 E.01923
G1 X95.365 Y167.565 E5.88735
G1 X94.982 Y167.565 E.01923
G1 X94.982 Y50.254 E5.88735
G1 X94.599 Y50.254 E.01923
G1 X94.599 Y167.565 E5.88735
G1 X94.215 Y167.565 E.01923
G1 X94.215 Y50.254 E5.88735
G1 X93.832 Y50.254 E.01923
G1 X93.832 Y167.565 E5.88735
G1 X93.449 Y167.565 E.01923
G1 X93.449 Y50.254 E5.88735
G1 X93.066 Y50.254 E.01923
G1 X93.066 Y167.565 E5.88735
G1 X92.682 Y167.565 E.01923
G1 X92.682 Y50.254 E5.88735
G1 X92.426 Y50.254 E.01288
G1 X92.426 Y40.076 E.5108
G1 X92.299 Y40.076 E.00635
G1 X92.299 Y167.565 E6.39814
G1 X91.916 Y167.565 E.01923
G1 X91.916 Y40.076 E6.39814
G1 X91.533 Y40.076 E.01923
M73 P1 R248
G1 X91.533 Y167.565 E6.39814
G1 X91.15 Y167.565 E.01923
G1 X91.15 Y40.076 E6.39814
G1 X90.766 Y40.076 E.01923
G1 X90.766 Y167.565 E6.39814
G1 X90.383 Y167.565 E.01923
G1 X90.383 Y40.076 E6.39814
G1 X90 Y40.076 E.01923
G1 X90 Y167.565 E6.39814
G1 X89.617 Y167.565 E.01923
G1 X89.617 Y40.076 E6.39814
G1 X89.234 Y40.076 E.01923
G1 X89.234 Y167.565 E6.39814
G1 X88.85 Y167.565 E.01923
M73 P2 R248
G1 X88.85 Y29.898 E6.90894
G1 X88.467 Y29.898 E.01923
G1 X88.467 Y167.565 E6.90894
G1 X88.084 Y167.565 E.01923
G1 X88.084 Y29.898 E6.90894
G1 X87.701 Y29.898 E.01923
G1 X87.701 Y167.565 E6.90894
G1 X87.318 Y167.565 E.01923
G1 X87.318 Y29.898 E6.90894
G1 X86.934 Y29.898 E.01923
G1 X86.934 Y167.565 E6.90894
G1 X86.551 Y167.565 E.01923
M73 P2 R247
G1 X86.551 Y29.898 E6.90894
G1 X86.168 Y29.898 E.01923
G1 X86.168 Y167.565 E6.90894
G1 X85.785 Y167.565 E.01923
G1 X85.785 Y29.898 E6.90894
G1 X85.64 Y29.898 E.00724
G1 X85.64 Y19.72 E.5108
G1 X85.401 Y19.72 E.01199
G1 X85.401 Y167.565 E7.41974
G1 X85.018 Y167.565 E.01923
G1 X85.018 Y19.72 E7.41974
G1 X84.635 Y19.72 E.01923
G1 X84.635 Y167.565 E7.41974
G1 X84.252 Y167.565 E.01923
G1 X84.252 Y19.72 E7.41974
G1 X83.869 Y19.72 E.01923
G1 X83.869 Y167.565 E7.41974
G1 X83.485 Y167.565 E.01923
G1 X83.485 Y19.72 E7.41974
G1 X83.102 Y19.72 E.01923
G1 X83.102 Y167.565 E7.41974
G1 X82.719 Y167.565 E.01923
G1 X82.719 Y19.565 E7.42753
G1 E-.7 F3600
;WIPE_START
G1 F6240
G1 X82.719 Y20.085 E-.285
;WIPE_END
G1 E-.015 F3600
G1 X85.018 Y14.549 F7800
G1 E1 F2400
G1 F1800
G1 X85.018 Y12.435 E.1061
G1 X84.635 Y12.435 E.01923
G1 X84.635 Y14.394 E.09831
G1 X84.252 Y14.394 E.01923
G1 X84.252 Y12.435 E.09831
G1 X83.869 Y12.435 E.01923
G1 X83.869 Y14.394 E.09831
G1 X83.485 Y14.394 E.01923
G1 X83.485 Y12.435 E.09831
G1 X83.102 Y12.435 E.01923
G1 X83.102 Y14.394 E.09831
G1 X82.719 Y14.394 E.01923
G1 X82.719 Y12.435 E.09831
G1 X82.336 Y12.435 E.01923
G1 X82.336 Y167.565 E7.78536
G1 X81.953 Y167.565 E.01923
M73 P2 R246
G1 X81.953 Y12.435 E7.78536
G1 X81.569 Y12.435 E.01923
G1 X81.569 Y167.565 E7.78536
G1 X81.186 Y167.565 E.01923
G1 X81.186 Y12.435 E7.78536
G1 X80.803 Y12.435 E.01923
G1 X80.803 Y167.565 E7.78536
G1 X80.42 Y167.565 E.01923
G1 X80.42 Y12.435 E7.78536
G1 X80.037 Y12.435 E.01923
G1 X80.037 Y167.565 E7.78536
G1 X79.653 Y167.565 E.01923
G1 X79.653 Y12.435 E7.78536
G1 X79.27 Y12.435 E.01923
G1 X79.27 Y167.565 E7.78536
G1 X78.887 Y167.565 E.01923
G1 X78.887 Y12.435 E7.78536
G1 X78.504 Y12.435 E.01923
G1 X78.504 Y167.565 E7.78536
G1 X78.12 Y167.565 E.01923
G1 X78.12 Y12.435 E7.78536
G1 X77.737 Y12.435 E.01923
G1 X77.737 Y167.565 E7.78536
G1 X77.354 Y167.565 E.01923
M73 P3 R245
G1 X77.354 Y12.435 E7.78536
G1 X76.971 Y12.435 E.01923
G1 X76.971 Y167.565 E7.78536
G1 X76.588 Y167.565 E.01923
G1 X76.588 Y12.435 E7.78536
G1 X76.204 Y12.435 E.01923
G1 X76.204 Y167.565 E7.78536
G1 X75.821 Y167.565 E.01923
G1 X75.821 Y12.435 E7.78536
G1 X75.438 Y12.435 E.01923
G1 X75.438 Y167.565 E7.78536
G1 X75.055 Y167.565 E.01923
G1 X75.055 Y12.435 E7.78536
G1 X74.672 Y12.435 E.01923
G1 X74.672 Y167.565 E7.78536
G1 X74.288 Y167.565 E.01923
G1 X74.288 Y12.435 E7.78536
G1 X73.905 Y12.435 E.01923
G1 X73.905 Y167.565 E7.78536
G1 X73.522 Y167.565 E.01923
G1 X73.522 Y12.435 E7.78536
G1 X73.139 Y12.435 E.01923
M73 P3 R244
G1 X73.139 Y167.565 E7.78536
G1 X72.756 Y167.565 E.01923
G1 X72.756 Y12.435 E7.78536
G1 X72.372 Y12.435 E.01923
G1 X72.372 Y167.565 E7.78536
G1 X71.989 Y167.565 E.01923
G1 X71.989 Y12.435 E7.78536
G1 X71.606 Y12.435 E.01923
G1 X71.606 Y167.565 E7.78536
G1 X71.223 Y167.565 E.01923
G1 X71.223 Y12.435 E7.78536
G1 X70.84 Y12.435 E.01923
G1 X70.839 Y167.565 E7.78536
G1 X70.456 Y167.565 E.01923
G1 X70.456 Y12.435 E7.78536
G1 X70.073 Y12.435 E.01923
G1 X70.073 Y167.565 E7.78536
G1 X69.69 Y167.565 E.01923
G1 X69.69 Y12.435 E7.78536
G1 X69.307 Y12.435 E.01923
G1 X69.307 Y167.565 E7.78536
G1 X68.923 Y167.565 E.01923
M73 P3 R243
G1 X68.923 Y12.435 E7.78536
G1 X68.54 Y12.435 E.01923
G1 X68.54 Y167.565 E7.78536
G1 X68.157 Y167.565 E.01923
G1 X68.157 Y12.435 E7.78536
G1 X67.774 Y12.435 E.01923
G1 X67.774 Y167.565 E7.78536
G1 X67.391 Y167.565 E.01923
G1 X67.391 Y12.435 E7.78536
G1 X67.007 Y12.435 E.01923
G1 X67.007 Y167.565 E7.78536
G1 X66.624 Y167.565 E.01923
G1 X66.624 Y12.435 E7.78536
G1 X66.241 Y12.435 E.01923
M73 P4 R243
G1 X66.241 Y167.565 E7.78536
G1 X65.858 Y167.565 E.01923
G1 X65.858 Y12.435 E7.78536
G1 X65.475 Y12.435 E.01923
G1 X65.475 Y167.565 E7.78536
G1 X65.091 Y167.565 E.01923
G1 X65.091 Y12.435 E7.78536
G1 X64.708 Y12.435 E.01923
G1 X64.708 Y167.565 E7.78536
G1 X64.325 Y167.565 E.01923
M73 P4 R242
G1 X64.325 Y12.435 E7.78536
G1 X63.942 Y12.435 E.01923
G1 X63.942 Y167.565 E7.78536
G1 X63.558 Y167.565 E.01923
G1 X63.559 Y12.435 E7.78536
G1 X63.175 Y12.435 E.01923
G1 X63.175 Y167.565 E7.78536
G1 X62.792 Y167.565 E.01923
G1 X62.792 Y12.435 E7.78536
G1 X62.409 Y12.435 E.01923
G1 X62.409 Y167.565 E7.78536
G1 X62.026 Y167.565 E.01923
G1 X62.026 Y12.435 E7.78536
