; generated by PrusaSlicer 2.5.0+win64 on 2022-12-07 at 00:08:40 UTC

; 

; external perimeters extrusion width = 1.00mm
; perimeters extrusion width = 1.00mm
; infill extrusion width = 1.00mm
; solid infill extrusion width = 1.00mm
; top infill extrusion width = 1.00mm
; support material extrusion width = 1.00mm
; first layer extrusion width = 0.42mm

M73 P0 R194
M107
;TYPE:Custom
G90 ; use absolute coordinates
M83 ; extruder relative mode
M140 S60 ; set final bed temp
M104 S150 ; set temporary nozzle temp to prevent oozing during homing and auto bed leveling
G4 S10 ; allow partial nozzle warmup
G28 ; home all axisG1 Z50 F240
G1 X7.6 Y10 F3000
M104 S210 ; set final nozzle temp
M190 S60 ; wait for bed temp to stabilize
M109 S210 ; wait for nozzle temp to stabilize
G1 Z0.28 F240
G92 E0
G1 Y140 E10 F1500 ; prime the nozzle
G1 X4 F5000
G92 E0
G1 Y10 E10 F1200 ; prime the nozzle
G92 E0
G21 ; set units to millimeters
G90 ; use absolute coordinates
M83 ; use relative distances for extrusion
; Filament gcode
M107
;LAYER_CHANGE
;Z:0.35
;HEIGHT:0.35
;BEFORE_LAYER_CHANGE
G92 E0
;0.35


G1 E-1 F3600
G1 Z.35 F7800
;AFTER_LAYER_CHANGE
;0.35
G1 X43.133 Y21.744
G1 E1 F2400
;TYPE:Support material interface
;WIDTH:1
G1 F1800
G1 X43.133 Y45.895 E3.25028
G1 X44.026 Y45.895 E.12014
G1 X44.026 Y22.146 E3.19621
G1 X44.919 Y22.146 E.12014
G1 X44.919 Y45.895 E3.19621
G1 X45.811 Y45.895 E.12014
G1 X45.811 Y22.146 E3.19621
G1 X45.895 Y22.146 E.01124
G1 X45.895 Y15.361 E.9132
G1 X46.704 Y15.361 E.1089
G1 X46.704 Y59.466 E5.93582
G1 X47.597 Y59.466 E.12014
G1 X47.597 Y15.361 E5.93582
G1 X48.489 Y15.361 E.12014
G1 X48.489 Y59.867 E5.98989
G1 E-.7 F3600
;WIPE_START
G1 F6240
G1 X48.489 Y59.347 E-.285
;WIPE_END
G1 E-.015 F3600
G1 X115.442 Y34.367 F7800
G1 E1 F2400
G1 F1800
G1 X115.442 Y28.931 E.7315
G1 X114.549 Y28.931 E.12014
G1 X114.549 Y38.185 E1.24534
G1 E-.7 F3600
;WIPE_START
G1 F6240
G1 X114.549 Y37.665 E-.285
;WIPE_END
G1 E-.015 F3600
G1 X110.978 Y42.101 F7800
G1 E1 F2400
G1 F1800
G1 X110.978 Y51.693 E1.29093
G1 X111.871 Y47.874 E.52771
G1 X111.871 Y42.502 E.72302
G1 X112.764 Y42.502 E.12014
G1 X112.764 Y45.821 E.44664
G1 E-.7 F3600
;WIPE_START
G1 F6240
G1 X112.764 Y45.301 E-.285
;WIPE_END
G1 E-.015 F3600
G1 X107.408 Y55.671 F7800
G1 E1 F2400
G1 F1800
G1 X107.408 Y66.965 E1.51992
G1 X108.3 Y63.147 E.52771
G1 X108.3 Y56.073 E.95201
G1 X109.193 Y56.073 E.12014
G1 X109.193 Y61.093 E.67563
G1 E-.7 F3600
;WIPE_START
G1 F6240
G1 X109.193 Y60.573 E-.285
;WIPE_END
G1 E-.015 F3600
G1 X103.837 Y72.635 F7800
G1 E1 F2400
G1 F1800
G1 X103.837 Y82.237 E1.29231
G1 X104.729 Y78.419 E.52771
G1 X104.729 Y73.037 E.7244
G1 X105.622 Y73.037 E.12014
G1 X105.622 Y76.365 E.44802
G1 E-.7 F3600
;WIPE_START
G1 F6240
G1 X105.622 Y75.845 E-.285
;WIPE_END
G1 E-.015 F3600
G1 X100.266 Y86.206 F7800
G1 E1 F2400
G1 F1800
G1 X100.266 Y97.509 E1.5213
G1 X101.159 Y93.691 E.52771
G1 X101.159 Y86.607 E.95339
G1 X102.051 Y86.607 E.12014
G1 X102.051 Y91.638 E.67701
G1 E-.7 F3600
;WIPE_START
G1 F6240
G1 X102.051 Y91.118 E-.285
;WIPE_END
G1 E-.015 F3600
G1 X97.588 Y99.776 F7800
G1 E1 F2400
G1 F1800
G1 X97.588 Y108.964 E1.23644
G1 X98.481 Y105.146 E.52771
G1 X98.481 Y100.178 E.66853
G1 X99.373 Y100.178 E.12014
G1 X99.373 Y103.092 E.39215
G1 E-.7 F3600
;WIPE_START
M73 P0 R193
G1 F6240
G1 X99.373 Y102.572 E-.285
;WIPE_END
G1 E-.015 F3600
G1 X94.017 Y113.347 F7800
G1 E1 F2400
G1 F1800
G1 X94.017 Y123.927 E1.42387
G1 X94.91 Y123.927 E.12014
G1 X94.91 Y113.749 E1.36981
G1 X95.802 Y113.749 E.12014
G1 X95.802 Y116.6 E.38367
G1 X95.475 Y117.734 E.15885
G1 X95.328 Y119.064 E.18012
G1 X95.175 Y119.662 E.08308
G1 X95.175 Y120.031 E.0497
G1 X95.802 Y122.424 E.33295
G1 X95.802 Y124.329 E.25631
G1 E-.7 F3600
;WIPE_START
G1 F6240
G1 X95.802 Y123.809 E-.285
;WIPE_END
G1 E-.015 F3600
G1 X97.588 Y127.653 F7800
G1 E1 F2400
G1 F1800
G1 X97.588 Y137.498 E1.32494
G1 X98.481 Y137.498 E.12014
G1 X98.481 Y132.645 E.65315
G1 X99.373 Y136.052 E.47398
G1 X99.373 Y137.9 E.24871
G1 E-.7 F3600
;WIPE_START
G1 F6240
G1 X99.373 Y137.38 E-.285
;WIPE_END
G1 E-.015 F3600
G1 X100.266 Y151.47 F7800
G1 E1 F2400
G1 F1800
G1 X100.266 Y139.458 E1.61662
G1 X101.159 Y142.865 E.47398
G1 X101.159 Y151.069 E1.10406
G1 X102.051 Y151.069 E.12014
G1 X102.051 Y146.272 E.64556
G1 X102.944 Y149.679 E.47398
G1 X102.944 Y151.47 E.24112
G1 E-.7 F3600
;WIPE_START
G1 F6240
G1 X102.944 Y150.95 E-.285
;WIPE_END
G1 E-.015 F3600
G1 X85.983 Y144.685 F7800
G1 E1 F2400
G1 F1800
G1 X85.983 Y113.749 E4.16348
G1 X85.09 Y113.749 E.12014
G1 X85.09 Y144.283 E4.10942
G1 X84.197 Y144.283 E.12014
G1 X84.197 Y113.749 E4.10942
G1 X83.305 Y113.749 E.12014
G1 X83.305 Y144.283 E4.10942
G1 X83.215 Y144.283 E.01213
G1 X83.215 Y130.712 E1.82641
G1 X82.412 Y130.712 E.10801
G1 X82.412 Y103.571 E3.65281
G1 X81.519 Y103.571 E.12014
G1 X81.519 Y130.712 E3.65281
G1 X80.627 Y130.712 E.12014
G1 X80.627 Y103.571 E3.65281
G1 X79.822 Y103.571 E.1083
G1 X79.822 Y90 E1.82641
G1 X79.734 Y90 E.01184
G1 X79.734 Y117.142 E3.65281
G1 X78.841 Y117.142 E.12014
G1 X78.841 Y90 E3.65281
G1 X77.949 Y90 E.12014
G1 X77.949 Y117.142 E3.65281
G1 X77.056 Y117.142 E.12014
G1 X77.056 Y89.598 E3.70688
G1 E-.7 F3600
;WIPE_START
G1 F6240
G1 X77.056 Y90.118 E-.285
;WIPE_END
G1 E-.015 F3600
G1 X66.343 Y76.027 F7800
G1 E1 F2400
G1 F1800
G1 X66.343 Y79.822 E.51067
G1 X67.236 Y79.822 E.12014
G1 X67.236 Y76.429 E.45661
G1 X68.129 Y76.429 E.12014
G1 X68.129 Y79.822 E.45661
G1 X69.022 Y79.822 E.12014
G1 X69.022 Y76.429 E.45661
G1 X69.644 Y76.429 E.08375
G1 X69.644 Y62.858 E1.82641
G1 X69.914 Y62.858 E.0364
G1 X69.914 Y93.393 E4.10942
G1 X70.807 Y93.393 E.12014
G1 X70.807 Y62.858 E4.10942
G1 X71.7 Y62.858 E.12014
G1 X71.7 Y93.393 E4.10942
G1 X72.592 Y93.393 E.12014
G1 X72.592 Y62.858 E4.10942
G1 X73.036 Y62.858 E.05978
G1 X73.036 Y45.895 E2.28301
G1 X73.485 Y45.895 E.06037
G1 X73.485 Y103.571 E7.76223
G1 X74.378 Y103.571 E.12014
G1 X74.378 Y45.895 E7.76223
G1 X75.27 Y45.895 E.12014
G1 X75.27 Y103.571 E7.76223
G1 X76.163 Y103.571 E.12014
G1 X76.163 Y45.895 E7.76223
G1 X76.429 Y45.895 E.03581
G1 X76.429 Y32.324 E1.82641
G1 X77.056 Y32.324 E.08433
G1 X77.056 Y62.858 E4.10942
G1 X77.949 Y62.858 E.12014
G1 X77.949 Y32.324 E4.10942
G1 X78.841 Y32.324 E.12014
G1 X78.841 Y62.858 E4.10942
G1 X79.734 Y62.858 E.12014
G1 X79.734 Y15.361 E6.39242
G1 X80.627 Y15.361 E.12014
G1 X80.627 Y49.288 E4.56602
G1 X81.519 Y49.288 E.12014
G1 X81.519 Y15.361 E4.56602
G1 X82.412 Y15.361 E.12014
G1 X82.412 Y49.288 E4.56602
G1 X83.215 Y49.288 E.10802
G1 X83.215 Y35.717 E1.82641
G1 X83.305 Y35.717 E.01213
G1 X83.305 Y15.361 E2.73961
G1 X84.197 Y15.361 E.12014
G1 X84.197 Y35.717 E2.73961
G1 X85.09 Y35.717 E.12014
G1 X85.09 Y15.361 E2.73961
G1 X85.983 Y15.361 E.12014
G1 X85.983 Y35.717 E2.73961
G1 X86.607 Y35.717 E.08405
G1 X86.607 Y22.146 E1.82641
G1 X86.876 Y22.146 E.03609
G1 X86.876 Y15.361 E.91321
G1 X87.768 Y15.361 E.12014
G1 X87.768 Y22.146 E.91321
G1 X88.661 Y22.146 E.12014
G1 X88.661 Y15.361 E.91321
G1 X89.554 Y15.361 E.12014
G1 X89.554 Y22.146 E.91321
G1 X90.446 Y22.146 E.12014
G1 X90.446 Y15.361 E.91321
G1 X91.339 Y15.361 E.12014
G1 X91.339 Y22.146 E.91321
G1 X92.232 Y22.146 E.12014
G1 X92.232 Y15.361 E.91321
G1 X93.124 Y15.361 E.12014
G1 X93.124 Y22.146 E.91321
G1 X94.017 Y22.146 E.12014
G1 X94.017 Y15.361 E.91321
G1 X94.91 Y15.361 E.12014
G1 X94.91 Y22.146 E.91321
G1 X95.802 Y22.146 E.12014
G1 X95.802 Y15.361 E.91321
G1 X96.695 Y15.361 E.12014
G1 X96.695 Y22.146 E.91321
G1 X97.588 Y22.146 E.12014
G1 X97.588 Y15.361 E.91321
G1 X98.481 Y15.361 E.12014
G1 X98.481 Y22.146 E.91321
G1 X99.373 Y22.146 E.12014
G1 X99.373 Y15.361 E.91321
G1 X100.266 Y15.361 E.12014
G1 X100.266 Y22.146 E.91321
G1 X101.159 Y22.146 E.12014
G1 X101.159 Y15.361 E.91321
G1 X102.051 Y15.361 E.12014
G1 X102.051 Y22.146 E.91321
G1 X102.944 Y22.146 E.12014
G1 X102.944 Y15.361 E.91321
G1 X103.837 Y15.361 E.12014
G1 X103.837 Y22.146 E.91321
G1 X104.729 Y22.146 E.12014
G1 X104.729 Y15.361 E.91321
G1 X105.622 Y15.361 E.12014
G1 X105.622 Y22.146 E.91321
G1 X106.515 Y22.146 E.12014
G1 X106.515 Y15.361 E.91321
G1 X107.408 Y15.361 E.12014
G1 X107.408 Y22.146 E.91321
G1 X108.3 Y22.146 E.12014
G1 X108.3 Y15.361 E.91321
G1 X109.193 Y15.361 E.12014
G1 X109.193 Y22.146 E.91321
G1 X110.086 Y22.146 E.12014
G1 X110.086 Y15.361 E.91321
G1 X110.978 Y15.361 E.12014
G1 X110.978 Y22.146 E.91321
G1 X111.871 Y22.146 E.12014
G1 X111.871 Y15.361 E.91321
G1 X112.764 Y15.361 E.12014
G1 X112.764 Y22.146 E.91321
G1 X113.656 Y22.146 E.12014
G1 X113.656 Y15.361 E.91321
G1 X114.549 Y15.361 E.12014
G1 X114.549 Y22.146 E.91321
G1 X115.442 Y22.146 E.12014
G1 X115.442 Y15.361 E.91321
G1 X116.335 Y15.361 E.12014
G1 X116.335 Y22.146 E.91321
G1 X117.142 Y22.146 E.10861
G1 X117.142 Y25.333 E.42886
G1 X117.227 Y24.966 E.05066
G1 X117.227 Y15.361 E1.29273
G1 X118.12 Y15.361 E.12014
G1 X118.12 Y21.148 E.77888
G1 X119.013 Y17.33 E.52771
G1 X119.013 Y15.361 E.26504
G1 X119.905 Y15.361 E.12014
G1 X119.905 Y15.787 E.05742
G1 X120.042 Y15.679 E.02345
G1 X120.798 Y15.679 E.10177
G1 X120.798 Y15.361 E.04285
G1 X121.691 Y15.361 E.12014
G1 X121.691 Y15.679 E.04285
G1 X122.583 Y15.679 E.12014
G1 X122.583 Y15.361 E.04285
G1 X123.476 Y15.361 E.12014
G1 X123.476 Y15.679 E.04285
G1 X124.369 Y15.679 E.12014
G1 X124.369 Y15.361 E.04285
G1 X125.262 Y15.361 E.12014
G1 X125.262 Y15.679 E.04285
G1 X126.154 Y15.679 E.12014
G1 X126.154 Y15.361 E.04285
G1 X127.047 Y15.361 E.12014
G1 X127.047 Y15.679 E.04285
G1 X127.94 Y15.679 E.12014
G1 X127.94 Y15.361 E.04285
G1 X128.832 Y15.361 E.12014
G1 X128.832 Y15.679 E.04285
G1 X129.725 Y15.679 E.12014
G1 X129.725 Y15.361 E.04285
G1 X130.618 Y15.361 E.12014
G1 X130.618 Y15.679 E.04285
G1 X131.51 Y15.679 E.12014
G1 X131.51 Y15.361 E.04285
G1 X132.403 Y15.361 E.12014
G1 X132.403 Y15.679 E.04285
G1 X133.296 Y15.679 E.12014
G1 X133.296 Y15.361 E.04285
G1 X134.189 Y15.361 E.12014
G1 X134.189 Y15.679 E.04285
G1 X135.081 Y15.679 E.12014
G1 X135.081 Y15.361 E.04285
G1 X135.974 Y15.361 E.12014
G1 X135.974 Y15.679 E.04285
G1 X136.867 Y15.679 E.12014
G1 X136.867 Y15.361 E.04285
G1 X137.759 Y15.361 E.12014
G1 X137.759 Y15.679 E.04285
G1 X138.652 Y15.679 E.12014
G1 X138.652 Y15.361 E.04285
G1 X139.545 Y15.361 E.12014
G1 X139.545 Y15.679 E.04285
G1 X140.437 Y15.679 E.12014
G1 X140.437 Y15.361 E.04285
G1 X141.33 Y15.361 E.12014
G1 X141.33 Y15.679 E.04285
G1 X142.223 Y15.679 E.12014
G1 X142.223 Y15.361 E.04285
G1 X143.116 Y15.361 E.12014
G1 X143.116 Y15.679 E.04285
G1 X144.008 Y15.679 E.12014
G1 X144.008 Y15.361 E.04285
G1 X144.901 Y15.361 E.12014
G1 X144.901 Y15.679 E.04285
G1 X145.794 Y15.679 E.12014
G1 X145.794 Y15.361 E.04285
M73 P0 R192
G1 X146.686 Y15.361 E.12014
G1 X146.686 Y15.679 E.04285
G1 X147.579 Y15.679 E.12014
G1 X147.579 Y15.361 E.04285
G1 X148.472 Y15.361 E.12014
G1 X148.472 Y15.679 E.04285
G1 X149.364 Y15.679 E.12014
G1 X149.364 Y15.361 E.04285
G1 X150.257 Y15.361 E.12014
G1 X150.257 Y15.679 E.04285
G1 X151.15 Y15.679 E.12014
G1 X151.15 Y15.361 E.04285
G1 X152.043 Y15.361 E.12014
G1 X152.043 Y15.679 E.04285
G1 X152.935 Y15.679 E.12014
G1 X152.935 Y15.361 E.04285
G1 X153.828 Y15.361 E.12014
G1 X153.828 Y15.679 E.04285
G1 X154.721 Y15.679 E.12014
G1 X154.721 Y15.361 E.04285
G1 X155.613 Y15.361 E.12014
G1 X155.613 Y15.679 E.04285
G1 X156.318 Y15.679 E.09483
G1 X156.506 Y15.679 E.02531
G1 X156.506 Y15.361 E.04285
G1 X157.399 Y15.361 E.12014
G1 X157.399 Y16.081 E.09691
G1 E-.7 F3600
;WIPE_START
G1 F6240
G1 X157.399 Y15.561 E-.285
;WIPE_END
G1 E-.015 F3600
G1 X123.476 Y165.041 F7800
G1 E1 F2400
G1 F1800
G1 X123.476 Y164.321 E.09691
G1 X122.583 Y164.321 E.12014
G1 X122.583 Y164.639 E.04285
G1 X121.691 Y164.639 E.12014
G1 X121.691 Y164.321 E.04285
G1 X120.798 Y164.321 E.12014
G1 X120.798 Y164.639 E.04285
G1 X119.905 Y164.639 E.12014
G1 X119.905 Y164.321 E.04285
G1 X119.013 Y164.321 E.12014
G1 X119.013 Y164.639 E.04285
G1 X118.12 Y164.639 E.12014
G1 X118.12 Y164.321 E.04285
G1 X117.227 Y164.321 E.12014
G1 X117.227 Y164.639 E.04285
G1 X116.335 Y164.639 E.12014
G1 X116.335 Y164.321 E.04285
G1 X115.442 Y164.321 E.12014
G1 X115.442 Y164.639 E.04285
G1 X114.549 Y164.639 E.12014
G1 X114.549 Y164.321 E.04285
G1 X113.656 Y164.321 E.12014
G1 X113.656 Y164.639 E.04285
G1 X112.764 Y164.639 E.12014
G1 X112.764 Y164.321 E.04285
G1 X111.871 Y164.321 E.12014
G1 X111.871 Y164.639 E.04285
G1 X110.978 Y164.639 E.12014
G1 X110.978 Y164.321 E.04285
G1 X110.086 Y164.321 E.12014
G1 X110.086 Y164.639 E.04285
G1 X109.193 Y164.639 E.12014
G1 X109.193 Y164.321 E.04285
G1 X108.3 Y164.321 E.12014
G1 X108.3 Y164.639 E.04285
G1 X107.408 Y164.639 E.12014
G1 X107.408 Y164.321 E.04285
G1 X106.623 Y163.718 E.13315
G1 X106.515 Y163.306 E.05739
G1 X106.515 Y164.639 E.17946
G1 X105.622 Y164.639 E.12014
G1 X105.622 Y159.899 E.63796
G1 X104.729 Y156.492 E.47398
G1 X104.729 Y164.639 E1.09646
G1 X103.837 Y164.639 E.12014
G1 X103.837 Y153.086 E1.55496
G1 X103.571 Y152.07 E.14123
G1 X103.571 Y157.854 E.77838
G1 X102.944 Y157.854 E.08434
G1 X102.944 Y164.639 E.91321
G1 X102.051 Y164.639 E.12014
G1 X102.051 Y157.854 E.91321
G1 X101.159 Y157.854 E.12014
G1 X101.159 Y164.639 E.91321
G1 X100.266 Y164.639 E.12014
G1 X100.266 Y157.854 E.91321
G1 X99.373 Y157.854 E.12014
G1 X99.373 Y164.639 E.91321
G1 X98.481 Y164.639 E.12014
G1 X98.481 Y157.854 E.91321
G1 X97.588 Y157.854 E.12014
G1 X97.588 Y164.639 E.91321
G1 X96.695 Y164.639 E.12014
G1 X96.695 Y154.461 E1.36981
G1 X95.802 Y154.461 E.12014
G1 X95.802 Y164.639 E1.36981
G1 X94.91 Y164.639 E.12014
G1 X94.91 Y154.461 E1.36981
G1 X94.017 Y154.461 E.12014
G1 X94.017 Y164.639 E1.36981
G1 X93.124 Y164.639 E.12014
G1 X93.124 Y140.89 E3.19621
G1 X92.232 Y140.89 E.12014
G1 X92.232 Y164.639 E3.19621
G1 X91.339 Y164.639 E.12014
G1 X91.339 Y140.89 E3.19621
G1 X90.446 Y140.89 E.12014
G1 X90.446 Y164.639 E3.19621
G1 X89.554 Y164.639 E.12014
G1 X89.554 Y127.32 E5.02262
G1 X88.661 Y127.32 E.12014
G1 X88.661 Y164.639 E5.02262
G1 X87.768 Y164.639 E.12014
G1 X87.768 Y127.32 E5.02262
G1 X86.875 Y127.32 E.12014
G1 X86.875 Y164.639 E5.02262
G1 X85.983 Y164.639 E.12014
G1 X85.983 Y157.854 E.91321
G1 X85.09 Y157.854 E.12014
G1 X85.09 Y164.639 E.91321
G1 X84.197 Y164.639 E.12014
G1 X84.197 Y157.854 E.91321
G1 X83.305 Y157.854 E.12014
G1 X83.305 Y164.639 E.91321
G1 X82.412 Y164.639 E.12014
G1 X82.412 Y157.854 E.91321
G1 X81.519 Y157.854 E.12014
G1 X81.519 Y164.639 E.91321
G1 X80.627 Y164.639 E.12014
G1 X80.627 Y157.854 E.91321
G1 X79.734 Y157.854 E.12014
G1 X79.734 Y164.639 E.91321
G1 X78.841 Y164.639 E.12014
G1 X78.841 Y157.854 E.91321
G1 X77.949 Y157.854 E.12014
G1 X77.949 Y164.639 E.91321
G1 X77.056 Y164.639 E.12014
G1 X77.056 Y157.854 E.91321
G1 X76.163 Y157.854 E.12014
G1 X76.163 Y164.639 E.91321
G1 X75.27 Y164.639 E.12014
G1 X75.27 Y157.854 E.91321
G1 X74.378 Y157.854 E.12014
G1 X74.378 Y164.639 E.91321
G1 X73.485 Y164.639 E.12014
G1 X73.485 Y157.854 E.91321
G1 X72.592 Y157.854 E.12014
G1 X72.592 Y164.639 E.91321
G1 X71.7 Y164.639 E.12014
G1 X71.7 Y157.854 E.91321
G1 X70.807 Y157.854 E.12014
G1 X70.807 Y164.639 E.91321
G1 X69.914 Y164.639 E.12014
G1 X69.914 Y157.854 E.91321
G1 X69.022 Y157.854 E.12014
G1 X69.022 Y164.639 E.91321
G1 X68.129 Y164.639 E.12014
G1 X68.129 Y157.854 E.91321
G1 X67.236 Y157.854 E.12014
G1 X67.236 Y164.639 E.91321
G1 X66.343 Y164.639 E.12014
G1 X66.343 Y157.854 E.91321
G1 X65.451 Y157.854 E.12014
G1 X65.451 Y164.639 E.91321
G1 X64.558 Y164.639 E.12014
G1 X64.558 Y157.854 E.91321
G1 X63.665 Y157.854 E.12014
G1 X63.665 Y164.639 E.91321
G1 X62.773 Y164.639 E.12014
M73 P1 R192
G1 X62.773 Y157.854 E.91321
G1 X61.88 Y157.854 E.12014
G1 X61.88 Y164.639 E.91321
G1 X60.987 Y164.639 E.12014
G1 X60.987 Y157.854 E.91321
G1 X60.095 Y157.854 E.12014
G1 X60.095 Y164.639 E.91321
G1 X59.202 Y164.639 E.12014
G1 X59.202 Y157.854 E.91321
G1 X58.309 Y157.854 E.12014
G1 X58.309 Y164.639 E.91321
G1 X57.416 Y164.639 E.12014
G1 X57.416 Y157.854 E.91321
G1 X56.524 Y157.854 E.12014
G1 X56.524 Y164.639 E.91321
G1 X55.631 Y164.639 E.12014
G1 X55.631 Y157.854 E.91321
G1 X54.738 Y157.854 E.12014
G1 X54.738 Y164.639 E.91321
G1 X53.846 Y164.639 E.12014
G1 X53.846 Y157.854 E.91321
