; generated by PrusaSlicer 2.5.0+win64 on 2022-12-07 at 00:08:53 UTC

; 

; external perimeters extrusion width = 1.00mm
; perimeters extrusion width = 1.00mm
; infill extrusion width = 1.00mm
; solid infill extrusion width = 1.00mm
; top infill extrusion width = 1.00mm
; support material extrusion width = 1.00mm
; first layer extrusion width = 0.42mm

M73 P0 R187
M107
;TYPE:Custom
G90 ; use absolute coordinates
M83 ; extruder relative mode
M140 S60 ; set final bed temp
M104 S150 ; set temporary nozzle temp to prevent oozing during homing and auto bed leveling
G4 S10 ; allow partial nozzle warmup
G28 ; home all axisG1 Z50 F240
G1 X7.6 Y10 F3000
M104 S210 ; set final nozzle temp
M190 S60 ; wait for bed temp to stabilize
M109 S210 ; wait for nozzle temp to stabilize
G1 Z0.28 F240
G92 E0
G1 Y140 E10 F1500 ; prime the nozzle
G1 X4 F5000
G92 E0
G1 Y10 E10 F1200 ; prime the nozzle
G92 E0
G21 ; set units to millimeters
G90 ; use absolute coordinates
M83 ; use relative distances for extrusion
; Filament gcode
M107
;LAYER_CHANGE
;Z:0.35
;HEIGHT:0.35
;BEFORE_LAYER_CHANGE
G92 E0
;0.35


G1 E-1 F3600
G1 Z.35 F7800
;AFTER_LAYER_CHANGE
;0.35
G1 X14.528 Y139.066
G1 E1 F2400
;TYPE:Perimeter
;WIDTH:0.42
G1 F1800
G1 X14.528 Y123.675 E.7724
G1 X165.474 Y122.797 E7.5755
G1 X165.474 Y138.193 E.77265
M73 P0 R186
G1 X14.678 Y139.065 E7.56797
G1 X14.183 Y139.413 F7800
;TYPE:External perimeter
G1 F1800
G1 X14.183 Y123.332 E.80702
G1 X165.819 Y122.45 E7.61011
G1 X165.819 Y138.536 E.80726
G1 X14.333 Y139.412 E7.60258
G1 X14.65 Y138.529 F7800
G1 E-.7 F3600
;WIPE_START
G1 F6240
G1 X14.328 Y138.892 E-.285
;WIPE_END
G1 E-.015 F3600
G1 X164.677 Y122.905 F7800
G1 E1 F2400
;TYPE:Solid infill
;WIDTH:0.420124
G1 F1800
G1 X165.215 Y123.443 E.03821
G1 X165.215 Y123.931 E.0245
G1 X164.347 Y123.062 E.06169
G1 X163.861 Y123.065 E.02435
G1 X165.215 Y124.419 E.09613
G1 X165.215 Y124.907 E.0245
G1 X163.376 Y123.068 E.13058
G1 X162.891 Y123.071 E.02435
G1 X165.215 Y125.395 E.16502
G1 X165.215 Y125.883 E.0245
G1 X162.406 Y123.073 E.19946
G1 X161.921 Y123.076 E.02435
G1 X165.215 Y126.371 E.2339
G1 X165.215 Y126.859 E.0245
G1 X161.436 Y123.079 E.26834
G1 X160.951 Y123.082 E.02435
G1 X165.215 Y127.347 E.30278
G1 X165.215 Y127.834 E.0245
G1 X160.466 Y123.085 E.33723
G1 X159.981 Y123.088 E.02435
G1 X165.215 Y128.322 E.37167
G1 X165.215 Y128.81 E.0245
G1 X159.496 Y123.09 E.40611
G1 X159.01 Y123.093 E.02435
G1 X165.215 Y129.298 E.44055
G1 X165.215 Y129.786 E.0245
G1 X158.525 Y123.096 E.47499
G1 X158.04 Y123.099 E.02435
G1 X165.215 Y130.274 E.50943
G1 X165.215 Y130.762 E.0245
G1 X157.555 Y123.102 E.54387
G1 X157.07 Y123.104 E.02435
G1 X165.215 Y131.25 E.57832
G1 X165.215 Y131.738 E.0245
G1 X156.585 Y123.107 E.61276
G1 X156.1 Y123.11 E.02435
G1 X165.215 Y132.226 E.6472
G1 X165.215 Y132.714 E.0245
G1 X155.615 Y123.113 E.68164
G1 X155.13 Y123.116 E.02435
G1 X165.215 Y133.202 E.71608
G1 X165.215 Y133.69 E.0245
G1 X154.645 Y123.119 E.75052
G1 X154.159 Y123.121 E.02435
G1 X165.215 Y134.177 E.78497
G1 X165.215 Y134.665 E.0245
G1 X153.674 Y123.124 E.81941
G1 X153.189 Y123.127 E.02435
G1 X165.215 Y135.153 E.85385
G1 X165.215 Y135.641 E.0245
G1 X152.704 Y123.13 E.88829
G1 X152.219 Y123.133 E.02435
G1 X165.215 Y136.129 E.92273
G1 X165.215 Y136.617 E.0245
G1 X151.734 Y123.136 E.95717
G1 X151.249 Y123.138 E.02435
G1 X165.215 Y137.105 E.99162
G1 X165.215 Y137.593 E.0245
G1 X150.764 Y123.141 E1.02606
G1 X150.279 Y123.144 E.02435
G1 X165.071 Y137.936 E1.05024
G1 X164.586 Y137.939 E.02436
G1 X149.794 Y123.147 E1.05024
G1 X149.308 Y123.15 E.02435
G1 X164.101 Y137.942 E1.05024
G1 X163.616 Y137.945 E.02436
G1 X148.823 Y123.152 E1.05023
G1 X148.338 Y123.155 E.02435
G1 X163.13 Y137.948 E1.05023
G1 X162.645 Y137.95 E.02436
G1 X147.853 Y123.158 E1.05023
G1 X147.368 Y123.161 E.02435
G1 X162.16 Y137.953 E1.05023
G1 X161.675 Y137.956 E.02436
G1 X146.883 Y123.164 E1.05023
G1 X146.398 Y123.167 E.02435
G1 X161.19 Y137.959 E1.05023
G1 X160.705 Y137.962 E.02436
G1 X145.913 Y123.169 E1.05023
G1 X145.428 Y123.172 E.02435
G1 X160.22 Y137.964 E1.05023
G1 X159.735 Y137.967 E.02436
G1 X144.943 Y123.175 E1.05023
G1 X144.457 Y123.178 E.02435
G1 X159.25 Y137.97 E1.05022
G1 X158.764 Y137.973 E.02436
G1 X143.972 Y123.181 E1.05022
G1 X143.487 Y123.184 E.02435
G1 X158.279 Y137.976 E1.05022
G1 X157.794 Y137.978 E.02436
G1 X143.002 Y123.186 E1.05022
G1 X142.517 Y123.189 E.02435
G1 X157.309 Y137.981 E1.05022
G1 X156.824 Y137.984 E.02436
G1 X142.032 Y123.192 E1.05022
G1 X141.547 Y123.195 E.02435
G1 X156.339 Y137.987 E1.05022
G1 X155.854 Y137.99 E.02436
G1 X141.062 Y123.198 E1.05022
G1 X140.577 Y123.2 E.02435
G1 X155.369 Y137.992 E1.05022
G1 X154.884 Y137.995 E.02436
G1 X140.092 Y123.203 E1.05021
G1 X139.606 Y123.206 E.02435
G1 X154.398 Y137.998 E1.05021
G1 X153.913 Y138.001 E.02436
G1 X139.121 Y123.209 E1.05021
G1 X138.636 Y123.212 E.02435
G1 X153.428 Y138.004 E1.05021
G1 X152.943 Y138.006 E.02436
G1 X138.151 Y123.215 E1.05021
G1 X137.666 Y123.217 E.02435
G1 X152.458 Y138.009 E1.05021
G1 X151.973 Y138.012 E.02436
G1 X137.181 Y123.22 E1.05021
G1 X136.696 Y123.223 E.02435
G1 X151.488 Y138.015 E1.05021
G1 X151.003 Y138.018 E.02436
G1 X136.211 Y123.226 E1.05021
G1 X135.726 Y123.229 E.02435
G1 X150.518 Y138.021 E1.0502
G1 X150.032 Y138.023 E.02436
G1 X135.241 Y123.232 E1.0502
G1 X134.755 Y123.234 E.02435
G1 X149.547 Y138.026 E1.0502
G1 X149.062 Y138.029 E.02436
G1 X134.27 Y123.237 E1.0502
G1 X133.785 Y123.24 E.02435
G1 X148.577 Y138.032 E1.0502
G1 X148.092 Y138.035 E.02436
M73 P0 R185
G1 X133.3 Y123.243 E1.0502
G1 X132.815 Y123.246 E.02435
G1 X147.607 Y138.037 E1.0502
G1 X147.122 Y138.04 E.02436
G1 X132.33 Y123.248 E1.0502
G1 X131.845 Y123.251 E.02435
G1 X146.637 Y138.043 E1.0502
G1 X146.151 Y138.046 E.02436
G1 X131.36 Y123.254 E1.05019
G1 X130.875 Y123.257 E.02435
G1 X145.666 Y138.049 E1.05019
G1 X145.181 Y138.051 E.02436
G1 X130.39 Y123.26 E1.05019
G1 X129.905 Y123.263 E.02435
G1 X144.696 Y138.054 E1.05019
G1 X144.211 Y138.057 E.02436
G1 X129.419 Y123.265 E1.05019
G1 X128.934 Y123.268 E.02435
G1 X143.726 Y138.06 E1.05019
G1 X143.241 Y138.063 E.02436
G1 X128.449 Y123.271 E1.05019
G1 X127.964 Y123.274 E.02435
G1 X142.756 Y138.065 E1.05019
G1 X142.271 Y138.068 E.02436
G1 X127.479 Y123.277 E1.05019
G1 X126.994 Y123.28 E.02435
G1 X141.785 Y138.071 E1.05018
G1 X141.3 Y138.074 E.02436
G1 X126.509 Y123.282 E1.05018
G1 X126.024 Y123.285 E.02435
G1 X140.815 Y138.077 E1.05018
G1 X140.33 Y138.079 E.02436
G1 X125.539 Y123.288 E1.05018
G1 X125.054 Y123.291 E.02435
G1 X139.845 Y138.082 E1.05018
G1 X139.36 Y138.085 E.02436
G1 X124.568 Y123.294 E1.05018
G1 X124.083 Y123.296 E.02435
G1 X138.875 Y138.088 E1.05018
G1 X138.39 Y138.091 E.02436
G1 X123.598 Y123.299 E1.05018
G1 X123.113 Y123.302 E.02435
G1 X137.905 Y138.094 E1.05018
G1 X137.419 Y138.096 E.02436
G1 X122.628 Y123.305 E1.05017
G1 X122.143 Y123.308 E.02435
G1 X136.934 Y138.099 E1.05017
G1 X136.449 Y138.102 E.02436
G1 X121.658 Y123.311 E1.05017
G1 X121.173 Y123.313 E.02435
G1 X135.964 Y138.105 E1.05017
G1 X135.479 Y138.108 E.02436
G1 X120.688 Y123.316 E1.05017
G1 X120.203 Y123.319 E.02435
G1 X134.994 Y138.11 E1.05017
G1 X134.509 Y138.113 E.02436
G1 X119.717 Y123.322 E1.05017
G1 X119.232 Y123.325 E.02435
G1 X134.024 Y138.116 E1.05017
G1 X133.538 Y138.119 E.02436
G1 X118.747 Y123.328 E1.05017
G1 X118.262 Y123.33 E.02435
G1 X133.053 Y138.122 E1.05016
G1 X132.568 Y138.124 E.02436
G1 X117.777 Y123.333 E1.05016
G1 X117.292 Y123.336 E.02435
G1 X132.083 Y138.127 E1.05016
G1 X131.598 Y138.13 E.02436
G1 X116.807 Y123.339 E1.05016
G1 X116.322 Y123.342 E.02435
G1 X131.113 Y138.133 E1.05016
G1 X130.628 Y138.136 E.02436
G1 X115.837 Y123.344 E1.05016
G1 X115.352 Y123.347 E.02435
G1 X130.143 Y138.138 E1.05016
G1 X129.658 Y138.141 E.02436
G1 X114.866 Y123.35 E1.05016
G1 X114.381 Y123.353 E.02435
G1 X129.172 Y138.144 E1.05016
G1 X128.687 Y138.147 E.02436
G1 X113.896 Y123.356 E1.05015
G1 X113.411 Y123.359 E.02435
G1 X128.202 Y138.15 E1.05015
G1 X127.717 Y138.152 E.02436
G1 X112.926 Y123.361 E1.05015
G1 X112.441 Y123.364 E.02435
G1 X127.232 Y138.155 E1.05015
G1 X126.747 Y138.158 E.02436
G1 X111.956 Y123.367 E1.05015
G1 X111.471 Y123.37 E.02435
G1 X126.262 Y138.161 E1.05015
G1 X125.777 Y138.164 E.02436
G1 X110.986 Y123.373 E1.05015
G1 X110.501 Y123.376 E.02435
M73 P1 R185
G1 X125.292 Y138.167 E1.05015
G1 X124.806 Y138.169 E.02436
G1 X110.015 Y123.378 E1.05015
G1 X109.53 Y123.381 E.02435
G1 X124.321 Y138.172 E1.05014
G1 X123.836 Y138.175 E.02436
G1 X109.045 Y123.384 E1.05014
G1 X108.56 Y123.387 E.02435
G1 X123.351 Y138.178 E1.05014
G1 X122.866 Y138.181 E.02436
G1 X108.075 Y123.39 E1.05014
G1 X107.59 Y123.392 E.02435
G1 X122.381 Y138.183 E1.05014
G1 X121.896 Y138.186 E.02436
G1 X107.105 Y123.395 E1.05014
G1 X106.62 Y123.398 E.02435
G1 X121.411 Y138.189 E1.05014
G1 X120.926 Y138.192 E.02436
G1 X106.135 Y123.401 E1.05014
G1 X105.65 Y123.404 E.02435
G1 X120.44 Y138.195 E1.05014
G1 X119.955 Y138.197 E.02436
G1 X105.164 Y123.407 E1.05013
G1 X104.679 Y123.409 E.02435
G1 X119.47 Y138.2 E1.05013
G1 X118.985 Y138.203 E.02436
G1 X104.194 Y123.412 E1.05013
G1 X103.709 Y123.415 E.02435
G1 X118.5 Y138.206 E1.05013
G1 X118.015 Y138.209 E.02436
G1 X103.224 Y123.418 E1.05013
G1 X102.739 Y123.421 E.02435
G1 X117.53 Y138.211 E1.05013
G1 X117.045 Y138.214 E.02436
G1 X102.254 Y123.423 E1.05013
G1 X101.769 Y123.426 E.02435
G1 X116.559 Y138.217 E1.05013
G1 X116.074 Y138.22 E.02436
G1 X101.284 Y123.429 E1.05013
G1 X100.799 Y123.432 E.02435
G1 X115.589 Y138.223 E1.05013
G1 X115.104 Y138.225 E.02436
G1 X100.313 Y123.435 E1.05012
G1 X99.828 Y123.438 E.02435
G1 X114.619 Y138.228 E1.05012
G1 X114.134 Y138.231 E.02436
G1 X99.343 Y123.44 E1.05012
G1 X98.858 Y123.443 E.02435
G1 X113.649 Y138.234 E1.05012
G1 X113.164 Y138.237 E.02436
G1 X98.373 Y123.446 E1.05012
G1 X97.888 Y123.449 E.02435
G1 X112.679 Y138.239 E1.05012
G1 X112.193 Y138.242 E.02436
G1 X97.403 Y123.452 E1.05012
G1 X96.918 Y123.455 E.02435
G1 X111.708 Y138.245 E1.05012
G1 X111.223 Y138.248 E.02436
G1 X96.433 Y123.457 E1.05011
G1 X95.948 Y123.46 E.02435
G1 X110.738 Y138.251 E1.05011
G1 X110.253 Y138.254 E.02436
G1 X95.462 Y123.463 E1.05011
G1 X94.977 Y123.466 E.02435
M73 P1 R184
G1 X109.768 Y138.256 E1.05011
G1 X109.283 Y138.259 E.02436
G1 X94.492 Y123.469 E1.05011
G1 X94.007 Y123.471 E.02435
G1 X108.798 Y138.262 E1.05011
G1 X108.313 Y138.265 E.02436
G1 X93.522 Y123.474 E1.05011
G1 X93.037 Y123.477 E.02435
G1 X107.827 Y138.268 E1.05011
G1 X107.342 Y138.27 E.02436
G1 X92.552 Y123.48 E1.05011
G1 X92.067 Y123.483 E.02435
G1 X106.857 Y138.273 E1.05011
G1 X106.372 Y138.276 E.02436
G1 X91.582 Y123.486 E1.0501
G1 X91.097 Y123.488 E.02435
G1 X105.887 Y138.279 E1.0501
G1 X105.402 Y138.282 E.02436
G1 X90.611 Y123.491 E1.0501
G1 X90.126 Y123.494 E.02435
G1 X104.917 Y138.284 E1.0501
G1 X104.432 Y138.287 E.02436
G1 X89.641 Y123.497 E1.0501
G1 X89.156 Y123.5 E.02435
G1 X103.947 Y138.29 E1.0501
G1 X103.461 Y138.293 E.02436
G1 X88.671 Y123.503 E1.0501
G1 X88.186 Y123.505 E.02435
G1 X102.976 Y138.296 E1.0501
G1 X102.491 Y138.298 E.02436
G1 X87.701 Y123.508 E1.0501
G1 X87.216 Y123.511 E.02435
G1 X102.006 Y138.301 E1.05009
G1 X101.521 Y138.304 E.02436
G1 X86.731 Y123.514 E1.05009
G1 X86.246 Y123.517 E.02435
G1 X101.036 Y138.307 E1.05009
G1 X100.551 Y138.31 E.02436
G1 X85.76 Y123.519 E1.05009
G1 X85.275 Y123.522 E.02435
G1 X100.066 Y138.312 E1.05009
G1 X99.58 Y138.315 E.02436
G1 X84.79 Y123.525 E1.05009
G1 X84.305 Y123.528 E.02435
G1 X99.095 Y138.318 E1.05009
G1 X98.61 Y138.321 E.02436
G1 X83.82 Y123.531 E1.05009
G1 X83.335 Y123.534 E.02435
G1 X98.125 Y138.324 E1.05009
G1 X97.64 Y138.327 E.02436
G1 X82.85 Y123.536 E1.05008
G1 X82.365 Y123.539 E.02435
G1 X97.155 Y138.329 E1.05008
G1 X96.67 Y138.332 E.02436
G1 X81.88 Y123.542 E1.05008
G1 X81.395 Y123.545 E.02435
G1 X96.185 Y138.335 E1.05008
G1 X95.7 Y138.338 E.02436
G1 X80.91 Y123.548 E1.05008
G1 X80.424 Y123.551 E.02435
G1 X95.214 Y138.341 E1.05008
G1 X94.729 Y138.343 E.02436
G1 X79.939 Y123.553 E1.05008
G1 X79.454 Y123.556 E.02435
G1 X94.244 Y138.346 E1.05008
G1 X93.759 Y138.349 E.02436
G1 X78.969 Y123.559 E1.05008
G1 X78.484 Y123.562 E.02435
G1 X93.274 Y138.352 E1.05007
G1 X92.789 Y138.355 E.02436
G1 X77.999 Y123.565 E1.05007
G1 X77.514 Y123.567 E.02435
G1 X92.304 Y138.357 E1.05007
G1 X91.819 Y138.36 E.02436
G1 X77.029 Y123.57 E1.05007
G1 X76.544 Y123.573 E.02435
G1 X91.334 Y138.363 E1.05007
G1 X90.848 Y138.366 E.02436
G1 X76.059 Y123.576 E1.05007
G1 X75.573 Y123.579 E.02435
G1 X90.363 Y138.369 E1.05007
G1 X89.878 Y138.371 E.02436
G1 X75.088 Y123.582 E1.05007
G1 X74.603 Y123.584 E.02435
G1 X89.393 Y138.374 E1.05007
G1 X88.908 Y138.377 E.02436
G1 X74.118 Y123.587 E1.05006
G1 X73.633 Y123.59 E.02435
G1 X88.423 Y138.38 E1.05006
G1 X87.938 Y138.383 E.02436
G1 X73.148 Y123.593 E1.05006
G1 X72.663 Y123.596 E.02435
G1 X87.453 Y138.385 E1.05006
G1 X86.967 Y138.388 E.02436
G1 X72.178 Y123.599 E1.05006
G1 X71.693 Y123.601 E.02435
G1 X86.482 Y138.391 E1.05006
G1 X85.997 Y138.394 E.02436
G1 X71.208 Y123.604 E1.05006
G1 X70.722 Y123.607 E.02435
G1 X85.512 Y138.397 E1.05006
G1 X85.027 Y138.4 E.02436
G1 X70.237 Y123.61 E1.05006
G1 X69.752 Y123.613 E.02435
G1 X84.542 Y138.402 E1.05005
G1 X84.057 Y138.405 E.02436
G1 X69.267 Y123.615 E1.05005
G1 X68.782 Y123.618 E.02435
G1 X83.572 Y138.408 E1.05005
G1 X83.087 Y138.411 E.02436
G1 X68.297 Y123.621 E1.05005
G1 X67.812 Y123.624 E.02435
G1 X82.601 Y138.414 E1.05005
G1 X82.116 Y138.416 E.02436
G1 X67.327 Y123.627 E1.05005
G1 X66.842 Y123.63 E.02435
G1 X81.631 Y138.419 E1.05005
G1 X81.146 Y138.422 E.02436
G1 X66.357 Y123.632 E1.05005
G1 X65.871 Y123.635 E.02435
G1 X80.661 Y138.425 E1.05005
G1 X80.176 Y138.428 E.02436
G1 X65.386 Y123.638 E1.05004
G1 X64.901 Y123.641 E.02435
G1 X79.691 Y138.43 E1.05004
G1 X79.206 Y138.433 E.02436
G1 X64.416 Y123.644 E1.05004
G1 X63.931 Y123.647 E.02435
G1 X78.721 Y138.436 E1.05004
G1 X78.235 Y138.439 E.02436
G1 X63.446 Y123.649 E1.05004
G1 X62.961 Y123.652 E.02435
G1 X77.75 Y138.442 E1.05004
G1 X77.265 Y138.444 E.02436
G1 X62.476 Y123.655 E1.05004
G1 X61.991 Y123.658 E.02435
G1 X76.78 Y138.447 E1.05004
G1 X76.295 Y138.45 E.02436
G1 X61.506 Y123.661 E1.05004
G1 X61.02 Y123.663 E.02435
G1 X75.81 Y138.453 E1.05003
G1 X75.325 Y138.456 E.02436
G1 X60.535 Y123.666 E1.05003
G1 X60.05 Y123.669 E.02435
G1 X74.84 Y138.458 E1.05003
G1 X74.355 Y138.461 E.02436
G1 X59.565 Y123.672 E1.05003
G1 X59.08 Y123.675 E.02435
G1 X73.869 Y138.464 E1.05003
G1 X73.384 Y138.467 E.02436
G1 X58.595 Y123.678 E1.05003
G1 X58.11 Y123.68 E.02435
G1 X72.899 Y138.47 E1.05003
G1 X72.414 Y138.473 E.02436
G1 X57.625 Y123.683 E1.05003
G1 X57.14 Y123.686 E.02435
G1 X71.929 Y138.475 E1.05003
G1 X71.444 Y138.478 E.02436
M73 P1 R183
G1 X56.655 Y123.689 E1.05002
G1 X56.169 Y123.692 E.02435
G1 X70.959 Y138.481 E1.05002
G1 X70.474 Y138.484 E.02436
G1 X55.684 Y123.695 E1.05002
G1 X55.199 Y123.697 E.02435
G1 X69.988 Y138.487 E1.05002
G1 X69.503 Y138.489 E.02436
G1 X54.714 Y123.7 E1.05002
G1 X54.229 Y123.703 E.02435
G1 X69.018 Y138.492 E1.05002
G1 X68.533 Y138.495 E.02436
G1 X53.744 Y123.706 E1.05002
G1 X53.259 Y123.709 E.02435
G1 X68.048 Y138.498 E1.05002
G1 X67.563 Y138.501 E.02436
G1 X52.774 Y123.711 E1.05002
G1 X52.289 Y123.714 E.02435
G1 X67.078 Y138.503 E1.05001
G1 X66.593 Y138.506 E.02436
G1 X51.804 Y123.717 E1.05001
G1 X51.318 Y123.72 E.02435
G1 X66.108 Y138.509 E1.05001
G1 X65.622 Y138.512 E.02436
G1 X50.833 Y123.723 E1.05001
G1 X50.348 Y123.726 E.02435
G1 X65.137 Y138.515 E1.05001
G1 X64.652 Y138.517 E.02436
G1 X49.863 Y123.728 E1.05001
G1 X49.378 Y123.731 E.02435
G1 X64.167 Y138.52 E1.05001
G1 X63.682 Y138.523 E.02436
G1 X48.893 Y123.734 E1.05001
G1 X48.408 Y123.737 E.02435
G1 X63.197 Y138.526 E1.05001
G1 X62.712 Y138.529 E.02436
G1 X47.923 Y123.74 E1.05
G1 X47.438 Y123.742 E.02435
G1 X62.227 Y138.531 E1.05
G1 X61.742 Y138.534 E.02436
G1 X46.953 Y123.745 E1.05
G1 X46.467 Y123.748 E.02435
G1 X61.256 Y138.537 E1.05
G1 X60.771 Y138.54 E.02436
G1 X45.982 Y123.751 E1.05
G1 X45.497 Y123.754 E.02435
G1 X60.286 Y138.543 E1.05
G1 X59.801 Y138.546 E.02436
G1 X45.012 Y123.757 E1.05
