; generated by PrusaSlicer 2.5.0+win64 on 2022-12-07 at 00:08:57 UTC

; 

; external perimeters extrusion width = 1.00mm
; perimeters extrusion width = 1.00mm
; infill extrusion width = 1.00mm
; solid infill extrusion width = 1.00mm
; top infill extrusion width = 1.00mm
; support material extrusion width = 1.00mm
; first layer extrusion width = 0.42mm

M73 P0 R193
M107
;TYPE:Custom
G90 ; use absolute coordinates
M83 ; extruder relative mode
M140 S60 ; set final bed temp
M104 S150 ; set temporary nozzle temp to prevent oozing during homing and auto bed leveling
G4 S10 ; allow partial nozzle warmup
G28 ; home all axisG1 Z50 F240
G1 X7.6 Y10 F3000
M104 S210 ; set final nozzle temp
M190 S60 ; wait for bed temp to stabilize
M109 S210 ; wait for nozzle temp to stabilize
G1 Z0.28 F240
G92 E0
G1 Y140 E10 F1500 ; prime the nozzle
G1 X4 F5000
G92 E0
M73 P0 R192
G1 Y10 E10 F1200 ; prime the nozzle
G92 E0
G21 ; set units to millimeters
G90 ; use absolute coordinates
M83 ; use relative distances for extrusion
; Filament gcode
M107
;LAYER_CHANGE
;Z:0.35
;HEIGHT:0.35
;BEFORE_LAYER_CHANGE
G92 E0
;0.35


G1 E-1 F3600
G1 Z.35 F7800
;AFTER_LAYER_CHANGE
;0.35
G1 X165.475 Y81.69
G1 E1 F2400
;TYPE:Perimeter
;WIDTH:0.42
G1 F1800
G1 X14.527 Y91.392 E7.5911
G1 X14.527 Y76.47 E.74891
G1 X165.475 Y66.765 E7.59112
G1 X165.475 Y81.54 E.74148
G1 X165.82 Y82.013 F7800
;TYPE:External perimeter
G1 F1800
G1 X14.182 Y91.76 E7.62579
G1 X14.182 Y76.146 E.7836
G1 X165.82 Y66.397 E7.6258
G1 X165.82 Y81.863 E.77617
G1 X164.82 Y82.043 F7800
G1 E-.7 F3600
;WIPE_START
G1 F6240
G1 X165.301 Y81.897 E-.285
;WIPE_END
G1 E-.015 F3600
G1 X165.372 Y67.572 F7800
G1 E1 F2400
;TYPE:Solid infill
;WIDTH:0.420232
G1 F1800
G1 X164.863 Y67.063 E.0361
G1 X164.405 Y67.093 E.02308
G1 X165.216 Y67.905 E.05765
G1 X165.216 Y68.393 E.02451
G1 X163.946 Y67.122 E.09022
G1 X163.488 Y67.152 E.02308
G1 X165.216 Y68.881 E.12279
G1 X165.216 Y69.369 E.02451
G1 X163.029 Y67.181 E.15536
G1 X162.57 Y67.211 E.02308
G1 X165.216 Y69.857 E.18793
G1 X165.216 Y70.345 E.02451
G1 X162.112 Y67.24 E.2205
G1 X161.653 Y67.27 E.02308
G1 X165.216 Y70.833 E.25307
G1 X165.216 Y71.321 E.02451
G1 X161.195 Y67.299 E.28564
G1 X160.736 Y67.329 E.02308
G1 X165.216 Y71.809 E.31821
G1 X165.216 Y72.297 E.02451
G1 X160.277 Y67.358 E.35078
G1 X159.819 Y67.388 E.02308
G1 X165.216 Y72.785 E.38335
G1 X165.216 Y73.273 E.02451
G1 X159.36 Y67.417 E.41592
G1 X158.902 Y67.447 E.02308
G1 X165.216 Y73.762 E.44849
G1 X165.216 Y74.25 E.02451
G1 X158.443 Y67.476 E.48106
G1 X157.984 Y67.506 E.02308
G1 X165.216 Y74.738 E.51363
G1 X165.216 Y75.226 E.02451
G1 X157.526 Y67.535 E.5462
G1 X157.067 Y67.565 E.02308
G1 X165.216 Y75.714 E.57877
G1 X165.216 Y76.202 E.02451
G1 X156.609 Y67.594 E.61134
G1 X156.15 Y67.624 E.02308
G1 X165.216 Y76.69 E.64391
G1 X165.216 Y77.178 E.02451
G1 X155.691 Y67.653 E.67648
G1 X155.233 Y67.683 E.02308
G1 X165.216 Y77.666 E.70905
G1 X165.216 Y78.154 E.02451
G1 X154.774 Y67.712 E.74162
G1 X154.316 Y67.742 E.02308
G1 X165.216 Y78.642 E.77419
G1 X165.216 Y79.13 E.02451
G1 X153.857 Y67.771 E.80676
G1 X153.399 Y67.801 E.02308
G1 X165.216 Y79.618 E.83932
G1 X165.216 Y80.107 E.02451
G1 X152.94 Y67.83 E.87189
G1 X152.481 Y67.859 E.02308
G1 X165.216 Y80.595 E.90446
G1 X165.216 Y81.083 E.02451
G1 X152.023 Y67.889 E.93703
G1 X151.564 Y67.918 E.02308
G1 X165.1 Y81.455 E.96135
G1 X164.642 Y81.484 E.02308
G1 X151.106 Y67.948 E.96135
G1 X150.647 Y67.977 E.02308
G1 X164.183 Y81.513 E.96135
G1 X163.724 Y81.543 E.02308
G1 X150.188 Y68.007 E.96135
G1 X149.73 Y68.036 E.02308
G1 X163.266 Y81.572 E.96135
G1 X162.807 Y81.602 E.02308
G1 X149.271 Y68.066 E.96135
G1 X148.813 Y68.095 E.02308
G1 X162.349 Y81.631 E.96135
G1 X161.89 Y81.661 E.02308
G1 X148.354 Y68.125 E.96135
G1 X147.895 Y68.154 E.02308
G1 X161.431 Y81.69 E.96135
G1 X160.973 Y81.72 E.02308
G1 X147.437 Y68.184 E.96135
G1 X146.978 Y68.213 E.02308
G1 X160.514 Y81.749 E.96135
G1 X160.056 Y81.779 E.02308
G1 X146.52 Y68.243 E.96134
G1 X146.061 Y68.272 E.02308
G1 X159.597 Y81.808 E.96134
G1 X159.138 Y81.838 E.02308
G1 X145.602 Y68.302 E.96134
G1 X145.144 Y68.331 E.02308
G1 X158.68 Y81.867 E.96134
G1 X158.221 Y81.897 E.02308
G1 X144.685 Y68.361 E.96134
G1 X144.227 Y68.39 E.02308
G1 X157.763 Y81.926 E.96134
G1 X157.304 Y81.956 E.02308
G1 X143.768 Y68.42 E.96134
G1 X143.31 Y68.449 E.02308
G1 X156.845 Y81.985 E.96134
G1 X156.387 Y82.015 E.02308
G1 X142.851 Y68.479 E.96134
G1 X142.392 Y68.508 E.02308
M73 P0 R191
G1 X155.928 Y82.044 E.96134
G1 X155.47 Y82.074 E.02308
G1 X141.934 Y68.538 E.96134
G1 X141.475 Y68.567 E.02308
G1 X155.011 Y82.103 E.96134
G1 X154.552 Y82.133 E.02308
G1 X141.017 Y68.597 E.96134
G1 X140.558 Y68.626 E.02308
G1 X154.094 Y82.162 E.96134
G1 X153.635 Y82.191 E.02308
G1 X140.099 Y68.656 E.96134
G1 X139.641 Y68.685 E.02308
G1 X153.177 Y82.221 E.96134
G1 X152.718 Y82.25 E.02308
G1 X139.182 Y68.715 E.96134
G1 X138.724 Y68.744 E.02308
G1 X152.26 Y82.28 E.96134
G1 X151.801 Y82.309 E.02308
G1 X138.265 Y68.773 E.96134
G1 X137.806 Y68.803 E.02308
G1 X151.342 Y82.339 E.96134
G1 X150.884 Y82.368 E.02308
G1 X137.348 Y68.832 E.96134
G1 X136.889 Y68.862 E.02308
G1 X150.425 Y82.398 E.96134
G1 X149.967 Y82.427 E.02308
G1 X136.431 Y68.891 E.96134
G1 X135.972 Y68.921 E.02308
G1 X149.508 Y82.457 E.96134
G1 X149.049 Y82.486 E.02308
G1 X135.513 Y68.95 E.96134
G1 X135.055 Y68.98 E.02308
G1 X148.591 Y82.516 E.96134
G1 X148.132 Y82.545 E.02308
G1 X134.596 Y69.009 E.96133
G1 X134.138 Y69.039 E.02308
G1 X147.674 Y82.575 E.96133
G1 X147.215 Y82.604 E.02308
G1 X133.679 Y69.068 E.96133
G1 X133.22 Y69.098 E.02308
G1 X146.756 Y82.634 E.96133
G1 X146.298 Y82.663 E.02308
G1 X132.762 Y69.127 E.96133
G1 X132.303 Y69.157 E.02308
G1 X145.839 Y82.693 E.96133
G1 X145.381 Y82.722 E.02308
G1 X131.845 Y69.186 E.96133
G1 X131.386 Y69.216 E.02308
G1 X144.922 Y82.752 E.96133
G1 X144.463 Y82.781 E.02308
G1 X130.928 Y69.245 E.96133
G1 X130.469 Y69.275 E.02308
G1 X144.005 Y82.811 E.96133
G1 X143.546 Y82.84 E.02308
G1 X130.01 Y69.304 E.96133
G1 X129.552 Y69.334 E.02308
G1 X143.088 Y82.869 E.96133
G1 X142.629 Y82.899 E.02308
G1 X129.093 Y69.363 E.96133
G1 X128.635 Y69.393 E.02308
G1 X142.17 Y82.928 E.96133
G1 X141.712 Y82.958 E.02308
G1 X128.176 Y69.422 E.96133
G1 X127.717 Y69.452 E.02308
G1 X141.253 Y82.987 E.96133
G1 X140.795 Y83.017 E.02308
G1 X127.259 Y69.481 E.96133
G1 X126.8 Y69.511 E.02308
G1 X140.336 Y83.046 E.96133
G1 X139.877 Y83.076 E.02308
G1 X126.342 Y69.54 E.96133
G1 X125.883 Y69.57 E.02308
G1 X139.419 Y83.105 E.96133
G1 X138.96 Y83.135 E.02308
G1 X125.424 Y69.599 E.96133
G1 X124.966 Y69.628 E.02308
G1 X138.502 Y83.164 E.96133
G1 X138.043 Y83.194 E.02308
G1 X124.507 Y69.658 E.96133
G1 X124.049 Y69.687 E.02308
G1 X137.584 Y83.223 E.96133
G1 X137.126 Y83.253 E.02308
G1 X123.59 Y69.717 E.96133
G1 X123.131 Y69.746 E.02308
G1 X136.667 Y83.282 E.96133
G1 X136.209 Y83.312 E.02308
G1 X122.673 Y69.776 E.96132
G1 X122.214 Y69.805 E.02308
G1 X135.75 Y83.341 E.96132
G1 X135.291 Y83.371 E.02308
G1 X121.756 Y69.835 E.96132
G1 X121.297 Y69.864 E.02308
G1 X134.833 Y83.4 E.96132
G1 X134.374 Y83.43 E.02308
G1 X120.839 Y69.894 E.96132
G1 X120.38 Y69.923 E.02308
G1 X133.916 Y83.459 E.96132
G1 X133.457 Y83.488 E.02308
G1 X119.921 Y69.953 E.96132
G1 X119.463 Y69.982 E.02308
G1 X132.998 Y83.518 E.96132
G1 X132.54 Y83.547 E.02308
G1 X119.004 Y70.012 E.96132
G1 X118.546 Y70.041 E.02308
G1 X132.081 Y83.577 E.96132
G1 X131.623 Y83.606 E.02308
G1 X118.087 Y70.071 E.96132
G1 X117.628 Y70.1 E.02308
G1 X131.164 Y83.636 E.96132
G1 X130.705 Y83.665 E.02308
G1 X117.17 Y70.13 E.96132
G1 X116.711 Y70.159 E.02308
G1 X130.247 Y83.695 E.96132
G1 X129.788 Y83.724 E.02308
G1 X116.253 Y70.189 E.96132
G1 X115.794 Y70.218 E.02308
G1 X129.33 Y83.754 E.96132
G1 X128.871 Y83.783 E.02308
G1 X115.335 Y70.248 E.96132
G1 X114.877 Y70.277 E.02308
G1 X128.412 Y83.813 E.96132
G1 X127.954 Y83.842 E.02308
G1 X114.418 Y70.307 E.96132
G1 X113.96 Y70.336 E.02308
G1 X127.495 Y83.872 E.96132
G1 X127.037 Y83.901 E.02308
G1 X113.501 Y70.366 E.96132
G1 X113.042 Y70.395 E.02308
G1 X126.578 Y83.931 E.96132
G1 X126.119 Y83.96 E.02308
G1 X112.584 Y70.425 E.96132
G1 X112.125 Y70.454 E.02308
G1 X125.661 Y83.99 E.96132
G1 X125.202 Y84.019 E.02308
G1 X111.667 Y70.483 E.96132
G1 X111.208 Y70.513 E.02308
G1 X124.744 Y84.049 E.96131
G1 X124.285 Y84.078 E.02308
G1 X110.75 Y70.542 E.96131
G1 X110.291 Y70.572 E.02308
G1 X123.826 Y84.108 E.96131
G1 X123.368 Y84.137 E.02308
G1 X109.832 Y70.601 E.96131
G1 X109.374 Y70.631 E.02308
G1 X122.909 Y84.166 E.96131
G1 X122.451 Y84.196 E.02308
G1 X108.915 Y70.66 E.96131
G1 X108.457 Y70.69 E.02308
G1 X121.992 Y84.225 E.96131
G1 X121.534 Y84.255 E.02308
G1 X107.998 Y70.719 E.96131
G1 X107.539 Y70.749 E.02308
G1 X121.075 Y84.284 E.96131
G1 X120.616 Y84.314 E.02308
M73 P1 R191
G1 X107.081 Y70.778 E.96131
G1 X106.622 Y70.808 E.02308
G1 X120.158 Y84.343 E.96131
G1 X119.699 Y84.373 E.02308
G1 X106.164 Y70.837 E.96131
G1 X105.705 Y70.867 E.02308
G1 X119.241 Y84.402 E.96131
G1 X118.782 Y84.432 E.02308
G1 X105.246 Y70.896 E.96131
G1 X104.788 Y70.926 E.02308
G1 X118.323 Y84.461 E.96131
G1 X117.865 Y84.491 E.02308
G1 X104.329 Y70.955 E.96131
G1 X103.871 Y70.985 E.02308
G1 X117.406 Y84.52 E.96131
G1 X116.948 Y84.55 E.02308
G1 X103.412 Y71.014 E.96131
G1 X102.953 Y71.044 E.02308
M73 P1 R190
G1 X116.489 Y84.579 E.96131
G1 X116.03 Y84.609 E.02308
G1 X102.495 Y71.073 E.96131
G1 X102.036 Y71.103 E.02308
G1 X115.572 Y84.638 E.96131
G1 X115.113 Y84.668 E.02308
G1 X101.578 Y71.132 E.96131
G1 X101.119 Y71.162 E.02308
G1 X114.655 Y84.697 E.96131
G1 X114.196 Y84.727 E.02308
G1 X100.66 Y71.191 E.96131
G1 X100.202 Y71.221 E.02308
G1 X113.737 Y84.756 E.96131
G1 X113.279 Y84.786 E.02308
G1 X99.743 Y71.25 E.96131
G1 X99.285 Y71.28 E.02308
G1 X112.82 Y84.815 E.9613
G1 X112.362 Y84.844 E.02308
G1 X98.826 Y71.309 E.9613
G1 X98.368 Y71.339 E.02308
G1 X111.903 Y84.874 E.9613
G1 X111.444 Y84.903 E.02308
G1 X97.909 Y71.368 E.9613
G1 X97.45 Y71.397 E.02308
G1 X110.986 Y84.933 E.9613
G1 X110.527 Y84.962 E.02308
G1 X96.992 Y71.427 E.9613
G1 X96.533 Y71.456 E.02308
G1 X110.069 Y84.992 E.9613
G1 X109.61 Y85.021 E.02308
G1 X96.075 Y71.486 E.9613
G1 X95.616 Y71.515 E.02308
G1 X109.151 Y85.051 E.9613
G1 X108.693 Y85.08 E.02308
G1 X95.157 Y71.545 E.9613
G1 X94.699 Y71.574 E.02308
G1 X108.234 Y85.11 E.9613
G1 X107.776 Y85.139 E.02308
G1 X94.24 Y71.604 E.9613
G1 X93.782 Y71.633 E.02308
G1 X107.317 Y85.169 E.9613
G1 X106.858 Y85.198 E.02308
G1 X93.323 Y71.663 E.9613
G1 X92.864 Y71.692 E.02308
G1 X106.4 Y85.228 E.9613
G1 X105.941 Y85.257 E.02308
G1 X92.406 Y71.722 E.9613
G1 X91.947 Y71.751 E.02308
G1 X105.483 Y85.287 E.9613
G1 X105.024 Y85.316 E.02308
G1 X91.489 Y71.781 E.9613
G1 X91.03 Y71.81 E.02308
G1 X104.565 Y85.346 E.9613
G1 X104.107 Y85.375 E.02308
G1 X90.571 Y71.84 E.9613
G1 X90.113 Y71.869 E.02308
G1 X103.648 Y85.405 E.9613
G1 X103.19 Y85.434 E.02308
G1 X89.654 Y71.899 E.9613
G1 X89.196 Y71.928 E.02308
G1 X102.731 Y85.463 E.9613
G1 X102.272 Y85.493 E.02308
G1 X88.737 Y71.958 E.9613
G1 X88.279 Y71.987 E.02308
G1 X101.814 Y85.522 E.9613
G1 X101.355 Y85.552 E.02308
G1 X87.82 Y72.017 E.96129
G1 X87.361 Y72.046 E.02308
G1 X100.897 Y85.581 E.96129
G1 X100.438 Y85.611 E.02308
G1 X86.903 Y72.076 E.96129
G1 X86.444 Y72.105 E.02308
G1 X99.979 Y85.64 E.96129
G1 X99.521 Y85.67 E.02308
G1 X85.986 Y72.135 E.96129
G1 X85.527 Y72.164 E.02308
G1 X99.062 Y85.699 E.96129
G1 X98.604 Y85.729 E.02308
G1 X85.068 Y72.194 E.96129
G1 X84.61 Y72.223 E.02308
G1 X98.145 Y85.758 E.96129
G1 X97.686 Y85.788 E.02308
G1 X84.151 Y72.252 E.96129
G1 X83.693 Y72.282 E.02308
G1 X97.228 Y85.817 E.96129
G1 X96.769 Y85.847 E.02308
G1 X83.234 Y72.311 E.96129
G1 X82.775 Y72.341 E.02308
G1 X96.311 Y85.876 E.96129
G1 X95.852 Y85.906 E.02308
G1 X82.317 Y72.37 E.96129
G1 X81.858 Y72.4 E.02308
G1 X95.393 Y85.935 E.96129
G1 X94.935 Y85.965 E.02308
G1 X81.4 Y72.429 E.96129
G1 X80.941 Y72.459 E.02308
G1 X94.476 Y85.994 E.96129
G1 X94.018 Y86.024 E.02308
G1 X80.482 Y72.488 E.96129
G1 X80.024 Y72.518 E.02308
G1 X93.559 Y86.053 E.96129
G1 X93.1 Y86.083 E.02308
G1 X79.565 Y72.547 E.96129
G1 X79.107 Y72.577 E.02308
G1 X92.642 Y86.112 E.96129
G1 X92.183 Y86.141 E.02308
G1 X78.648 Y72.606 E.96129
G1 X78.189 Y72.636 E.02308
G1 X91.725 Y86.171 E.96129
G1 X91.266 Y86.2 E.02308
G1 X77.731 Y72.665 E.96129
G1 X77.272 Y72.695 E.02308
G1 X90.807 Y86.23 E.96129
G1 X90.349 Y86.259 E.02308
G1 X76.814 Y72.724 E.96129
G1 X76.355 Y72.754 E.02308
G1 X89.89 Y86.289 E.96129
G1 X89.432 Y86.318 E.02308
G1 X75.897 Y72.783 E.96128
G1 X75.438 Y72.813 E.02308
G1 X88.973 Y86.348 E.96128
G1 X88.515 Y86.377 E.02308
G1 X74.979 Y72.842 E.96128
G1 X74.521 Y72.872 E.02308
G1 X88.056 Y86.407 E.96128
G1 X87.597 Y86.436 E.02308
G1 X74.062 Y72.901 E.96128
G1 X73.604 Y72.931 E.02308
G1 X87.139 Y86.466 E.96128
G1 X86.68 Y86.495 E.02308
G1 X73.145 Y72.96 E.96128
G1 X72.686 Y72.99 E.02308
G1 X86.222 Y86.525 E.96128
G1 X85.763 Y86.554 E.02308
G1 X72.228 Y73.019 E.96128
G1 X71.769 Y73.049 E.02308
G1 X85.304 Y86.584 E.96128
G1 X84.846 Y86.613 E.02308
G1 X71.311 Y73.078 E.96128
G1 X70.852 Y73.107 E.02308
G1 X84.387 Y86.643 E.96128
G1 X83.929 Y86.672 E.02308
G1 X70.393 Y73.137 E.96128
G1 X69.935 Y73.166 E.02308
G1 X83.47 Y86.702 E.96128
G1 X83.011 Y86.731 E.02308
G1 X69.476 Y73.196 E.96128
G1 X69.018 Y73.225 E.02308
G1 X82.553 Y86.761 E.96128
G1 X82.094 Y86.79 E.02308
G1 X68.559 Y73.255 E.96128
G1 X68.1 Y73.284 E.02308
G1 X81.636 Y86.819 E.96128
G1 X81.177 Y86.849 E.02308
G1 X67.642 Y73.314 E.96128
G1 X67.183 Y73.343 E.02308
G1 X80.718 Y86.878 E.96128
G1 X80.26 Y86.908 E.02308
G1 X66.725 Y73.373 E.96128
G1 X66.266 Y73.402 E.02308
G1 X79.801 Y86.937 E.96128
G1 X79.343 Y86.967 E.02308
G1 X65.808 Y73.432 E.96128
G1 X65.349 Y73.461 E.02308
G1 X78.884 Y86.996 E.96128
G1 X78.425 Y87.026 E.02308
G1 X64.89 Y73.491 E.96128
G1 X64.432 Y73.52 E.02308
G1 X77.967 Y87.055 E.96127
G1 X77.508 Y87.085 E.02308
G1 X63.973 Y73.55 E.96127
G1 X63.515 Y73.579 E.02308
M73 P1 R189
G1 X77.05 Y87.114 E.96127
G1 X76.591 Y87.144 E.02308
G1 X63.056 Y73.609 E.96127
G1 X62.597 Y73.638 E.02308
G1 X76.132 Y87.173 E.96127
G1 X75.674 Y87.203 E.02308
G1 X62.139 Y73.668 E.96127
G1 X61.68 Y73.697 E.02308
G1 X75.215 Y87.232 E.96127
G1 X74.757 Y87.262 E.02308
G1 X61.222 Y73.727 E.96127
G1 X60.763 Y73.756 E.02308
G1 X74.298 Y87.291 E.96127
G1 X73.839 Y87.321 E.02308
G1 X60.304 Y73.786 E.96127
G1 X59.846 Y73.815 E.02308
G1 X73.381 Y87.35 E.96127
G1 X72.922 Y87.38 E.02308
G1 X59.387 Y73.845 E.96127
G1 X58.929 Y73.874 E.02308
G1 X72.464 Y87.409 E.96127
G1 X72.005 Y87.438 E.02308
G1 X58.47 Y73.904 E.96127
G1 X58.011 Y73.933 E.02308
G1 X71.546 Y87.468 E.96127
G1 X71.088 Y87.497 E.02308
G1 X57.553 Y73.963 E.96127
G1 X57.094 Y73.992 E.02308
G1 X70.629 Y87.527 E.96127
G1 X70.171 Y87.556 E.02308
G1 X56.636 Y74.021 E.96127
G1 X56.177 Y74.051 E.02308
G1 X69.712 Y87.586 E.96127
G1 X69.253 Y87.615 E.02308
G1 X55.719 Y74.08 E.96127
G1 X55.26 Y74.11 E.02308
G1 X68.795 Y87.645 E.96127
G1 X68.336 Y87.674 E.02308
G1 X54.801 Y74.139 E.96127
G1 X54.343 Y74.169 E.02308
G1 X67.878 Y87.704 E.96127
G1 X67.419 Y87.733 E.02308
G1 X53.884 Y74.198 E.96127
G1 X53.426 Y74.228 E.02308
G1 X66.96 Y87.763 E.96127
G1 X66.502 Y87.792 E.02308
G1 X52.967 Y74.257 E.96127
G1 X52.508 Y74.287 E.02308
G1 X66.043 Y87.822 E.96126
G1 X65.585 Y87.851 E.02308
G1 X52.05 Y74.316 E.96126
G1 X51.591 Y74.346 E.02308
G1 X65.126 Y87.881 E.96126
G1 X64.667 Y87.91 E.02308
G1 X51.133 Y74.375 E.96126
G1 X50.674 Y74.405 E.02308
G1 X64.209 Y87.94 E.96126
G1 X63.75 Y87.969 E.02308
G1 X50.215 Y74.434 E.96126
G1 X49.757 Y74.464 E.02308
G1 X63.292 Y87.999 E.96126
G1 X62.833 Y88.028 E.02308
G1 X49.298 Y74.493 E.96126
G1 X48.84 Y74.523 E.02308
G1 X62.374 Y88.058 E.96126
G1 X61.916 Y88.087 E.02308
G1 X48.381 Y74.552 E.96126
G1 X47.922 Y74.582 E.02308
G1 X61.457 Y88.116 E.96126
G1 X60.999 Y88.146 E.02308
G1 X47.464 Y74.611 E.96126
G1 X47.005 Y74.641 E.02308
G1 X60.54 Y88.175 E.96126
G1 X60.081 Y88.205 E.02308
G1 X46.547 Y74.67 E.96126
G1 X46.088 Y74.7 E.02308
G1 X59.623 Y88.234 E.96126
G1 X59.164 Y88.264 E.02308
G1 X45.629 Y74.729 E.96126
