; generated by PrusaSlicer 2.5.0+win64 on 2022-12-07 at 00:09:06 UTC

; 

; external perimeters extrusion width = 1.00mm
; perimeters extrusion width = 1.00mm
; infill extrusion width = 1.00mm
; solid infill extrusion width = 1.00mm
; top infill extrusion width = 1.00mm
; support material extrusion width = 1.00mm
; first layer extrusion width = 0.42mm

M73 P0 R65
M107
;TYPE:Custom
G90 ; use absolute coordinates
M83 ; extruder relative mode
M140 S60 ; set final bed temp
M104 S150 ; set temporary nozzle temp to prevent oozing during homing and auto bed leveling
G4 S10 ; allow partial nozzle warmup
G28 ; home all axisG1 Z50 F240
G1 X7.6 Y10 F3000
M104 S210 ; set final nozzle temp
M190 S60 ; wait for bed temp to stabilize
M109 S210 ; wait for nozzle temp to stabilize
G1 Z0.28 F240
G92 E0
G1 Y140 E10 F1500 ; prime the nozzle
G1 X4 F5000
G92 E0
M73 P0 R64
G1 Y10 E10 F1200 ; prime the nozzle
G92 E0
G21 ; set units to millimeters
G90 ; use absolute coordinates
M83 ; use relative distances for extrusion
; Filament gcode
M107
;LAYER_CHANGE
;Z:0.35
;HEIGHT:0.35
;BEFORE_LAYER_CHANGE
G92 E0
;0.35


G1 E-1 F3600
G1 Z.35 F7800
;AFTER_LAYER_CHANGE
;0.35
G1 X127.426 Y82.274
G1 E1 F2400
;TYPE:Perimeter
;WIDTH:0.42
G1 F1800
G1 X127.378 Y82.153 E.00654
G1 X127.204 Y81.982 E.01225
G1 X126.943 Y81.908 E.01361
G1 X31.694 Y81.07 E4.78034
G1 X31.694 Y62.625 E.92568
G1 X129.25 Y63.477 E4.89613
G1 X130.618 Y64.625 E.08961
G1 X137.969 Y70.529 E.47316
G1 X138.488 Y73.222 E.13762
G1 X138.644 Y73.436 E.01331
G1 X139.052 Y73.766 E.02635
G1 X147.488 Y117.538 E2.23717
G1 X134.175 Y117.538 E.66813
G1 X127.464 Y82.419 E1.7944
G1 X127.108 Y82.393 F7800
;TYPE:External perimeter
G1 F1800
G1 X127.074 Y82.318 E.00415
G1 X126.94 Y82.253 E.00744
G1 X31.349 Y81.412 E4.7975
G1 X31.349 Y62.278 E.96029
G1 X129.377 Y63.134 E4.9198
G1 X130.834 Y64.356 E.09545
G1 X138.284 Y70.34 E.47954
G1 X138.8 Y73.066 E.13924
G1 X138.861 Y73.168 E.00596
G1 X139.367 Y73.577 E.03266
G1 X147.906 Y117.883 E2.26445
G1 X133.89 Y117.883 E.7034
G1 X127.136 Y82.541 E1.8058
G1 X127.154 Y82.324 F7800
G1 E-.7 F3600
;WIPE_START
G1 F6240
G1 X127.074 Y82.318 E-.12668
G1 X126.94 Y82.253 E-.08127
G1 X126.8 Y82.252 E-.07704
;WIPE_END
G1 E-.015 F3600
G1 X138.042 Y71.463 F7800
G1 E1 F2400
;TYPE:Solid infill
;WIDTH:0.42129
G1 F1800
G1 X135.282 Y68.703 E.19661
G1 X132.794 Y66.704 E.16074
G1 X137.962 Y71.872 E.36816
G1 X138.078 Y72.478 E.03104
G1 X130.273 Y64.673 E.55598
G1 X129.155 Y63.735 E.07351
G1 X128.843 Y63.732 E.01573
G1 X138.193 Y73.083 E.6661
G1 X138.227 Y73.262 E.0092
G1 X138.352 Y73.505 E.01378
G1 X138.478 Y73.634 E.00903
G1 X138.816 Y73.908 E.02195
G1 X138.885 Y74.264 E.01827
G1 X128.349 Y63.728 E.75056
G1 X127.855 Y63.724 E.02488
G1 X139.002 Y74.87 E.79407
G1 X139.119 Y75.477 E.03111
G1 X127.361 Y63.72 E.83758
G1 X126.867 Y63.715 E.02488
M73 P1 R64
G1 X139.235 Y76.083 E.88109
G1 X139.352 Y76.69 E.03111
G1 X126.373 Y63.711 E.9246
G1 X125.88 Y63.707 E.02488
G1 X139.469 Y77.296 E.96811
G1 X139.586 Y77.903 E.03111
G1 X125.386 Y63.702 E1.01162
G1 X124.892 Y63.698 E.02488
G1 X139.703 Y78.509 E1.05513
G1 X139.82 Y79.116 E.03111
G1 X124.398 Y63.694 E1.09864
G1 X123.904 Y63.689 E.02488
G1 X139.937 Y79.722 E1.14215
G1 X140.054 Y80.328 E.03111
G1 X123.41 Y63.685 E1.18566
G1 X122.916 Y63.681 E.02488
G1 X140.17 Y80.935 E1.22917
G1 X140.287 Y81.541 E.03111
G1 X122.422 Y63.676 E1.27268
G1 X121.928 Y63.672 E.02488
G1 X140.404 Y82.148 E1.31619
G1 X140.521 Y82.754 E.03111
G1 X121.435 Y63.668 E1.3597
G1 X120.941 Y63.663 E.02488
G1 X140.638 Y83.361 E1.40321
G1 X140.755 Y83.967 E.03111
G1 X120.447 Y63.659 E1.44672
G1 X119.953 Y63.655 E.02488
G1 X140.872 Y84.574 E1.49023
G1 X140.989 Y85.18 E.03111
G1 X119.459 Y63.651 E1.53374
G1 X118.965 Y63.646 E.02488
G1 X141.105 Y85.786 E1.57725
G1 X141.222 Y86.393 E.03111
G1 X118.471 Y63.642 E1.62076
G1 X117.977 Y63.638 E.02488
G1 X141.339 Y86.999 E1.66427
G1 X141.456 Y87.606 E.03111
G1 X117.484 Y63.633 E1.70778
G1 X116.99 Y63.629 E.02488
G1 X141.573 Y88.212 E1.75129
G1 X141.69 Y88.819 E.03111
G1 X116.496 Y63.625 E1.7948
G1 X116.002 Y63.62 E.02488
G1 X141.807 Y89.425 E1.83831
G1 X141.924 Y90.032 E.03111
M73 P1 R63
G1 X115.508 Y63.616 E1.88182
G1 X115.014 Y63.612 E.02488
G1 X142.04 Y90.638 E1.92533
G1 X142.157 Y91.244 E.03111
G1 X114.52 Y63.607 E1.96884
G1 X114.026 Y63.603 E.02488
G1 X142.274 Y91.851 E2.01235
G1 X142.391 Y92.457 E.03111
G1 X113.532 Y63.599 E2.05586
G1 X113.039 Y63.594 E.02488
G1 X142.508 Y93.064 E2.09937
G1 X142.625 Y93.67 E.03111
G1 X112.545 Y63.59 E2.14288
G1 X112.051 Y63.586 E.02488
G1 X142.742 Y94.277 E2.18639
G1 X142.859 Y94.883 E.03111
G1 X111.557 Y63.582 E2.2299
G1 X111.063 Y63.577 E.02488
G1 X142.975 Y95.49 E2.27341
G1 X143.092 Y96.096 E.03111
G1 X110.569 Y63.573 E2.31692
G1 X110.075 Y63.569 E.02488
G1 X143.209 Y96.702 E2.36043
G1 X143.326 Y97.309 E.03111
M73 P2 R63
G1 X109.581 Y63.564 E2.40394
G1 X109.088 Y63.56 E.02488
G1 X143.443 Y97.915 E2.44745
G1 X143.56 Y98.522 E.03111
G1 X127.791 Y82.753 E1.12333
G1 X127.907 Y83.359 E.03104
G1 X143.677 Y99.128 E1.12342
G1 X143.794 Y99.735 E.03111
G1 X128.023 Y83.964 E1.1235
G1 X128.138 Y84.569 E.03104
G1 X143.91 Y100.341 E1.12359
G1 X144.027 Y100.948 E.03111
G1 X128.254 Y85.174 E1.12368
G1 X128.37 Y85.779 E.03104
G1 X144.144 Y101.554 E1.12376
G1 X144.261 Y102.161 E.03111
G1 X128.485 Y86.385 E1.12385
G1 X128.601 Y86.99 E.03104
G1 X144.378 Y102.767 E1.12394
G1 X144.495 Y103.373 E.03111
G1 X128.717 Y87.595 E1.12403
G1 X128.832 Y88.2 E.03104
G1 X144.612 Y103.98 E1.12411
G1 X144.729 Y104.586 E.03111
G1 X128.948 Y88.806 E1.1242
G1 X129.064 Y89.411 E.03104
G1 X144.845 Y105.193 E1.12429
G1 X144.962 Y105.799 E.03111
G1 X129.179 Y90.016 E1.12437
G1 X129.295 Y90.621 E.03104
G1 X145.079 Y106.406 E1.12446
G1 X145.196 Y107.012 E.03111
G1 X129.41 Y91.226 E1.12455
G1 X129.526 Y91.832 E.03104
G1 X145.313 Y107.619 E1.12464
G1 X145.43 Y108.225 E.03111
G1 X129.642 Y92.437 E1.12472
G1 X129.757 Y93.042 E.03104
G1 X145.547 Y108.831 E1.12481
G1 X145.664 Y109.438 E.03111
G1 X129.873 Y93.647 E1.1249
G1 X129.989 Y94.253 E.03104
G1 X145.78 Y110.044 E1.12498
G1 X145.897 Y110.651 E.03111
G1 X130.104 Y94.858 E1.12507
G1 X130.22 Y95.463 E.03104
G1 X146.014 Y111.257 E1.12516
G1 X146.131 Y111.864 E.03111
G1 X130.336 Y96.068 E1.12525
G1 X130.451 Y96.673 E.03104
G1 X146.248 Y112.47 E1.12533
G1 X146.365 Y113.077 E.03111
G1 X130.567 Y97.279 E1.12542
G1 X130.683 Y97.884 E.03104
G1 X146.482 Y113.683 E1.12551
G1 X146.599 Y114.289 E.03111
G1 X130.798 Y98.489 E1.12559
G1 X130.914 Y99.094 E.03104
G1 X146.715 Y114.896 E1.12568
G1 X146.832 Y115.502 E.03111
G1 X131.03 Y99.7 E1.12577
G1 X131.145 Y100.305 E.03104
G1 X146.949 Y116.109 E1.12585
G1 X147.066 Y116.715 E.03111
G1 X131.261 Y100.91 E1.12594
G1 X131.377 Y101.515 E.03104
G1 X147.141 Y117.28 E1.12305
G1 X146.651 Y117.28 E.02466
G1 X131.492 Y102.121 E1.07993
G1 X131.608 Y102.726 E.03104
G1 X146.162 Y117.28 E1.03682
G1 X145.672 Y117.28 E.02466
G1 X131.724 Y103.331 E.9937
G1 X131.839 Y103.936 E.03104
G1 X145.183 Y117.28 E.95058
G1 X144.693 Y117.28 E.02466
G1 X131.955 Y104.541 E.90747
G1 X132.07 Y105.147 E.03104
G1 X144.204 Y117.28 E.86435
G1 X143.714 Y117.28 E.02466
G1 X132.186 Y105.752 E.82124
G1 X132.302 Y106.357 E.03104
G1 X143.224 Y117.28 E.77812
G1 X142.735 Y117.28 E.02466
G1 X132.417 Y106.962 E.73501
G1 X132.533 Y107.568 E.03104
G1 X142.245 Y117.28 E.69189
G1 X141.756 Y117.28 E.02466
G1 X132.649 Y108.173 E.64878
G1 X132.764 Y108.778 E.03104
G1 X141.266 Y117.28 E.60566
G1 X140.777 Y117.28 E.02466
G1 X132.88 Y109.383 E.56255
G1 X132.996 Y109.988 E.03104
G1 X140.287 Y117.28 E.51943
G1 X139.797 Y117.28 E.02466
G1 X133.111 Y110.594 E.47631
G1 X133.227 Y111.199 E.03104
G1 X139.308 Y117.28 E.4332
M73 P3 R63
G1 X138.818 Y117.28 E.02466
G1 X133.343 Y111.804 E.39008
G1 X133.458 Y112.409 E.03104
G1 X138.329 Y117.28 E.34697
G1 X137.839 Y117.28 E.02466
G1 X133.574 Y113.015 E.30385
G1 X133.69 Y113.62 E.03104
G1 X137.35 Y117.28 E.26074
G1 X136.86 Y117.28 E.02466
G1 X133.805 Y114.225 E.21762
G1 X133.921 Y114.83 E.03104
G1 X136.37 Y117.28 E.17451
G1 X135.881 Y117.28 E.02466
G1 X134.037 Y115.435 E.13139
G1 X134.152 Y116.041 E.03104
G1 X135.391 Y117.28 E.08828
G1 X134.902 Y117.28 E.02466
G1 X134.268 Y116.646 E.04516
G1 X134.383 Y117.251 E.03104
G1 X134.567 Y117.435 E.0131
G1 E-.7 F3600
;WIPE_START
G1 F6240
G1 X134.383 Y117.251 E-.14254
G1 X134.335 Y116.996 E-.14246
;WIPE_END
G1 E-.015 F3600
G1 X126.842 Y81.804 F7800
G1 E1 F2400
G1 F1800
G1 X108.594 Y63.556 E1.29999
G1 X108.1 Y63.551 E.02488
M73 P3 R62
G1 X126.191 Y81.643 E1.28884
G1 X125.698 Y81.639 E.02488
G1 X107.606 Y63.547 E1.28883
G1 X107.112 Y63.543 E.02488
G1 X125.204 Y81.634 E1.28883
G1 X124.71 Y81.63 E.02488
G1 X106.618 Y63.538 E1.28883
G1 X106.124 Y63.534 E.02488
G1 X124.216 Y81.626 E1.28883
G1 X123.722 Y81.621 E.02488
G1 X105.63 Y63.53 E1.28882
G1 X105.136 Y63.525 E.02488
G1 X123.228 Y81.617 E1.28882
G1 X122.734 Y81.613 E.02488
G1 X104.643 Y63.521 E1.28882
G1 X104.149 Y63.517 E.02488
G1 X122.24 Y81.608 E1.28882
G1 X121.746 Y81.604 E.02488
G1 X103.655 Y63.513 E1.28882
G1 X103.161 Y63.508 E.02488
G1 X121.252 Y81.6 E1.28881
G1 X120.758 Y81.595 E.02488
G1 X102.667 Y63.504 E1.28881
G1 X102.173 Y63.5 E.02488
G1 X120.264 Y81.591 E1.28881
G1 X119.771 Y81.587 E.02488
G1 X101.679 Y63.495 E1.28881
G1 X101.185 Y63.491 E.02488
G1 X119.277 Y81.582 E1.2888
G1 X118.783 Y81.578 E.02488
G1 X100.691 Y63.487 E1.2888
G1 X100.198 Y63.482 E.02488
G1 X118.289 Y81.574 E1.2888
G1 X117.795 Y81.569 E.02488
G1 X99.704 Y63.478 E1.2888
G1 X99.21 Y63.474 E.02488
G1 X117.301 Y81.565 E1.28879
G1 X116.807 Y81.561 E.02488
G1 X98.716 Y63.469 E1.28879
G1 X98.222 Y63.465 E.02488
G1 X116.313 Y81.556 E1.28879
G1 X115.819 Y81.552 E.02488
G1 X97.728 Y63.461 E1.28879
G1 X97.234 Y63.456 E.02488
G1 X115.325 Y81.547 E1.28879
G1 X114.831 Y81.543 E.02488
G1 X96.74 Y63.452 E1.28878
G1 X96.247 Y63.448 E.02488
G1 X114.337 Y81.539 E1.28878
G1 X113.844 Y81.534 E.02488
G1 X95.753 Y63.444 E1.28878
G1 X95.259 Y63.439 E.02488
G1 X113.35 Y81.53 E1.28878
G1 X112.856 Y81.526 E.02488
G1 X94.765 Y63.435 E1.28877
G1 X94.271 Y63.431 E.02488
G1 X112.362 Y81.521 E1.28877
G1 X111.868 Y81.517 E.02488
G1 X93.777 Y63.426 E1.28877
G1 X93.283 Y63.422 E.02488
G1 X111.374 Y81.513 E1.28877
G1 X110.88 Y81.508 E.02488
G1 X92.789 Y63.418 E1.28876
G1 X92.295 Y63.413 E.02488
G1 X110.386 Y81.504 E1.28876
G1 X109.892 Y81.5 E.02488
G1 X91.802 Y63.409 E1.28876
G1 X91.308 Y63.405 E.02488
G1 X109.398 Y81.495 E1.28876
G1 X108.904 Y81.491 E.02488
G1 X90.814 Y63.4 E1.28876
G1 X90.32 Y63.396 E.02488
G1 X108.41 Y81.487 E1.28875
G1 X107.917 Y81.482 E.02488
G1 X89.826 Y63.392 E1.28875
G1 X89.332 Y63.387 E.02488
G1 X107.423 Y81.478 E1.28875
G1 X106.929 Y81.474 E.02488
M73 P4 R62
G1 X88.838 Y63.383 E1.28875
G1 X88.344 Y63.379 E.02488
G1 X106.435 Y81.469 E1.28874
G1 X105.941 Y81.465 E.02488
G1 X87.851 Y63.375 E1.28874
G1 X87.357 Y63.37 E.02488
G1 X105.447 Y81.461 E1.28874
G1 X104.953 Y81.456 E.02488
G1 X86.863 Y63.366 E1.28874
G1 X86.369 Y63.362 E.02488
G1 X104.459 Y81.452 E1.28874
G1 X103.965 Y81.448 E.02488
G1 X85.875 Y63.357 E1.28873
G1 X85.381 Y63.353 E.02488
G1 X103.471 Y81.443 E1.28873
G1 X102.977 Y81.439 E.02488
G1 X84.887 Y63.349 E1.28873
G1 X84.393 Y63.344 E.02488
G1 X102.484 Y81.435 E1.28873
G1 X101.99 Y81.43 E.02488
G1 X83.899 Y63.34 E1.28872
G1 X83.406 Y63.336 E.02488
G1 X101.496 Y81.426 E1.28872
G1 X101.002 Y81.421 E.02488
G1 X82.912 Y63.331 E1.28872
G1 X82.418 Y63.327 E.02488
G1 X100.508 Y81.417 E1.28872
G1 X100.014 Y81.413 E.02488
G1 X81.924 Y63.323 E1.28871
G1 X81.43 Y63.318 E.02488
G1 X99.52 Y81.408 E1.28871
G1 X99.026 Y81.404 E.02488
G1 X80.936 Y63.314 E1.28871
G1 X80.442 Y63.31 E.02488
G1 X98.532 Y81.4 E1.28871
G1 X98.038 Y81.395 E.02488
G1 X79.948 Y63.306 E1.28871
G1 X79.454 Y63.301 E.02488
G1 X97.544 Y81.391 E1.2887
G1 X97.05 Y81.387 E.02488
G1 X78.961 Y63.297 E1.2887
G1 X78.467 Y63.293 E.02488
G1 X96.557 Y81.382 E1.2887
G1 X96.063 Y81.378 E.02488
G1 X77.973 Y63.288 E1.2887
G1 X77.479 Y63.284 E.02488
G1 X95.569 Y81.374 E1.28869
G1 X95.075 Y81.369 E.02488
G1 X76.985 Y63.28 E1.28869
G1 X76.491 Y63.275 E.02488
G1 X94.581 Y81.365 E1.28869
G1 X94.087 Y81.361 E.02488
G1 X75.997 Y63.271 E1.28869
G1 X75.503 Y63.267 E.02488
M73 P4 R61
G1 X93.593 Y81.356 E1.28868
G1 X93.099 Y81.352 E.02488
G1 X75.01 Y63.262 E1.28868
G1 X74.516 Y63.258 E.02488
G1 X92.605 Y81.348 E1.28868
G1 X92.111 Y81.343 E.02488
G1 X74.022 Y63.254 E1.28868
G1 X73.528 Y63.249 E.02488
G1 X91.617 Y81.339 E1.28868
G1 X91.123 Y81.335 E.02488
G1 X73.034 Y63.245 E1.28867
G1 X72.54 Y63.241 E.02488
G1 X90.63 Y81.33 E1.28867
G1 X90.136 Y81.326 E.02488
G1 X72.046 Y63.237 E1.28867
G1 X71.552 Y63.232 E.02488
G1 X89.642 Y81.322 E1.28867
G1 X89.148 Y81.317 E.02488
G1 X71.058 Y63.228 E1.28866
G1 X70.565 Y63.224 E.02488
G1 X88.654 Y81.313 E1.28866
G1 X88.16 Y81.309 E.02488
G1 X70.071 Y63.219 E1.28866
G1 X69.577 Y63.215 E.02488
G1 X87.666 Y81.304 E1.28866
G1 X87.172 Y81.3 E.02488
G1 X69.083 Y63.211 E1.28865
G1 X68.589 Y63.206 E.02488
G1 X86.678 Y81.295 E1.28865
G1 X86.184 Y81.291 E.02488
G1 X68.095 Y63.202 E1.28865
M73 P5 R61
G1 X67.601 Y63.198 E.02488
G1 X85.69 Y81.287 E1.28865
G1 X85.196 Y81.282 E.02488
G1 X67.107 Y63.193 E1.28865
G1 X66.614 Y63.189 E.02488
G1 X84.703 Y81.278 E1.28864
G1 X84.209 Y81.274 E.02488
G1 X66.12 Y63.185 E1.28864
G1 X65.626 Y63.18 E.02488
G1 X83.715 Y81.269 E1.28864
G1 X83.221 Y81.265 E.02488
G1 X65.132 Y63.176 E1.28864
G1 X64.638 Y63.172 E.02488
G1 X82.727 Y81.261 E1.28863
G1 X82.233 Y81.256 E.02488
G1 X64.144 Y63.168 E1.28863
G1 X63.65 Y63.163 E.02488
G1 X81.739 Y81.252 E1.28863
G1 X81.245 Y81.248 E.02488
G1 X63.156 Y63.159 E1.28863
G1 X62.662 Y63.155 E.02488
G1 X80.751 Y81.243 E1.28862
G1 X80.257 Y81.239 E.02488
G1 X62.169 Y63.15 E1.28862
G1 X61.675 Y63.146 E.02488
G1 X79.763 Y81.235 E1.28862
G1 X79.269 Y81.23 E.02488
G1 X61.181 Y63.142 E1.28862
G1 X60.687 Y63.137 E.02488
G1 X78.776 Y81.226 E1.28862
G1 X78.282 Y81.222 E.02488
G1 X60.193 Y63.133 E1.28861
G1 X59.699 Y63.129 E.02488
G1 X77.788 Y81.217 E1.28861
G1 X77.294 Y81.213 E.02488
G1 X59.205 Y63.124 E1.28861
G1 X58.711 Y63.12 E.02488
G1 X76.8 Y81.209 E1.28861
G1 X76.306 Y81.204 E.02488
G1 X58.217 Y63.116 E1.2886
G1 X57.724 Y63.111 E.02488
G1 X75.812 Y81.2 E1.2886
G1 X75.318 Y81.196 E.02488
G1 X57.23 Y63.107 E1.2886
G1 X56.736 Y63.103 E.02488
G1 X74.824 Y81.191 E1.2886
G1 X74.33 Y81.187 E.02488
G1 X56.242 Y63.099 E1.2886
G1 X55.748 Y63.094 E.02488
G1 X73.836 Y81.183 E1.28859
G1 X73.342 Y81.178 E.02488
G1 X55.254 Y63.09 E1.28859
G1 X54.76 Y63.086 E.02488
G1 X72.849 Y81.174 E1.28859
G1 X72.355 Y81.169 E.02488
G1 X54.266 Y63.081 E1.28859
G1 X53.773 Y63.077 E.02488
G1 X71.861 Y81.165 E1.28858
G1 X71.367 Y81.161 E.02488
G1 X53.279 Y63.073 E1.28858
G1 X52.785 Y63.068 E.02488
G1 X70.873 Y81.156 E1.28858
G1 X70.379 Y81.152 E.02488
G1 X52.291 Y63.064 E1.28858
G1 X51.797 Y63.06 E.02488
G1 X69.885 Y81.148 E1.28857
G1 X69.391 Y81.143 E.02488
G1 X51.303 Y63.055 E1.28857
G1 X50.809 Y63.051 E.02488
G1 X68.897 Y81.139 E1.28857
G1 X68.403 Y81.135 E.02488
G1 X50.315 Y63.047 E1.28857
G1 X49.821 Y63.042 E.02488
G1 X67.909 Y81.13 E1.28857
G1 X67.415 Y81.126 E.02488
G1 X49.328 Y63.038 E1.28856
G1 X48.834 Y63.034 E.02488
G1 X66.922 Y81.122 E1.28856
G1 X66.428 Y81.117 E.02488
G1 X48.34 Y63.03 E1.28856
G1 X47.846 Y63.025 E.02488
G1 X65.934 Y81.113 E1.28856
G1 X65.44 Y81.109 E.02488
G1 X47.352 Y63.021 E1.28855
G1 X46.858 Y63.017 E.02488
M73 P6 R61
G1 X64.946 Y81.104 E1.28855
G1 X64.452 Y81.1 E.02488
G1 X46.364 Y63.012 E1.28855
G1 X45.87 Y63.008 E.02488
G1 X63.958 Y81.096 E1.28855
G1 X63.464 Y81.091 E.02488
G1 X45.377 Y63.004 E1.28854
G1 X44.883 Y62.999 E.02488
G1 X62.97 Y81.087 E1.28854
G1 X62.476 Y81.083 E.02488
G1 X44.389 Y62.995 E1.28854
G1 X43.895 Y62.991 E.02488
G1 X61.982 Y81.078 E1.28854
G1 X61.488 Y81.074 E.02488
M73 P6 R60
G1 X43.401 Y62.986 E1.28854
G1 X42.907 Y62.982 E.02488
G1 X60.995 Y81.07 E1.28853
G1 X60.501 Y81.065 E.02488
G1 X42.413 Y62.978 E1.28853
G1 X41.919 Y62.973 E.02488
G1 X60.007 Y81.061 E1.28853
G1 X59.513 Y81.057 E.02488
G1 X41.425 Y62.969 E1.28853
G1 X40.932 Y62.965 E.02488
