; generated by PrusaSlicer 2.5.0+win64 on 2022-12-07 at 00:09:08 UTC

; 

; external perimeters extrusion width = 1.00mm
; perimeters extrusion width = 1.00mm
; infill extrusion width = 1.00mm
; solid infill extrusion width = 1.00mm
; top infill extrusion width = 1.00mm
; support material extrusion width = 1.00mm
; first layer extrusion width = 0.42mm

M73 P0 R580
M107
;TYPE:Custom
G90 ; use absolute coordinates
M83 ; extruder relative mode
M140 S60 ; set final bed temp
M104 S150 ; set temporary nozzle temp to prevent oozing during homing and auto bed leveling
G4 S10 ; allow partial nozzle warmup
G28 ; home all axisG1 Z50 F240
G1 X7.6 Y10 F3000
M104 S210 ; set final nozzle temp
M190 S60 ; wait for bed temp to stabilize
M109 S210 ; wait for nozzle temp to stabilize
G1 Z0.28 F240
G92 E0
G1 Y140 E10 F1500 ; prime the nozzle
G1 X4 F5000
G92 E0
M73 P0 R579
G1 Y10 E10 F1200 ; prime the nozzle
G92 E0
G21 ; set units to millimeters
G90 ; use absolute coordinates
M83 ; use relative distances for extrusion
; Filament gcode
M107
;LAYER_CHANGE
;Z:0.35
;HEIGHT:0.35
;BEFORE_LAYER_CHANGE
G92 E0
;0.35


G1 E-1 F3600
G1 Z.35 F7800
;AFTER_LAYER_CHANGE
;0.35
G1 X148.472 Y19.155
G1 E1 F2400
;TYPE:Support material interface
;WIDTH:1
G1 F1800
G1 X148.472 Y15.361 E.51067
G1 X149.364 Y15.361 E.12014
G1 X149.364 Y18.753 E.45661
G1 X150.257 Y18.753 E.12014
G1 X150.257 Y15.361 E.45661
G1 X151.15 Y15.361 E.12014
G1 X151.15 Y18.753 E.45661
G1 X152.043 Y18.753 E.12014
G1 X152.043 Y15.361 E.45661
G1 X152.935 Y15.361 E.12014
G1 X152.935 Y18.753 E.45661
G1 X153.828 Y18.753 E.12014
G1 X153.828 Y15.361 E.45661
G1 X154.721 Y15.361 E.12014
G1 X154.721 Y22.146 E.91321
G1 X155.613 Y22.146 E.12014
G1 X155.613 Y15.361 E.91321
G1 X156.506 Y15.361 E.12014
G1 X156.506 Y22.146 E.91321
G1 X157.399 Y22.146 E.12014
G1 X157.399 Y15.361 E.91321
G1 X158.291 Y15.361 E.12014
G1 X158.291 Y22.146 E.91321
G1 X159.184 Y22.146 E.12014
G1 X159.184 Y15.361 E.91321
G1 X160.077 Y15.361 E.12014
G1 X160.077 Y22.548 E.96727
G1 E-.7 F3600
;WIPE_START
G1 F6240
G1 X160.077 Y22.028 E-.285
;WIPE_END
G1 E-.015 F3600
G1 X160.97 Y18.291 F7800
G1 E1 F2400
G1 F1800
G1 X160.97 Y22.146 E.51878
G1 X161.862 Y22.146 E.12014
G1 X161.862 Y19.035 E.41864
G1 X162.755 Y19.353 E.12753
G1 X162.755 Y22.146 E.37588
G1 X163.648 Y22.146 E.12014
G1 X163.648 Y19.671 E.33311
G1 X164.54 Y19.989 E.12753
G1 X164.54 Y22.146 E.29035
G1 X164.639 Y22.146 E.01333
G1 X164.639 Y25.539 E.4566
G1 X165.433 Y25.539 E.10681
G1 X165.433 Y20.306 E.70419
G1 X165.591 Y20.362 E.0225
G1 X166.326 Y19.844 E.12109
G1 X166.326 Y25.94 E.82052
G1 X167.218 Y25.94 F7800
G1 F1800
G1 X167.218 Y15.361 E1.42387
G1 X166.326 Y15.361 E.12014
G1 X166.326 Y15.679 E.04285
G1 X165.433 Y15.679 E.12014
G1 X165.433 Y15.361 E.04285
G1 X164.54 Y15.361 E.12014
G1 X164.54 Y15.679 E.04285
G1 X163.648 Y15.679 E.12014
G1 X163.648 Y15.361 E.04285
G1 X162.755 Y15.361 E.12014
G1 X162.755 Y15.679 E.04285
G1 X161.862 Y15.679 E.12014
G1 X161.862 Y15.361 E.04285
G1 X160.97 Y15.361 E.12014
G1 X160.97 Y16.081 E.09691
G1 E-.7 F3600
;WIPE_START
G1 F6240
G1 X160.97 Y15.561 E-.285
;WIPE_END
G1 E-.015 F3600
G1 X150.019 Y14.704 F7800
G1 E1 F2400
;TYPE:Support material
;WIDTH:0.42
G1 F1800
G1 X147.019 Y14.704 E.15056
G1 X147.019 Y19.41 E.23616
G1 X153.805 Y19.41 E.34053
G1 X153.805 Y22.802 E.17027
G1 X163.983 Y22.802 E.5108
G1 X163.983 Y26.195 E.17027
G1 X168.689 Y26.195 E.23616
G1 X168.689 Y23.195 E.15056
G1 X171.268 Y23.195 E.12947
G1 X171.268 Y167.876 E7.26092
G1 X8.732 Y167.876 E8.15705
G1 X8.732 Y12.124 E7.81652
G1 X150.019 Y12.124 E7.09066
G1 X150.019 Y14.652 E.12687
G1 E-.7 F3600
;WIPE_START
G1 F6240
G1 X150.019 Y14.132 E-.285
;WIPE_END
G1 E-.015 F3600
G1 X170.857 Y167.72 F7800
G1 E1 F2400
G1 F1800
G1 X170.857 Y23.506 E7.23755
G1 X170.474 Y23.506 E.01923
G1 X170.474 Y167.565 E7.22977
G1 X170.091 Y167.565 E.01923
G1 X170.091 Y23.506 E7.22977
G1 X169.708 Y23.506 E.01923
G1 X169.708 Y167.565 E7.22977
G1 X169.324 Y167.565 E.01923
M73 P0 R578
G1 X169.324 Y23.506 E7.22977
G1 X168.999 Y23.506 E.01634
G1 X168.999 Y26.506 E.15056
G1 X168.941 Y26.506 E.00289
G1 X168.941 Y167.565 E7.07921
G1 X168.558 Y167.565 E.01923
G1 X168.558 Y26.506 E7.07921
G1 X168.175 Y26.506 E.01923
G1 X168.175 Y167.565 E7.07921
G1 X167.792 Y167.565 E.01923
G1 X167.792 Y26.506 E7.07921
G1 X167.408 Y26.506 E.01923
G1 X167.408 Y167.565 E7.07921
G1 X167.025 Y167.565 E.01923
G1 X167.025 Y26.506 E7.07921
G1 X166.642 Y26.506 E.01923
G1 X166.642 Y167.565 E7.07921
G1 X166.259 Y167.565 E.01923
G1 X166.259 Y26.506 E7.07921
G1 X165.876 Y26.506 E.01923
G1 X165.876 Y167.565 E7.07921
G1 X165.492 Y167.565 E.01923
G1 X165.492 Y26.506 E7.07921
G1 X165.109 Y26.506 E.01923
G1 X165.109 Y167.565 E7.07921
G1 X164.726 Y167.565 E.01923
M73 P0 R577
G1 X164.726 Y26.506 E7.07921
G1 X164.343 Y26.506 E.01923
G1 X164.343 Y167.565 E7.07921
G1 X163.96 Y167.565 E.01923
G1 X163.96 Y26.506 E7.07921
G1 X163.673 Y26.506 E.0144
G1 X163.673 Y23.113 E.17027
G1 X163.576 Y23.113 E.00483
G1 X163.576 Y167.565 E7.24947
G1 X163.193 Y167.565 E.01923
G1 X163.193 Y23.113 E7.24947
G1 X162.81 Y23.113 E.01923
G1 X162.81 Y167.565 E7.24947
G1 X162.427 Y167.565 E.01923
G1 X162.427 Y23.113 E7.24947
G1 X162.043 Y23.113 E.01923
G1 X162.043 Y167.565 E7.24947
G1 X161.66 Y167.565 E.01923
G1 X161.66 Y23.113 E7.24947
G1 X161.277 Y23.113 E.01923
G1 X161.277 Y167.565 E7.24947
G1 X160.894 Y167.565 E.01923
G1 X160.894 Y23.113 E7.24947
G1 X160.511 Y23.113 E.01923
G1 X160.511 Y167.565 E7.24947
G1 X160.127 Y167.565 E.01923
G1 X160.127 Y23.113 E7.24947
G1 X159.744 Y23.113 E.01923
M73 P0 R576
G1 X159.744 Y167.565 E7.24947
G1 X159.361 Y167.565 E.01923
G1 X159.361 Y23.113 E7.24947
G1 X158.978 Y23.113 E.01923
G1 X158.978 Y167.565 E7.24947
G1 X158.595 Y167.565 E.01923
G1 X158.595 Y23.113 E7.24947
G1 X158.211 Y23.113 E.01923
G1 X158.211 Y167.565 E7.24947
G1 X157.828 Y167.565 E.01923
G1 X157.828 Y23.113 E7.24947
G1 X157.445 Y23.113 E.01923
G1 X157.445 Y167.565 E7.24947
G1 X157.062 Y167.565 E.01923
G1 X157.062 Y23.113 E7.24947
G1 X156.679 Y23.113 E.01923
G1 X156.679 Y167.565 E7.24947
G1 X156.295 Y167.565 E.01923
G1 X156.295 Y23.113 E7.24947
G1 X155.912 Y23.113 E.01923
G1 X155.912 Y167.565 E7.24947
G1 X155.529 Y167.565 E.01923
G1 X155.529 Y23.113 E7.24947
G1 X155.146 Y23.113 E.01923
M73 P0 R575
G1 X155.146 Y167.565 E7.24947
G1 X154.762 Y167.565 E.01923
G1 X154.762 Y23.113 E7.24947
G1 X154.379 Y23.113 E.01923
G1 X154.379 Y167.565 E7.24947
G1 X153.996 Y167.565 E.01923
G1 X153.996 Y23.113 E7.24947
G1 X153.613 Y23.113 E.01923
G1 X153.613 Y167.565 E7.24947
G1 X153.23 Y167.565 E.01923
G1 X153.23 Y19.72 E7.41974
G1 X152.846 Y19.72 E.01923
G1 X152.846 Y167.565 E7.41974
G1 X152.463 Y167.565 E.01923
G1 X152.463 Y19.72 E7.41974
G1 X152.08 Y19.72 E.01923
G1 X152.08 Y167.565 E7.41974
G1 X151.697 Y167.565 E.01923
G1 X151.697 Y19.72 E7.41974
G1 X151.314 Y19.72 E.01923
G1 X151.314 Y167.565 E7.41974
G1 X150.93 Y167.565 E.01923
G1 X150.93 Y19.72 E7.41974
G1 X150.547 Y19.72 E.01923
M73 P0 R574
G1 X150.547 Y167.565 E7.41974
G1 X150.164 Y167.565 E.01923
G1 X150.164 Y19.72 E7.41974
G1 X149.781 Y19.72 E.01923
G1 X149.781 Y167.565 E7.41974
G1 X149.398 Y167.565 E.01923
G1 X149.398 Y19.72 E7.41974
G1 X149.014 Y19.72 E.01923
G1 X149.014 Y167.565 E7.41974
G1 X148.631 Y167.565 E.01923
G1 X148.631 Y19.72 E7.41974
G1 X148.248 Y19.72 E.01923
G1 X148.248 Y167.565 E7.41974
G1 X147.865 Y167.565 E.01923
G1 X147.865 Y19.72 E7.41974
G1 X147.482 Y19.72 E.01923
G1 X147.481 Y167.565 E7.41974
G1 X147.098 Y167.565 E.01923
G1 X147.098 Y19.565 E7.42753
G1 E-.7 F3600
;WIPE_START
M73 P1 R574
G1 F6240
G1 X147.098 Y20.085 E-.285
;WIPE_END
G1 E-.015 F3600
G1 X149.398 Y14.549 F7800
G1 E1 F2400
G1 F1800
G1 X149.398 Y12.435 E.1061
G1 X149.014 Y12.435 E.01923
G1 X149.014 Y14.394 E.09831
G1 X148.631 Y14.394 E.01923
G1 X148.631 Y12.435 E.09831
G1 X148.248 Y12.435 E.01923
G1 X148.248 Y14.394 E.09831
G1 X147.865 Y14.394 E.01923
G1 X147.865 Y12.435 E.09831
G1 X147.482 Y12.435 E.01923
G1 X147.482 Y14.394 E.09831
G1 X147.098 Y14.394 E.01923
G1 X147.098 Y12.435 E.09831
G1 X146.715 Y12.435 E.01923
G1 X146.715 Y167.565 E7.78536
G1 X146.332 Y167.565 E.01923
G1 X146.332 Y12.435 E7.78536
G1 X145.949 Y12.435 E.01923
M73 P1 R573
G1 X145.949 Y167.565 E7.78536
G1 X145.565 Y167.565 E.01923
G1 X145.565 Y12.435 E7.78536
G1 X145.182 Y12.435 E.01923
G1 X145.182 Y167.565 E7.78536
G1 X144.799 Y167.565 E.01923
G1 X144.799 Y12.435 E7.78536
G1 X144.416 Y12.435 E.01923
G1 X144.416 Y167.565 E7.78536
G1 X144.033 Y167.565 E.01923
G1 X144.033 Y12.435 E7.78536
G1 X143.649 Y12.435 E.01923
G1 X143.649 Y167.565 E7.78536
G1 X143.266 Y167.565 E.01923
G1 X143.266 Y12.435 E7.78536
G1 X142.883 Y12.435 E.01923
G1 X142.883 Y167.565 E7.78536
G1 X142.5 Y167.565 E.01923
G1 X142.5 Y12.435 E7.78536
G1 X142.117 Y12.435 E.01923
G1 X142.117 Y167.565 E7.78536
G1 X141.733 Y167.565 E.01923
M73 P1 R572
G1 X141.733 Y12.435 E7.78536
G1 X141.35 Y12.435 E.01923
G1 X141.35 Y167.565 E7.78536
G1 X140.967 Y167.565 E.01923
G1 X140.967 Y12.435 E7.78536
G1 X140.584 Y12.435 E.01923
G1 X140.584 Y167.565 E7.78536
G1 X140.2 Y167.565 E.01923
G1 X140.201 Y12.435 E7.78536
G1 X139.817 Y12.435 E.01923
G1 X139.817 Y167.565 E7.78536
G1 X139.434 Y167.565 E.01923
G1 X139.434 Y12.435 E7.78536
G1 X139.051 Y12.435 E.01923
G1 X139.051 Y167.565 E7.78536
G1 X138.668 Y167.565 E.01923
G1 X138.668 Y12.435 E7.78536
G1 X138.284 Y12.435 E.01923
G1 X138.284 Y167.565 E7.78536
G1 X137.901 Y167.565 E.01923
G1 X137.901 Y12.435 E7.78536
G1 X137.518 Y12.435 E.01923
G1 X137.518 Y167.565 E7.78536
G1 X137.135 Y167.565 E.01923
M73 P1 R571
G1 X137.135 Y12.435 E7.78536
G1 X136.752 Y12.435 E.01923
G1 X136.752 Y167.565 E7.78536
G1 X136.368 Y167.565 E.01923
G1 X136.368 Y12.435 E7.78536
G1 X135.985 Y12.435 E.01923
G1 X135.985 Y167.565 E7.78536
G1 X135.602 Y167.565 E.01923
G1 X135.602 Y12.435 E7.78536
G1 X135.219 Y12.435 E.01923
G1 X135.219 Y167.565 E7.78536
G1 X134.836 Y167.565 E.01923
G1 X134.836 Y12.435 E7.78536
G1 X134.452 Y12.435 E.01923
G1 X134.452 Y167.565 E7.78536
G1 X134.069 Y167.565 E.01923
G1 X134.069 Y12.435 E7.78536
G1 X133.686 Y12.435 E.01923
G1 X133.686 Y167.565 E7.78536
G1 X133.303 Y167.565 E.01923
G1 X133.303 Y12.435 E7.78536
G1 X132.92 Y12.435 E.01923
M73 P1 R570
G1 X132.92 Y167.565 E7.78536
G1 X132.536 Y167.565 E.01923
G1 X132.536 Y12.435 E7.78536
G1 X132.153 Y12.435 E.01923
G1 X132.153 Y167.565 E7.78536
G1 X131.77 Y167.565 E.01923
G1 X131.77 Y12.435 E7.78536
G1 X131.387 Y12.435 E.01923
G1 X131.387 Y167.565 E7.78536
G1 X131.003 Y167.565 E.01923
G1 X131.003 Y12.435 E7.78536
G1 X130.62 Y12.435 E.01923
G1 X130.62 Y167.565 E7.78536
G1 X130.237 Y167.565 E.01923
G1 X130.237 Y12.435 E7.78536
G1 X129.854 Y12.435 E.01923
G1 X129.854 Y167.565 E7.78536
G1 X129.471 Y167.565 E.01923
G1 X129.471 Y12.435 E7.78536
G1 X129.087 Y12.435 E.01923
G1 X129.087 Y167.565 E7.78536
G1 X128.704 Y167.565 E.01923
G1 X128.704 Y12.435 E7.78536
G1 X128.321 Y12.435 E.01923
M73 P1 R569
G1 X128.321 Y167.565 E7.78536
G1 X127.938 Y167.565 E.01923
G1 X127.938 Y12.435 E7.78536
G1 X127.555 Y12.435 E.01923
G1 X127.555 Y167.565 E7.78536
G1 X127.171 Y167.565 E.01923
G1 X127.171 Y12.435 E7.78536
G1 X126.788 Y12.435 E.01923
G1 X126.788 Y167.565 E7.78536
G1 X126.405 Y167.565 E.01923
G1 X126.405 Y12.435 E7.78536
G1 X126.022 Y12.435 E.01923
G1 X126.022 Y167.565 E7.78536
G1 X125.639 Y167.565 E.01923
G1 X125.639 Y12.435 E7.78536
G1 X125.255 Y12.435 E.01923
G1 X125.255 Y167.565 E7.78536
G1 X124.872 Y167.565 E.01923
G1 X124.872 Y12.435 E7.78536
G1 X124.489 Y12.435 E.01923
G1 X124.489 Y167.565 E7.78536
G1 X124.106 Y167.565 E.01923
M73 P1 R568
G1 X124.106 Y12.435 E7.78536
G1 X123.722 Y12.435 E.01923
G1 X123.722 Y167.565 E7.78536
G1 X123.339 Y167.565 E.01923
G1 X123.339 Y12.435 E7.78536
G1 X122.956 Y12.435 E.01923
G1 X122.956 Y167.565 E7.78536
G1 X122.573 Y167.565 E.01923
G1 X122.573 Y12.435 E7.78536
G1 X122.19 Y12.435 E.01923
G1 X122.19 Y167.565 E7.78536
G1 X121.806 Y167.565 E.01923
G1 X121.806 Y12.435 E7.78536
G1 X121.423 Y12.435 E.01923
M73 P2 R568
G1 X121.423 Y167.565 E7.78536
G1 X121.04 Y167.565 E.01923
G1 X121.04 Y12.435 E7.78536
G1 X120.657 Y12.435 E.01923
G1 X120.657 Y167.565 E7.78536
G1 X120.274 Y167.565 E.01923
G1 X120.274 Y12.435 E7.78536
G1 X119.89 Y12.435 E.01923
G1 X119.89 Y167.565 E7.78536
G1 X119.507 Y167.565 E.01923
M73 P2 R567
G1 X119.507 Y12.435 E7.78536
G1 X119.124 Y12.435 E.01923
G1 X119.124 Y167.565 E7.78536
G1 X118.741 Y167.565 E.01923
G1 X118.741 Y12.435 E7.78536
G1 X118.358 Y12.435 E.01923
G1 X118.358 Y167.565 E7.78536
G1 X117.974 Y167.565 E.01923
G1 X117.974 Y12.435 E7.78536
G1 X117.591 Y12.435 E.01923
G1 X117.591 Y167.565 E7.78536
G1 X117.208 Y167.565 E.01923
G1 X117.208 Y12.435 E7.78536
G1 X116.825 Y12.435 E.01923
G1 X116.825 Y167.565 E7.78536
G1 X116.441 Y167.565 E.01923
G1 X116.441 Y12.435 E7.78536
G1 X116.058 Y12.435 E.01923
G1 X116.058 Y167.565 E7.78536
G1 X115.675 Y167.565 E.01923
G1 X115.675 Y12.435 E7.78536
G1 X115.292 Y12.435 E.01923
M73 P2 R566
G1 X115.292 Y167.565 E7.78536
G1 X114.909 Y167.565 E.01923
G1 X114.909 Y12.435 E7.78536
G1 X114.525 Y12.435 E.01923
G1 X114.525 Y167.565 E7.78536
G1 X114.142 Y167.565 E.01923
G1 X114.142 Y12.435 E7.78536
G1 X113.759 Y12.435 E.01923
G1 X113.759 Y167.565 E7.78536
G1 X113.376 Y167.565 E.01923
G1 X113.376 Y12.435 E7.78536
G1 X112.993 Y12.435 E.01923
G1 X112.993 Y167.565 E7.78536
G1 X112.609 Y167.565 E.01923
G1 X112.609 Y12.435 E7.78536
G1 X112.226 Y12.435 E.01923
G1 X112.226 Y167.565 E7.78536
G1 X111.843 Y167.565 E.01923
G1 X111.843 Y12.435 E7.78536
G1 X111.46 Y12.435 E.01923
G1 X111.46 Y167.565 E7.78536
G1 X111.077 Y167.565 E.01923
G1 X111.077 Y12.435 E7.78536
G1 X110.693 Y12.435 E.01923
M73 P2 R565
G1 X110.693 Y167.565 E7.78536
G1 X110.31 Y167.565 E.01923
G1 X110.31 Y12.435 E7.78536
G1 X109.927 Y12.435 E.01923
G1 X109.927 Y167.565 E7.78536
G1 X109.544 Y167.565 E.01923
G1 X109.544 Y12.435 E7.78536
G1 X109.161 Y12.435 E.01923
G1 X109.16 Y167.565 E7.78536
G1 X108.777 Y167.565 E.01923
G1 X108.777 Y12.435 E7.78536
G1 X108.394 Y12.435 E.01923
G1 X108.394 Y167.565 E7.78536
G1 X108.011 Y167.565 E.01923
G1 X108.011 Y12.435 E7.78536
G1 X107.628 Y12.435 E.01923
G1 X107.628 Y167.565 E7.78536
G1 X107.244 Y167.565 E.01923
G1 X107.244 Y12.435 E7.78536
G1 X106.861 Y12.435 E.01923
G1 X106.861 Y167.565 E7.78536
G1 X106.478 Y167.565 E.01923
M73 P2 R564
G1 X106.478 Y12.435 E7.78536
G1 X106.095 Y12.435 E.01923
G1 X106.095 Y167.565 E7.78536
G1 X105.712 Y167.565 E.01923
G1 X105.712 Y12.435 E7.78536
G1 X105.328 Y12.435 E.01923
G1 X105.328 Y167.565 E7.78536
G1 X104.945 Y167.565 E.01923
G1 X104.945 Y12.435 E7.78536
G1 X104.562 Y12.435 E.01923
G1 X104.562 Y167.565 E7.78536
G1 X104.179 Y167.565 E.01923
G1 X104.179 Y12.435 E7.78536
G1 X103.796 Y12.435 E.01923
G1 X103.796 Y167.565 E7.78536
G1 X103.412 Y167.565 E.01923
G1 X103.412 Y12.435 E7.78536
G1 X103.029 Y12.435 E.01923
G1 X103.029 Y167.565 E7.78536
G1 X102.646 Y167.565 E.01923
G1 X102.646 Y12.435 E7.78536
G1 X102.263 Y12.435 E.01923
M73 P2 R563
G1 X102.263 Y167.565 E7.78536
G1 X101.879 Y167.565 E.01923
G1 X101.88 Y12.435 E7.78536
G1 X101.496 Y12.435 E.01923
G1 X101.496 Y167.565 E7.78536
G1 X101.113 Y167.565 E.01923
G1 X101.113 Y12.435 E7.78536
G1 X100.73 Y12.435 E.01923
G1 X100.73 Y167.565 E7.78536
G1 X100.347 Y167.565 E.01923
G1 X100.347 Y12.435 E7.78536
G1 X99.963 Y12.435 E.01923
G1 X99.963 Y167.565 E7.78536
G1 X99.58 Y167.565 E.01923
G1 X99.58 Y12.435 E7.78536
G1 X99.197 Y12.435 E.01923
G1 X99.197 Y167.565 E7.78536
G1 X98.814 Y167.565 E.01923
G1 X98.814 Y12.435 E7.78536
G1 X98.431 Y12.435 E.01923
G1 X98.431 Y167.565 E7.78536
G1 X98.047 Y167.565 E.01923
G1 X98.047 Y12.435 E7.78536
G1 X97.664 Y12.435 E.01923
M73 P2 R562
G1 X97.664 Y167.565 E7.78536
G1 X97.281 Y167.565 E.01923
G1 X97.281 Y12.435 E7.78536
G1 X96.898 Y12.435 E.01923
G1 X96.898 Y167.565 E7.78536
G1 X96.515 Y167.565 E.01923
G1 X96.515 Y12.435 E7.78536
G1 X96.131 Y12.435 E.01923
M73 P3 R562
G1 X96.131 Y167.565 E7.78536
G1 X95.748 Y167.565 E.01923
G1 X95.748 Y12.435 E7.78536
G1 X95.365 Y12.435 E.01923
G1 X95.365 Y167.565 E7.78536
G1 X94.982 Y167.565 E.01923
G1 X94.982 Y12.435 E7.78536
