; generated by PrusaSlicer 2.5.0+win64 on 2022-12-07 at 00:09:20 UTC

; 

; external perimeters extrusion width = 1.00mm
; perimeters extrusion width = 1.00mm
; infill extrusion width = 1.00mm
; solid infill extrusion width = 1.00mm
; top infill extrusion width = 1.00mm
; support material extrusion width = 1.00mm
; first layer extrusion width = 0.42mm

M73 P0 R320
M107
;TYPE:Custom
G90 ; use absolute coordinates
M83 ; extruder relative mode
M140 S60 ; set final bed temp
M104 S150 ; set temporary nozzle temp to prevent oozing during homing and auto bed leveling
G4 S10 ; allow partial nozzle warmup
G28 ; home all axisG1 Z50 F240
G1 X7.6 Y10 F3000
M104 S210 ; set final nozzle temp
M190 S60 ; wait for bed temp to stabilize
M109 S210 ; wait for nozzle temp to stabilize
G1 Z0.28 F240
G92 E0
G1 Y140 E10 F1500 ; prime the nozzle
G1 X4 F5000
G92 E0
G1 Y10 E10 F1200 ; prime the nozzle
G92 E0
G21 ; set units to millimeters
G90 ; use absolute coordinates
M83 ; use relative distances for extrusion
; Filament gcode
M107
;LAYER_CHANGE
;Z:0.35
;HEIGHT:0.35
;BEFORE_LAYER_CHANGE
G92 E0
;0.35


G1 E-1 F3600
G1 Z.35 F7800
;AFTER_LAYER_CHANGE
;0.35
G1 X103.837 Y19.155
G1 E1 F2400
;TYPE:Support material interface
;WIDTH:1
G1 F1800
G1 X103.837 Y15.361 E.51067
G1 X104.729 Y15.361 E.12014
G1 X104.729 Y18.753 E.45661
G1 X105.622 Y18.753 E.12014
G1 X105.622 Y15.361 E.45661
G1 X106.515 Y15.361 E.12014
G1 X106.515 Y18.753 E.45661
G1 X106.963 Y18.753 E.06037
G1 X106.963 Y22.146 E.4566
G1 X107.408 Y22.146 E.05977
G1 X107.408 Y15.361 E.91321
G1 X108.3 Y15.361 E.12014
G1 X108.3 Y22.146 E.91321
G1 X109.193 Y22.146 E.12014
G1 X109.193 Y15.361 E.91321
G1 X110.086 Y15.361 E.12014
G1 X110.086 Y52.68 E5.02262
G1 X110.978 Y52.68 E.12014
G1 X110.978 Y15.361 E5.02262
G1 X111.871 Y15.361 E.12014
G1 X111.871 Y52.68 E5.02262
G1 X112.764 Y52.68 E.12014
G1 X112.764 Y15.361 E5.02262
G1 X113.656 Y15.361 E.12014
G1 X113.656 Y56.475 E5.53329
G1 E-.7 F3600
;WIPE_START
M73 P0 R319
G1 F6240
G1 X113.656 Y55.955 E-.285
;WIPE_END
G1 E-.015 F3600
G1 X109.193 Y53.082 F7800
G1 E1 F2400
G1 F1800
G1 X109.193 Y35.717 E2.33708
G1 X108.3 Y35.717 E.12014
G1 X108.3 Y52.68 E2.28301
G1 X107.408 Y52.68 E.12014
G1 X107.408 Y35.315 E2.33708
G1 E-.7 F3600
;WIPE_START
G1 F6240
G1 X107.408 Y35.835 E-.285
;WIPE_END
G1 E-.015 F3600
G1 X119.905 Y56.475 F7800
G1 E1 F2400
G1 F1800
G1 X119.905 Y15.361 E5.53329
G1 X119.013 Y15.361 E.12014
G1 X119.013 Y56.073 E5.47922
G1 X118.12 Y56.073 E.12014
G1 X118.12 Y15.361 E5.47922
G1 X117.227 Y15.361 E.12014
G1 X117.227 Y56.073 E5.47922
G1 X116.335 Y56.073 E.12014
G1 X116.335 Y42.502 E1.82641
G1 X115.442 Y42.502 E.12014
G1 X115.442 Y56.073 E1.82641
G1 X114.549 Y56.073 E.12014
G1 X114.549 Y42.502 E1.82641
G1 X113.749 Y42.502 E.1077
G1 X113.749 Y35.717 E.9132
G1 X114.549 Y35.717 E.1077
G1 X114.549 Y15.361 E2.73961
G1 X115.442 Y15.361 E.12014
G1 X115.442 Y35.717 E2.73961
G1 X116.335 Y35.717 E.12014
G1 X116.335 Y14.959 E2.79368
G1 E-.7 F3600
;WIPE_START
G1 F6240
G1 X116.335 Y15.479 E-.285
;WIPE_END
G1 E-.015 F3600
G1 X105.914 Y14.704 F7800
G1 E1 F2400
;TYPE:Support material
;WIDTH:0.42
G1 F1800
G1 X102.914 Y14.704 E.15056
G1 X102.914 Y19.41 E.23616
G1 X106.307 Y19.41 E.17027
G1 X106.307 Y22.803 E.17027
G1 X109.7 Y22.803 E.17027
G1 X109.7 Y35.06 E.61517
G1 X106.307 Y35.06 E.17027
G1 X106.307 Y53.337 E.91722
G1 X113.092 Y53.337 E.34053
G1 X113.092 Y56.73 E.17027
G1 X119.878 Y56.73 E.34053
G1 X119.878 Y60.122 E.17027
G1 X130.056 Y60.122 E.5108
G1 X130.056 Y63.515 E.17027
G1 X140.234 Y63.515 E.5108
G1 X140.234 Y66.908 E.17027
G1 X150.412 Y66.908 E.5108
G1 X150.412 Y70.3 E.17027
G1 X157.198 Y70.3 E.34053
G1 X157.198 Y73.693 E.17027
G1 X168.689 Y73.693 E.57669
G1 X168.689 Y70.693 E.15056
G1 X171.268 Y70.693 E.12947
G1 X171.268 Y167.876 E4.8772
G1 X8.732 Y167.876 E8.15705
G1 X8.732 Y137.654 E1.51669
G1 X22.302 Y137.654 E.68106
G1 X22.302 Y134.262 E.17027
G1 X49.444 Y134.262 E1.36213
G1 X49.444 Y130.869 E.17027
G1 X79.978 Y130.869 E1.53239
G1 X79.978 Y127.476 E.17027
G1 X83.371 Y127.476 E.17027
G1 X83.371 Y120.691 E.34053
G1 X90.156 Y120.691 E.34053
G1 X90.156 Y117.298 E.17027
G1 X100.335 Y117.298 E.5108
G1 X100.335 Y113.905 E.17027
G1 X107.12 Y113.905 E.34053
G1 X107.12 Y110.513 E.17027
G1 X113.905 Y110.513 E.34053
G1 X113.905 Y107.12 E.17027
G1 X124.083 Y107.12 E.5108
G1 X124.083 Y103.727 E.17027
G1 X130.869 Y103.727 E.34053
G1 X130.869 Y100.022 E.18597
G1 X124.083 Y100.022 E.34053
G1 X124.083 Y96.629 E.17027
G1 X113.905 Y96.629 E.5108
G1 X113.905 Y93.236 E.17027
G1 X103.727 Y93.236 E.5108
G1 X103.727 Y89.844 E.17027
G1 X93.549 Y89.844 E.5108
G1 X93.549 Y86.451 E.17027
G1 X83.371 Y86.451 E.5108
G1 X83.371 Y83.058 E.17027
G1 X73.193 Y83.058 E.5108
G1 X73.193 Y79.665 E.17027
G1 X66.408 Y79.665 E.34053
G1 X66.408 Y76.273 E.17027
G1 X56.229 Y76.273 E.5108
G1 X56.229 Y72.88 E.17027
G1 X46.051 Y72.88 E.5108
G1 X46.051 Y69.487 E.17027
G1 X35.873 Y69.487 E.5108
G1 X35.873 Y66.095 E.17027
G1 X25.695 Y66.095 E.5108
G1 X25.695 Y62.702 E.17027
G1 X15.517 Y62.702 E.5108
G1 X15.517 Y59.309 E.17027
G1 X8.732 Y59.309 E.34053
G1 X8.732 Y12.124 E2.36802
G1 X105.914 Y12.124 E4.8772
G1 X105.914 Y14.652 E.12687
G1 E-.7 F3600
;WIPE_START
G1 F6240
G1 X105.914 Y14.132 E-.285
;WIPE_END
G1 E-.015 F3600
G1 X170.857 Y167.72 F7800
G1 E1 F2400
G1 F1800
G1 X170.857 Y71.003 E4.85383
G1 X170.474 Y71.003 E.01923
G1 X170.474 Y167.565 E4.84605
G1 X170.091 Y167.565 E.01923
G1 X170.091 Y71.003 E4.84605
G1 X169.708 Y71.003 E.01923
G1 X169.708 Y167.565 E4.84605
G1 X169.324 Y167.565 E.01923
M73 P0 R318
G1 X169.324 Y71.003 E4.84605
G1 X168.999 Y71.003 E.01634
G1 X168.999 Y74.003 E.15056
G1 X168.941 Y74.003 E.00289
G1 X168.941 Y167.565 E4.69549
G1 X168.558 Y167.565 E.01923
G1 X168.558 Y74.003 E4.69549
G1 X168.175 Y74.003 E.01923
G1 X168.175 Y167.565 E4.69549
G1 X167.792 Y167.565 E.01923
G1 X167.792 Y74.003 E4.69549
G1 X167.408 Y74.003 E.01923
G1 X167.408 Y167.565 E4.69549
G1 X167.025 Y167.565 E.01923
G1 X167.025 Y74.003 E4.69549
G1 X166.642 Y74.003 E.01923
G1 X166.642 Y167.565 E4.69549
G1 X166.259 Y167.565 E.01923
G1 X166.259 Y74.003 E4.69549
G1 X165.876 Y74.003 E.01923
G1 X165.876 Y167.565 E4.69549
G1 X165.492 Y167.565 E.01923
G1 X165.492 Y74.003 E4.69549
G1 X165.109 Y74.003 E.01923
G1 X165.109 Y167.565 E4.69549
G1 X164.726 Y167.565 E.01923
G1 X164.726 Y74.003 E4.69549
G1 X164.343 Y74.003 E.01923
G1 X164.343 Y167.565 E4.69549
G1 X163.96 Y167.565 E.01923
G1 X163.96 Y74.003 E4.69549
G1 X163.576 Y74.003 E.01923
G1 X163.576 Y167.565 E4.69549
G1 X163.193 Y167.565 E.01923
G1 X163.193 Y74.003 E4.69549
G1 X162.81 Y74.003 E.01923
G1 X162.81 Y167.565 E4.69549
G1 X162.427 Y167.565 E.01923
G1 X162.427 Y74.003 E4.69549
G1 X162.043 Y74.003 E.01923
M73 P0 R317
G1 X162.043 Y167.565 E4.69549
G1 X161.66 Y167.565 E.01923
G1 X161.66 Y74.003 E4.69549
G1 X161.277 Y74.003 E.01923
G1 X161.277 Y167.565 E4.69549
G1 X160.894 Y167.565 E.01923
G1 X160.894 Y74.003 E4.69549
G1 X160.511 Y74.003 E.01923
G1 X160.511 Y167.565 E4.69549
G1 X160.127 Y167.565 E.01923
G1 X160.127 Y74.003 E4.69549
G1 X159.744 Y74.003 E.01923
G1 X159.744 Y167.565 E4.69549
G1 X159.361 Y167.565 E.01923
G1 X159.361 Y74.003 E4.69549
G1 X158.978 Y74.003 E.01923
G1 X158.978 Y167.565 E4.69549
G1 X158.595 Y167.565 E.01923
G1 X158.595 Y74.003 E4.69549
G1 X158.211 Y74.003 E.01923
G1 X158.211 Y167.565 E4.69549
G1 X157.828 Y167.565 E.01923
G1 X157.828 Y74.003 E4.69549
G1 X157.445 Y74.003 E.01923
G1 X157.445 Y167.565 E4.69549
G1 X157.062 Y167.565 E.01923
G1 X157.062 Y74.003 E4.69549
G1 X156.887 Y74.003 E.00876
G1 X156.887 Y70.611 E.17027
G1 X156.679 Y70.611 E.01047
G1 X156.679 Y167.565 E4.86575
G1 X156.295 Y167.565 E.01923
G1 X156.295 Y70.611 E4.86575
G1 X155.912 Y70.611 E.01923
M73 P1 R317
G1 X155.912 Y167.565 E4.86575
G1 X155.529 Y167.565 E.01923
G1 X155.529 Y70.611 E4.86575
G1 X155.146 Y70.611 E.01923
M73 P1 R316
G1 X155.146 Y167.565 E4.86575
G1 X154.762 Y167.565 E.01923
G1 X154.762 Y70.611 E4.86575
G1 X154.379 Y70.611 E.01923
G1 X154.379 Y167.565 E4.86575
G1 X153.996 Y167.565 E.01923
G1 X153.996 Y70.611 E4.86575
G1 X153.613 Y70.611 E.01923
G1 X153.613 Y167.565 E4.86575
G1 X153.23 Y167.565 E.01923
G1 X153.23 Y70.611 E4.86575
G1 X152.846 Y70.611 E.01923
G1 X152.846 Y167.565 E4.86575
G1 X152.463 Y167.565 E.01923
G1 X152.463 Y70.611 E4.86575
G1 X152.08 Y70.611 E.01923
G1 X152.08 Y167.565 E4.86575
G1 X151.697 Y167.565 E.01923
G1 X151.697 Y70.611 E4.86575
G1 X151.314 Y70.611 E.01923
G1 X151.314 Y167.565 E4.86575
G1 X150.93 Y167.565 E.01923
G1 X150.93 Y70.611 E4.86575
G1 X150.547 Y70.611 E.01923
G1 X150.547 Y167.565 E4.86575
G1 X150.164 Y167.565 E.01923
G1 X150.164 Y70.611 E4.86575
G1 X150.102 Y70.611 E.00312
G1 X150.102 Y67.218 E.17027
G1 X149.781 Y67.218 E.01611
G1 X149.781 Y167.565 E5.03602
G1 X149.398 Y167.565 E.01923
G1 X149.398 Y67.218 E5.03602
G1 X149.014 Y67.218 E.01923
G1 X149.014 Y167.565 E5.03602
G1 X148.631 Y167.565 E.01923
G1 X148.631 Y67.218 E5.03602
G1 X148.248 Y67.218 E.01923
M73 P1 R315
G1 X148.248 Y167.565 E5.03602
G1 X147.865 Y167.565 E.01923
G1 X147.865 Y67.218 E5.03602
G1 X147.481 Y67.218 E.01923
G1 X147.481 Y167.565 E5.03602
G1 X147.098 Y167.565 E.01923
G1 X147.098 Y67.218 E5.03602
G1 X146.715 Y67.218 E.01923
G1 X146.715 Y167.565 E5.03602
G1 X146.332 Y167.565 E.01923
G1 X146.332 Y67.218 E5.03602
G1 X145.949 Y67.218 E.01923
G1 X145.949 Y167.565 E5.03602
G1 X145.565 Y167.565 E.01923
G1 X145.565 Y67.218 E5.03602
G1 X145.182 Y67.218 E.01923
G1 X145.182 Y167.565 E5.03602
G1 X144.799 Y167.565 E.01923
G1 X144.799 Y67.218 E5.03602
G1 X144.416 Y67.218 E.01923
G1 X144.416 Y167.565 E5.03602
G1 X144.033 Y167.565 E.01923
G1 X144.033 Y67.218 E5.03602
G1 X143.649 Y67.218 E.01923
G1 X143.649 Y167.565 E5.03602
G1 X143.266 Y167.565 E.01923
G1 X143.266 Y67.218 E5.03602
G1 X142.883 Y67.218 E.01923
G1 X142.883 Y167.565 E5.03602
G1 X142.5 Y167.565 E.01923
G1 X142.5 Y67.218 E5.03602
G1 X142.117 Y67.218 E.01923
G1 X142.117 Y167.565 E5.03602
G1 X141.733 Y167.565 E.01923
G1 X141.733 Y67.218 E5.03602
G1 X141.35 Y67.218 E.01923
M73 P1 R314
G1 X141.35 Y167.565 E5.03602
G1 X140.967 Y167.565 E.01923
G1 X140.967 Y67.218 E5.03602
G1 X140.584 Y67.218 E.01923
G1 X140.584 Y167.565 E5.03602
G1 X140.201 Y167.565 E.01923
G1 X140.201 Y67.218 E5.03602
G1 X139.924 Y67.218 E.0139
G1 X139.924 Y63.825 E.17027
G1 X139.817 Y63.825 E.00534
G1 X139.817 Y167.565 E5.20629
G1 X139.434 Y167.565 E.01923
G1 X139.434 Y63.825 E5.20629
G1 X139.051 Y63.825 E.01923
G1 X139.051 Y167.565 E5.20629
G1 X138.668 Y167.565 E.01923
G1 X138.668 Y63.825 E5.20629
G1 X138.284 Y63.825 E.01923
G1 X138.284 Y167.565 E5.20629
G1 X137.901 Y167.565 E.01923
G1 X137.901 Y63.825 E5.20629
G1 X137.518 Y63.825 E.01923
G1 X137.518 Y167.565 E5.20629
G1 X137.135 Y167.565 E.01923
G1 X137.135 Y63.825 E5.20629
G1 X136.752 Y63.825 E.01923
G1 X136.752 Y167.565 E5.20629
G1 X136.368 Y167.565 E.01923
G1 X136.368 Y63.825 E5.20629
G1 X135.985 Y63.825 E.01923
G1 X135.985 Y167.565 E5.20629
G1 X135.602 Y167.565 E.01923
G1 X135.602 Y63.825 E5.20629
G1 X135.219 Y63.825 E.01923
G1 X135.219 Y167.565 E5.20629
G1 X134.836 Y167.565 E.01923
M73 P1 R313
G1 X134.836 Y63.825 E5.20629
G1 X134.452 Y63.825 E.01923
M73 P2 R313
G1 X134.452 Y167.565 E5.20629
G1 X134.069 Y167.565 E.01923
G1 X134.069 Y63.825 E5.20629
G1 X133.686 Y63.825 E.01923
G1 X133.686 Y167.565 E5.20629
G1 X133.303 Y167.565 E.01923
G1 X133.303 Y63.825 E5.20629
G1 X132.92 Y63.825 E.01923
G1 X132.92 Y167.565 E5.20629
G1 X132.536 Y167.565 E.01923
G1 X132.536 Y63.825 E5.20629
G1 X132.153 Y63.825 E.01923
G1 X132.153 Y167.565 E5.20629
G1 X131.77 Y167.565 E.01923
G1 X131.77 Y63.825 E5.20629
G1 X131.387 Y63.825 E.01923
G1 X131.387 Y167.565 E5.20629
G1 X131.003 Y167.565 E.01923
G1 X131.003 Y104.038 E3.18819
G1 X130.62 Y104.038 E.01923
G1 X130.62 Y167.565 E3.18819
G1 X130.237 Y167.565 E.01923
G1 X130.237 Y104.038 E3.18819
G1 X129.854 Y104.038 E.01923
G1 X129.854 Y167.565 E3.18819
G1 X129.471 Y167.565 E.01923
G1 X129.471 Y104.038 E3.18819
G1 X129.087 Y104.038 E.01923
G1 X129.087 Y167.565 E3.18819
G1 X128.704 Y167.565 E.01923
G1 X128.704 Y104.038 E3.18819
G1 X128.321 Y104.038 E.01923
G1 X128.321 Y167.565 E3.18819
G1 X127.938 Y167.565 E.01923
G1 X127.938 Y104.038 E3.18819
G1 X127.555 Y104.038 E.01923
G1 X127.555 Y167.565 E3.18819
G1 X127.171 Y167.565 E.01923
G1 X127.171 Y104.038 E3.18819
G1 X126.788 Y104.038 E.01923
M73 P2 R312
G1 X126.788 Y167.565 E3.18819
G1 X126.405 Y167.565 E.01923
G1 X126.405 Y104.038 E3.18819
G1 X126.022 Y104.038 E.01923
G1 X126.022 Y167.565 E3.18819
G1 X125.639 Y167.565 E.01923
G1 X125.639 Y104.038 E3.18819
G1 X125.255 Y104.038 E.01923
G1 X125.255 Y167.565 E3.18819
G1 X124.872 Y167.565 E.01923
G1 X124.872 Y104.038 E3.18819
G1 X124.489 Y104.038 E.01923
G1 X124.489 Y167.565 E3.18819
G1 X124.106 Y167.565 E.01923
G1 X124.106 Y107.43 E3.01792
G1 X123.722 Y107.43 E.01923
G1 X123.722 Y167.565 E3.01792
G1 X123.339 Y167.565 E.01923
G1 X123.339 Y107.43 E3.01792
G1 X122.956 Y107.43 E.01923
G1 X122.956 Y167.565 E3.01792
G1 X122.573 Y167.565 E.01923
G1 X122.573 Y107.43 E3.01792
G1 X122.19 Y107.43 E.01923
G1 X122.19 Y167.565 E3.01792
G1 X121.806 Y167.565 E.01923
G1 X121.806 Y107.43 E3.01792
G1 X121.423 Y107.43 E.01923
G1 X121.423 Y167.565 E3.01792
G1 X121.04 Y167.565 E.01923
G1 X121.04 Y107.43 E3.01792
G1 X120.657 Y107.43 E.01923
G1 X120.657 Y167.565 E3.01792
G1 X120.274 Y167.565 E.01923
G1 X120.274 Y107.43 E3.01792
G1 X119.89 Y107.43 E.01923
G1 X119.89 Y167.565 E3.01792
G1 X119.507 Y167.565 E.01923
G1 X119.507 Y107.43 E3.01792
G1 X119.124 Y107.43 E.01923
G1 X119.124 Y167.565 E3.01792
G1 X118.741 Y167.565 E.01923
G1 X118.741 Y107.43 E3.01792
G1 X118.358 Y107.43 E.01923
G1 X118.358 Y167.565 E3.01792
G1 X117.974 Y167.565 E.01923
G1 X117.974 Y107.43 E3.01792
G1 X117.591 Y107.43 E.01923
G1 X117.591 Y167.565 E3.01792
G1 X117.208 Y167.565 E.01923
G1 X117.208 Y107.43 E3.01792
G1 X116.825 Y107.43 E.01923
G1 X116.825 Y167.565 E3.01792
G1 X116.441 Y167.565 E.01923
G1 X116.441 Y107.43 E3.01792
G1 X116.058 Y107.43 E.01923
G1 X116.058 Y167.565 E3.01792
G1 X115.675 Y167.565 E.01923
M73 P2 R311
G1 X115.675 Y107.43 E3.01792
G1 X115.292 Y107.43 E.01923
G1 X115.292 Y167.565 E3.01792
G1 X114.909 Y167.565 E.01923
G1 X114.909 Y107.43 E3.01792
G1 X114.525 Y107.43 E.01923
G1 X114.525 Y167.565 E3.01792
G1 X114.142 Y167.565 E.01923
G1 X114.142 Y110.823 E2.84766
G1 X113.759 Y110.823 E.01923
G1 X113.759 Y167.565 E2.84766
G1 X113.376 Y167.565 E.01923
G1 X113.376 Y110.823 E2.84766
G1 X112.993 Y110.823 E.01923
G1 X112.993 Y167.565 E2.84766
G1 X112.609 Y167.565 E.01923
G1 X112.609 Y110.823 E2.84766
G1 X112.226 Y110.823 E.01923
G1 X112.226 Y167.565 E2.84766
G1 X111.843 Y167.565 E.01923
G1 X111.843 Y110.823 E2.84766
G1 X111.46 Y110.823 E.01923
G1 X111.46 Y167.565 E2.84766
G1 X111.077 Y167.565 E.01923
G1 X111.077 Y110.823 E2.84766
G1 X110.693 Y110.823 E.01923
G1 X110.693 Y167.565 E2.84766
G1 X110.31 Y167.565 E.01923
G1 X110.31 Y110.823 E2.84766
G1 X109.927 Y110.823 E.01923
G1 X109.927 Y167.565 E2.84766
G1 X109.544 Y167.565 E.01923
G1 X109.544 Y110.823 E2.84766
G1 X109.16 Y110.823 E.01923
G1 X109.16 Y167.565 E2.84766
G1 X108.777 Y167.565 E.01923
G1 X108.777 Y110.823 E2.84766
G1 X108.394 Y110.823 E.01923
G1 X108.394 Y167.565 E2.84766
G1 X108.011 Y167.565 E.01923
G1 X108.011 Y110.823 E2.84766
G1 X107.628 Y110.823 E.01923
G1 X107.628 Y167.565 E2.84766
G1 X107.244 Y167.565 E.01923
G1 X107.244 Y114.216 E2.67739
G1 X106.861 Y114.216 E.01923
G1 X106.861 Y167.565 E2.67739
G1 X106.478 Y167.565 E.01923
G1 X106.478 Y114.216 E2.67739
G1 X106.095 Y114.216 E.01923
G1 X106.095 Y167.565 E2.67739
G1 X105.712 Y167.565 E.01923
G1 X105.712 Y114.216 E2.67739
G1 X105.328 Y114.216 E.01923
G1 X105.328 Y167.565 E2.67739
G1 X104.945 Y167.565 E.01923
G1 X104.945 Y114.216 E2.67739
G1 X104.562 Y114.216 E.01923
G1 X104.562 Y167.565 E2.67739
G1 X104.179 Y167.565 E.01923
G1 X104.179 Y114.216 E2.67739
G1 X103.796 Y114.216 E.01923
M73 P2 R310
G1 X103.796 Y167.565 E2.67739
G1 X103.412 Y167.565 E.01923
G1 X103.412 Y114.216 E2.67739
G1 X103.029 Y114.216 E.01923
G1 X103.029 Y167.565 E2.67739
G1 X102.646 Y167.565 E.01923
G1 X102.646 Y114.216 E2.67739
