; generated by PrusaSlicer 2.5.0+win64 on 2022-12-07 at 00:05:55 UTC

; 

; external perimeters extrusion width = 1.00mm
; perimeters extrusion width = 1.00mm
; infill extrusion width = 1.00mm
; solid infill extrusion width = 1.00mm
; top infill extrusion width = 1.00mm
; support material extrusion width = 1.00mm
; first layer extrusion width = 0.42mm

M73 P0 R240
M107
;TYPE:Custom
G90 ; use absolute coordinates
M83 ; extruder relative mode
M140 S60 ; set final bed temp
M104 S150 ; set temporary nozzle temp to prevent oozing during homing and auto bed leveling
G4 S10 ; allow partial nozzle warmup
G28 ; home all axisG1 Z50 F240
G1 X7.6 Y10 F3000
M104 S210 ; set final nozzle temp
M190 S60 ; wait for bed temp to stabilize
M109 S210 ; wait for nozzle temp to stabilize
G1 Z0.28 F240
G92 E0
G1 Y140 E10 F1500 ; prime the nozzle
G1 X4 F5000
G92 E0
G1 Y10 E10 F1200 ; prime the nozzle
G92 E0
G21 ; set units to millimeters
G90 ; use absolute coordinates
M83 ; use relative distances for extrusion
; Filament gcode
M107
;LAYER_CHANGE
;Z:0.35
;HEIGHT:0.35
;BEFORE_LAYER_CHANGE
G92 E0
;0.35


G1 E-1 F3600
G1 Z.35 F7800
;AFTER_LAYER_CHANGE
;0.35
G1 X31.275 Y35.06
G1 E1 F2400
;TYPE:Support material
;WIDTH:0.42
G1 F1800
G1 X28.275 Y35.06 E.15056
G1 X28.275 Y52.024 E.85133
G1 X24.882 Y52.024 E.17027
G1 X24.882 Y79.165 E1.36213
G1 X21.49 Y79.165 E.17027
G1 X21.49 Y82.165 E.15056
G1 X18.91 Y82.165 E.12947
G1 X18.91 Y32.481 E2.49348
G1 X31.275 Y32.481 E.62056
G1 X31.275 Y35.009 E.12687
G1 X30.602 Y34.905 F7800
G1 F1800
G1 X30.602 Y32.791 E.1061
G1 X30.219 Y32.791 E.01923
G1 X30.219 Y34.75 E.09831
G1 X29.836 Y34.75 E.01923
G1 X29.836 Y32.791 E.09831
G1 X29.453 Y32.791 E.01923
G1 X29.453 Y34.75 E.09831
G1 X29.07 Y34.75 E.01923
G1 X29.07 Y32.791 E.09831
G1 X28.686 Y32.791 E.01923
G1 X28.686 Y34.75 E.09831
G1 X28.303 Y34.75 E.01923
G1 X28.303 Y32.791 E.09831
G1 X27.92 Y32.791 E.01923
G1 X27.92 Y51.713 E.94964
G1 X27.537 Y51.713 E.01923
G1 X27.537 Y32.791 E.94964
G1 X27.154 Y32.791 E.01923
G1 X27.154 Y51.713 E.94964
G1 X26.77 Y51.713 E.01923
G1 X26.77 Y32.791 E.94964
G1 X26.387 Y32.791 E.01923
G1 X26.387 Y51.713 E.94964
G1 X26.004 Y51.713 E.01923
G1 X26.004 Y32.791 E.94964
G1 X25.621 Y32.791 E.01923
G1 X25.621 Y51.713 E.94964
G1 X25.238 Y51.713 E.01923
G1 X25.238 Y32.791 E.94964
G1 X24.854 Y32.791 E.01923
G1 X24.854 Y51.713 E.94964
G1 X24.572 Y51.713 E.01417
M73 P0 R239
G1 X24.572 Y78.855 E1.36213
G1 X24.471 Y78.855 E.00506
G1 X24.471 Y32.791 E2.31177
G1 X24.088 Y32.791 E.01923
G1 X24.088 Y78.855 E2.31177
G1 X23.705 Y78.855 E.01923
G1 X23.705 Y32.791 E2.31177
G1 X23.321 Y32.791 E.01923
G1 X23.321 Y78.855 E2.31177
G1 X22.938 Y78.855 E.01923
G1 X22.938 Y32.791 E2.31177
G1 X22.555 Y32.791 E.01923
G1 X22.555 Y78.855 E2.31177
G1 X22.172 Y78.855 E.01923
G1 X22.172 Y32.791 E2.31177
G1 X21.789 Y32.791 E.01923
G1 X21.789 Y78.855 E2.31177
G1 X21.405 Y78.855 E.01923
G1 X21.405 Y32.791 E2.31177
G1 X21.022 Y32.791 E.01923
G1 X21.022 Y81.855 E2.46233
G1 X20.639 Y81.855 E.01923
G1 X20.639 Y32.791 E2.46233
G1 X20.256 Y32.791 E.01923
G1 X20.256 Y81.855 E2.46233
G1 X19.873 Y81.855 E.01923
G1 X19.873 Y32.791 E2.46233
G1 X19.489 Y32.791 E.01923
G1 X19.489 Y82.01 E2.47011
G1 E-.7 F3600
;WIPE_START
G1 F6240
G1 X19.489 Y81.49 E-.285
;WIPE_END
G1 E-.015 F3600
G1 X22.601 Y79.42 F7800
G1 E1 F2400
;TYPE:Support material interface
;WIDTH:1
G1 F1800
G1 X22.601 Y144.283 E8.7295
G1 X23.494 Y144.283 E.12014
G1 X23.494 Y79.822 E8.67543
G1 X24.387 Y79.822 E.12014
G1 X24.387 Y144.283 E8.67543
G1 X25.279 Y144.283 E.12014
G1 X25.279 Y79.822 E8.67543
G1 X25.539 Y79.822 E.03491
G1 X25.539 Y52.68 E3.65281
G1 X26.172 Y52.68 E.08523
G1 X26.172 Y144.283 E12.32824
G1 X27.065 Y144.283 E.12014
G1 X27.065 Y52.68 E12.32824
G1 X27.957 Y52.68 E.12014
G1 X27.957 Y144.283 E12.32824
G1 X28.85 Y144.283 E.12014
G1 X28.85 Y52.68 E12.32824
G1 X28.931 Y52.68 E.01094
G1 X28.931 Y35.717 E2.28301
G1 X29.743 Y35.717 E.1092
G1 X29.743 Y79.822 E5.93582
G1 X30.635 Y79.822 E.12014
G1 X30.635 Y35.717 E5.93582
G1 X31.528 Y35.717 E.12014
G1 X31.528 Y79.822 E5.93582
G1 X32.324 Y79.822 E.10712
G1 X32.324 Y56.073 E3.19621
G1 X32.421 Y56.073 E.01302
G1 X32.421 Y35.717 E2.73961
G1 X33.314 Y35.717 E.12014
G1 X33.314 Y56.073 E2.73961
G1 X34.206 Y56.073 E.12014
G1 X34.206 Y35.717 E2.73961
G1 X35.099 Y35.717 E.12014
G1 X35.099 Y56.073 E2.73961
G1 X35.717 Y56.073 E.08315
G1 X35.717 Y42.502 E1.82641
G1 X35.992 Y42.502 E.03699
G1 X35.992 Y35.717 E.91321
G1 X36.884 Y35.717 E.12014
G1 X36.884 Y42.502 E.91321
G1 X37.777 Y42.502 E.12014
G1 X37.777 Y35.717 E.91321
G1 X38.67 Y35.717 E.12014
G1 X38.67 Y42.502 E.91321
G1 X39.562 Y42.502 E.12014
G1 X39.562 Y35.717 E.91321
G1 X40.455 Y35.717 E.12014
G1 X40.455 Y42.502 E.91321
G1 X41.348 Y42.502 E.12014
G1 X41.348 Y35.717 E.91321
G1 X42.241 Y35.717 E.12014
G1 X42.241 Y42.502 E.91321
G1 X43.133 Y42.502 E.12014
G1 X43.133 Y35.717 E.91321
G1 X44.026 Y35.717 E.12014
G1 X44.026 Y42.502 E.91321
G1 X44.919 Y42.502 E.12014
G1 X44.919 Y35.717 E.91321
G1 X45.811 Y35.717 E.12014
G1 X45.811 Y42.502 E.91321
M73 P0 R238
G1 X46.704 Y42.502 E.12014
G1 X46.704 Y35.717 E.91321
G1 X47.597 Y35.717 E.12014
G1 X47.597 Y42.502 E.91321
G1 X48.489 Y42.502 E.12014
G1 X48.489 Y35.717 E.91321
G1 X49.382 Y35.717 E.12014
G1 X49.382 Y42.502 E.91321
G1 X50.275 Y42.502 E.12014
G1 X50.275 Y35.717 E.91321
G1 X51.168 Y35.717 E.12014
G1 X51.168 Y42.502 E.91321
G1 X52.06 Y42.502 E.12014
G1 X52.06 Y35.717 E.91321
G1 X52.953 Y35.717 E.12014
G1 X52.953 Y42.502 E.91321
G1 X53.846 Y42.502 E.12014
G1 X53.846 Y35.717 E.91321
G1 X54.738 Y35.717 E.12014
G1 X54.738 Y42.502 E.91321
G1 X55.631 Y42.502 E.12014
G1 X55.631 Y35.717 E.91321
G1 X56.524 Y35.717 E.12014
G1 X56.524 Y42.502 E.91321
G1 X57.416 Y42.502 E.12014
G1 X57.416 Y35.717 E.91321
G1 X58.309 Y35.717 E.12014
G1 X58.309 Y42.502 E.91321
G1 X59.202 Y42.502 E.12014
G1 X59.202 Y35.717 E.91321
G1 X60.095 Y35.717 E.12014
G1 X60.095 Y42.502 E.91321
G1 X60.987 Y42.502 E.12014
G1 X60.987 Y35.717 E.91321
G1 X61.88 Y35.717 E.12014
G1 X61.88 Y42.904 E.96727
G1 E-.7 F3600
;WIPE_START
G1 F6240
G1 X61.88 Y42.384 E-.285
;WIPE_END
G1 E-.015 F3600
G1 X94.017 Y48.886 F7800
G1 E1 F2400
G1 F1800
G1 X94.017 Y66.809 E2.41218
G1 X94.91 Y59.682 E.96663
G1 X94.91 Y49.288 E1.39898
G1 X95.803 Y49.288 E.12014
G1 X95.803 Y55.788 E.87483
G1 E-.7 F3600
;WIPE_START
G1 F6240
G1 X95.803 Y55.268 E-.285
;WIPE_END
G1 E-.015 F3600
G1 X90.446 Y76.027 F7800
G1 E1 F2400
G1 F1800
G1 X90.446 Y95.535 E2.62537
G1 X91.339 Y88.656 E.93356
G1 X91.339 Y76.429 E1.64551
G1 X92.232 Y76.429 E.12014
G1 X92.232 Y84.65 E1.10643
G1 E-.7 F3600
;WIPE_START
G1 F6240
G1 X92.232 Y84.13 E-.285
;WIPE_END
G1 E-.015 F3600
G1 X86.876 Y103.169 F7800
G1 E1 F2400
G1 F1800
G1 X86.876 Y123.051 E2.67573
G1 X87.768 Y116.172 E.93356
G1 X87.768 Y103.571 E1.69588
G1 X88.661 Y103.571 E.12014
G1 X88.661 Y112.414 E1.19018
G1 E-.7 F3600
;WIPE_START
G1 F6240
G1 X88.661 Y111.894 E-.285
;WIPE_END
G1 E-.015 F3600
G1 X85.09 Y130.311 F7800
G1 E1 F2400
G1 F1800
G1 X85.09 Y144.283 E1.88047
G1 X84.197 Y144.283 E.12014
G1 X84.197 Y130.712 E1.82641
G1 X83.305 Y130.712 E.12014
G1 X83.305 Y144.283 E1.82641
G1 X83.215 Y144.283 E.01213
G1 X83.215 Y140.89 E.4566
G1 X82.412 Y140.89 E.10801
G1 X82.412 Y137.498 E.45661
G1 X81.519 Y137.498 E.12014
G1 X81.519 Y140.89 E.45661
G1 X80.627 Y140.89 E.12014
G1 X80.627 Y137.498 E.45661
G1 X79.734 Y137.498 E.12014
G1 X79.734 Y140.89 E.45661
G1 X78.841 Y140.89 E.12014
G1 X78.841 Y137.498 E.45661
G1 X77.949 Y137.498 E.12014
G1 X77.949 Y140.89 E.45661
G1 X77.056 Y140.89 E.12014
G1 X77.056 Y137.498 E.45661
G1 X76.163 Y137.498 E.12014
G1 X76.163 Y140.89 E.45661
G1 X75.27 Y140.89 E.12014
G1 X75.27 Y137.498 E.45661
G1 X74.378 Y137.498 E.12014
G1 X74.378 Y140.89 E.45661
G1 X73.485 Y140.89 E.12014
G1 X73.485 Y137.498 E.45661
G1 X72.592 Y137.498 E.12014
G1 X72.592 Y140.89 E.45661
G1 X71.7 Y140.89 E.12014
G1 X71.7 Y137.498 E.45661
G1 X70.807 Y137.498 E.12014
G1 X70.807 Y140.89 E.45661
G1 X69.914 Y140.89 E.12014
G1 X69.914 Y137.498 E.45661
G1 X69.022 Y137.498 E.12014
G1 X69.022 Y144.283 E.91321
G1 X68.129 Y144.283 E.12014
G1 X68.129 Y137.498 E.91321
G1 X67.236 Y137.498 E.12014
G1 X67.236 Y144.283 E.91321
G1 X66.343 Y144.283 E.12014
G1 X66.343 Y137.498 E.91321
G1 X65.451 Y137.498 E.12014
G1 X65.451 Y144.283 E.91321
G1 X64.558 Y144.283 E.12014
G1 X64.558 Y137.498 E.91321
G1 X63.665 Y137.498 E.12014
G1 X63.665 Y144.283 E.91321
G1 X62.773 Y144.283 E.12014
G1 X62.773 Y137.498 E.91321
G1 X61.88 Y137.498 E.12014
G1 X61.88 Y144.283 E.91321
G1 X60.987 Y144.283 E.12014
G1 X60.987 Y137.498 E.91321
G1 X60.095 Y137.498 E.12014
G1 X60.095 Y144.283 E.91321
G1 X59.202 Y144.283 E.12014
G1 X59.202 Y137.498 E.91321
G1 X58.309 Y137.498 E.12014
G1 X58.309 Y144.283 E.91321
G1 X57.416 Y144.283 E.12014
G1 X57.416 Y137.498 E.91321
G1 X56.524 Y137.498 E.12014
G1 X56.524 Y144.283 E.91321
G1 X55.631 Y144.283 E.12014
G1 X55.631 Y103.571 E5.47922
G1 X56.073 Y103.571 E.05948
G1 X56.073 Y79.822 E3.19621
G1 X56.524 Y79.822 E.06066
G1 X56.524 Y134.105 E7.30563
G1 X57.416 Y134.105 E.12014
G1 X57.416 Y79.822 E7.30563
G1 X58.309 Y79.822 E.12014
G1 X58.309 Y134.105 E7.30563
G1 X59.202 Y134.105 E.12014
G1 X59.202 Y79.822 E7.30563
G1 X59.466 Y79.822 E.03551
G1 X59.466 Y49.288 E4.10941
G1 X60.095 Y49.288 E.08463
G1 X60.095 Y106.963 E7.76223
G1 X60.987 Y106.963 E.12014
G1 X60.987 Y49.288 E7.76223
G1 X61.88 Y49.288 E.12014
G1 X61.88 Y106.963 E7.76223
G1 X62.773 Y106.963 E.12014
G1 X62.773 Y35.717 E9.58863
G1 X63.665 Y35.717 E.12014
G1 X63.665 Y66.251 E4.10942
G1 X64.558 Y66.251 E.12014
G1 X64.558 Y35.717 E4.10942
G1 X65.451 Y35.717 E.12014
G1 X65.451 Y66.251 E4.10942
G1 X66.251 Y66.251 E.10772
G1 X66.251 Y49.288 E2.28301
G1 X66.343 Y49.288 E.01242
G1 X66.343 Y35.717 E1.82641
G1 X67.236 Y35.717 E.12014
G1 X67.236 Y49.288 E1.82641
G1 X68.129 Y49.288 E.12014
G1 X68.129 Y35.717 E1.82641
G1 X69.022 Y35.717 E.12014
G1 X69.022 Y49.288 E1.82641
G1 X69.644 Y49.288 E.08375
G1 X69.644 Y42.502 E.9132
G1 X69.914 Y42.502 E.03639
G1 X69.914 Y35.717 E.91321
G1 X70.807 Y35.717 E.12014
G1 X70.807 Y42.502 E.91321
G1 X71.7 Y42.502 E.12014
G1 X71.7 Y35.717 E.91321
G1 X72.592 Y35.717 E.12014
G1 X72.592 Y42.502 E.91321
G1 X73.485 Y42.502 E.12014
G1 X73.485 Y35.717 E.91321
G1 X74.378 Y35.717 E.12014
G1 X74.378 Y42.502 E.91321
G1 X75.27 Y42.502 E.12014
G1 X75.27 Y35.717 E.91321
G1 X76.163 Y35.717 E.12014
G1 X76.163 Y42.502 E.91321
G1 X77.056 Y42.502 E.12014
G1 X77.056 Y35.717 E.91321
G1 X77.949 Y35.717 E.12014
G1 X77.949 Y42.502 E.91321
G1 X78.841 Y42.502 E.12014
G1 X78.841 Y35.717 E.91321
G1 X79.734 Y35.717 E.12014
G1 X79.734 Y42.502 E.91321
G1 X80.627 Y42.502 E.12014
G1 X80.627 Y35.717 E.91321
G1 X81.519 Y35.717 E.12014
G1 X81.519 Y42.502 E.91321
G1 X82.412 Y42.502 E.12014
G1 X82.412 Y35.717 E.91321
G1 X83.305 Y35.717 E.12014
G1 X83.305 Y42.502 E.91321
G1 X84.197 Y42.502 E.12014
G1 X84.197 Y35.717 E.91321
G1 X85.09 Y35.717 E.12014
G1 X85.09 Y42.502 E.91321
G1 X85.983 Y42.502 E.12014
G1 X85.983 Y35.717 E.91321
G1 X86.876 Y35.717 E.12014
G1 X86.876 Y42.502 E.91321
G1 X87.768 Y42.502 E.12014
G1 X87.768 Y35.717 E.91321
G1 X88.661 Y35.717 E.12014
G1 X88.661 Y42.502 E.91321
G1 X89.554 Y42.502 E.12014
G1 X89.554 Y35.717 E.91321
G1 X90.446 Y35.717 E.12014
G1 X90.446 Y42.502 E.91321
G1 X91.339 Y42.502 E.12014
G1 X91.339 Y35.717 E.91321
G1 X92.232 Y35.717 E.12014
G1 X92.232 Y42.502 E.91321
G1 X93.124 Y42.502 E.12014
G1 X93.124 Y35.717 E.91321
G1 X94.017 Y35.717 E.12014
G1 X94.017 Y42.502 E.91321
G1 X94.91 Y42.502 E.12014
G1 X94.91 Y35.717 E.91321
G1 X95.803 Y35.717 E.12014
G1 X95.803 Y42.502 E.91321
G1 X96.695 Y42.502 E.12014
G1 X96.695 Y35.717 E.91321
G1 X97.588 Y35.717 E.12014
G1 X97.588 Y38.644 E.39395
G1 X98.276 Y38.033 E.12392
G1 X98.481 Y38.033 E.02747
G1 X98.481 Y35.717 E.31168
G1 X99.373 Y35.717 E.12014
G1 X99.373 Y38.033 E.31168
G1 X100.266 Y38.033 E.12014
G1 X100.266 Y35.717 E.31168
G1 X101.159 Y35.717 E.12014
G1 X101.159 Y38.033 E.31168
G1 X102.051 Y38.033 E.12014
G1 X102.051 Y35.717 E.31168
G1 X102.944 Y35.717 E.12014
G1 X102.944 Y38.033 E.31168
G1 X103.837 Y38.033 E.12014
G1 X103.837 Y35.717 E.31168
G1 X104.729 Y35.717 E.12014
G1 X104.729 Y38.033 E.31168
M73 P1 R238
G1 X105.622 Y38.033 E.12014
G1 X105.622 Y35.717 E.31168
M73 P1 R237
G1 X106.515 Y35.717 E.12014
G1 X106.515 Y38.033 E.31168
G1 X107.408 Y38.033 E.12014
G1 X107.408 Y35.717 E.31168
G1 X108.3 Y35.717 E.12014
G1 X108.3 Y38.033 E.31168
G1 X109.193 Y38.033 E.12014
G1 X109.193 Y35.717 E.31168
G1 X110.086 Y35.717 E.12014
G1 X110.086 Y38.033 E.31168
G1 X110.978 Y38.033 E.12014
G1 X110.978 Y35.717 E.31168
G1 X111.871 Y35.717 E.12014
G1 X111.871 Y38.033 E.31168
G1 X112.764 Y38.033 E.12014
G1 X112.764 Y35.717 E.31168
G1 X113.656 Y35.717 E.12014
G1 X113.656 Y38.033 E.31168
G1 X114.549 Y38.033 E.12014
G1 X114.549 Y35.717 E.31168
G1 X115.442 Y35.717 E.12014
G1 X115.442 Y38.033 E.31168
G1 X116.335 Y38.033 E.12014
G1 X116.335 Y35.717 E.31168
G1 X117.227 Y35.717 E.12014
G1 X117.227 Y38.033 E.31168
G1 X118.12 Y38.033 E.12014
G1 X118.12 Y35.717 E.31168
G1 X119.013 Y35.717 E.12014
G1 X119.013 Y38.033 E.31168
G1 X119.905 Y38.033 E.12014
G1 X119.905 Y35.717 E.31168
G1 X120.798 Y35.717 E.12014
G1 X120.798 Y38.033 E.31168
G1 X121.691 Y38.033 E.12014
G1 X121.691 Y35.717 E.31168
G1 X122.583 Y35.717 E.12014
G1 X122.583 Y38.033 E.31168
G1 X123.476 Y38.033 E.12014
G1 X123.476 Y35.717 E.31168
G1 X124.369 Y35.717 E.12014
G1 X124.369 Y38.033 E.31168
G1 X125.262 Y38.033 E.12014
G1 X125.262 Y35.717 E.31168
G1 X126.154 Y35.717 E.12014
G1 X126.154 Y38.033 E.31168
G1 X127.047 Y38.033 E.12014
G1 X127.047 Y35.717 E.31168
G1 X127.94 Y35.717 E.12014
G1 X127.94 Y38.033 E.31168
G1 X128.832 Y38.033 E.12014
G1 X128.832 Y35.717 E.31168
G1 X129.725 Y35.717 E.12014
G1 X129.725 Y38.033 E.31168
G1 X130.618 Y38.033 E.12014
G1 X130.618 Y35.717 E.31168
G1 X131.51 Y35.717 E.12014
G1 X131.51 Y38.033 E.31168
G1 X132.004 Y38.033 E.06636
G1 X132.403 Y38.033 E.05378
G1 X132.403 Y35.717 E.31168
G1 X133.296 Y35.717 E.12014
G1 X133.296 Y38.434 E.36574
G1 E-.7 F3600
;WIPE_START
G1 F6240
G1 X133.296 Y37.914 E-.285
;WIPE_END
G1 E-.015 F3600
G1 X161.09 Y42.346 F7800
G1 E1 F2400
;TYPE:Support material
;WIDTH:0.42
G1 F1800
G1 X154.973 Y42.346 E.30699
G1 X154.973 Y41.269 E.05404
G1 X151.225 Y41.269 E.1881
G1 X151.225 Y32.481 E.44105
G1 X161.09 Y32.481 E.49509
G1 X161.09 Y42.294 E.4925
G1 X160.511 Y42.191 F7800
G1 F1800
G1 X160.511 Y32.791 E.47173
G1 X160.127 Y32.791 E.01923
G1 X160.127 Y42.035 E.46394
G1 X159.744 Y42.035 E.01923
G1 X159.744 Y32.791 E.46394
G1 X159.361 Y32.791 E.01923
G1 X159.361 Y42.035 E.46394
G1 X158.978 Y42.035 E.01923
G1 X158.978 Y32.791 E.46394
G1 X158.595 Y32.791 E.01923
G1 X158.595 Y42.035 E.46394
G1 X158.211 Y42.035 E.01923
G1 X158.211 Y32.791 E.46394
G1 X157.828 Y32.791 E.01923
G1 X157.828 Y42.035 E.46394
G1 X157.445 Y42.035 E.01923
G1 X157.445 Y32.791 E.46394
G1 X157.062 Y32.791 E.01923
G1 X157.062 Y42.035 E.46394
G1 X156.679 Y42.035 E.01923
G1 X156.679 Y32.791 E.46394
G1 X156.295 Y32.791 E.01923
G1 X156.295 Y42.035 E.46394
G1 X155.912 Y42.035 E.01923
G1 X155.912 Y32.791 E.46394
G1 X155.529 Y32.791 E.01923
G1 X155.529 Y42.035 E.46394
G1 X155.284 Y42.035 E.01232
G1 X155.284 Y40.958 E.05404
G1 X155.146 Y40.958 E.00692
G1 X155.146 Y32.791 E.4099
G1 X154.762 Y32.791 E.01923
G1 X154.762 Y40.958 E.4099
G1 X154.379 Y40.958 E.01923
G1 X154.379 Y32.791 E.4099
G1 X153.996 Y32.791 E.01923
G1 X153.996 Y40.958 E.4099
G1 X153.613 Y40.958 E.01923
G1 X153.613 Y32.791 E.4099
G1 X153.23 Y32.791 E.01923
G1 X153.23 Y40.958 E.4099
G1 X152.846 Y40.958 E.01923
G1 X152.846 Y32.791 E.4099
G1 X152.463 Y32.791 E.01923
G1 X152.463 Y40.958 E.4099
G1 X152.08 Y40.958 E.01923
G1 X152.08 Y32.791 E.4099
G1 X151.697 Y32.791 E.01923
G1 X151.697 Y41.114 E.41768
G1 E-.7 F3600
;WIPE_START
G1 F6240
G1 X151.697 Y40.594 E-.285
;WIPE_END
G1 E-.015 F3600
G1 X161.09 Y103.414 F7800
G1 E1 F2400
G1 F1800
G1 X157.973 Y103.414 E.15644
G1 X157.973 Y90.156 E.66536
G1 X161.09 Y90.156 E.15644
G1 X161.09 Y103.363 E.66276
G1 X160.511 Y103.259 F7800
G1 F1800
G1 X160.511 Y90.467 E.64199
G1 X160.127 Y90.467 E.01923
