; generated by PrusaSlicer 2.5.0+win64 on 2022-12-07 at 00:05:56 UTC

; 

; external perimeters extrusion width = 1.00mm
; perimeters extrusion width = 1.00mm
; infill extrusion width = 1.00mm
; solid infill extrusion width = 1.00mm
; top infill extrusion width = 1.00mm
; support material extrusion width = 1.00mm
; first layer extrusion width = 0.42mm

M73 P0 R325
M107
;TYPE:Custom
G90 ; use absolute coordinates
M83 ; extruder relative mode
M140 S60 ; set final bed temp
M104 S150 ; set temporary nozzle temp to prevent oozing during homing and auto bed leveling
G4 S10 ; allow partial nozzle warmup
G28 ; home all axisG1 Z50 F240
G1 X7.6 Y10 F3000
M104 S210 ; set final nozzle temp
M190 S60 ; wait for bed temp to stabilize
M109 S210 ; wait for nozzle temp to stabilize
G1 Z0.28 F240
G92 E0
G1 Y140 E10 F1500 ; prime the nozzle
G1 X4 F5000
G92 E0
G1 Y10 E10 F1200 ; prime the nozzle
G92 E0
G21 ; set units to millimeters
G90 ; use absolute coordinates
M83 ; use relative distances for extrusion
; Filament gcode
M107
;LAYER_CHANGE
;Z:0.35
;HEIGHT:0.35
;BEFORE_LAYER_CHANGE
G92 E0
;0.35


G1 E-1 F3600
G1 Z.35 F7800
;AFTER_LAYER_CHANGE
;0.35
G1 X36.883 Y42.904
G1 E1 F2400
;TYPE:Support material interface
;WIDTH:1
G1 F1800
G1 X36.883 Y35.717 E.96727
G1 X37.776 Y35.717 E.12014
G1 X37.776 Y42.502 E.91321
G1 X38.669 Y42.502 E.12014
G1 X38.669 Y35.717 E.91321
G1 X39.561 Y35.717 E.12014
G1 X39.561 Y42.502 E.91321
G1 X40.454 Y42.502 E.12014
G1 X40.454 Y35.717 E.91321
G1 X41.347 Y35.717 E.12014
G1 X41.347 Y42.502 E.91321
G1 X42.239 Y42.502 E.12014
G1 X42.239 Y35.717 E.91321
G1 X43.132 Y35.717 E.12014
G1 X43.132 Y42.502 E.91321
G1 X44.025 Y42.502 E.12014
G1 X44.025 Y35.717 E.91321
G1 X44.918 Y35.717 E.12014
G1 X44.918 Y42.904 E.96727
G1 E-.7 F3600
;WIPE_START
G1 F6240
G1 X44.918 Y42.384 E-.285
;WIPE_END
G1 E-.015 F3600
G1 X77.055 Y76.027 F7800
G1 E1 F2400
G1 F1800
G1 X77.055 Y88.801 E1.7191
G1 X77.947 Y83.036 E.78518
G1 X77.947 Y76.429 E.88911
G1 X78.84 Y76.429 E.12014
G1 X78.84 Y79.958 E.47499
G1 E-.7 F3600
;WIPE_START
G1 F6240
G1 X78.84 Y79.438 E-.285
;WIPE_END
G1 E-.015 F3600
G1 X73.484 Y96.384 F7800
G1 E1 F2400
G1 F1800
G1 X73.484 Y112.572 E2.17873
G1 X74.377 Y106.586 E.81462
G1 X74.377 Y96.785 E1.31895
G1 X75.269 Y96.785 E.12014
G1 X75.269 Y103.323 E.87982
G1 E-.7 F3600
;WIPE_START
G1 F6240
G1 X75.269 Y102.803 E-.285
;WIPE_END
G1 E-.015 F3600
G1 X71.699 Y120.133 F7800
G1 E1 F2400
G1 F1800
G1 X71.699 Y124.546 E.59394
G1 X70.806 Y130.532 E.81462
G1 X70.806 Y120.534 E1.34559
G1 X69.913 Y120.534 E.12014
G1 X69.913 Y134.005 E1.81299
G1 X69.02 Y135.419 E.22498
G1 X69.02 Y134.105 E.1768
G1 X68.128 Y134.105 E.12014
G1 X68.128 Y137.252 E.42348
G1 X67.235 Y139.305 E.30131
G1 X67.235 Y134.105 E.6998
G1 X66.342 Y134.105 E.12014
G1 X66.342 Y144.283 E1.36981
G1 X66.25 Y144.283 E.01243
G1 X66.25 Y140.89 E.4566
G1 X65.45 Y140.89 E.10772
G1 X65.45 Y137.498 E.45661
G1 X64.557 Y137.498 E.12014
G1 X64.557 Y140.89 E.45661
G1 X63.664 Y140.89 E.12014
G1 X63.664 Y137.498 E.45661
G1 X62.772 Y137.498 E.12014
G1 X62.772 Y140.89 E.45661
G1 X61.879 Y140.89 E.12014
G1 X61.879 Y137.498 E.45661
G1 X60.986 Y137.498 E.12014
G1 X60.986 Y140.89 E.45661
G1 X60.093 Y140.89 E.12014
G1 X60.093 Y137.498 E.45661
G1 X59.201 Y137.498 E.12014
G1 X59.201 Y140.89 E.45661
G1 X58.308 Y140.89 E.12014
G1 X58.308 Y137.498 E.45661
G1 X57.415 Y137.498 E.12014
G1 X57.415 Y140.89 E.45661
G1 X56.523 Y140.89 E.12014
G1 X56.523 Y137.498 E.45661
G1 X55.63 Y137.498 E.12014
G1 X55.63 Y140.89 E.45661
G1 X54.737 Y140.89 E.12014
G1 X54.737 Y137.498 E.45661
G1 X53.845 Y137.498 E.12014
G1 X53.845 Y140.89 E.45661
G1 X52.952 Y140.89 E.12014
G1 X52.952 Y137.498 E.45661
G1 X52.059 Y137.498 E.12014
G1 X52.059 Y144.283 E.91321
G1 X51.166 Y144.283 E.12014
G1 X51.166 Y137.498 E.91321
G1 X50.274 Y137.498 E.12014
G1 X50.274 Y144.283 E.91321
G1 X49.381 Y144.283 E.12014
G1 X49.381 Y137.498 E.91321
G1 X48.488 Y137.498 E.12014
G1 X48.488 Y144.283 E.91321
G1 X47.596 Y144.283 E.12014
G1 X47.596 Y137.498 E.91321
G1 X46.703 Y137.498 E.12014
G1 X46.703 Y144.283 E.91321
G1 X45.81 Y144.283 E.12014
G1 X45.81 Y137.498 E.91321
G1 X44.918 Y137.498 E.12014
G1 X44.918 Y144.283 E.91321
G1 X44.025 Y144.283 E.12014
G1 X44.025 Y137.498 E.91321
G1 X43.132 Y137.498 E.12014
G1 X43.132 Y144.283 E.91321
G1 X42.239 Y144.283 E.12014
G1 X42.239 Y96.785 E6.39242
G1 X42.501 Y96.785 E.03521
G1 X42.501 Y66.251 E4.10941
G1 X43.132 Y66.251 E.08493
G1 X43.132 Y127.32 E8.21883
G1 X44.025 Y127.32 E.12014
G1 X44.025 Y66.251 E8.21883
G1 X44.918 Y66.251 E.12014
G1 X44.918 Y127.32 E8.21883
G1 X45.81 Y127.32 E.12014
G1 X45.81 Y35.717 E12.32824
G1 X46.703 Y35.717 E.12014
G1 X46.703 Y96.785 E8.21883
G1 X47.596 Y96.785 E.12014
G1 X47.596 Y35.717 E8.21883
G1 X48.488 Y35.717 E.12014
G1 X48.488 Y96.785 E8.21883
G1 X49.287 Y96.785 E.10742
G1 X49.287 Y69.644 E3.65281
G1 X49.381 Y69.644 E.01272
G1 X49.381 Y35.717 E4.56602
G1 X50.274 Y35.717 E.12014
G1 X50.274 Y69.644 E4.56602
G1 X51.166 Y69.644 E.12014
G1 X51.166 Y35.717 E4.56602
G1 X52.059 Y35.717 E.12014
G1 X52.059 Y69.644 E4.56602
G1 X52.679 Y69.644 E.08345
G1 X52.679 Y42.502 E3.65281
G1 X52.952 Y42.502 E.03669
G1 X52.952 Y35.717 E.91321
G1 X53.845 Y35.717 E.12014
G1 X53.845 Y42.502 E.91321
G1 X54.737 Y42.502 E.12014
G1 X54.737 Y35.717 E.91321
G1 X55.63 Y35.717 E.12014
M73 P0 R324
G1 X55.63 Y42.502 E.91321
G1 X56.523 Y42.502 E.12014
G1 X56.523 Y35.717 E.91321
G1 X57.415 Y35.717 E.12014
G1 X57.415 Y42.502 E.91321
G1 X58.308 Y42.502 E.12014
G1 X58.308 Y35.717 E.91321
G1 X59.201 Y35.717 E.12014
G1 X59.201 Y42.502 E.91321
G1 X60.093 Y42.502 E.12014
G1 X60.093 Y35.717 E.91321
G1 X60.986 Y35.717 E.12014
G1 X60.986 Y42.502 E.91321
G1 X61.879 Y42.502 E.12014
G1 X61.879 Y35.717 E.91321
G1 X62.772 Y35.717 E.12014
G1 X62.772 Y42.502 E.91321
G1 X63.664 Y42.502 E.12014
G1 X63.664 Y35.717 E.91321
G1 X64.557 Y35.717 E.12014
G1 X64.557 Y42.502 E.91321
G1 X65.45 Y42.502 E.12014
G1 X65.45 Y35.717 E.91321
G1 X66.342 Y35.717 E.12014
G1 X66.342 Y42.502 E.91321
G1 X67.235 Y42.502 E.12014
G1 X67.235 Y35.717 E.91321
G1 X68.128 Y35.717 E.12014
G1 X68.128 Y42.502 E.91321
G1 X69.02 Y42.502 E.12014
G1 X69.02 Y35.717 E.91321
G1 X69.913 Y35.717 E.12014
G1 X69.913 Y42.502 E.91321
G1 X70.806 Y42.502 E.12014
G1 X70.806 Y35.717 E.91321
G1 X71.699 Y35.717 E.12014
G1 X71.699 Y42.502 E.91321
G1 X72.591 Y42.502 E.12014
G1 X72.591 Y35.717 E.91321
G1 X73.484 Y35.717 E.12014
G1 X73.484 Y42.502 E.91321
G1 X74.377 Y42.502 E.12014
G1 X74.377 Y35.717 E.91321
G1 X75.269 Y35.717 E.12014
G1 X75.269 Y42.502 E.91321
G1 X76.162 Y42.502 E.12014
G1 X76.162 Y35.717 E.91321
G1 X77.055 Y35.717 E.12014
G1 X77.055 Y42.502 E.91321
G1 X77.947 Y42.502 E.12014
G1 X77.947 Y35.717 E.91321
G1 X78.84 Y35.717 E.12014
G1 X78.84 Y42.502 E.91321
G1 X79.733 Y42.502 E.12014
G1 X79.733 Y35.717 E.91321
G1 X80.626 Y35.717 E.12014
G1 X80.626 Y61.971 E3.53334
G1 X81.518 Y52.582 E1.26927
G1 X81.518 Y35.717 E2.26977
G1 X82.411 Y35.717 E.12014
G1 X82.411 Y43.193 E1.0062
G1 X82.572 Y41.498 E.22911
G1 X82.689 Y40.485 E.13733
G1 X82.818 Y38.803 E.22701
G1 X83.304 Y38.354 E.08901
G1 X83.304 Y35.717 E.35487
G1 X84.196 Y35.717 E.12014
G1 X84.196 Y38.033 E.31168
G1 X85.089 Y38.033 E.12014
G1 X85.089 Y35.717 E.31168
G1 X85.982 Y35.717 E.12014
G1 X85.982 Y38.033 E.31168
G1 X86.874 Y38.033 E.12014
G1 X86.874 Y35.717 E.31168
G1 X87.767 Y35.717 E.12014
G1 X87.767 Y38.033 E.31168
G1 X88.66 Y38.033 E.12014
G1 X88.66 Y35.717 E.31168
G1 X89.552 Y35.717 E.12014
G1 X89.552 Y38.033 E.31168
G1 X90.445 Y38.033 E.12014
G1 X90.445 Y35.717 E.31168
G1 X91.338 Y35.717 E.12014
G1 X91.338 Y38.033 E.31168
G1 X92.231 Y38.033 E.12014
G1 X92.231 Y35.717 E.31168
G1 X93.123 Y35.717 E.12014
G1 X93.123 Y38.033 E.31168
G1 X94.016 Y38.033 E.12014
G1 X94.016 Y35.717 E.31168
G1 X94.909 Y35.717 E.12014
G1 X94.909 Y38.033 E.31168
G1 X95.801 Y38.033 E.12014
G1 X95.801 Y35.717 E.31168
G1 X96.694 Y35.717 E.12014
G1 X96.694 Y38.033 E.31168
G1 X97.587 Y38.033 E.12014
G1 X97.587 Y35.717 E.31168
G1 X98.479 Y35.717 E.12014
G1 X98.479 Y38.033 E.31168
G1 X99.372 Y38.033 E.12014
G1 X99.372 Y35.717 E.31168
G1 X100.265 Y35.717 E.12014
G1 X100.265 Y38.033 E.31168
G1 X101.158 Y38.033 E.12014
G1 X101.158 Y35.717 E.31168
G1 X102.05 Y35.717 E.12014
G1 X102.05 Y38.033 E.31168
G1 X102.943 Y38.033 E.12014
G1 X102.943 Y35.717 E.31168
G1 X103.836 Y35.717 E.12014
G1 X103.836 Y38.033 E.31168
G1 X104.728 Y38.033 E.12014
G1 X104.728 Y35.717 E.31168
G1 X105.621 Y35.717 E.12014
G1 X105.621 Y38.033 E.31168
G1 X106.514 Y38.033 E.12014
G1 X106.514 Y35.717 E.31168
G1 X107.406 Y35.717 E.12014
G1 X107.406 Y38.033 E.31168
G1 X108.299 Y38.033 E.12014
G1 X108.299 Y35.717 E.31168
G1 X109.192 Y35.717 E.12014
G1 X109.192 Y38.033 E.31168
G1 X110.085 Y38.033 E.12014
G1 X110.085 Y35.717 E.31168
G1 X110.977 Y35.717 E.12014
G1 X110.977 Y38.033 E.31168
G1 X111.87 Y38.033 E.12014
G1 X111.87 Y35.717 E.31168
G1 X112.763 Y35.717 E.12014
G1 X112.763 Y38.033 E.31168
G1 X113.655 Y38.033 E.12014
G1 X113.655 Y35.717 E.31168
G1 X114.548 Y35.717 E.12014
G1 X114.548 Y38.033 E.31168
G1 X115.441 Y38.033 E.12014
G1 X115.441 Y35.717 E.31168
G1 X116.333 Y35.717 E.12014
G1 X116.333 Y38.033 E.31168
G1 X117.226 Y38.033 E.12014
G1 X117.226 Y35.717 E.31168
G1 X118.119 Y35.717 E.12014
G1 X118.119 Y38.488 E.373
G1 X118.355 Y38.68 E.04089
G1 X118.81 Y40.852 E.29876
G1 X118.84 Y40.853 E.00408
G1 X119.012 Y41.669 E.11223
G1 X119.012 Y35.717 E.80104
G1 X119.904 Y35.717 E.12014
G1 X119.904 Y46.297 E1.42387
G1 E-.7 F3600
;WIPE_START
G1 F6240
G1 X119.904 Y45.777 E-.285
;WIPE_END
G1 E-.015 F3600
G1 X93.235 Y147.519 F7800
G1 E1 F2400
;TYPE:Support material
;WIDTH:0.42
G1 F1800
G1 X84.263 Y147.519 E.45029
G1 X84.263 Y144.94 E.12947
G1 X87.263 Y144.94 E.15056
G1 X87.263 Y141.177 E.18882
G1 X84.263 Y141.2 E.15056
G1 X84.263 Y138.62 E.12947
G1 X93.235 Y138.552 E.45031
G1 X93.235 Y147.468 E.44746
G1 X92.681 Y147.364 F7800
G1 F1800
G1 X92.681 Y138.866 E.42648
G1 X92.298 Y138.869 E.01923
G1 X92.298 Y147.209 E.41854
G1 X91.915 Y147.209 E.01923
G1 X91.915 Y138.872 E.41839
G1 X91.532 Y138.875 E.01923
G1 X91.532 Y147.209 E.41825
G1 X91.149 Y147.209 E.01923
G1 X91.149 Y138.878 E.4181
G1 X90.765 Y138.881 E.01923
G1 X90.765 Y147.209 E.41795
G1 X90.382 Y147.209 E.01923
G1 X90.382 Y138.884 E.4178
G1 X89.999 Y138.887 E.01923
G1 X89.999 Y147.209 E.41766
G1 X89.616 Y147.209 E.01923
G1 X89.616 Y138.89 E.41751
G1 X89.232 Y138.893 E.01923
G1 X89.232 Y147.209 E.41736
G1 X88.849 Y147.209 E.01923
G1 X88.849 Y138.896 E.41721
G1 X88.466 Y138.899 E.01923
G1 X88.466 Y147.209 E.41707
G1 X88.083 Y147.209 E.01923
G1 X88.083 Y138.902 E.41692
G1 X87.7 Y138.904 E.01923
G1 X87.7 Y147.209 E.41677
G1 X87.316 Y147.209 E.01923
G1 X87.316 Y145.25 E.09831
G1 X86.933 Y145.25 E.01923
G1 X86.933 Y147.209 E.09831
G1 X86.55 Y147.209 E.01923
G1 X86.55 Y145.25 E.09831
G1 X86.167 Y145.25 E.01923
G1 X86.167 Y147.209 E.09831
G1 X85.784 Y147.209 E.01923
G1 X85.784 Y145.25 E.09831
G1 X85.4 Y145.25 E.01923
G1 X85.4 Y147.209 E.09831
G1 X85.017 Y147.209 E.01923
G1 X85.017 Y145.25 E.09831
G1 X84.634 Y145.25 E.01923
G1 X84.634 Y147.364 E.1061
G1 E-.7 F3600
;WIPE_START
G1 F6240
G1 X84.634 Y146.844 E-.285
;WIPE_END
G1 E-.015 F3600
G1 X87.316 Y141.022 F7800
G1 E1 F2400
G1 F1800
G1 X87.316 Y138.907 E.10611
G1 X86.933 Y138.91 E.01923
G1 X86.933 Y140.869 E.09832
G1 X86.55 Y140.872 E.01923
G1 X86.55 Y138.913 E.09832
G1 X86.167 Y138.916 E.01923
G1 X86.167 Y140.875 E.09832
G1 X85.784 Y140.878 E.01923
G1 X85.784 Y138.919 E.09832
G1 X85.4 Y138.922 E.01923
G1 X85.4 Y140.881 E.09832
G1 X85.017 Y140.884 E.01923
G1 X85.017 Y138.925 E.09832
G1 X84.634 Y138.928 E.01923
G1 X84.634 Y141.042 E.10611
G1 E-.7 F3600
;WIPE_START
G1 F6240
G1 X84.634 Y140.522 E-.285
;WIPE_END
G1 E-.015 F3600
G1 X85.982 Y144.685 F7800
G1 E1 F2400
;TYPE:Support material interface
;WIDTH:1
G1 F1800
G1 X85.982 Y141.844 E.38239
G1 X85.089 Y141.85 E.12015
G1 X85.089 Y144.283 E.32741
G1 X84.196 Y144.283 E.12014
G1 X84.196 Y141.857 E.32649
G1 X83.304 Y141.864 E.12015
G1 X83.304 Y144.283 E.32556
G1 X82.411 Y144.283 E.12014
G1 X82.411 Y141.871 E.32464
G1 X81.518 Y141.878 E.12015
G1 X81.518 Y144.283 E.32372
G1 X80.625 Y144.283 E.12014
G1 X80.625 Y141.885 E.3228
G1 X79.733 Y141.892 E.12015
G1 X79.733 Y144.283 E.32188
G1 X78.84 Y144.283 E.12014
G1 X78.84 Y141.898 E.32096
G1 X77.947 Y141.905 E.12015
G1 X77.947 Y144.283 E.32003
G1 X77.055 Y144.283 E.12014
G1 X77.055 Y141.912 E.31911
G1 X76.162 Y141.919 E.12015
G1 X76.162 Y144.283 E.31819
G1 X75.269 Y144.283 E.12014
G1 X75.269 Y141.926 E.31727
G1 X74.377 Y141.933 E.12015
G1 X74.377 Y144.283 E.31635
G1 X73.484 Y144.283 E.12014
G1 X73.484 Y141.939 E.31542
G1 X72.591 Y141.946 E.12015
G1 X72.591 Y144.283 E.3145
G1 X71.699 Y144.283 E.12014
G1 X71.699 Y141.953 E.31358
G1 X70.806 Y141.96 E.12015
G1 X70.806 Y144.283 E.31266
G1 X69.913 Y144.283 E.12014
G1 X69.913 Y141.967 E.31174
G1 X69.02 Y141.967 E.12014
G1 X69.02 Y144.283 E.31168
G1 X68.128 Y144.283 E.12014
G1 X68.128 Y141.967 E.31168
G1 X67.502 Y141.967 E.08419
G1 X67.235 Y141.56 E.06557
G1 X67.235 Y144.685 E.42058
G1 E-.7 F3600
;WIPE_START
G1 F6240
G1 X67.235 Y144.165 E-.285
;WIPE_END
G1 E-.015 F3600
G1 X41.347 Y144.685 F7800
G1 E1 F2400
G1 F1800
G1 X41.347 Y96.785 E6.44649
G1 X40.454 Y96.785 E.12014
G1 X40.454 Y144.283 E6.39242
G1 X39.561 Y144.283 E.12014
G1 X39.561 Y96.785 E6.39242
G1 X39.108 Y96.785 E.06096
G1 X39.108 Y127.32 E4.10941
G1 X38.669 Y127.32 E.05918
G1 X38.669 Y144.283 E2.28301
G1 X37.776 Y144.283 E.12014
G1 X37.776 Y127.32 E2.28301
G1 X36.883 Y127.32 E.12014
G1 X36.883 Y144.283 E2.28301
G1 X35.991 Y144.283 E.12014
G1 X35.991 Y35.717 E14.61125
G1 X35.098 Y35.717 E.12014
G1 X35.098 Y144.283 E14.61125
G1 X34.205 Y144.283 E.12014
G1 X34.205 Y35.717 E14.61125
G1 X33.312 Y35.717 E.12014
G1 X33.312 Y144.283 E14.61125
G1 X32.42 Y144.283 E.12014
G1 X32.42 Y35.717 E14.61125
G1 X31.527 Y35.717 E.12014
M73 P0 R323
G1 X31.527 Y140.89 E14.15465
G1 X30.634 Y140.89 E.12014
G1 X30.634 Y35.717 E14.15465
G1 X29.742 Y35.717 E.12014
G1 X29.742 Y141.292 E14.20871
G1 E-.7 F3600
;WIPE_START
G1 F6240
G1 X29.742 Y140.772 E-.285
;WIPE_END
G1 E-.015 F3600
G1 X144.968 Y140.38 F7800
G1 E1 F2400
;TYPE:Perimeter
;WIDTH:0.42
G1 F1800
G1 X133.252 Y140.462 E.588
G1 X134.061 Y134.37 E.30839
G1 X136.257 Y127.185 E.37707
G1 X144.886 Y140.255 E.78601
G1 X145.606 Y140.721 F7800
;TYPE:External perimeter
G1 F1800
G1 X132.858 Y140.809 E.6398
G1 X133.723 Y134.297 E.32972
G1 X136.141 Y126.383 E.41526
G1 X145.524 Y140.595 E.85467
G1 X144.619 Y140.561 F7800
G1 E-.7 F3600
;WIPE_START
G1 F6240
G1 X145.004 Y140.604 E-.285
;WIPE_END
G1 E-.015 F3600
G1 X137.675 Y129.521 F7800
G1 E1 F2400
;TYPE:Solid infill
;WIDTH:0.426997
G1 F1800
G1 X136.249 Y128.095 E.10328
G1 X136.132 Y128.476 E.02041
G1 X138.095 Y130.438 E.1421
G1 X139.062 Y131.903 E.08986
G1 X136.016 Y128.857 E.22055
G1 X135.899 Y129.238 E.02041
G1 X140.029 Y133.367 E.299
G1 X140.995 Y134.832 E.08986
G1 X135.783 Y129.62 E.37746
G1 X135.666 Y130.001 E.02041
G1 X141.962 Y136.297 E.45591
G1 X142.929 Y137.761 E.08986
G1 X135.55 Y130.382 E.53436
G1 X135.433 Y130.763 E.02041
G1 X143.896 Y139.226 E.61281
G1 X144.49 Y140.125 E.05517
G1 X144.299 Y140.126 E.00977
G1 X135.317 Y131.144 E.65042
G1 X135.201 Y131.525 E.02041
G1 X143.805 Y140.13 E.62307
G1 X143.311 Y140.133 E.02531
G1 X135.084 Y131.906 E.59572
G1 X134.968 Y132.288 E.02041
G1 X142.816 Y140.137 E.56836
G1 X142.322 Y140.14 E.02531
G1 X134.851 Y132.669 E.54101
G1 X134.735 Y133.05 E.02041
G1 X141.828 Y140.143 E.51366
G1 X141.334 Y140.147 E.02531
G1 X134.618 Y133.431 E.48631
G1 X134.502 Y133.812 E.02041
G1 X140.84 Y140.15 E.45895
G1 X140.345 Y140.154 E.02531
G1 X134.385 Y134.193 E.4316
G1 X134.314 Y134.425 E.01241
G1 X134.291 Y134.597 E.00889
G1 X139.851 Y140.157 E.4026
G1 X139.357 Y140.161 E.02531
G1 X134.233 Y135.037 E.37103
G1 X134.175 Y135.476 E.02269
G1 X138.863 Y140.164 E.33947
G1 X138.369 Y140.167 E.02531
G1 X134.117 Y135.915 E.3079
G1 X134.058 Y136.355 E.02269
G1 X137.874 Y140.171 E.27634
G1 X137.38 Y140.174 E.02531
G1 X134 Y136.794 E.24477
G1 X133.942 Y137.233 E.02269
G1 X136.886 Y140.178 E.21321
G1 X136.392 Y140.181 E.02531
