; generated by PrusaSlicer 2.5.0+win64 on 2022-12-07 at 00:06:08 UTC

; 

; external perimeters extrusion width = 1.00mm
; perimeters extrusion width = 1.00mm
; infill extrusion width = 1.00mm
; solid infill extrusion width = 1.00mm
; top infill extrusion width = 1.00mm
; support material extrusion width = 1.00mm
; first layer extrusion width = 0.42mm

M73 P0 R534
M107
;TYPE:Custom
G90 ; use absolute coordinates
M83 ; extruder relative mode
M140 S60 ; set final bed temp
M104 S150 ; set temporary nozzle temp to prevent oozing during homing and auto bed leveling
G4 S10 ; allow partial nozzle warmup
G28 ; home all axisG1 Z50 F240
G1 X7.6 Y10 F3000
M104 S210 ; set final nozzle temp
M190 S60 ; wait for bed temp to stabilize
M109 S210 ; wait for nozzle temp to stabilize
G1 Z0.28 F240
G92 E0
G1 Y140 E10 F1500 ; prime the nozzle
G1 X4 F5000
G92 E0
G1 Y10 E10 F1200 ; prime the nozzle
G92 E0
G21 ; set units to millimeters
G90 ; use absolute coordinates
M83 ; use relative distances for extrusion
; Filament gcode
M107
;LAYER_CHANGE
;Z:0.35
;HEIGHT:0.35
;BEFORE_LAYER_CHANGE
G92 E0
;0.35


G1 E-1 F3600
G1 Z.35 F7800
;AFTER_LAYER_CHANGE
;0.35
G1 X131.302 Y162.341
G1 E1 F2400
;TYPE:Perimeter
;WIDTH:0.42
G1 F1800
G1 X23.293 Y162.341 E5.4205
G1 X23.293 Y17.659 E7.26101
G1 X113.989 Y17.659 E4.55167
G1 X131.284 Y162.192 E7.30528
G1 X131.69 Y162.686 F7800
;TYPE:External perimeter
G1 F1800
G1 X22.948 Y162.686 E5.45731
G1 X22.948 Y17.314 E7.29563
G1 X114.295 Y17.314 E4.58434
G1 X131.672 Y162.537 E7.34014
G1 X130.738 Y162.382 F7800
G1 E-.7 F3600
;WIPE_START
G1 F6240
G1 X131.152 Y162.538 E-.285
;WIPE_END
G1 E-.015 F3600
G1 X113.993 Y18.558 F7800
G1 E1 F2400
;TYPE:Solid infill
;WIDTH:0.420642
G1 F1800
G1 X113.352 Y17.917 E.04554
G1 X112.863 Y17.917 E.02457
G1 X113.881 Y18.936 E.07239
G1 X113.948 Y19.491 E.02811
G1 X112.375 Y17.917 E.11186
G1 X111.886 Y17.917 E.02457
G1 X114.014 Y20.046 E.15133
G1 X114.081 Y20.601 E.02811
G1 X111.397 Y17.917 E.19079
G1 X110.909 Y17.917 E.02457
G1 X114.147 Y21.156 E.23026
G1 X114.214 Y21.711 E.02811
G1 X110.42 Y17.917 E.26973
G1 X109.932 Y17.917 E.02457
G1 X114.28 Y22.266 E.3092
G1 X114.346 Y22.821 E.02811
G1 X109.443 Y17.917 E.34867
G1 X108.954 Y17.917 E.02457
G1 X114.413 Y23.376 E.38814
G1 X114.479 Y23.931 E.02811
G1 X108.466 Y17.917 E.42761
G1 X107.977 Y17.917 E.02457
G1 X114.546 Y24.486 E.46708
G1 X114.612 Y25.041 E.02811
G1 X107.488 Y17.917 E.50655
G1 X107 Y17.917 E.02457
G1 X114.679 Y25.596 E.54601
G1 X114.745 Y26.151 E.02811
G1 X106.511 Y17.917 E.58548
G1 X106.022 Y17.917 E.02457
G1 X114.811 Y26.707 E.62495
G1 X114.878 Y27.262 E.02811
G1 X105.534 Y17.917 E.66442
G1 X105.045 Y17.917 E.02457
G1 X114.944 Y27.817 E.70389
G1 X115.011 Y28.372 E.02811
G1 X104.556 Y17.917 E.74336
G1 X104.068 Y17.917 E.02457
G1 X115.077 Y28.927 E.78283
G1 X115.143 Y29.482 E.02811
G1 X103.579 Y17.917 E.8223
G1 X103.09 Y17.917 E.02457
G1 X115.21 Y30.037 E.86176
G1 X115.276 Y30.592 E.02811
G1 X102.602 Y17.917 E.90123
G1 X102.113 Y17.917 E.02457
G1 X115.343 Y31.147 E.9407
G1 X115.409 Y31.702 E.02811
M73 P0 R533
G1 X101.624 Y17.917 E.98017
G1 X101.136 Y17.917 E.02457
G1 X115.476 Y32.257 E1.01964
G1 X115.542 Y32.812 E.02811
G1 X100.647 Y17.917 E1.05911
G1 X100.158 Y17.917 E.02457
G1 X115.608 Y33.367 E1.09858
G1 X115.675 Y33.922 E.02811
G1 X99.67 Y17.917 E1.13805
G1 X99.181 Y17.917 E.02457
G1 X115.741 Y34.478 E1.17752
G1 X115.808 Y35.033 E.02811
G1 X98.692 Y17.917 E1.21698
G1 X98.204 Y17.917 E.02457
G1 X115.874 Y35.588 E1.25645
G1 X115.94 Y36.143 E.02811
G1 X97.715 Y17.917 E1.29592
G1 X97.227 Y17.917 E.02457
G1 X116.007 Y36.698 E1.33539
G1 X116.073 Y37.253 E.02811
G1 X96.738 Y17.917 E1.37486
G1 X96.249 Y17.917 E.02457
G1 X116.14 Y37.808 E1.41433
G1 X116.206 Y38.363 E.02811
G1 X95.761 Y17.917 E1.4538
G1 X95.272 Y17.917 E.02457
G1 X116.273 Y38.918 E1.49327
G1 X116.339 Y39.473 E.02811
G1 X94.783 Y17.917 E1.53273
G1 X94.295 Y17.917 E.02457
G1 X116.405 Y40.028 E1.5722
G1 X116.472 Y40.583 E.02811
G1 X93.806 Y17.917 E1.61167
G1 X93.317 Y17.917 E.02457
G1 X116.538 Y41.138 E1.65114
G1 X116.605 Y41.694 E.02811
G1 X92.829 Y17.917 E1.69061
G1 X92.34 Y17.917 E.02457
G1 X116.671 Y42.249 E1.73008
G1 X116.737 Y42.804 E.02811
G1 X91.851 Y17.917 E1.76955
G1 X91.363 Y17.917 E.02457
G1 X116.804 Y43.359 E1.80902
G1 X116.87 Y43.914 E.02811
G1 X90.874 Y17.917 E1.84849
G1 X90.385 Y17.917 E.02457
G1 X116.937 Y44.469 E1.88795
G1 X117.003 Y45.024 E.02811
G1 X89.897 Y17.917 E1.92742
G1 X89.408 Y17.917 E.02457
G1 X117.07 Y45.579 E1.96689
G1 X117.136 Y46.134 E.02811
G1 X88.919 Y17.917 E2.00636
G1 X88.431 Y17.917 E.02457
G1 X117.202 Y46.689 E2.04583
G1 X117.269 Y47.244 E.02811
G1 X87.942 Y17.917 E2.0853
G1 X87.453 Y17.917 E.02457
G1 X117.335 Y47.799 E2.12477
G1 X117.402 Y48.354 E.02811
G1 X86.965 Y17.917 E2.16424
G1 X86.476 Y17.917 E.02457
G1 X117.468 Y48.909 E2.2037
G1 X117.535 Y49.465 E.02811
G1 X85.987 Y17.917 E2.24317
G1 X85.499 Y17.917 E.02457
G1 X117.601 Y50.02 E2.28264
G1 X117.667 Y50.575 E.02811
G1 X85.01 Y17.917 E2.32211
G1 X84.521 Y17.917 E.02457
G1 X117.734 Y51.13 E2.36158
G1 X117.8 Y51.685 E.02811
G1 X84.033 Y17.917 E2.40105
G1 X83.544 Y17.917 E.02457
G1 X117.867 Y52.24 E2.44052
G1 X117.933 Y52.795 E.02811
G1 X83.056 Y17.917 E2.47999
G1 X82.567 Y17.917 E.02457
G1 X117.999 Y53.35 E2.51946
G1 X118.066 Y53.905 E.02811
G1 X82.078 Y17.917 E2.55892
G1 X81.59 Y17.917 E.02457
G1 X118.132 Y54.46 E2.59839
G1 X118.199 Y55.015 E.02811
G1 X81.101 Y17.917 E2.63786
G1 X80.612 Y17.917 E.02457
G1 X118.265 Y55.57 E2.67733
G1 X118.332 Y56.125 E.02811
G1 X80.124 Y17.917 E2.7168
G1 X79.635 Y17.917 E.02457
G1 X118.398 Y56.68 E2.75627
G1 X118.464 Y57.236 E.02811
M73 P0 R532
G1 X79.146 Y17.917 E2.79574
G1 X78.658 Y17.917 E.02457
G1 X118.531 Y57.791 E2.83521
G1 X118.597 Y58.346 E.02811
G1 X78.169 Y17.917 E2.87467
G1 X77.68 Y17.917 E.02457
G1 X118.664 Y58.901 E2.91414
G1 X118.73 Y59.456 E.02811
G1 X77.192 Y17.917 E2.95361
G1 X76.703 Y17.917 E.02457
G1 X118.796 Y60.011 E2.99308
G1 X118.863 Y60.566 E.02811
G1 X76.214 Y17.917 E3.03255
G1 X75.726 Y17.917 E.02457
G1 X118.929 Y61.121 E3.07202
G1 X118.996 Y61.676 E.02811
G1 X75.237 Y17.917 E3.11149
G1 X74.748 Y17.917 E.02457
G1 X119.062 Y62.231 E3.15096
G1 X119.129 Y62.786 E.02811
G1 X74.26 Y17.917 E3.19043
G1 X73.771 Y17.917 E.02457
G1 X119.195 Y63.341 E3.22989
G1 X119.261 Y63.896 E.02811
G1 X73.282 Y17.917 E3.26936
G1 X72.794 Y17.917 E.02457
G1 X119.328 Y64.451 E3.30883
G1 X119.394 Y65.007 E.02811
G1 X72.305 Y17.917 E3.3483
G1 X71.816 Y17.917 E.02457
G1 X119.461 Y65.562 E3.38777
G1 X119.527 Y66.117 E.02811
G1 X71.328 Y17.917 E3.42724
G1 X70.839 Y17.917 E.02457
G1 X119.593 Y66.672 E3.46671
G1 X119.66 Y67.227 E.02811
G1 X70.351 Y17.917 E3.50618
G1 X69.862 Y17.917 E.02457
G1 X119.726 Y67.782 E3.54564
G1 X119.793 Y68.337 E.02811
G1 X69.373 Y17.917 E3.58511
G1 X68.885 Y17.917 E.02457
G1 X119.859 Y68.892 E3.62458
G1 X119.926 Y69.447 E.02811
G1 X68.396 Y17.917 E3.66405
G1 X67.907 Y17.917 E.02457
G1 X119.992 Y70.002 E3.70352
G1 X120.058 Y70.557 E.02811
G1 X67.419 Y17.917 E3.74299
G1 X66.93 Y17.917 E.02457
G1 X120.125 Y71.112 E3.78246
G1 X120.191 Y71.667 E.02811
G1 X66.441 Y17.917 E3.82193
G1 X65.953 Y17.917 E.02457
M73 P0 R531
G1 X120.258 Y72.223 E3.8614
G1 X120.324 Y72.778 E.02811
G1 X65.464 Y17.917 E3.90086
G1 X64.975 Y17.917 E.02457
G1 X120.391 Y73.333 E3.94033
G1 X120.457 Y73.888 E.02811
G1 X64.487 Y17.917 E3.9798
G1 X63.998 Y17.917 E.02457
G1 X120.523 Y74.443 E4.01927
G1 X120.59 Y74.998 E.02811
G1 X63.509 Y17.917 E4.05874
G1 X63.021 Y17.917 E.02457
G1 X120.656 Y75.553 E4.09821
G1 X120.723 Y76.108 E.02811
G1 X62.532 Y17.917 E4.13768
G1 X62.043 Y17.917 E.02457
G1 X120.789 Y76.663 E4.17715
G1 X120.855 Y77.218 E.02811
G1 X61.555 Y17.917 E4.21661
G1 X61.066 Y17.917 E.02457
G1 X120.922 Y77.773 E4.25608
G1 X120.988 Y78.328 E.02811
G1 X60.577 Y17.917 E4.29555
G1 X60.089 Y17.917 E.02457
G1 X121.055 Y78.883 E4.33502
G1 X121.121 Y79.438 E.02811
G1 X59.6 Y17.917 E4.37449
G1 X59.111 Y17.917 E.02457
G1 X121.188 Y79.994 E4.41396
G1 X121.254 Y80.549 E.02811
G1 X58.623 Y17.917 E4.45343
G1 X58.134 Y17.917 E.02457
G1 X121.32 Y81.104 E4.4929
G1 X121.387 Y81.659 E.02811
G1 X57.645 Y17.917 E4.53237
G1 X57.157 Y17.917 E.02457
G1 X121.453 Y82.214 E4.57183
G1 X121.52 Y82.769 E.02811
G1 X56.668 Y17.917 E4.6113
G1 X56.18 Y17.917 E.02457
G1 X121.586 Y83.324 E4.65077
G1 X121.652 Y83.879 E.02811
M73 P0 R530
G1 X55.691 Y17.917 E4.69024
G1 X55.202 Y17.917 E.02457
G1 X121.719 Y84.434 E4.72971
G1 X121.785 Y84.989 E.02811
G1 X54.714 Y17.917 E4.76918
G1 X54.225 Y17.917 E.02457
G1 X121.852 Y85.544 E4.80865
G1 X121.918 Y86.099 E.02811
G1 X53.736 Y17.917 E4.84812
G1 X53.248 Y17.917 E.02457
G1 X121.985 Y86.654 E4.88758
G1 X122.051 Y87.209 E.02811
G1 X52.759 Y17.917 E4.92705
G1 X52.27 Y17.917 E.02457
G1 X122.117 Y87.765 E4.96652
G1 X122.184 Y88.32 E.02811
G1 X51.782 Y17.917 E5.00599
G1 X51.293 Y17.917 E.02457
G1 X122.25 Y88.875 E5.04546
G1 X122.317 Y89.43 E.02811
G1 X50.804 Y17.917 E5.08493
G1 X50.316 Y17.917 E.02457
G1 X122.383 Y89.985 E5.1244
G1 X122.449 Y90.54 E.02811
G1 X49.827 Y17.917 E5.16387
G1 X49.338 Y17.917 E.02457
G1 X122.516 Y91.095 E5.20334
G1 X122.582 Y91.65 E.02811
G1 X48.85 Y17.917 E5.2428
G1 X48.361 Y17.917 E.02457
G1 X122.649 Y92.205 E5.28227
G1 X122.715 Y92.76 E.02811
G1 X47.872 Y17.917 E5.32174
G1 X47.384 Y17.917 E.02457
G1 X122.782 Y93.315 E5.36121
G1 X122.848 Y93.87 E.02811
M73 P0 R529
G1 X46.895 Y17.917 E5.40068
G1 X46.406 Y17.917 E.02457
G1 X122.914 Y94.425 E5.44015
G1 X122.981 Y94.981 E.02811
G1 X45.918 Y17.917 E5.47962
G1 X45.429 Y17.917 E.02457
G1 X123.047 Y95.536 E5.51909
G1 X123.114 Y96.091 E.02811
G1 X44.94 Y17.917 E5.55855
G1 X44.452 Y17.917 E.02457
G1 X123.18 Y96.646 E5.59802
G1 X123.246 Y97.201 E.02811
M73 P1 R529
G1 X43.963 Y17.917 E5.63749
G1 X43.475 Y17.917 E.02457
G1 X123.313 Y97.756 E5.67696
G1 X123.379 Y98.311 E.02811
G1 X42.986 Y17.917 E5.71643
G1 X42.497 Y17.917 E.02457
G1 X123.446 Y98.866 E5.7559
G1 X123.512 Y99.421 E.02811
G1 X42.009 Y17.917 E5.79537
G1 X41.52 Y17.917 E.02457
G1 X123.579 Y99.976 E5.83484
G1 X123.645 Y100.531 E.02811
G1 X41.031 Y17.917 E5.87431
G1 X40.543 Y17.917 E.02457
G1 X123.711 Y101.086 E5.91377
G1 X123.778 Y101.641 E.02811
G1 X40.054 Y17.917 E5.95324
G1 X39.565 Y17.917 E.02457
M73 P1 R528
G1 X123.844 Y102.196 E5.99271
G1 X123.911 Y102.752 E.02811
G1 X39.077 Y17.917 E6.03218
G1 X38.588 Y17.917 E.02457
G1 X123.977 Y103.307 E6.07165
G1 X124.044 Y103.862 E.02811
G1 X38.099 Y17.917 E6.11112
G1 X37.611 Y17.917 E.02457
G1 X124.11 Y104.417 E6.15059
G1 X124.176 Y104.972 E.02811
G1 X37.122 Y17.917 E6.19006
G1 X36.633 Y17.917 E.02457
G1 X124.243 Y105.527 E6.22952
G1 X124.309 Y106.082 E.02811
G1 X36.145 Y17.917 E6.26899
G1 X35.656 Y17.917 E.02457
G1 X124.376 Y106.637 E6.30846
G1 X124.442 Y107.192 E.02811
G1 X35.167 Y17.917 E6.34793
G1 X34.679 Y17.917 E.02457
G1 X124.508 Y107.747 E6.3874
G1 X124.575 Y108.302 E.02811
G1 X34.19 Y17.917 E6.42687
G1 X33.701 Y17.917 E.02457
G1 X124.641 Y108.857 E6.46634
G1 X124.708 Y109.412 E.02811
G1 X33.213 Y17.917 E6.50581
G1 X32.724 Y17.917 E.02457
G1 X124.774 Y109.967 E6.54528
G1 X124.841 Y110.523 E.02811
M73 P1 R527
G1 X32.235 Y17.917 E6.58474
G1 X31.747 Y17.917 E.02457
G1 X124.907 Y111.078 E6.62421
G1 X124.973 Y111.633 E.02811
G1 X31.258 Y17.917 E6.66368
G1 X30.769 Y17.917 E.02457
G1 X125.04 Y112.188 E6.70315
G1 X125.106 Y112.743 E.02811
G1 X30.281 Y17.917 E6.74262
G1 X29.792 Y17.917 E.02457
G1 X125.173 Y113.298 E6.78209
G1 X125.239 Y113.853 E.02811
G1 X29.304 Y17.917 E6.82156
G1 X28.815 Y17.917 E.02457
G1 X125.305 Y114.408 E6.86103
G1 X125.372 Y114.963 E.02811
G1 X28.326 Y17.917 E6.90049
G1 X27.838 Y17.917 E.02457
G1 X125.438 Y115.518 E6.93996
G1 X125.505 Y116.073 E.02811
G1 X27.349 Y17.917 E6.97943
G1 X26.86 Y17.917 E.02457
G1 X125.571 Y116.628 E7.0189
G1 X125.638 Y117.183 E.02811
G1 X26.372 Y17.917 E7.05837
G1 X25.883 Y17.917 E.02457
M73 P1 R526
G1 X125.704 Y117.739 E7.09784
G1 X125.77 Y118.294 E.02811
G1 X25.394 Y17.917 E7.13731
G1 X24.906 Y17.917 E.02457
G1 X125.837 Y118.849 E7.17678
G1 X125.903 Y119.404 E.02811
G1 X24.417 Y17.917 E7.21625
G1 X23.928 Y17.917 E.02457
G1 X125.97 Y119.959 E7.25571
G1 X126.036 Y120.514 E.02811
G1 X23.552 Y18.029 E7.28722
G1 X23.552 Y18.518 E.02457
G1 X126.102 Y121.069 E7.29195
G1 X126.169 Y121.624 E.02811
G1 X23.552 Y19.007 E7.29667
G1 X23.552 Y19.495 E.02457
G1 X126.235 Y122.179 E7.30139
G1 X126.302 Y122.734 E.02811
G1 X23.552 Y19.984 E7.30611
G1 X23.552 Y20.473 E.02457
G1 X126.368 Y123.289 E7.31084
G1 X126.435 Y123.844 E.02811
G1 X23.552 Y20.961 E7.31556
G1 X23.552 Y21.45 E.02457
M73 P1 R525
G1 X126.501 Y124.399 E7.32028
G1 X126.567 Y124.954 E.02811
G1 X23.552 Y21.939 E7.325
G1 X23.552 Y22.427 E.02457
G1 X126.634 Y125.51 E7.32973
G1 X126.7 Y126.065 E.02811
G1 X23.552 Y22.916 E7.33445
G1 X23.552 Y23.405 E.02457
G1 X126.767 Y126.62 E7.33917
G1 X126.833 Y127.175 E.02811
G1 X23.552 Y23.893 E7.3439
G1 X23.552 Y24.382 E.02457
G1 X126.9 Y127.73 E7.34862
G1 X126.966 Y128.285 E.02811
G1 X23.552 Y24.871 E7.35334
G1 X23.552 Y25.359 E.02457
G1 X127.032 Y128.84 E7.35806
G1 X127.099 Y129.395 E.02811
G1 X23.552 Y25.848 E7.36279
G1 X23.552 Y26.337 E.02457
G1 X127.165 Y129.95 E7.36751
G1 X127.232 Y130.505 E.02811
G1 X23.552 Y26.825 E7.37223
G1 X23.552 Y27.314 E.02457
M73 P1 R524
G1 X127.298 Y131.06 E7.37695
G1 X127.364 Y131.615 E.02811
G1 X23.552 Y27.803 E7.38168
G1 X23.552 Y28.291 E.02457
G1 X127.431 Y132.17 E7.3864
G1 X127.497 Y132.725 E.02811
G1 X23.552 Y28.78 E7.39112
G1 X23.552 Y29.268 E.02457
G1 X127.564 Y133.281 E7.39585
G1 X127.63 Y133.836 E.02811
G1 X23.552 Y29.757 E7.40057
G1 X23.552 Y30.246 E.02457
G1 X127.697 Y134.391 E7.40529
G1 X127.763 Y134.946 E.02811
G1 X23.552 Y30.734 E7.41001
G1 X23.552 Y31.223 E.02457
G1 X127.829 Y135.501 E7.41474
G1 X127.896 Y136.056 E.02811
M73 P2 R524
G1 X23.552 Y31.712 E7.41946
G1 X23.552 Y32.2 E.02457
G1 X127.962 Y136.611 E7.42418
G1 X128.029 Y137.166 E.02811
G1 X23.552 Y32.689 E7.4289
G1 X23.552 Y33.178 E.02457
M73 P2 R523
G1 X128.095 Y137.721 E7.43363
G1 X128.161 Y138.276 E.02811
G1 X23.552 Y33.666 E7.43835
G1 X23.552 Y34.155 E.02457
G1 X128.228 Y138.831 E7.44307
G1 X128.294 Y139.386 E.02811
G1 X23.552 Y34.644 E7.4478
G1 X23.552 Y35.132 E.02457
G1 X128.361 Y139.941 E7.45252
G1 X128.427 Y140.496 E.02811
G1 X23.552 Y35.621 E7.45724
G1 X23.552 Y36.11 E.02457
G1 X128.494 Y141.052 E7.46196
G1 X128.56 Y141.607 E.02811
G1 X23.552 Y36.598 E7.46669
G1 X23.552 Y37.087 E.02457
G1 X128.626 Y142.162 E7.47141
G1 X128.693 Y142.717 E.02811
G1 X23.552 Y37.576 E7.47613
G1 X23.552 Y38.064 E.02457
G1 X128.759 Y143.272 E7.48085
G1 X128.826 Y143.827 E.02811
G1 X23.552 Y38.553 E7.48558
G1 X23.552 Y39.042 E.02457
M73 P2 R522
G1 X128.892 Y144.382 E7.4903
G1 X128.958 Y144.937 E.02811
G1 X23.552 Y39.53 E7.49502
G1 X23.552 Y40.019 E.02457
G1 X129.025 Y145.492 E7.49975
G1 X129.091 Y146.047 E.02811
G1 X23.552 Y40.508 E7.50447
G1 X23.552 Y40.996 E.02457
G1 X129.158 Y146.602 E7.50919
G1 X129.224 Y147.157 E.02811
G1 X23.552 Y41.485 E7.51391
G1 X23.552 Y41.973 E.02457
G1 X129.291 Y147.712 E7.51864
G1 X129.357 Y148.268 E.02811
G1 X23.552 Y42.462 E7.52336
G1 X23.552 Y42.951 E.02457
G1 X129.423 Y148.823 E7.52808
G1 X129.49 Y149.378 E.02811
G1 X23.552 Y43.439 E7.5328
G1 X23.552 Y43.928 E.02457
G1 X129.556 Y149.933 E7.53753
G1 X129.623 Y150.488 E.02811
G1 X23.552 Y44.417 E7.54225
G1 X23.552 Y44.905 E.02457
M73 P2 R521
G1 X129.689 Y151.043 E7.54697
G1 X129.755 Y151.598 E.02811
G1 X23.552 Y45.394 E7.5517
G1 X23.552 Y45.883 E.02457
G1 X129.822 Y152.153 E7.55642
G1 X129.888 Y152.708 E.02811
G1 X23.552 Y46.371 E7.56114
G1 X23.552 Y46.86 E.02457
G1 X129.955 Y153.263 E7.56586
G1 X130.021 Y153.818 E.02811
G1 X23.552 Y47.349 E7.57059
G1 X23.552 Y47.837 E.02457
G1 X130.088 Y154.373 E7.57531
G1 X130.154 Y154.928 E.02811
G1 X23.552 Y48.326 E7.58003
G1 X23.552 Y48.815 E.02457
G1 X130.22 Y155.483 E7.58475
G1 X130.287 Y156.039 E.02811
G1 X23.552 Y49.303 E7.58948
G1 X23.552 Y49.792 E.02457
G1 X130.353 Y156.594 E7.5942
G1 X130.42 Y157.149 E.02811
G1 X23.552 Y50.281 E7.59892
G1 X23.552 Y50.769 E.02457
M73 P2 R520
G1 X130.486 Y157.704 E7.60365
