; generated by PrusaSlicer 2.5.0+win64 on 2022-12-07 at 00:06:23 UTC

; 

; external perimeters extrusion width = 1.00mm
; perimeters extrusion width = 1.00mm
; infill extrusion width = 1.00mm
; solid infill extrusion width = 1.00mm
; top infill extrusion width = 1.00mm
; support material extrusion width = 1.00mm
; first layer extrusion width = 0.42mm

M73 P0 R514
M107
;TYPE:Custom
G90 ; use absolute coordinates
M83 ; extruder relative mode
M140 S60 ; set final bed temp
M104 S150 ; set temporary nozzle temp to prevent oozing during homing and auto bed leveling
G4 S10 ; allow partial nozzle warmup
G28 ; home all axisG1 Z50 F240
G1 X7.6 Y10 F3000
M104 S210 ; set final nozzle temp
M190 S60 ; wait for bed temp to stabilize
M109 S210 ; wait for nozzle temp to stabilize
G1 Z0.28 F240
G92 E0
G1 Y140 E10 F1500 ; prime the nozzle
G1 X4 F5000
G92 E0
G1 Y10 E10 F1200 ; prime the nozzle
G92 E0
G21 ; set units to millimeters
G90 ; use absolute coordinates
M83 ; use relative distances for extrusion
; Filament gcode
M107
;LAYER_CHANGE
;Z:0.35
;HEIGHT:0.35
;BEFORE_LAYER_CHANGE
G92 E0
;0.35


G1 E-1 F3600
G1 Z.35 F7800
;AFTER_LAYER_CHANGE
;0.35
G1 X156.709 Y162.341
G1 E1 F2400
;TYPE:Perimeter
;WIDTH:0.42
G1 F1800
G1 X23.295 Y162.341 E6.6955
G1 X23.295 Y17.659 E7.26101
G1 X156.709 Y17.659 E6.6955
G1 X156.709 Y162.191 E7.25348
G1 X157.054 Y162.686 F7800
;TYPE:External perimeter
G1 F1800
G1 X22.95 Y162.686 E6.73012
G1 X22.95 Y17.314 E7.29563
G1 X157.054 Y17.314 E6.73012
G1 X157.054 Y162.536 E7.2881
G1 X156.092 Y162.414 F7800
G1 E-.7 F3600
;WIPE_START
G1 F6240
G1 X156.534 Y162.537 E-.285
;WIPE_END
G1 E-.015 F3600
G1 X155.908 Y17.762 F7800
G1 E1 F2400
;TYPE:Solid infill
;WIDTH:0.420278
G1 F1800
G1 X156.45 Y18.305 E.03854
G1 X156.45 Y18.793 E.02452
G1 X155.575 Y17.917 E.06219
G1 X155.087 Y17.917 E.02452
G1 X156.45 Y19.281 E.09686
G1 X156.45 Y19.769 E.02452
G1 X154.599 Y17.917 E.13154
G1 X154.11 Y17.917 E.02452
G1 X156.45 Y20.257 E.16621
G1 X156.45 Y20.746 E.02452
G1 X153.622 Y17.917 E.20088
G1 X153.134 Y17.917 E.02452
G1 X156.45 Y21.234 E.23555
G1 X156.45 Y21.722 E.02452
G1 X152.646 Y17.917 E.27023
G1 X152.158 Y17.917 E.02452
G1 X156.45 Y22.21 E.3049
G1 X156.45 Y22.698 E.02452
G1 X151.67 Y17.917 E.33957
G1 X151.182 Y17.917 E.02452
G1 X156.45 Y23.186 E.37425
G1 X156.45 Y23.674 E.02452
G1 X150.693 Y17.917 E.40892
G1 X150.205 Y17.917 E.02452
G1 X156.45 Y24.163 E.44359
G1 X156.45 Y24.651 E.02452
G1 X149.717 Y17.917 E.47826
G1 X149.229 Y17.917 E.02452
G1 X156.45 Y25.139 E.51294
G1 X156.45 Y25.627 E.02452
G1 X148.741 Y17.917 E.54761
G1 X148.253 Y17.917 E.02452
G1 X156.45 Y26.115 E.58228
G1 X156.45 Y26.603 E.02452
M73 P0 R513
G1 X147.765 Y17.917 E.61696
G1 X147.276 Y17.917 E.02452
G1 X156.45 Y27.091 E.65163
G1 X156.45 Y27.58 E.02452
G1 X146.788 Y17.917 E.6863
G1 X146.3 Y17.917 E.02452
G1 X156.45 Y28.068 E.72098
G1 X156.45 Y28.556 E.02452
G1 X145.812 Y17.917 E.75565
G1 X145.324 Y17.917 E.02452
G1 X156.45 Y29.044 E.79032
G1 X156.45 Y29.532 E.02452
G1 X144.836 Y17.917 E.82499
G1 X144.348 Y17.917 E.02452
G1 X156.45 Y30.02 E.85967
G1 X156.45 Y30.508 E.02452
G1 X143.859 Y17.917 E.89434
G1 X143.371 Y17.917 E.02452
G1 X156.45 Y30.996 E.92901
G1 X156.45 Y31.485 E.02452
G1 X142.883 Y17.917 E.96369
G1 X142.395 Y17.917 E.02452
G1 X156.45 Y31.973 E.99836
G1 X156.45 Y32.461 E.02452
G1 X141.907 Y17.917 E1.03303
G1 X141.419 Y17.917 E.02452
G1 X156.45 Y32.949 E1.0677
G1 X156.45 Y33.437 E.02452
G1 X140.931 Y17.917 E1.10238
G1 X140.442 Y17.917 E.02452
G1 X156.45 Y33.925 E1.13705
G1 X156.45 Y34.413 E.02452
G1 X139.954 Y17.917 E1.17172
G1 X139.466 Y17.917 E.02452
G1 X156.45 Y34.902 E1.2064
G1 X156.45 Y35.39 E.02452
G1 X138.978 Y17.917 E1.24107
G1 X138.49 Y17.917 E.02452
G1 X156.45 Y35.878 E1.27574
G1 X156.45 Y36.366 E.02452
G1 X138.002 Y17.917 E1.31042
G1 X137.514 Y17.917 E.02452
G1 X156.45 Y36.854 E1.34509
G1 X156.45 Y37.342 E.02452
G1 X137.025 Y17.917 E1.37976
G1 X136.537 Y17.917 E.02452
G1 X156.45 Y37.83 E1.41443
G1 X156.45 Y38.319 E.02452
G1 X136.049 Y17.917 E1.44911
G1 X135.561 Y17.917 E.02452
G1 X156.45 Y38.807 E1.48378
G1 X156.45 Y39.295 E.02452
G1 X135.073 Y17.917 E1.51845
G1 X134.585 Y17.917 E.02452
G1 X156.45 Y39.783 E1.55313
G1 X156.45 Y40.271 E.02452
G1 X134.097 Y17.917 E1.5878
G1 X133.609 Y17.917 E.02452
G1 X156.45 Y40.759 E1.62247
G1 X156.45 Y41.247 E.02452
G1 X133.12 Y17.917 E1.65714
G1 X132.632 Y17.917 E.02452
G1 X156.45 Y41.736 E1.69182
G1 X156.45 Y42.224 E.02452
G1 X132.144 Y17.917 E1.72649
G1 X131.656 Y17.917 E.02452
G1 X156.45 Y42.712 E1.76116
G1 X156.45 Y43.2 E.02452
G1 X131.168 Y17.917 E1.79584
G1 X130.68 Y17.917 E.02452
G1 X156.45 Y43.688 E1.83051
G1 X156.45 Y44.176 E.02452
G1 X130.192 Y17.917 E1.86518
G1 X129.703 Y17.917 E.02452
G1 X156.45 Y44.664 E1.89986
G1 X156.45 Y45.153 E.02452
G1 X129.215 Y17.917 E1.93453
G1 X128.727 Y17.917 E.02452
G1 X156.45 Y45.641 E1.9692
G1 X156.45 Y46.129 E.02452
G1 X128.239 Y17.917 E2.00387
G1 X127.751 Y17.917 E.02452
G1 X156.45 Y46.617 E2.03855
G1 X156.45 Y47.105 E.02452
G1 X127.263 Y17.917 E2.07322
G1 X126.775 Y17.917 E.02452
G1 X156.45 Y47.593 E2.10789
G1 X156.45 Y48.081 E.02452
G1 X126.286 Y17.917 E2.14257
G1 X125.798 Y17.917 E.02452
G1 X156.45 Y48.57 E2.17724
G1 X156.45 Y49.058 E.02452
G1 X125.31 Y17.917 E2.21191
G1 X124.822 Y17.917 E.02452
G1 X156.45 Y49.546 E2.24658
G1 X156.45 Y50.034 E.02452
G1 X124.334 Y17.917 E2.28126
G1 X123.846 Y17.917 E.02452
G1 X156.45 Y50.522 E2.31593
G1 X156.45 Y51.01 E.02452
G1 X123.358 Y17.917 E2.3506
G1 X122.869 Y17.917 E.02452
G1 X156.45 Y51.498 E2.38528
G1 X156.45 Y51.987 E.02452
G1 X122.381 Y17.917 E2.41995
G1 X121.893 Y17.917 E.02452
G1 X156.45 Y52.475 E2.45462
G1 X156.45 Y52.963 E.02452
G1 X121.405 Y17.917 E2.4893
G1 X120.917 Y17.917 E.02452
M73 P0 R512
G1 X156.45 Y53.451 E2.52397
G1 X156.45 Y53.939 E.02452
G1 X120.429 Y17.917 E2.55864
G1 X119.941 Y17.917 E.02452
G1 X156.45 Y54.427 E2.59331
G1 X156.45 Y54.915 E.02452
G1 X119.452 Y17.917 E2.62799
G1 X118.964 Y17.917 E.02452
G1 X156.45 Y55.403 E2.66266
G1 X156.45 Y55.892 E.02452
G1 X118.476 Y17.917 E2.69733
G1 X117.988 Y17.917 E.02452
G1 X156.45 Y56.38 E2.73201
G1 X156.45 Y56.868 E.02452
G1 X117.5 Y17.917 E2.76668
G1 X117.012 Y17.917 E.02452
G1 X156.45 Y57.356 E2.80135
G1 X156.45 Y57.844 E.02452
G1 X116.524 Y17.917 E2.83602
G1 X116.035 Y17.917 E.02452
G1 X156.45 Y58.332 E2.8707
G1 X156.45 Y58.82 E.02452
G1 X115.547 Y17.917 E2.90537
G1 X115.059 Y17.917 E.02452
G1 X156.45 Y59.309 E2.94004
G1 X156.45 Y59.797 E.02452
G1 X114.571 Y17.917 E2.97472
G1 X114.083 Y17.917 E.02452
G1 X156.45 Y60.285 E3.00939
G1 X156.45 Y60.773 E.02452
G1 X113.595 Y17.917 E3.04406
G1 X113.107 Y17.917 E.02452
G1 X156.45 Y61.261 E3.07874
G1 X156.45 Y61.749 E.02452
G1 X112.619 Y17.917 E3.11341
G1 X112.13 Y17.917 E.02452
G1 X156.45 Y62.237 E3.14808
G1 X156.45 Y62.726 E.02452
G1 X111.642 Y17.917 E3.18275
G1 X111.154 Y17.917 E.02452
G1 X156.45 Y63.214 E3.21743
G1 X156.45 Y63.702 E.02452
G1 X110.666 Y17.917 E3.2521
G1 X110.178 Y17.917 E.02452
G1 X156.45 Y64.19 E3.28677
G1 X156.45 Y64.678 E.02452
G1 X109.69 Y17.917 E3.32145
G1 X109.202 Y17.917 E.02452
G1 X156.45 Y65.166 E3.35612
G1 X156.45 Y65.654 E.02452
G1 X108.713 Y17.917 E3.39079
G1 X108.225 Y17.917 E.02452
G1 X156.45 Y66.143 E3.42546
G1 X156.45 Y66.631 E.02452
G1 X107.737 Y17.917 E3.46014
G1 X107.249 Y17.917 E.02452
G1 X156.45 Y67.119 E3.49481
G1 X156.45 Y67.607 E.02452
G1 X106.761 Y17.917 E3.52948
G1 X106.273 Y17.917 E.02452
M73 P0 R511
G1 X156.45 Y68.095 E3.56416
G1 X156.45 Y68.583 E.02452
G1 X105.785 Y17.917 E3.59883
G1 X105.296 Y17.917 E.02452
G1 X156.45 Y69.071 E3.6335
G1 X156.45 Y69.56 E.02452
G1 X104.808 Y17.917 E3.66817
G1 X104.32 Y17.917 E.02452
G1 X156.45 Y70.048 E3.70285
G1 X156.45 Y70.536 E.02452
G1 X103.832 Y17.917 E3.73752
G1 X103.344 Y17.917 E.02452
G1 X156.45 Y71.024 E3.77219
G1 X156.45 Y71.512 E.02452
G1 X102.856 Y17.917 E3.80687
G1 X102.368 Y17.917 E.02452
G1 X156.45 Y72 E3.84154
G1 X156.45 Y72.488 E.02452
G1 X101.879 Y17.917 E3.87621
G1 X101.391 Y17.917 E.02452
G1 X156.45 Y72.977 E3.91089
G1 X156.45 Y73.465 E.02452
G1 X100.903 Y17.917 E3.94556
G1 X100.415 Y17.917 E.02452
G1 X156.45 Y73.953 E3.98023
G1 X156.45 Y74.441 E.02452
G1 X99.927 Y17.917 E4.0149
G1 X99.439 Y17.917 E.02452
G1 X156.45 Y74.929 E4.04958
G1 X156.45 Y75.417 E.02452
G1 X98.951 Y17.917 E4.08425
G1 X98.462 Y17.917 E.02452
G1 X156.45 Y75.905 E4.11892
G1 X156.45 Y76.394 E.02452
G1 X97.974 Y17.917 E4.1536
G1 X97.486 Y17.917 E.02452
G1 X156.45 Y76.882 E4.18827
G1 X156.45 Y77.37 E.02452
G1 X96.998 Y17.917 E4.22294
G1 X96.51 Y17.917 E.02452
G1 X156.45 Y77.858 E4.25761
G1 X156.45 Y78.346 E.02452
G1 X96.022 Y17.917 E4.29229
G1 X95.534 Y17.917 E.02452
M73 P0 R510
G1 X156.45 Y78.834 E4.32696
G1 X156.45 Y79.322 E.02452
G1 X95.045 Y17.917 E4.36163
G1 X94.557 Y17.917 E.02452
G1 X156.45 Y79.81 E4.39631
G1 X156.45 Y80.299 E.02452
G1 X94.069 Y17.917 E4.43098
G1 X93.581 Y17.917 E.02452
G1 X156.45 Y80.787 E4.46565
G1 X156.45 Y81.275 E.02452
G1 X93.093 Y17.917 E4.50033
G1 X92.605 Y17.917 E.02452
G1 X156.45 Y81.763 E4.535
G1 X156.45 Y82.251 E.02452
G1 X92.117 Y17.917 E4.56967
G1 X91.628 Y17.917 E.02452
G1 X156.45 Y82.739 E4.60434
G1 X156.45 Y83.227 E.02452
G1 X91.14 Y17.917 E4.63902
G1 X90.652 Y17.917 E.02452
G1 X156.45 Y83.716 E4.67369
G1 X156.45 Y84.204 E.02452
G1 X90.164 Y17.917 E4.70836
G1 X89.676 Y17.917 E.02452
G1 X156.45 Y84.692 E4.74304
G1 X156.45 Y85.18 E.02452
G1 X89.188 Y17.917 E4.77771
G1 X88.7 Y17.917 E.02452
G1 X156.45 Y85.668 E4.81238
G1 X156.45 Y86.156 E.02452
G1 X88.212 Y17.917 E4.84705
G1 X87.723 Y17.917 E.02452
G1 X156.45 Y86.644 E4.88173
G1 X156.45 Y87.133 E.02452
G1 X87.235 Y17.917 E4.9164
G1 X86.747 Y17.917 E.02452
G1 X156.45 Y87.621 E4.95107
G1 X156.45 Y88.109 E.02452
M73 P0 R509
G1 X86.259 Y17.917 E4.98575
G1 X85.771 Y17.917 E.02452
G1 X156.45 Y88.597 E5.02042
G1 X156.45 Y89.085 E.02452
G1 X85.283 Y17.917 E5.05509
G1 X84.795 Y17.917 E.02452
G1 X156.45 Y89.573 E5.08977
G1 X156.45 Y90.061 E.02452
M73 P1 R509
G1 X84.306 Y17.917 E5.12444
G1 X83.818 Y17.917 E.02452
G1 X156.45 Y90.55 E5.15911
G1 X156.45 Y91.038 E.02452
G1 X83.33 Y17.917 E5.19378
G1 X82.842 Y17.917 E.02452
G1 X156.45 Y91.526 E5.22846
G1 X156.45 Y92.014 E.02452
G1 X82.354 Y17.917 E5.26313
G1 X81.866 Y17.917 E.02452
G1 X156.45 Y92.502 E5.2978
G1 X156.45 Y92.99 E.02452
G1 X81.378 Y17.917 E5.33248
G1 X80.889 Y17.917 E.02452
G1 X156.45 Y93.478 E5.36715
G1 X156.45 Y93.967 E.02452
G1 X80.401 Y17.917 E5.40182
G1 X79.913 Y17.917 E.02452
G1 X156.45 Y94.455 E5.43649
G1 X156.45 Y94.943 E.02452
G1 X79.425 Y17.917 E5.47117
G1 X78.937 Y17.917 E.02452
G1 X156.45 Y95.431 E5.50584
G1 X156.45 Y95.919 E.02452
G1 X78.449 Y17.917 E5.54051
G1 X77.961 Y17.917 E.02452
M73 P1 R508
G1 X156.45 Y96.407 E5.57519
G1 X156.45 Y96.895 E.02452
G1 X77.472 Y17.917 E5.60986
G1 X76.984 Y17.917 E.02452
G1 X156.45 Y97.384 E5.64453
G1 X156.45 Y97.872 E.02452
G1 X76.496 Y17.917 E5.67921
G1 X76.008 Y17.917 E.02452
G1 X156.45 Y98.36 E5.71388
G1 X156.45 Y98.848 E.02452
G1 X75.52 Y17.917 E5.74855
G1 X75.032 Y17.917 E.02452
G1 X156.45 Y99.336 E5.78322
G1 X156.45 Y99.824 E.02452
G1 X74.544 Y17.917 E5.8179
G1 X74.055 Y17.917 E.02452
G1 X156.45 Y100.312 E5.85257
G1 X156.45 Y100.8 E.02452
G1 X73.567 Y17.917 E5.88724
G1 X73.079 Y17.917 E.02452
G1 X156.45 Y101.289 E5.92192
G1 X156.45 Y101.777 E.02452
G1 X72.591 Y17.917 E5.95659
G1 X72.103 Y17.917 E.02452
G1 X156.45 Y102.265 E5.99126
G1 X156.45 Y102.753 E.02452
G1 X71.615 Y17.917 E6.02593
G1 X71.127 Y17.917 E.02452
G1 X156.45 Y103.241 E6.06061
G1 X156.45 Y103.729 E.02452
M73 P1 R507
G1 X70.638 Y17.917 E6.09528
G1 X70.15 Y17.917 E.02452
G1 X156.45 Y104.217 E6.12995
G1 X156.45 Y104.706 E.02452
G1 X69.662 Y17.917 E6.16463
G1 X69.174 Y17.917 E.02452
G1 X156.45 Y105.194 E6.1993
G1 X156.45 Y105.682 E.02452
G1 X68.686 Y17.917 E6.23397
G1 X68.198 Y17.917 E.02452
G1 X156.45 Y106.17 E6.26865
G1 X156.45 Y106.658 E.02452
G1 X67.71 Y17.917 E6.30332
G1 X67.221 Y17.917 E.02452
G1 X156.45 Y107.146 E6.33799
G1 X156.45 Y107.634 E.02452
G1 X66.733 Y17.917 E6.37266
G1 X66.245 Y17.917 E.02452
G1 X156.45 Y108.123 E6.40734
G1 X156.45 Y108.611 E.02452
G1 X65.757 Y17.917 E6.44201
G1 X65.269 Y17.917 E.02452
G1 X156.45 Y109.099 E6.47668
G1 X156.45 Y109.587 E.02452
G1 X64.781 Y17.917 E6.51136
G1 X64.293 Y17.917 E.02452
G1 X156.45 Y110.075 E6.54603
G1 X156.45 Y110.563 E.02452
G1 X63.805 Y17.917 E6.5807
G1 X63.316 Y17.917 E.02452
M73 P1 R506
G1 X156.45 Y111.051 E6.61537
G1 X156.45 Y111.54 E.02452
G1 X62.828 Y17.917 E6.65005
G1 X62.34 Y17.917 E.02452
G1 X156.45 Y112.028 E6.68472
G1 X156.45 Y112.516 E.02452
G1 X61.852 Y17.917 E6.71939
G1 X61.364 Y17.917 E.02452
G1 X156.45 Y113.004 E6.75407
G1 X156.45 Y113.492 E.02452
G1 X60.876 Y17.917 E6.78874
G1 X60.388 Y17.917 E.02452
G1 X156.45 Y113.98 E6.82341
G1 X156.45 Y114.468 E.02452
G1 X59.899 Y17.917 E6.85808
G1 X59.411 Y17.917 E.02452
G1 X156.45 Y114.957 E6.89276
G1 X156.45 Y115.445 E.02452
G1 X58.923 Y17.917 E6.92743
G1 X58.435 Y17.917 E.02452
G1 X156.45 Y115.933 E6.9621
G1 X156.45 Y116.421 E.02452
G1 X57.947 Y17.917 E6.99678
G1 X57.459 Y17.917 E.02452
G1 X156.45 Y116.909 E7.03145
G1 X156.45 Y117.397 E.02452
M73 P1 R505
G1 X56.971 Y17.917 E7.06612
G1 X56.482 Y17.917 E.02452
G1 X156.45 Y117.885 E7.1008
G1 X156.45 Y118.374 E.02452
G1 X55.994 Y17.917 E7.13547
G1 X55.506 Y17.917 E.02452
G1 X156.45 Y118.862 E7.17014
G1 X156.45 Y119.35 E.02452
G1 X55.018 Y17.917 E7.20481
G1 X54.53 Y17.917 E.02452
G1 X156.45 Y119.838 E7.23949
G1 X156.45 Y120.326 E.02452
G1 X54.042 Y17.917 E7.27416
G1 X53.554 Y17.917 E.02452
G1 X156.45 Y120.814 E7.30883
G1 X156.45 Y121.302 E.02452
G1 X53.065 Y17.917 E7.34351
G1 X52.577 Y17.917 E.02452
G1 X156.45 Y121.791 E7.37818
G1 X156.45 Y122.279 E.02452
G1 X52.089 Y17.917 E7.41285
G1 X51.601 Y17.917 E.02452
G1 X156.45 Y122.767 E7.44752
G1 X156.45 Y123.255 E.02452
M73 P1 R504
G1 X51.113 Y17.917 E7.4822
G1 X50.625 Y17.917 E.02452
G1 X156.45 Y123.743 E7.51687
G1 X156.45 Y124.231 E.02452
G1 X50.137 Y17.917 E7.55154
G1 X49.648 Y17.917 E.02452
G1 X156.45 Y124.719 E7.58622
G1 X156.45 Y125.207 E.02452
M73 P2 R504
G1 X49.16 Y17.917 E7.62089
G1 X48.672 Y17.917 E.02452
G1 X156.45 Y125.696 E7.65556
G1 X156.45 Y126.184 E.02452
G1 X48.184 Y17.917 E7.69024
G1 X47.696 Y17.917 E.02452
G1 X156.45 Y126.672 E7.72491
G1 X156.45 Y127.16 E.02452
G1 X47.208 Y17.917 E7.75958
G1 X46.72 Y17.917 E.02452
G1 X156.45 Y127.648 E7.79425
G1 X156.45 Y128.136 E.02452
G1 X46.231 Y17.917 E7.82893
G1 X45.743 Y17.917 E.02452
G1 X156.45 Y128.624 E7.8636
G1 X156.45 Y129.113 E.02452
M73 P2 R503
G1 X45.255 Y17.917 E7.89827
G1 X44.767 Y17.917 E.02452
G1 X156.45 Y129.601 E7.93295
G1 X156.45 Y130.089 E.02452
G1 X44.279 Y17.917 E7.96762
G1 X43.791 Y17.917 E.02452
G1 X156.45 Y130.577 E8.00229
G1 X156.45 Y131.065 E.02452
G1 X43.303 Y17.917 E8.03696
G1 X42.815 Y17.917 E.02452
G1 X156.45 Y131.553 E8.07164
G1 X156.45 Y132.041 E.02452
G1 X42.326 Y17.917 E8.10631
G1 X41.838 Y17.917 E.02452
G1 X156.45 Y132.53 E8.14098
G1 X156.45 Y133.018 E.02452
G1 X41.35 Y17.917 E8.17566
G1 X40.862 Y17.917 E.02452
G1 X156.45 Y133.506 E8.21033
G1 X156.45 Y133.994 E.02452
G1 X40.374 Y17.917 E8.245
G1 X39.886 Y17.917 E.02452
M73 P2 R502
G1 X156.45 Y134.482 E8.27968
G1 X156.45 Y134.97 E.02452
G1 X39.398 Y17.917 E8.31435
G1 X38.909 Y17.917 E.02452
G1 X156.45 Y135.458 E8.34902
G1 X156.45 Y135.947 E.02452
G1 X38.421 Y17.917 E8.38369
G1 X37.933 Y17.917 E.02452
G1 X156.45 Y136.435 E8.41837
G1 X156.45 Y136.923 E.02452
G1 X37.445 Y17.917 E8.45304
G1 X36.957 Y17.917 E.02452
G1 X156.45 Y137.411 E8.48771
G1 X156.45 Y137.899 E.02452
G1 X36.469 Y17.917 E8.52239
G1 X35.981 Y17.917 E.02452
G1 X156.45 Y138.387 E8.55706
G1 X156.45 Y138.875 E.02452
G1 X35.492 Y17.917 E8.59173
G1 X35.004 Y17.917 E.02452
M73 P2 R501
G1 X156.45 Y139.364 E8.6264
G1 X156.45 Y139.852 E.02452
G1 X34.516 Y17.917 E8.66108
G1 X34.028 Y17.917 E.02452
G1 X156.45 Y140.34 E8.69575
G1 X156.45 Y140.828 E.02452
G1 X33.54 Y17.917 E8.73042
G1 X33.052 Y17.917 E.02452
G1 X156.45 Y141.316 E8.7651
G1 X156.45 Y141.804 E.02452
G1 X32.564 Y17.917 E8.79977
G1 X32.075 Y17.917 E.02452
G1 X156.45 Y142.292 E8.83444
G1 X156.45 Y142.781 E.02452
