; generated by PrusaSlicer 2.5.0+win64 on 2022-12-07 at 00:06:13 UTC

; 

; external perimeters extrusion width = 1.00mm
; perimeters extrusion width = 1.00mm
; infill extrusion width = 1.00mm
; solid infill extrusion width = 1.00mm
; top infill extrusion width = 1.00mm
; support material extrusion width = 1.00mm
; first layer extrusion width = 0.42mm

M73 P0 R342
M107
;TYPE:Custom
G90 ; use absolute coordinates
M83 ; extruder relative mode
M140 S60 ; set final bed temp
M104 S150 ; set temporary nozzle temp to prevent oozing during homing and auto bed leveling
G4 S10 ; allow partial nozzle warmup
G28 ; home all axisG1 Z50 F240
G1 X7.6 Y10 F3000
M104 S210 ; set final nozzle temp
M190 S60 ; wait for bed temp to stabilize
M109 S210 ; wait for nozzle temp to stabilize
G1 Z0.28 F240
G92 E0
G1 Y140 E10 F1500 ; prime the nozzle
G1 X4 F5000
G92 E0
M73 P0 R341
G1 Y10 E10 F1200 ; prime the nozzle
G92 E0
G21 ; set units to millimeters
G90 ; use absolute coordinates
M83 ; use relative distances for extrusion
; Filament gcode
M107
;LAYER_CHANGE
;Z:0.35
;HEIGHT:0.35
;BEFORE_LAYER_CHANGE
G92 E0
;0.35


G1 E-1 F3600
G1 Z.35 F7800
;AFTER_LAYER_CHANGE
;0.35
G1 X76.273 Y15.517
G1 E1 F2400
;TYPE:Support material
;WIDTH:0.42
G1 F1800
G1 X79.665 Y15.517 E.17027
G1 X79.665 Y18.91 E.17027
G1 X83.058 Y18.91 E.17027
G1 X83.058 Y22.302 E.17027
G1 X86.451 Y22.302 E.17027
G1 X86.451 Y25.695 E.17027
G1 X89.844 Y25.695 E.17027
G1 X89.844 Y29.088 E.17027
G1 X93.236 Y29.088 E.17027
G1 X93.236 Y32.481 E.17027
G1 X100.022 Y32.481 E.34053
G1 X100.022 Y35.873 E.17027
G1 X103.414 Y35.873 E.17027
G1 X103.414 Y39.266 E.17027
G1 X116.985 Y39.266 E.68106
G1 X116.985 Y42.659 E.17027
G1 X120.378 Y42.659 E.17027
G1 X120.378 Y46.051 E.17027
G1 X123.771 Y46.051 E.17027
G1 X123.771 Y49.444 E.17027
G1 X137.341 Y49.444 E.68106
G1 X137.341 Y52.837 E.17027
G1 X144.127 Y52.837 E.34053
G1 X144.127 Y56.229 E.17027
G1 X147.519 Y56.229 E.17027
G1 X147.519 Y59.622 E.17027
G1 X154.305 Y59.622 E.34053
G1 X154.305 Y63.015 E.17027
G1 X161.09 Y63.015 E.34053
G1 X161.09 Y83.058 E1.00589
G1 X156.773 Y83.058 E.21665
G1 X151.341 Y77.835 E.37818
G1 X128.34 Y58.937 E1.494
G1 X64.094 Y23.754 E3.67605
G1 X50.329 Y16.436 E.78235
G1 X50.16 Y16.394 E.00875
G1 X22.446 Y16.394 E1.39088
G1 X22.03 Y16.81 E.02952
G1 X22.03 Y19.814 E.15076
G1 X22.233 Y20.151 E.01977
G1 X24.469 Y21.34 E.12709
G1 X24.307 Y21.99 E.03361
G1 X18.91 Y21.99 E.27088
G1 X18.91 Y12.124 E.49509
G1 X76.273 Y12.124 E2.87881
G1 X76.273 Y15.465 E.16767
G1 E-.7 F3600
;WIPE_START
G1 F6240
G1 X76.273 Y14.945 E-.285
;WIPE_END
G1 E-.015 F3600
G1 X160.511 Y82.903 F7800
G1 E1 F2400
G1 F1800
G1 X160.511 Y63.325 E.98253
G1 X160.127 Y63.325 E.01923
G1 X160.127 Y82.748 E.97474
G1 X159.744 Y82.748 E.01923
G1 X159.744 Y63.325 E.97474
G1 X159.361 Y63.325 E.01923
G1 X159.361 Y82.748 E.97474
G1 X158.978 Y82.748 E.01923
G1 X158.978 Y63.325 E.97474
G1 X158.595 Y63.325 E.01923
G1 X158.595 Y82.748 E.97474
G1 X158.211 Y82.748 E.01923
G1 X158.211 Y63.325 E.97474
G1 X157.828 Y63.325 E.01923
G1 X157.828 Y82.748 E.97474
G1 X157.445 Y82.748 E.01923
G1 X157.445 Y63.325 E.97474
G1 X157.062 Y63.325 E.01923
G1 X157.062 Y82.748 E.97474
G1 X156.898 Y82.748 E.0082
G1 X156.679 Y82.536 E.01531
G1 X156.679 Y63.325 E.96412
G1 X156.295 Y63.325 E.01923
G1 X156.295 Y82.168 E.94563
G1 X155.912 Y81.799 E.02668
G1 X155.912 Y63.325 E.92713
G1 X155.529 Y63.325 E.01923
G1 X155.529 Y81.431 E.90863
G1 X155.146 Y81.062 E.02668
G1 X155.146 Y63.325 E.89014
G1 X154.762 Y63.325 E.01923
G1 X154.762 Y80.693 E.87164
G1 X154.379 Y80.325 E.02668
G1 X154.379 Y63.325 E.85314
G1 X153.996 Y63.325 E.01923
G1 X153.996 Y79.956 E.83465
G1 X153.613 Y79.588 E.02668
G1 X153.613 Y59.933 E.98641
G1 X153.23 Y59.933 E.01923
G1 X153.23 Y79.219 E.96792
G1 X152.846 Y78.851 E.02668
G1 X152.846 Y59.933 E.94942
G1 X152.463 Y59.933 E.01923
G1 X152.463 Y78.482 E.93092
G1 X152.08 Y78.113 E.02668
G1 X152.08 Y59.933 E.91243
G1 X151.697 Y59.933 E.01923
G1 X151.697 Y77.745 E.89393
G1 X151.314 Y77.411 E.02552
G1 X151.314 Y59.933 E.87715
G1 X150.93 Y59.933 E.01923
G1 X150.93 Y77.096 E.86135
G1 X150.547 Y76.781 E.02489
G1 X150.547 Y59.933 E.84554
G1 X150.164 Y59.933 E.01923
G1 X150.164 Y76.466 E.82973
G1 X149.781 Y76.151 E.02489
G1 X149.781 Y59.933 E.81392
G1 X149.398 Y59.933 E.01923
G1 X149.398 Y75.836 E.79812
G1 X149.014 Y75.521 E.02489
G1 X149.014 Y59.933 E.78231
G1 X148.631 Y59.933 E.01923
G1 X148.631 Y75.206 E.7665
G1 X148.248 Y74.891 E.02489
G1 X148.248 Y59.933 E.7507
G1 X147.865 Y59.933 E.01923
G1 X147.865 Y74.576 E.73489
G1 X147.482 Y74.261 E.02489
G1 X147.482 Y59.933 E.71908
G1 X147.209 Y59.933 E.01367
G1 X147.209 Y56.54 E.17027
G1 X147.098 Y56.54 E.00556
G1 X147.098 Y73.946 E.87354
G1 X146.715 Y73.631 E.02489
G1 X146.715 Y56.54 E.85773
G1 X146.332 Y56.54 E.01923
G1 X146.332 Y73.316 E.84193
G1 X145.949 Y73.001 E.02489
G1 X145.949 Y56.54 E.82612
G1 X145.565 Y56.54 E.01923
G1 X145.565 Y72.686 E.81031
G1 X145.182 Y72.371 E.02489
G1 X145.182 Y56.54 E.7945
G1 X144.799 Y56.54 E.01923
G1 X144.799 Y72.056 E.7787
G1 X144.416 Y71.741 E.02489
G1 X144.416 Y56.54 E.76289
G1 X144.033 Y56.54 E.01923
G1 X144.033 Y71.426 E.74708
G1 X143.649 Y71.111 E.02489
G1 X143.649 Y53.147 E.90154
G1 X143.266 Y53.147 E.01923
G1 X143.266 Y70.796 E.88573
G1 X142.883 Y70.481 E.02489
G1 X142.883 Y53.147 E.86993
G1 X142.5 Y53.147 E.01923
G1 X142.5 Y70.166 E.85412
G1 X142.117 Y69.851 E.02489
G1 X142.117 Y53.147 E.83831
G1 X141.733 Y53.147 E.01923
G1 X141.733 Y69.536 E.8225
G1 X141.35 Y69.221 E.02489
G1 X141.35 Y53.147 E.8067
G1 X140.967 Y53.147 E.01923
G1 X140.967 Y68.906 E.79089
G1 X140.584 Y68.591 E.02489
G1 X140.584 Y53.147 E.77508
G1 X140.201 Y53.147 E.01923
G1 X140.201 Y68.276 E.75928
G1 X139.817 Y67.961 E.02489
M73 P0 R340
G1 X139.817 Y53.147 E.74347
G1 X139.434 Y53.147 E.01923
G1 X139.434 Y67.646 E.72766
G1 X139.051 Y67.331 E.02489
G1 X139.051 Y53.147 E.71185
G1 X138.668 Y53.147 E.01923
G1 X138.668 Y67.017 E.69605
G1 X138.284 Y66.702 E.02489
G1 X138.284 Y53.147 E.68024
G1 X137.901 Y53.147 E.01923
G1 X137.901 Y66.387 E.66443
G1 X137.518 Y66.072 E.02489
G1 X137.518 Y53.147 E.64863
G1 X137.135 Y53.147 E.01923
G1 X137.135 Y65.757 E.63282
G1 X136.752 Y65.442 E.02489
G1 X136.752 Y49.754 E.78728
G1 X136.368 Y49.754 E.01923
G1 X136.368 Y65.127 E.77147
G1 X135.985 Y64.812 E.02489
G1 X135.985 Y49.754 E.75566
G1 X135.602 Y49.754 E.01923
G1 X135.602 Y64.497 E.73986
G1 X135.219 Y64.182 E.02489
G1 X135.219 Y49.754 E.72405
G1 X134.836 Y49.754 E.01923
G1 X134.836 Y63.867 E.70824
G1 X134.452 Y63.552 E.02489
G1 X134.452 Y49.754 E.69243
G1 X134.069 Y49.754 E.01923
G1 X134.069 Y63.237 E.67663
G1 X133.686 Y62.922 E.02489
G1 X133.686 Y49.754 E.66082
G1 X133.303 Y49.754 E.01923
G1 X133.303 Y62.607 E.64501
G1 X132.92 Y62.292 E.02489
G1 X132.92 Y49.754 E.6292
G1 X132.536 Y49.754 E.01923
G1 X132.536 Y61.977 E.6134
G1 X132.153 Y61.662 E.02489
G1 X132.153 Y49.754 E.59759
G1 X131.77 Y49.754 E.01923
G1 X131.77 Y61.347 E.58178
G1 X131.387 Y61.032 E.02489
G1 X131.387 Y49.754 E.56598
G1 X131.003 Y49.754 E.01923
G1 X131.003 Y60.717 E.55017
G1 X130.62 Y60.402 E.02489
G1 X130.62 Y49.754 E.53436
G1 X130.237 Y49.754 E.01923
G1 X130.237 Y60.087 E.51855
G1 X129.854 Y59.772 E.02489
G1 X129.854 Y49.754 E.50275
G1 X129.471 Y49.754 E.01923
G1 X129.471 Y59.457 E.48694
G1 X129.087 Y59.142 E.02489
G1 X129.087 Y49.754 E.47113
G1 X128.704 Y49.754 E.01923
G1 X128.704 Y58.827 E.45533
G1 X128.502 Y58.672 E.01281
G1 X128.321 Y58.573 E.01033
G1 X128.321 Y49.754 E.44258
G1 X127.938 Y49.754 E.01923
G1 X127.938 Y58.363 E.43205
G1 X127.555 Y58.154 E.02193
G1 X127.555 Y49.754 E.42152
G1 X127.171 Y49.754 E.01923
G1 X127.171 Y57.944 E.41099
G1 X126.788 Y57.734 E.02193
G1 X126.788 Y49.754 E.40046
G1 X126.405 Y49.754 E.01923
G1 X126.405 Y57.524 E.38992
G1 X126.022 Y57.314 E.02193
G1 X126.022 Y49.754 E.37939
G1 X125.639 Y49.754 E.01923
G1 X125.639 Y57.104 E.36886
G1 X125.255 Y56.894 E.02193
G1 X125.255 Y49.754 E.35833
G1 X124.872 Y49.754 E.01923
G1 X124.872 Y56.685 E.3478
G1 X124.489 Y56.475 E.02193
G1 X124.489 Y49.754 E.33727
G1 X124.106 Y49.754 E.01923
G1 X124.106 Y56.265 E.32673
G1 X123.722 Y56.055 E.02193
G1 X123.722 Y49.754 E.3162
G1 X123.46 Y49.754 E.01317
G1 X123.46 Y46.362 E.17027
G1 X123.339 Y46.362 E.00607
G1 X123.339 Y55.845 E.47594
G1 X122.956 Y55.635 E.02193
G1 X122.956 Y46.362 E.4654
G1 X122.573 Y46.362 E.01923
G1 X122.573 Y55.425 E.45487
G1 X122.19 Y55.216 E.02193
G1 X122.19 Y46.362 E.44434
G1 X121.806 Y46.362 E.01923
G1 X121.806 Y55.006 E.43381
G1 X121.423 Y54.796 E.02193
G1 X121.423 Y46.362 E.42328
G1 X121.04 Y46.362 E.01923
G1 X121.04 Y54.586 E.41275
G1 X120.657 Y54.376 E.02193
G1 X120.657 Y46.362 E.40221
G1 X120.274 Y46.362 E.01923
G1 X120.274 Y54.166 E.39168
G1 X119.89 Y53.957 E.02193
G1 X119.89 Y42.969 E.55142
G1 X119.507 Y42.969 E.01923
G1 X119.507 Y53.747 E.54088
G1 X119.124 Y53.537 E.02193
G1 X119.124 Y42.969 E.53035
G1 X118.741 Y42.969 E.01923
G1 X118.741 Y53.327 E.51982
G1 X118.358 Y53.117 E.02193
G1 X118.358 Y42.969 E.50929
G1 X117.974 Y42.969 E.01923
G1 X117.974 Y52.907 E.49876
G1 X117.591 Y52.697 E.02193
G1 X117.591 Y42.969 E.48823
G1 X117.208 Y42.969 E.01923
G1 X117.208 Y52.488 E.47769
G1 X116.825 Y52.278 E.02193
G1 X116.825 Y42.969 E.46716
G1 X116.675 Y42.969 E.00753
G1 X116.675 Y39.576 E.17027
G1 X116.441 Y39.576 E.01171
G1 X116.441 Y52.068 E.6269
G1 X116.058 Y51.858 E.02193
G1 X116.058 Y39.576 E.61636
G1 X115.675 Y39.576 E.01923
G1 X115.675 Y51.648 E.60583
G1 X115.292 Y51.438 E.02193
G1 X115.292 Y39.576 E.5953
G1 X114.909 Y39.576 E.01923
G1 X114.909 Y51.228 E.58477
G1 X114.525 Y51.019 E.02193
G1 X114.525 Y39.576 E.57424
G1 X114.142 Y39.576 E.01923
G1 X114.142 Y50.809 E.56371
G1 X113.759 Y50.599 E.02193
G1 X113.759 Y39.576 E.55317
G1 X113.376 Y39.576 E.01923
G1 X113.376 Y50.389 E.54264
G1 X112.993 Y50.179 E.02193
G1 X112.993 Y39.576 E.53211
G1 X112.609 Y39.576 E.01923
G1 X112.609 Y49.969 E.52158
G1 X112.226 Y49.759 E.02193
G1 X112.226 Y39.576 E.51105
G1 X111.843 Y39.576 E.01923
G1 X111.843 Y49.55 E.50052
G1 X111.46 Y49.34 E.02193
G1 X111.46 Y39.576 E.48998
G1 X111.077 Y39.576 E.01923
G1 X111.077 Y49.13 E.47945
G1 X110.693 Y48.92 E.02193
G1 X110.693 Y39.576 E.46892
G1 X110.31 Y39.576 E.01923
G1 X110.31 Y48.71 E.45839
G1 X109.927 Y48.5 E.02193
G1 X109.927 Y39.576 E.44786
G1 X109.544 Y39.576 E.01923
G1 X109.544 Y48.29 E.43733
G1 X109.161 Y48.081 E.02193
G1 X109.161 Y39.576 E.42679
G1 X108.777 Y39.576 E.01923
G1 X108.777 Y47.871 E.41626
G1 X108.394 Y47.661 E.02193
G1 X108.394 Y39.576 E.40573
G1 X108.011 Y39.576 E.01923
G1 X108.011 Y47.451 E.3952
G1 X107.628 Y47.241 E.02193
G1 X107.628 Y39.576 E.38467
G1 X107.244 Y39.576 E.01923
G1 X107.244 Y47.031 E.37413
G1 X106.861 Y46.821 E.02193
G1 X106.861 Y39.576 E.3636
G1 X106.478 Y39.576 E.01923
G1 X106.478 Y46.612 E.35307
G1 X106.095 Y46.402 E.02193
G1 X106.095 Y39.576 E.34254
G1 X105.712 Y39.576 E.01923
G1 X105.712 Y46.192 E.33201
G1 X105.328 Y45.982 E.02193
G1 X105.328 Y39.576 E.32148
G1 X104.945 Y39.576 E.01923
G1 X104.945 Y45.772 E.31094
G1 X104.562 Y45.562 E.02193
G1 X104.562 Y39.576 E.30041
G1 X104.179 Y39.576 E.01923
G1 X104.179 Y45.352 E.28988
G1 X103.796 Y45.143 E.02193
G1 X103.796 Y39.576 E.27935
G1 X103.412 Y39.576 E.01923
G1 X103.412 Y44.933 E.26882
G1 X103.029 Y44.723 E.02193
G1 X103.029 Y36.184 E.42855
G1 X102.646 Y36.184 E.01923
G1 X102.646 Y44.513 E.41802
G1 X102.263 Y44.303 E.02193
G1 X102.263 Y36.184 E.40749
G1 X101.88 Y36.184 E.01923
G1 X101.88 Y44.093 E.39696
G1 X101.496 Y43.883 E.02193
G1 X101.496 Y36.184 E.38642
G1 X101.113 Y36.184 E.01923
G1 X101.113 Y43.674 E.37589
G1 X100.73 Y43.464 E.02193
G1 X100.73 Y36.184 E.36536
G1 X100.347 Y36.184 E.01923
G1 X100.347 Y43.254 E.35483
G1 X99.963 Y43.044 E.02193
G1 X99.963 Y36.184 E.34429
G1 X99.711 Y36.184 E.01266
G1 X99.711 Y32.791 E.17027
G1 X99.58 Y32.791 E.00657
G1 X99.58 Y42.834 E.50403
G1 X99.197 Y42.624 E.02193
G1 X99.197 Y32.791 E.4935
G1 X98.814 Y32.791 E.01923
G1 X98.814 Y42.414 E.48296
G1 X98.431 Y42.205 E.02193
G1 X98.431 Y32.791 E.47243
G1 X98.047 Y32.791 E.01923
G1 X98.047 Y41.995 E.4619
G1 X97.664 Y41.785 E.02193
G1 X97.664 Y32.791 E.45137
G1 X97.281 Y32.791 E.01923
G1 X97.281 Y41.575 E.44083
G1 X96.898 Y41.365 E.02193
G1 X96.898 Y32.791 E.4303
G1 X96.515 Y32.791 E.01923
G1 X96.515 Y41.155 E.41977
G1 X96.131 Y40.945 E.02193
G1 X96.131 Y32.791 E.40924
G1 X95.748 Y32.791 E.01923
G1 X95.748 Y40.736 E.3987
G1 X95.365 Y40.526 E.02193
G1 X95.365 Y32.791 E.38817
G1 X94.982 Y32.791 E.01923
G1 X94.982 Y40.316 E.37764
G1 X94.599 Y40.106 E.02193
G1 X94.599 Y32.791 E.36711
G1 X94.215 Y32.791 E.01923
G1 X94.215 Y39.896 E.35658
G1 X93.832 Y39.686 E.02193
G1 X93.832 Y32.791 E.34604
G1 X93.449 Y32.791 E.01923
G1 X93.449 Y39.476 E.33551
G1 X93.066 Y39.266 E.02193
G1 X93.066 Y32.791 E.32498
G1 X92.926 Y32.791 E.00702
G1 X92.926 Y29.398 E.17027
G1 X92.682 Y29.398 E.01221
G1 X92.682 Y39.057 E.48471
G1 X92.299 Y38.847 E.02193
G1 X92.299 Y29.398 E.47418
G1 X91.916 Y29.398 E.01923
G1 X91.916 Y38.637 E.46365
G1 X91.533 Y38.427 E.02193
G1 X91.533 Y29.398 E.45312
G1 X91.15 Y29.398 E.01923
G1 X91.15 Y38.217 E.44258
G1 X90.766 Y38.007 E.02193
G1 X90.766 Y29.398 E.43205
G1 X90.383 Y29.398 E.01923
G1 X90.383 Y37.797 E.42152
G1 X90 Y37.588 E.02193
G1 X90 Y29.398 E.41099
G1 X89.617 Y29.398 E.01923
G1 X89.617 Y37.378 E.40045
G1 X89.234 Y37.168 E.02193
G1 X89.234 Y26.006 E.56019
G1 X88.85 Y26.006 E.01923
G1 X88.85 Y36.958 E.54965
G1 X88.467 Y36.748 E.02193
G1 X88.467 Y26.006 E.53912
G1 X88.084 Y26.006 E.01923
G1 X88.084 Y36.538 E.52859
G1 X87.701 Y36.328 E.02193
G1 X87.701 Y26.006 E.51806
G1 X87.318 Y26.006 E.01923
G1 X87.318 Y36.118 E.50753
G1 X86.934 Y35.909 E.02193
G1 X86.934 Y26.006 E.49699
G1 X86.551 Y26.006 E.01923
G1 X86.551 Y35.699 E.48646
G1 X86.168 Y35.489 E.02193
G1 X86.168 Y26.006 E.47593
G1 X86.14 Y26.006 E.00138
G1 X86.14 Y22.613 E.17027
G1 X85.785 Y22.613 E.01785
G1 X85.785 Y35.279 E.63566
G1 X85.401 Y35.069 E.02193
G1 X85.401 Y22.613 E.62513
G1 X85.018 Y22.613 E.01923
G1 X85.018 Y34.859 E.6146
G1 X84.635 Y34.649 E.02193
G1 X84.635 Y22.613 E.60407
G1 X84.252 Y22.613 E.01923
G1 X84.252 Y34.44 E.59353
G1 X83.869 Y34.23 E.02193
G1 X83.869 Y22.613 E.583
G1 X83.485 Y22.613 E.01923
G1 X83.485 Y34.02 E.57247
G1 X83.102 Y33.81 E.02193
G1 X83.102 Y22.613 E.56194
G1 X82.748 Y22.613 E.01779
G1 X82.748 Y19.22 E.17027
G1 X82.719 Y19.22 E.00144
G1 X82.719 Y33.6 E.72167
G1 X82.336 Y33.39 E.02193
G1 X82.336 Y19.22 E.71114
G1 X81.953 Y19.22 E.01923
M73 P0 R339
G1 X81.953 Y33.18 E.70061
G1 X81.569 Y32.97 E.02193
G1 X81.569 Y19.22 E.69007
G1 X81.186 Y19.22 E.01923
G1 X81.186 Y32.761 E.67954
G1 X80.803 Y32.551 E.02193
G1 X80.803 Y19.22 E.66901
G1 X80.42 Y19.22 E.01923
G1 X80.42 Y32.341 E.65848
G1 X80.037 Y32.131 E.02193
G1 X80.037 Y19.22 E.64795
G1 X79.653 Y19.22 E.01923
G1 X79.653 Y31.921 E.63741
G1 X79.27 Y31.711 E.02193
G1 X79.27 Y15.827 E.79715
G1 X78.887 Y15.827 E.01923
G1 X78.887 Y31.501 E.78662
G1 X78.504 Y31.292 E.02193
G1 X78.504 Y15.827 E.77608
G1 X78.12 Y15.827 E.01923
G1 X78.12 Y31.082 E.76555
G1 X77.737 Y30.872 E.02193
G1 X77.737 Y15.827 E.75502
G1 X77.354 Y15.827 E.01923
G1 X77.354 Y30.662 E.74449
G1 X76.971 Y30.452 E.02193
G1 X76.971 Y15.827 E.73395
G1 X76.588 Y15.827 E.01923
G1 X76.588 Y30.242 E.72342
G1 X76.204 Y30.032 E.02193
G1 X76.204 Y15.827 E.71289
G1 X75.962 Y15.827 E.01215
G1 X75.962 Y12.435 E.17027
G1 X75.821 Y12.435 E.00708
G1 X75.821 Y29.823 E.87262
G1 X75.438 Y29.613 E.02193
G1 X75.438 Y12.435 E.86209
G1 X75.055 Y12.435 E.01923
G1 X75.055 Y29.403 E.85156
G1 X74.672 Y29.193 E.02193
G1 X74.672 Y12.435 E.84102
G1 X74.288 Y12.435 E.01923
G1 X74.288 Y28.983 E.83049
G1 X73.905 Y28.773 E.02193
G1 X73.905 Y12.435 E.81996
G1 X73.522 Y12.435 E.01923
G1 X73.522 Y28.563 E.80943
G1 X73.139 Y28.353 E.02193
G1 X73.139 Y12.435 E.79889
G1 X72.756 Y12.435 E.01923
G1 X72.756 Y28.144 E.78836
G1 X72.372 Y27.934 E.02193
G1 X72.372 Y12.435 E.77783
G1 X71.989 Y12.435 E.01923
G1 X71.989 Y27.724 E.7673
G1 X71.606 Y27.514 E.02193
G1 X71.606 Y12.435 E.75676
G1 X71.223 Y12.435 E.01923
G1 X71.223 Y27.304 E.74623
G1 X70.84 Y27.094 E.02193
G1 X70.84 Y12.435 E.7357
