; generated by PrusaSlicer 2.5.0+win64 on 2022-12-07 at 00:06:12 UTC

; 

; external perimeters extrusion width = 1.00mm
; perimeters extrusion width = 1.00mm
; infill extrusion width = 1.00mm
; solid infill extrusion width = 1.00mm
; top infill extrusion width = 1.00mm
; support material extrusion width = 1.00mm
; first layer extrusion width = 0.42mm

M73 P0 R43
M107
;TYPE:Custom
G90 ; use absolute coordinates
M83 ; extruder relative mode
M140 S60 ; set final bed temp
M104 S150 ; set temporary nozzle temp to prevent oozing during homing and auto bed leveling
G4 S10 ; allow partial nozzle warmup
G28 ; home all axisG1 Z50 F240
G1 X7.6 Y10 F3000
M104 S210 ; set final nozzle temp
M190 S60 ; wait for bed temp to stabilize
M109 S210 ; wait for nozzle temp to stabilize
G1 Z0.28 F240
G92 E0
G1 Y140 E10 F1500 ; prime the nozzle
G1 X4 F5000
G92 E0
G1 Y10 E10 F1200 ; prime the nozzle
G92 E0
G21 ; set units to millimeters
G90 ; use absolute coordinates
M83 ; use relative distances for extrusion
; Filament gcode
M107
;LAYER_CHANGE
;Z:0.35
;HEIGHT:0.35
;BEFORE_LAYER_CHANGE
G92 E0
;0.35


G1 E-1 F3600
G1 Z.35 F7800
;AFTER_LAYER_CHANGE
;0.35
G1 X72.637 Y83.587
G1 E1 F2400
;TYPE:Support material
;WIDTH:0.42
G1 F1800
G1 X79.422 Y83.587 E.34053
G1 X79.422 Y86.98 E.17027
G1 X103.171 Y86.98 E1.19186
G1 X103.171 Y90.372 E.17027
G1 X106.564 Y90.372 E.17027
G1 X106.564 Y93.765 E.17027
G1 X109.957 Y93.765 E.17027
G1 X109.957 Y97.158 E.17027
G1 X116.742 Y97.158 E.34053
G1 X116.742 Y107.023 E.49509
G1 X72.95 Y107.023 E2.19775
G1 X72.95 Y102.786 E.21264
G1 X94.972 Y102.786 E1.10517
G1 X95.24 Y101.709 E.05568
G1 X67.061 Y86.729 E1.60159
G1 X66.373 Y87.142 E.0403
G1 X66.373 Y100.238 E.6572
G1 X62.772 Y100.238 E.18075
G1 X62.772 Y73.409 E1.34642
G1 X72.637 Y73.409 E.49509
G1 X72.637 Y83.535 E.5082
G1 X116.198 Y106.868 F7800
G1 F1800
G1 X116.198 Y97.468 E.47173
G1 X115.815 Y97.468 E.01923
G1 X115.815 Y106.713 E.46394
G1 X115.432 Y106.713 E.01923
G1 X115.432 Y97.468 E.46394
G1 X115.049 Y97.468 E.01923
G1 X115.049 Y106.713 E.46394
G1 X114.666 Y106.713 E.01923
G1 X114.666 Y97.468 E.46394
G1 X114.282 Y97.468 E.01923
G1 X114.282 Y106.713 E.46394
G1 X113.899 Y106.713 E.01923
G1 X113.899 Y97.468 E.46394
G1 X113.516 Y97.468 E.01923
G1 X113.516 Y106.713 E.46394
G1 X113.133 Y106.713 E.01923
G1 X113.133 Y97.468 E.46394
G1 X112.75 Y97.468 E.01923
G1 X112.75 Y106.713 E.46394
G1 X112.366 Y106.713 E.01923
G1 X112.366 Y97.468 E.46394
G1 X111.983 Y97.468 E.01923
M73 P1 R43
G1 X111.983 Y106.713 E.46394
G1 X111.6 Y106.713 E.01923
G1 X111.6 Y97.468 E.46394
G1 X111.217 Y97.468 E.01923
G1 X111.217 Y106.713 E.46394
G1 X110.834 Y106.713 E.01923
G1 X110.834 Y97.468 E.46394
G1 X110.45 Y97.468 E.01923
G1 X110.45 Y106.713 E.46394
G1 X110.067 Y106.713 E.01923
G1 X110.067 Y97.468 E.46394
G1 X109.684 Y97.468 E.01923
G1 X109.684 Y106.713 E.46394
G1 X109.301 Y106.713 E.01923
G1 X109.301 Y94.075 E.6342
G1 X108.917 Y94.075 E.01923
G1 X108.917 Y106.713 E.6342
G1 X108.534 Y106.713 E.01923
G1 X108.534 Y94.075 E.6342
G1 X108.151 Y94.075 E.01923
G1 X108.151 Y106.713 E.6342
G1 X107.768 Y106.713 E.01923
G1 X107.768 Y94.075 E.6342
G1 X107.385 Y94.075 E.01923
G1 X107.385 Y106.713 E.6342
G1 X107.001 Y106.713 E.01923
G1 X107.001 Y94.075 E.6342
G1 X106.618 Y94.075 E.01923
G1 X106.618 Y106.713 E.6342
G1 X106.235 Y106.713 E.01923
G1 X106.235 Y90.683 E.80447
G1 X105.852 Y90.683 E.01923
G1 X105.852 Y106.713 E.80447
G1 X105.469 Y106.713 E.01923
G1 X105.469 Y90.683 E.80447
G1 X105.085 Y90.683 E.01923
G1 X105.085 Y106.713 E.80447
G1 X104.702 Y106.713 E.01923
G1 X104.702 Y90.683 E.80447
G1 X104.319 Y90.683 E.01923
G1 X104.319 Y106.713 E.80447
G1 X103.936 Y106.713 E.01923
G1 X103.936 Y90.683 E.80447
G1 X103.553 Y90.683 E.01923
G1 X103.553 Y106.713 E.80447
G1 X103.169 Y106.713 E.01923
G1 X103.169 Y90.683 E.80447
G1 X102.861 Y90.683 E.01548
G1 X102.861 Y87.29 E.17027
G1 X102.786 Y87.29 E.00375
G1 X102.786 Y106.713 E.97474
G1 X102.403 Y106.713 E.01923
G1 X102.403 Y87.29 E.97474
G1 X102.02 Y87.29 E.01923
G1 X102.02 Y106.713 E.97474
G1 X101.637 Y106.713 E.01923
G1 X101.637 Y87.29 E.97474
G1 X101.253 Y87.29 E.01923
G1 X101.253 Y106.713 E.97474
G1 X100.87 Y106.713 E.01923
G1 X100.87 Y87.29 E.97474
G1 X100.487 Y87.29 E.01923
G1 X100.487 Y106.713 E.97474
G1 X100.104 Y106.713 E.01923
G1 X100.104 Y87.29 E.97474
G1 X99.72 Y87.29 E.01923
G1 X99.72 Y106.713 E.97474
G1 X99.337 Y106.713 E.01923
G1 X99.337 Y87.29 E.97474
G1 X98.954 Y87.29 E.01923
G1 X98.954 Y106.713 E.97474
G1 X98.571 Y106.713 E.01923
G1 X98.571 Y87.29 E.97474
G1 X98.188 Y87.29 E.01923
G1 X98.188 Y106.713 E.97474
G1 X97.804 Y106.713 E.01923
G1 X97.804 Y87.29 E.97474
G1 X97.421 Y87.29 E.01923
G1 X97.421 Y106.713 E.97474
G1 X97.038 Y106.713 E.01923
G1 X97.038 Y87.29 E.97474
G1 X96.655 Y87.29 E.01923
G1 X96.655 Y106.713 E.97474
G1 X96.272 Y106.713 E.01923
G1 X96.272 Y87.29 E.97474
G1 X95.888 Y87.29 E.01923
G1 X95.888 Y106.713 E.97474
G1 X95.505 Y106.713 E.01923
G1 X95.505 Y87.29 E.97474
G1 X95.122 Y87.29 E.01923
M73 P2 R43
G1 X95.122 Y101.295 E.70286
G1 X94.739 Y101.091 E.02178
G1 X94.739 Y87.29 E.69264
G1 X94.356 Y87.29 E.01923
G1 X94.356 Y100.888 E.68241
G1 X93.972 Y100.684 E.02178
G1 X93.972 Y87.29 E.67219
G1 X93.589 Y87.29 E.01923
G1 X93.589 Y100.48 E.66197
G1 X93.206 Y100.277 E.02178
G1 X93.206 Y87.29 E.65174
G1 X92.823 Y87.29 E.01923
G1 X92.823 Y100.073 E.64152
G1 X92.439 Y99.869 E.02178
G1 X92.439 Y87.29 E.63129
G1 X92.056 Y87.29 E.01923
G1 X92.056 Y99.665 E.62107
G1 X91.673 Y99.462 E.02178
G1 X91.673 Y87.29 E.61084
G1 X91.29 Y87.29 E.01923
M73 P2 R42
G1 X91.29 Y99.258 E.60062
G1 X90.907 Y99.054 E.02178
G1 X90.907 Y87.29 E.5904
G1 X90.523 Y87.29 E.01923
G1 X90.523 Y98.85 E.58017
G1 X90.14 Y98.647 E.02178
G1 X90.14 Y87.29 E.56995
G1 X89.757 Y87.29 E.01923
G1 X89.757 Y98.443 E.55972
G1 X89.374 Y98.239 E.02178
G1 X89.374 Y87.29 E.5495
G1 X88.991 Y87.29 E.01923
G1 X88.991 Y98.036 E.53927
G1 X88.607 Y97.832 E.02178
G1 X88.607 Y87.29 E.52905
G1 X88.224 Y87.29 E.01923
G1 X88.224 Y97.628 E.51883
G1 X87.841 Y97.424 E.02178
G1 X87.841 Y87.29 E.5086
G1 X87.458 Y87.29 E.01923
G1 X87.458 Y97.221 E.49838
G1 X87.075 Y97.017 E.02178
G1 X87.075 Y87.29 E.48815
G1 X86.691 Y87.29 E.01923
G1 X86.691 Y96.813 E.47793
G1 X86.308 Y96.609 E.02178
G1 X86.308 Y87.29 E.4677
G1 X85.925 Y87.29 E.01923
G1 X85.925 Y96.406 E.45748
G1 X85.542 Y96.202 E.02178
G1 X85.542 Y87.29 E.44726
G1 X85.158 Y87.29 E.01923
G1 X85.158 Y95.998 E.43703
G1 X84.775 Y95.795 E.02178
G1 X84.775 Y87.29 E.42681
G1 X84.392 Y87.29 E.01923
G1 X84.392 Y95.591 E.41658
G1 X84.009 Y95.387 E.02178
G1 X84.009 Y87.29 E.40636
G1 X83.626 Y87.29 E.01923
G1 X83.626 Y95.183 E.39613
G1 X83.242 Y94.98 E.02178
G1 X83.242 Y87.29 E.38591
G1 X82.859 Y87.29 E.01923
G1 X82.859 Y94.776 E.37569
G1 X82.476 Y94.572 E.02178
G1 X82.476 Y87.29 E.36546
G1 X82.093 Y87.29 E.01923
G1 X82.093 Y94.368 E.35524
G1 X81.71 Y94.165 E.02178
G1 X81.71 Y87.29 E.34501
G1 X81.326 Y87.29 E.01923
G1 X81.326 Y93.961 E.33479
G1 X80.943 Y93.757 E.02178
G1 X80.943 Y87.29 E.32456
G1 X80.56 Y87.29 E.01923
G1 X80.56 Y93.554 E.31434
G1 X80.177 Y93.35 E.02178
G1 X80.177 Y87.29 E.30412
G1 X79.794 Y87.29 E.01923
G1 X79.794 Y93.146 E.29389
G1 X79.41 Y92.942 E.02178
G1 X79.41 Y87.29 E.28367
G1 X79.112 Y87.29 E.01497
G1 X79.112 Y83.897 E.17027
G1 X79.027 Y83.897 E.00426
G1 X79.027 Y92.739 E.44371
G1 X78.644 Y92.535 E.02178
G1 X78.644 Y83.897 E.43349
G1 X78.261 Y83.897 E.01923
G1 X78.261 Y92.331 E.42326
G1 X77.877 Y92.127 E.02178
G1 X77.877 Y83.897 E.41304
G1 X77.494 Y83.897 E.01923
G1 X77.494 Y91.924 E.40281
G1 X77.111 Y91.72 E.02178
G1 X77.111 Y83.897 E.39259
G1 X76.728 Y83.897 E.01923
G1 X76.728 Y91.516 E.38236
G1 X76.345 Y91.313 E.02178
G1 X76.345 Y83.897 E.37214
G1 X75.961 Y83.897 E.01923
G1 X75.961 Y91.109 E.36192
G1 X75.578 Y90.905 E.02178
G1 X75.578 Y83.897 E.35169
G1 X75.195 Y83.897 E.01923
G1 X75.195 Y90.701 E.34147
G1 X74.812 Y90.498 E.02178
G1 X74.812 Y83.897 E.33124
G1 X74.429 Y83.897 E.01923
G1 X74.429 Y90.294 E.32102
G1 X74.045 Y90.09 E.02178
G1 X74.045 Y83.897 E.31079
G1 X73.662 Y83.897 E.01923
G1 X73.662 Y89.886 E.30057
G1 X73.279 Y89.683 E.02178
G1 X73.279 Y83.897 E.29035
G1 X72.896 Y83.897 E.01923
G1 X72.896 Y89.479 E.28012
G1 X72.513 Y89.275 E.02178
G1 X72.513 Y83.897 E.2699
G1 X72.327 Y83.897 E.00933
G1 X72.327 Y73.719 E.5108
G1 X72.129 Y73.719 E.0099
G1 X72.129 Y89.072 E.77047
G1 X71.746 Y88.868 E.02178
G1 X71.746 Y73.719 E.76025
G1 X71.363 Y73.719 E.01923
G1 X71.363 Y88.664 E.75002
G1 X70.98 Y88.46 E.02178
G1 X70.98 Y73.719 E.7398
G1 X70.596 Y73.719 E.01923
G1 X70.596 Y88.257 E.72957
G1 X70.213 Y88.053 E.02178
G1 X70.213 Y73.719 E.71935
G1 X69.83 Y73.719 E.01923
G1 X69.83 Y87.849 E.70912
G1 X69.447 Y87.645 E.02178
M73 P3 R42
G1 X69.447 Y73.719 E.6989
G1 X69.064 Y73.719 E.01923
G1 X69.064 Y87.442 E.68868
G1 X68.68 Y87.238 E.02178
G1 X68.68 Y73.719 E.67845
G1 X68.297 Y73.719 E.01923
G1 X68.297 Y87.034 E.66823
G1 X67.914 Y86.831 E.02178
G1 X67.914 Y73.719 E.658
G1 X67.531 Y73.719 E.01923
G1 X67.531 Y86.627 E.64778
G1 X67.148 Y86.423 E.02178
G1 X67.148 Y73.719 E.63755
G1 X66.764 Y73.719 E.01923
G1 X66.764 Y86.545 E.64368
G1 X66.381 Y86.775 E.02243
G1 X66.381 Y73.719 E.65523
G1 X65.998 Y73.719 E.01923
G1 X65.998 Y99.927 E1.31527
G1 X65.615 Y99.927 E.01923
G1 X65.615 Y73.719 E1.31527
G1 X65.232 Y73.719 E.01923
G1 X65.232 Y99.927 E1.31527
G1 X64.848 Y99.927 E.01923
G1 X64.848 Y73.719 E1.31527
G1 X64.465 Y73.719 E.01923
G1 X64.465 Y99.927 E1.31527
G1 X64.082 Y99.927 E.01923
G1 X64.082 Y73.719 E1.31527
G1 X63.699 Y73.719 E.01923
G1 X63.699 Y99.927 E1.31527
G1 X63.316 Y99.927 E.01923
G1 X63.316 Y73.564 E1.32306
G1 E-.7 F3600
;WIPE_START
G1 F6240
G1 X63.316 Y74.084 E-.285
;WIPE_END
G1 E-.015 F3600
G1 X95.122 Y106.868 F7800
G1 E1 F2400
G1 F1800
G1 X95.122 Y103.096 E.18927
G1 X94.739 Y103.096 E.01923
G1 X94.739 Y106.713 E.18148
G1 X94.356 Y106.713 E.01923
G1 X94.356 Y103.096 E.18148
G1 X93.972 Y103.096 E.01923
G1 X93.972 Y106.713 E.18148
G1 X93.589 Y106.713 E.01923
G1 X93.589 Y103.096 E.18148
G1 X93.206 Y103.096 E.01923
G1 X93.206 Y106.713 E.18148
G1 X92.823 Y106.713 E.01923
G1 X92.823 Y103.096 E.18148
G1 X92.439 Y103.096 E.01923
G1 X92.439 Y106.713 E.18148
G1 X92.056 Y106.713 E.01923
G1 X92.056 Y103.096 E.18148
G1 X91.673 Y103.096 E.01923
G1 X91.673 Y106.713 E.18148
G1 X91.29 Y106.713 E.01923
G1 X91.29 Y103.096 E.18148
G1 X90.907 Y103.096 E.01923
G1 X90.907 Y106.713 E.18148
G1 X90.523 Y106.713 E.01923
G1 X90.523 Y103.096 E.18148
G1 X90.14 Y103.096 E.01923
G1 X90.14 Y106.713 E.18148
G1 X89.757 Y106.713 E.01923
G1 X89.757 Y103.096 E.18148
G1 X89.374 Y103.096 E.01923
G1 X89.374 Y106.713 E.18148
G1 X88.991 Y106.713 E.01923
G1 X88.991 Y103.096 E.18148
G1 X88.607 Y103.096 E.01923
G1 X88.607 Y106.713 E.18148
G1 X88.224 Y106.713 E.01923
G1 X88.224 Y103.096 E.18148
G1 X87.841 Y103.096 E.01923
G1 X87.841 Y106.713 E.18148
G1 X87.458 Y106.713 E.01923
G1 X87.458 Y103.096 E.18148
G1 X87.075 Y103.096 E.01923
G1 X87.075 Y106.713 E.18148
G1 X86.691 Y106.713 E.01923
G1 X86.691 Y103.096 E.18148
G1 X86.308 Y103.096 E.01923
G1 X86.308 Y106.713 E.18148
G1 X85.925 Y106.713 E.01923
G1 X85.925 Y103.096 E.18148
G1 X85.542 Y103.096 E.01923
G1 X85.542 Y106.713 E.18148
G1 X85.158 Y106.713 E.01923
G1 X85.158 Y103.096 E.18148
G1 X84.775 Y103.096 E.01923
G1 X84.775 Y106.713 E.18148
G1 X84.392 Y106.713 E.01923
G1 X84.392 Y103.096 E.18148
G1 X84.009 Y103.096 E.01923
G1 X84.009 Y106.713 E.18148
G1 X83.626 Y106.713 E.01923
G1 X83.626 Y103.096 E.18148
G1 X83.242 Y103.096 E.01923
G1 X83.242 Y106.713 E.18148
G1 X82.859 Y106.713 E.01923
G1 X82.859 Y103.096 E.18148
G1 X82.476 Y103.096 E.01923
G1 X82.476 Y106.713 E.18148
G1 X82.093 Y106.713 E.01923
G1 X82.093 Y103.096 E.18148
G1 X81.71 Y103.096 E.01923
G1 X81.71 Y106.713 E.18148
G1 X81.326 Y106.713 E.01923
G1 X81.326 Y103.096 E.18148
G1 X80.943 Y103.096 E.01923
G1 X80.943 Y106.713 E.18148
G1 X80.56 Y106.713 E.01923
G1 X80.56 Y103.096 E.18148
G1 X80.177 Y103.096 E.01923
G1 X80.177 Y106.713 E.18148
G1 X79.794 Y106.713 E.01923
G1 X79.794 Y103.096 E.18148
G1 X79.41 Y103.096 E.01923
G1 X79.41 Y106.713 E.18148
G1 X79.027 Y106.713 E.01923
G1 X79.027 Y103.096 E.18148
G1 X78.644 Y103.096 E.01923
G1 X78.644 Y106.713 E.18148
G1 X78.261 Y106.713 E.01923
G1 X78.261 Y103.096 E.18148
G1 X77.877 Y103.096 E.01923
G1 X77.877 Y106.713 E.18148
G1 X77.494 Y106.713 E.01923
G1 X77.494 Y103.096 E.18148
G1 X77.111 Y103.096 E.01923
G1 X77.111 Y106.713 E.18148
G1 X76.728 Y106.713 E.01923
G1 X76.728 Y103.096 E.18148
G1 X76.345 Y103.096 E.01923
G1 X76.345 Y106.713 E.18148
G1 X75.961 Y106.713 E.01923
G1 X75.961 Y103.096 E.18148
G1 X75.578 Y103.096 E.01923
G1 X75.578 Y106.713 E.18148
G1 X75.195 Y106.713 E.01923
G1 X75.195 Y103.096 E.18148
G1 X74.812 Y103.096 E.01923
G1 X74.812 Y106.713 E.18148
G1 X74.429 Y106.713 E.01923
G1 X74.429 Y103.096 E.18148
G1 X74.045 Y103.096 E.01923
G1 X74.045 Y106.713 E.18148
G1 X73.662 Y106.713 E.01923
G1 X73.662 Y103.096 E.18148
G1 X73.279 Y103.096 E.01923
G1 X73.279 Y106.868 E.18927
G1 E-.7 F3600
;WIPE_START
G1 F6240
G1 X73.279 Y106.348 E-.285
;WIPE_END
G1 E-.015 F3600
G1 X67.638 Y88.468 F7800
G1 E1 F2400
;TYPE:Perimeter
;WIDTH:0.42
G1 F1800
G1 X92.191 Y101.521 E1.39554
G1 X67.638 Y101.521 E1.2322
G1 X67.638 Y88.618 E.64757
G1 X67.293 Y87.894 F7800
;TYPE:External perimeter
G1 F1800
M73 P4 R42
G1 X93.574 Y101.866 E1.49378
G1 X67.293 Y101.866 E1.31894
G1 X67.293 Y88.044 E.69368
G1 X66.445 Y88.424 F7800
G1 E-.7 F3600
;WIPE_START
G1 F6240
G1 X67.753 Y88.286 E-.285
;WIPE_END
G1 E-.015 F3600
G1 X89.753 Y100.342 F7800
G1 E1 F2400
;TYPE:Solid infill
;WIDTH:0.426709
G1 F1800
G1 X90.673 Y101.262 E.06658
G1 X90.176 Y101.262 E.02544
G1 X89.067 Y100.153 E.08026
G1 X88.005 Y99.589 E.06151
G1 X89.679 Y101.262 E.1211
G1 X89.182 Y101.262 E.02544
G1 X86.944 Y99.024 E.16194
G1 X85.882 Y98.46 E.06151
G1 X88.684 Y101.262 E.20277
G1 X88.187 Y101.262 E.02544
G1 X84.82 Y97.896 E.24361
G1 X83.759 Y97.331 E.06151
G1 X87.69 Y101.262 E.28445
G1 X87.193 Y101.262 E.02544
G1 X82.697 Y96.767 E.32528
G1 X81.635 Y96.202 E.06151
G1 X86.696 Y101.262 E.36612
G1 X86.198 Y101.262 E.02544
G1 X80.574 Y95.638 E.40696
G1 X79.512 Y95.074 E.06151
G1 X85.701 Y101.262 E.44779
G1 X85.204 Y101.262 E.02544
G1 X78.451 Y94.509 E.48863
G1 X77.389 Y93.945 E.06151
G1 X84.707 Y101.262 E.52947
G1 X84.209 Y101.262 E.02544
G1 X76.327 Y93.38 E.5703
G1 X75.266 Y92.816 E.06151
G1 X83.712 Y101.262 E.61114
G1 X83.215 Y101.262 E.02544
G1 X74.204 Y92.251 E.65198
G1 X73.142 Y91.687 E.06151
G1 X82.718 Y101.262 E.69281
G1 X82.22 Y101.262 E.02544
G1 X72.081 Y91.123 E.73365
G1 X71.019 Y90.558 E.06151
G1 X81.723 Y101.262 E.77449
G1 X81.226 Y101.262 E.02544
G1 X69.957 Y89.994 E.81533
G1 X68.896 Y89.429 E.06151
G1 X80.729 Y101.262 E.85616
G1 X80.232 Y101.262 E.02544
G1 X67.896 Y88.927 E.8925
G1 X67.896 Y89.425 E.02544
G1 X79.734 Y101.262 E.85652
G1 X79.237 Y101.262 E.02544
G1 X67.896 Y89.922 E.82054
G1 X67.896 Y90.419 E.02544
M73 P4 R41
G1 X78.74 Y101.262 E.78456
G1 X78.243 Y101.262 E.02544
G1 X67.896 Y90.916 E.74858
G1 X67.896 Y91.414 E.02544
G1 X77.745 Y101.262 E.71261
G1 X77.248 Y101.262 E.02544
G1 X67.896 Y91.911 E.67663
G1 X67.897 Y92.408 E.02544
G1 X76.751 Y101.262 E.64065
G1 X76.254 Y101.262 E.02544
G1 X67.897 Y92.905 E.60467
G1 X67.897 Y93.403 E.02544
G1 X75.756 Y101.262 E.56869
G1 X75.259 Y101.262 E.02544
G1 X67.897 Y93.9 E.53271
G1 X67.897 Y94.397 E.02544
G1 X74.762 Y101.262 E.49673
G1 X74.265 Y101.262 E.02544
G1 X67.897 Y94.894 E.46075
G1 X67.897 Y95.392 E.02544
G1 X73.767 Y101.262 E.42478
G1 X73.27 Y101.262 E.02544
G1 X67.897 Y95.889 E.3888
G1 X67.897 Y96.386 E.02544
G1 X72.773 Y101.262 E.35282
G1 X72.276 Y101.262 E.02544
G1 X67.897 Y96.883 E.31684
G1 X67.897 Y97.381 E.02544
G1 X71.779 Y101.262 E.28086
G1 X71.281 Y101.262 E.02544
G1 X67.897 Y97.878 E.24488
G1 X67.897 Y98.375 E.02544
G1 X70.784 Y101.262 E.2089
G1 X70.287 Y101.262 E.02544
G1 X67.897 Y98.872 E.17292
G1 X67.897 Y99.37 E.02544
G1 X69.79 Y101.262 E.13695
G1 X69.292 Y101.262 E.02544
G1 X67.897 Y99.867 E.10097
G1 X67.897 Y100.364 E.02544
G1 X68.795 Y101.262 E.06499
G1 X68.298 Y101.262 E.02544
G1 X67.742 Y100.706 E.04024
