; generated by PrusaSlicer 2.5.0+win64 on 2022-12-07 at 00:06:17 UTC

; 

; external perimeters extrusion width = 1.00mm
; perimeters extrusion width = 1.00mm
; infill extrusion width = 1.00mm
; solid infill extrusion width = 1.00mm
; top infill extrusion width = 1.00mm
; support material extrusion width = 1.00mm
; first layer extrusion width = 0.42mm

M73 P0 R109
M107
;TYPE:Custom
G90 ; use absolute coordinates
M83 ; extruder relative mode
M140 S60 ; set final bed temp
M104 S150 ; set temporary nozzle temp to prevent oozing during homing and auto bed leveling
G4 S10 ; allow partial nozzle warmup
G28 ; home all axisG1 Z50 F240
G1 X7.6 Y10 F3000
M104 S210 ; set final nozzle temp
M190 S60 ; wait for bed temp to stabilize
M109 S210 ; wait for nozzle temp to stabilize
G1 Z0.28 F240
G92 E0
G1 Y140 E10 F1500 ; prime the nozzle
G1 X4 F5000
G92 E0
G1 Y10 E10 F1200 ; prime the nozzle
G92 E0
G21 ; set units to millimeters
G90 ; use absolute coordinates
M83 ; use relative distances for extrusion
; Filament gcode
M107
;LAYER_CHANGE
;Z:0.35
;HEIGHT:0.35
;BEFORE_LAYER_CHANGE
G92 E0
;0.35


G1 E-1 F3600
G1 Z.35 F7800
;AFTER_LAYER_CHANGE
;0.35
G1 X144.359 Y59.407
G1 E1 F2400
;TYPE:Support material
;WIDTH:0.42
G1 F1800
G1 X147.751 Y59.407 E.17027
G1 X147.751 Y62.8 E.17027
G1 X151.144 Y62.8 E.17027
G1 X151.144 Y76.058 E.66536
G1 X141.279 Y76.058 E.49509
G1 X141.279 Y69.273 E.34053
G1 X134.493 Y69.273 E.34053
G1 X134.493 Y56.015 E.66536
G1 X144.359 Y56.015 E.49509
G1 X144.359 Y59.356 E.16767
G1 X150.779 Y75.903 F7800
G1 F1800
G1 X150.779 Y63.11 E.64199
G1 X150.396 Y63.11 E.01923
G1 X150.396 Y75.748 E.6342
G1 X150.013 Y75.748 E.01923
G1 X150.013 Y63.11 E.6342
G1 X149.629 Y63.11 E.01923
G1 X149.629 Y75.748 E.6342
G1 X149.246 Y75.748 E.01923
G1 X149.246 Y63.11 E.6342
G1 X148.863 Y63.11 E.01923
G1 X148.863 Y75.748 E.6342
G1 X148.48 Y75.748 E.01923
G1 X148.48 Y63.11 E.6342
G1 X148.097 Y63.11 E.01923
G1 X148.097 Y75.748 E.6342
G1 X147.713 Y75.748 E.01923
G1 X147.713 Y63.11 E.6342
G1 X147.441 Y63.11 E.01367
G1 X147.441 Y59.718 E.17027
G1 X147.33 Y59.718 E.00556
G1 X147.33 Y75.748 E.80447
G1 X146.947 Y75.748 E.01923
G1 X146.947 Y59.718 E.80447
G1 X146.564 Y59.718 E.01923
G1 X146.564 Y75.748 E.80447
G1 X146.18 Y75.748 E.01923
G1 X146.18 Y59.718 E.80447
G1 X145.797 Y59.718 E.01923
G1 X145.797 Y75.748 E.80447
G1 X145.414 Y75.748 E.01923
G1 X145.414 Y59.718 E.80447
G1 X145.031 Y59.718 E.01923
M73 P0 R108
G1 X145.031 Y75.748 E.80447
G1 X144.648 Y75.748 E.01923
G1 X144.648 Y59.718 E.80447
G1 X144.264 Y59.718 E.01923
G1 X144.264 Y75.748 E.80447
G1 X143.881 Y75.748 E.01923
G1 X143.881 Y56.325 E.97474
G1 X143.498 Y56.325 E.01923
G1 X143.498 Y75.748 E.97474
G1 X143.115 Y75.748 E.01923
G1 X143.115 Y56.325 E.97474
G1 X142.732 Y56.325 E.01923
G1 X142.732 Y75.748 E.97474
G1 X142.348 Y75.748 E.01923
G1 X142.348 Y56.325 E.97474
G1 X141.965 Y56.325 E.01923
G1 X141.965 Y75.748 E.97474
G1 X141.589 Y75.748 E.01887
G1 X141.582 Y56.325 E.97474
G1 X141.199 Y56.325 E.01923
G1 X141.199 Y68.962 E.6342
G1 X140.816 Y68.962 E.01923
G1 X140.816 Y56.325 E.6342
G1 X140.432 Y56.325 E.01923
G1 X140.432 Y68.962 E.6342
G1 X140.049 Y68.962 E.01923
G1 X140.049 Y56.325 E.6342
G1 X139.666 Y56.325 E.01923
G1 X139.666 Y68.962 E.6342
G1 X139.283 Y68.962 E.01923
G1 X139.283 Y56.325 E.6342
G1 X138.899 Y56.325 E.01923
G1 X138.899 Y68.962 E.6342
G1 X138.516 Y68.962 E.01923
G1 X138.516 Y56.325 E.6342
G1 X138.133 Y56.325 E.01923
G1 X138.133 Y68.962 E.6342
G1 X137.75 Y68.962 E.01923
G1 X137.75 Y56.325 E.6342
G1 X137.367 Y56.325 E.01923
G1 X137.367 Y68.962 E.6342
G1 X136.983 Y68.962 E.01923
G1 X136.983 Y56.325 E.6342
G1 X136.6 Y56.325 E.01923
G1 X136.6 Y68.962 E.6342
G1 X136.217 Y68.962 E.01923
G1 X136.217 Y56.325 E.6342
G1 X135.834 Y56.325 E.01923
G1 X135.834 Y68.962 E.6342
G1 X135.451 Y68.962 E.01923
G1 X135.451 Y56.325 E.6342
G1 X135.067 Y56.325 E.01923
G1 X135.067 Y69.117 E.64199
G1 E-.7 F3600
;WIPE_START
G1 F6240
G1 X135.067 Y68.597 E-.285
;WIPE_END
G1 E-.015 F3600
G1 X76.066 Y61.817 F7800
G1 E1 F2400
;TYPE:Perimeter
;WIDTH:0.42
G1 F1800
G1 X96.398 Y61.817 E1.02037
G1 X102.991 Y67.99 E.45327
G1 X147.154 Y99.494 E2.72246
G1 X147.154 Y117.194 E.8883
G1 X101.38 Y84.547 E2.82163
G1 X98.456 Y81.881 E.19855
G1 X95.324 Y78.945 E.21548
G1 X92.669 Y77.05 E.16368
G1 X92.527 Y77.031 E.00722
G1 X92.125 Y76.662 E.02736
G1 X91.348 Y76.116 E.04767
G1 X76.176 Y61.919 E1.04277
G1 X75.193 Y61.472 F7800
;TYPE:External perimeter
G1 F1800
G1 X96.535 Y61.472 E1.07104
G1 X103.192 Y67.709 E.45781
G1 X147.499 Y99.316 E2.73137
G1 X147.499 Y117.863 E.93082
G1 X101.162 Y84.816 E2.85627
G1 X98.222 Y82.135 E.19971
G1 X95.088 Y79.197 E.2156
G1 X92.469 Y77.331 E.16136
G1 X92.351 Y77.339 E.00595
G1 X91.927 Y76.944 E.02906
G1 X91.13 Y76.385 E.04888
G1 X75.303 Y61.575 E1.08781
G1 X76.162 Y61.718 F7800
G1 E-.7 F3600
;WIPE_START
G1 F6240
G1 X75.823 Y61.572 E-.285
;WIPE_END
G1 E-.015 F3600
G1 X144.552 Y97.765 F7800
G1 E1 F2400
;TYPE:Solid infill
;WIDTH:0.424949
G1 F1800
G1 X146.895 Y100.108 E.16867
G1 X146.895 Y100.602 E.02519
G1 X143.491 Y97.199 E.24505
G1 X141.765 Y95.967 E.10793
G1 X146.895 Y101.097 E.36931
G1 X146.895 Y101.592 E.02519
G1 X140.039 Y94.736 E.49356
G1 X138.313 Y93.505 E.10793
G1 X146.895 Y102.087 E.61782
G1 X146.895 Y102.581 E.02519
G1 X136.587 Y92.274 E.74208
G1 X134.861 Y91.042 E.10793
G1 X146.895 Y103.076 E.86634
G1 X146.895 Y103.571 E.02519
G1 X133.135 Y89.811 E.9906
G1 X131.409 Y88.58 E.10793
G1 X146.895 Y104.066 E1.11486
G1 X146.895 Y104.56 E.02519
G1 X129.683 Y87.349 E1.23912
G1 X127.957 Y86.117 E.10793
G1 X146.895 Y105.055 E1.36337
G1 X146.895 Y105.55 E.02519
G1 X126.231 Y84.886 E1.48763
G1 X124.505 Y83.655 E.10793
G1 X146.895 Y106.045 E1.61189
G1 X146.895 Y106.539 E.02519
G1 X122.779 Y82.424 E1.73615
G1 X121.053 Y81.192 E.10793
G1 X146.895 Y107.034 E1.86041
G1 X146.895 Y107.529 E.02519
M73 P1 R108
G1 X119.327 Y79.961 E1.98467
G1 X117.601 Y78.73 E.10793
G1 X146.895 Y108.024 E2.10892
G1 X146.895 Y108.518 E.02519
G1 X115.875 Y77.498 E2.23318
G1 X114.149 Y76.267 E.10793
G1 X146.895 Y109.013 E2.35744
G1 X146.895 Y109.508 E.02519
G1 X112.423 Y75.036 E2.4817
G1 X110.697 Y73.805 E.10793
G1 X146.895 Y110.003 E2.60596
G1 X146.895 Y110.497 E.02519
G1 X108.971 Y72.573 E2.73022
G1 X107.245 Y71.342 E.10793
G1 X146.895 Y110.992 E2.85447
G1 X146.895 Y111.487 E.02519
G1 X105.519 Y70.111 E2.97873
G1 X103.793 Y68.88 E.10793
G1 X146.895 Y111.982 E3.10299
G1 X146.895 Y112.476 E.02519
G1 X99.422 Y65.003 E3.4177
G1 X96.296 Y62.076 E.218
M73 P1 R107
G1 X96 Y62.076 E.01509
G1 X146.895 Y112.971 E3.66406
G1 X146.895 Y113.466 E.02519
G1 X95.505 Y62.076 E3.69968
G1 X95.01 Y62.076 E.02519
G1 X146.895 Y113.961 E3.7353
G1 X146.895 Y114.455 E.02519
G1 X94.515 Y62.076 E3.77092
G1 X94.021 Y62.076 E.02519
G1 X146.895 Y114.95 E3.80653
G1 X146.895 Y115.445 E.02519
G1 X93.526 Y62.076 E3.84215
G1 X93.031 Y62.076 E.02519
G1 X146.895 Y115.94 E3.87777
G1 X146.895 Y116.434 E.02519
G1 X92.536 Y62.076 E3.91339
G1 X92.042 Y62.076 E.02519
G1 X146.067 Y116.101 E3.8894
G1 X144.342 Y114.871 E.10787
G1 X91.547 Y62.076 E3.80082
G1 X91.052 Y62.076 E.02519
G1 X142.617 Y113.64 E3.71224
G1 X140.892 Y112.41 E.10787
G1 X90.557 Y62.076 E3.62366
G1 X90.063 Y62.076 E.02519
G1 X139.167 Y111.179 E3.53508
G1 X137.441 Y109.949 E.10787
G1 X89.568 Y62.076 E3.4465
G1 X89.073 Y62.076 E.02519
G1 X135.716 Y108.719 E3.35793
G1 X133.991 Y107.488 E.10787
G1 X88.578 Y62.076 E3.26935
G1 X88.084 Y62.076 E.02519
G1 X132.266 Y106.258 E3.18077
G1 X130.541 Y105.028 E.10787
G1 X87.589 Y62.076 E3.09219
G1 X87.094 Y62.076 E.02519
G1 X128.816 Y103.797 E3.00361
G1 X127.091 Y102.567 E.10787
M73 P2 R107
G1 X86.599 Y62.076 E2.91504
G1 X86.105 Y62.076 E.02519
G1 X125.365 Y101.336 E2.82646
G1 X123.64 Y100.106 E.10787
G1 X85.61 Y62.076 E2.73788
G1 X85.115 Y62.076 E.02519
G1 X121.915 Y98.876 E2.6493
G1 X120.19 Y97.645 E.10787
G1 X84.62 Y62.076 E2.56072
G1 X84.126 Y62.076 E.02519
G1 X118.465 Y96.415 E2.47214
G1 X116.74 Y95.184 E.10787
G1 X83.631 Y62.076 E2.38357
G1 X83.136 Y62.076 E.02519
G1 X115.015 Y93.954 E2.29499
M73 P2 R106
G1 X113.289 Y92.724 E.10787
G1 X82.641 Y62.076 E2.20641
G1 X82.147 Y62.076 E.02519
G1 X111.564 Y91.493 E2.11783
G1 X109.839 Y90.263 E.10787
G1 X81.652 Y62.076 E2.02925
G1 X81.157 Y62.076 E.02519
G1 X108.114 Y89.032 E1.94067
G1 X106.389 Y87.802 E.10787
G1 X80.662 Y62.076 E1.8521
G1 X80.168 Y62.076 E.02519
G1 X104.664 Y86.572 E1.76352
G1 X102.939 Y85.341 E.10787
G1 X79.673 Y62.076 E1.67494
G1 X79.178 Y62.076 E.02519
G1 X100.473 Y83.37 E1.53303
G1 X98.632 Y81.691 E.12684
G1 X95.496 Y78.752 E.21877
G1 X95.019 Y78.412 E.02984
G1 X78.684 Y62.076 E1.17605
G1 X78.189 Y62.076 E.02519
G1 X93.286 Y77.173 E1.08688
G1 X92.708 Y76.77 E.03588
G1 X92.641 Y76.784 E.00348
G1 X92.307 Y76.475 E.02313
G1 X91.586 Y75.968 E.04489
G1 X77.694 Y62.076 E1.00012
G1 X77.199 Y62.076 E.02519
G1 X87.465 Y72.341 E.73904
M106 S255
;LAYER_CHANGE
;Z:0.85
;HEIGHT:0.5
;BEFORE_LAYER_CHANGE
G92 E0
;0.85


G1 E-.7 F3600
;WIPE_START
G1 F6240
G1 X87.097 Y71.974 E-.285
;WIPE_END
G1 E-.015 F3600
G1 Z.85 F7800
;AFTER_LAYER_CHANGE
;0.85
M104 S205 ; set temperature
G1 X78.161 Y62.655
G1 E1 F2400
;TYPE:Perimeter
;WIDTH:1
G1 F2016.357
G1 X96.044 Y62.655 E3.31867
G1 X101.639 Y67.882 E1.42088
G1 X146.316 Y99.753 E10.18404
G1 X146.316 Y115.476 E2.91783
G1 X101.953 Y83.835 E10.11191
G1 X98.682 Y80.852 E.82142
G1 X96.308 Y78.626 E.60404
G1 X93.143 Y76.359 E.72247
G1 X92.945 Y76.275 E.03977
G1 X92.612 Y75.98 E.08264
G1 X91.768 Y75.388 E.1912
G1 X78.27 Y62.757 E3.43048
G1 E-.7 F3600
;WIPE_START
G1 F6240
G1 X78.79 Y62.754 E-.285
;WIPE_END
G1 E-.015 F3600
G1 X75.9 Y61.762 F7800
G1 E1 F2400
;TYPE:External perimeter
G1 F1800
G1 X96.397 Y61.762 E3.80365
G1 X102.157 Y67.155 E1.46434
G1 X147.209 Y99.293 E10.26936
G1 X147.209 Y117.21 E3.32478
G1 X101.391 Y84.53 E10.44347
G1 X98.076 Y81.508 E.83249
G1 X95.697 Y79.277 E.60519
G1 X92.625 Y77.086 E.70024
G1 X92.491 Y77.072 E.02508
G1 X92.098 Y76.711 E.09893
G1 X91.204 Y76.083 E.20281
G1 X76.01 Y61.865 E3.86158
G1 X76.869 Y62.008 F7800
G1 E-.7 F3600
;WIPE_START
G1 F6240
G1 X76.53 Y61.862 E-.285
;WIPE_END
G1 E-.015 F3600
G1 X146.048 Y113.18 F7800
G1 E1 F2400
;TYPE:Solid infill
;WIDTH:1.00647
G1 F1200
G1 X145.299 Y113.929 E.19792
G1 X144.557 Y113.4 E.17041
G1 X145.646 Y112.31 E.28793
G1 X145.646 Y111.039 E.23769
G1 X143.815 Y112.87 E.48413
G1 X143.073 Y112.341 E.17041
G1 X145.646 Y109.767 E.68033
G1 X145.646 Y108.496 E.23769
G1 X142.33 Y111.811 E.87653
G1 X141.588 Y111.282 E.17041
G1 X145.646 Y107.224 E1.07272
G1 X145.646 Y105.952 E.23769
G1 X140.846 Y110.753 E1.26892
G1 X140.104 Y110.223 E.17041
G1 X145.646 Y104.681 E1.46512
G1 X145.646 Y103.409 E.23769
G1 X139.362 Y109.694 E1.66132
G1 X138.619 Y109.164 E.17041
G1 X145.646 Y102.137 E1.85752
G1 X145.646 Y100.866 E.23769
G1 X137.877 Y108.635 E2.05372
G1 X137.135 Y108.106 E.17041
G1 X145.353 Y99.888 E2.17224
G1 X144.61 Y99.359 E.1704
G1 X136.393 Y107.576 E2.17225
G1 X135.65 Y107.047 E.17041
G1 X143.868 Y98.829 E2.17226
G1 X143.126 Y98.3 E.1704
G1 X134.908 Y106.517 E2.17227
G1 X134.166 Y105.988 E.17041
G1 X142.384 Y97.77 E2.17228
G1 X141.642 Y97.241 E.1704
G1 X133.424 Y105.459 E2.1723
G1 X132.682 Y104.929 E.17041
G1 X140.899 Y96.711 E2.17231
G1 X140.157 Y96.182 E.1704
G1 X131.939 Y104.4 E2.17232
G1 X131.197 Y103.871 E.17041
G1 X139.415 Y95.653 E2.17233
G1 X138.673 Y95.123 E.1704
G1 X130.455 Y103.341 E2.17234
G1 X129.713 Y102.812 E.17041
G1 X137.931 Y94.594 E2.17236
G1 X137.189 Y94.064 E.1704
G1 X128.97 Y102.282 E2.17237
G1 X128.228 Y101.753 E.17041
G1 X136.446 Y93.535 E2.17238
G1 X135.704 Y93.005 E.1704
G1 X127.486 Y101.224 E2.17239
G1 X126.744 Y100.694 E.17041
G1 X134.962 Y92.476 E2.17241
G1 X134.22 Y91.946 E.1704
G1 X126.002 Y100.165 E2.17242
G1 X125.259 Y99.635 E.17041
G1 X133.478 Y91.417 E2.17243
G1 X132.735 Y90.888 E.1704
G1 X124.517 Y99.106 E2.17244
G1 X123.775 Y98.577 E.17041
G1 X131.993 Y90.358 E2.17245
G1 X131.251 Y89.829 E.1704
G1 X123.033 Y98.047 E2.17247
G1 X122.29 Y97.518 E.17041
G1 X130.509 Y89.299 E2.17248
G1 X129.767 Y88.77 E.1704
G1 X121.548 Y96.988 E2.17249
G1 X120.806 Y96.459 E.17041
G1 X129.025 Y88.24 E2.1725
G1 X128.282 Y87.711 E.1704
G1 X120.064 Y95.93 E2.17252
G1 X119.322 Y95.4 E.17041
G1 X127.54 Y87.181 E2.17253
G1 X126.798 Y86.652 E.1704
G1 X118.579 Y94.871 E2.17254
G1 X117.837 Y94.341 E.17041
G1 X126.056 Y86.123 E2.17255
G1 X125.314 Y85.593 E.1704
G1 X117.095 Y93.812 E2.17256
G1 X116.353 Y93.283 E.17041
G1 X124.572 Y85.064 E2.17258
G1 X123.829 Y84.534 E.1704
G1 X115.61 Y92.753 E2.17259
G1 X114.868 Y92.224 E.17041
M73 P3 R106
G1 X123.087 Y84.005 E2.1726
G1 X122.345 Y83.475 E.1704
G1 X114.126 Y91.694 E2.17261
G1 X113.384 Y91.165 E.17041
G1 X121.603 Y82.946 E2.17262
G1 X120.861 Y82.417 E.1704
G1 X112.641 Y90.636 E2.17264
G1 X111.899 Y90.106 E.17041
G1 X120.118 Y81.887 E2.17265
G1 X119.376 Y81.358 E.1704
G1 X111.157 Y89.577 E2.17266
G1 X110.415 Y89.047 E.17041
G1 X118.634 Y80.828 E2.17267
G1 X117.892 Y80.299 E.1704
G1 X109.673 Y88.518 E2.17269
G1 X108.93 Y87.989 E.17041
G1 X117.15 Y79.769 E2.1727
G1 X116.408 Y79.24 E.1704
G1 X108.188 Y87.459 E2.17271
G1 X107.446 Y86.93 E.17041
G1 X115.665 Y78.71 E2.17272
G1 X114.923 Y78.181 E.1704
G1 X106.704 Y86.401 E2.17273
G1 X105.961 Y85.871 E.17041
M73 P3 R105
G1 X114.181 Y77.652 E2.17275
G1 X113.439 Y77.122 E.1704
G1 X105.219 Y85.342 E2.17276
G1 X104.477 Y84.812 E.17041
G1 X112.697 Y76.593 E2.17277
G1 X111.954 Y76.063 E.1704
G1 X103.735 Y84.283 E2.17278
G1 X102.993 Y83.754 E.17041
G1 X111.212 Y75.534 E2.17279
G1 X110.47 Y75.004 E.1704
G1 X102.263 Y83.211 E2.1694
G1 X101.598 Y82.605 E.16825
G1 X109.728 Y74.475 E2.14903
G1 X108.986 Y73.945 E.1704
G1 X100.933 Y81.998 E2.12866
G1 X100.268 Y81.392 E.16825
G1 X108.244 Y73.416 E2.1083
G1 X107.501 Y72.887 E.1704
G1 X99.603 Y80.785 E2.08793
G1 X98.94 Y80.176 E.16822
G1 X106.759 Y72.357 E2.06687
G1 X106.017 Y71.828 E.1704
G1 X98.284 Y79.561 E2.04418
G1 X97.628 Y78.946 E.16816
G1 X105.275 Y71.298 E2.0215
G1 X104.533 Y70.769 E.1704
G1 X96.971 Y78.33 E1.99881
G1 X96.564 Y77.972 E.10137
G1 X96.268 Y77.762 E.06785
G1 X103.791 Y70.239 E1.98839
G1 X103.048 Y69.71 E.1704
G1 X95.526 Y77.233 E1.98858
G1 X94.783 Y76.704 E.17044
G1 X102.306 Y69.181 E1.98877
G1 X101.564 Y68.651 E.1704
G1 X94.04 Y76.175 E1.98896
G1 X93.525 Y75.809 E.11813
G1 X93.283 Y75.66 E.05301
G1 X100.859 Y68.085 E2.00246
G1 X100.202 Y67.47 E.16816
G1 X92.551 Y75.121 E2.02251
G1 X92.192 Y74.867 E.08221
G1 X91.851 Y74.549 E.08711
G1 X99.546 Y66.854 E2.03395
G1 X98.889 Y66.239 E.16816
G1 X91.194 Y73.934 E2.03409
G1 X90.538 Y73.319 E.16816
G1 X98.233 Y65.624 E2.03422
G1 X97.577 Y65.009 E.16816
G1 X89.881 Y72.705 E2.03436
G1 X89.224 Y72.09 E.16816
G1 X96.92 Y64.393 E2.0345
G1 X96.264 Y63.778 E.16816
G1 X88.567 Y71.475 E2.03463
G1 X87.91 Y70.861 E.16816
G1 X95.446 Y63.324 E1.99214
G1 X94.175 Y63.324 E.23769
G1 X87.253 Y70.246 E1.82965
G1 X86.596 Y69.631 E.16816
G1 X92.903 Y63.324 E1.66717
G1 X91.631 Y63.324 E.23769
G1 X85.939 Y69.017 E1.50468
G1 X85.282 Y68.402 E.16816
G1 X90.36 Y63.324 E1.34219
G1 X89.088 Y63.324 E.23769
G1 X84.625 Y67.787 E1.1797
G1 X83.968 Y67.172 E.16816
G1 X87.817 Y63.324 E1.01721
G1 X86.545 Y63.324 E.23769
G1 X83.311 Y66.558 E.85472
G1 X82.655 Y65.943 E.16816
G1 X85.273 Y63.324 E.69223
G1 X84.002 Y63.324 E.23769
G1 X81.998 Y65.328 E.52974
G1 X81.341 Y64.714 E.16816
G1 X82.73 Y63.324 E.36725
G1 X81.458 Y63.324 E.23769
G1 X80.684 Y64.099 E.20476
G1 X80.027 Y63.484 E.16816
G1 X80.589 Y62.923 E.14846
;LAYER_CHANGE
;Z:1.09792
;HEIGHT:0.247917
;BEFORE_LAYER_CHANGE
G92 E0
;1.09792


G1 E-.7 F3600
;WIPE_START
G1 F6240
G1 X80.221 Y63.29 E-.285
;WIPE_END
G1 E-.015 F3600
G1 Z1.098 F7800
;AFTER_LAYER_CHANGE
;1.09792
G1 X138.164 Y62.644
G1 E1 F2400
;TYPE:Support material
;WIDTH:1
;HEIGHT:0.747917
G1 F1433.411
G1 X140.688 Y62.644 E.659
G1 X141.069 Y62.697 F7800
G1 F1433.411
G1 X144.461 Y62.697 E.88563
G1 X144.461 Y65.983 E.85762
G1 X137.783 Y65.983 E1.74325
G1 X137.783 Y59.305 E1.74325
G1 X141.069 Y59.305 E.85762
G1 X141.069 Y62.571 E.85276
G1 E-.7 F3600
;WIPE_START
G1 F6240
G1 X141.069 Y62.051 E-.285
;WIPE_END
G1 E-.015 F3600
G1 X144.949 Y69.429 F7800
