; generated by PrusaSlicer 2.5.0+win64 on 2022-12-07 at 00:06:16 UTC

; 

; external perimeters extrusion width = 1.00mm
; perimeters extrusion width = 1.00mm
; infill extrusion width = 1.00mm
; solid infill extrusion width = 1.00mm
; top infill extrusion width = 1.00mm
; support material extrusion width = 1.00mm
; first layer extrusion width = 0.42mm

M73 P0 R264
M107
;TYPE:Custom
G90 ; use absolute coordinates
M83 ; extruder relative mode
M140 S60 ; set final bed temp
M104 S150 ; set temporary nozzle temp to prevent oozing during homing and auto bed leveling
G4 S10 ; allow partial nozzle warmup
G28 ; home all axisG1 Z50 F240
G1 X7.6 Y10 F3000
M104 S210 ; set final nozzle temp
M190 S60 ; wait for bed temp to stabilize
M109 S210 ; wait for nozzle temp to stabilize
G1 Z0.28 F240
G92 E0
G1 Y140 E10 F1500 ; prime the nozzle
G1 X4 F5000
G92 E0
G1 Y10 E10 F1200 ; prime the nozzle
G92 E0
G21 ; set units to millimeters
G90 ; use absolute coordinates
M83 ; use relative distances for extrusion
; Filament gcode
M107
;LAYER_CHANGE
;Z:0.35
;HEIGHT:0.35
;BEFORE_LAYER_CHANGE
G92 E0
;0.35


G1 E-1 F3600
G1 Z.35 F7800
;AFTER_LAYER_CHANGE
;0.35
G1 X79.589 Y17.659
G1 E1 F2400
;TYPE:Perimeter
;WIDTH:0.42
G1 F1800
G1 X141.433 Y162.341 E7.89654
G1 X33.08 Y162.341 E5.43778
G1 X33.08 Y17.659 E7.26101
G1 X79.439 Y17.659 E2.32654
G1 X79.816 Y17.314 F7800
;TYPE:External perimeter
G1 F1800
G1 X141.956 Y162.686 E7.93419
G1 X32.735 Y162.686 E5.48131
G1 X32.735 Y17.314 E7.29563
G1 X79.666 Y17.314 E2.35527
G1 X79.981 Y18.3 F7800
G1 X80.046 Y18.991
;TYPE:Solid infill
;WIDTH:0.4203
G1 F1800
G1 X78.972 Y17.917 E.07628
G1 X78.484 Y17.917 E.02452
G1 X80.115 Y19.549 E.11591
G1 X80.48 Y20.402 E.04658
G1 X77.996 Y17.917 E.17647
G1 X77.507 Y17.917 E.02452
G1 X80.844 Y21.254 E.23704
G1 X81.209 Y22.107 E.04658
G1 X77.019 Y17.917 E.29761
G1 X76.531 Y17.917 E.02452
G1 X81.573 Y22.96 E.35817
G1 X81.938 Y23.812 E.04658
G1 X76.043 Y17.917 E.41874
G1 X75.555 Y17.917 E.02452
G1 X82.302 Y24.665 E.47931
G1 X82.667 Y25.518 E.04658
G1 X75.067 Y17.917 E.53987
G1 X74.578 Y17.917 E.02452
G1 X83.031 Y26.37 E.60044
G1 X83.396 Y27.223 E.04658
G1 X74.09 Y17.917 E.66101
G1 X73.602 Y17.917 E.02452
G1 X83.76 Y28.075 E.72157
G1 X84.124 Y28.928 E.04658
G1 X73.114 Y17.917 E.78214
G1 X72.626 Y17.917 E.02452
G1 X84.489 Y29.781 E.8427
G1 X84.853 Y30.633 E.04658
G1 X72.138 Y17.917 E.90327
G1 X71.649 Y17.917 E.02452
G1 X85.218 Y31.486 E.96384
G1 X85.582 Y32.339 E.04658
G1 X71.161 Y17.917 E1.0244
G1 X70.673 Y17.917 E.02452
G1 X85.947 Y33.191 E1.08497
G1 X86.311 Y34.044 E.04658
G1 X70.185 Y17.917 E1.14554
G1 X69.697 Y17.917 E.02452
G1 X86.676 Y34.896 E1.2061
G1 X87.04 Y35.749 E.04658
G1 X69.209 Y17.917 E1.26667
G1 X68.72 Y17.917 E.02452
G1 X87.405 Y36.602 E1.32724
G1 X87.769 Y37.454 E.04658
G1 X68.232 Y17.917 E1.3878
G1 X67.744 Y17.917 E.02452
M73 P0 R263
G1 X88.133 Y38.307 E1.44837
G1 X88.498 Y39.16 E.04658
G1 X67.256 Y17.917 E1.50894
G1 X66.768 Y17.917 E.02452
G1 X88.862 Y40.012 E1.5695
G1 X89.227 Y40.865 E.04658
G1 X66.28 Y17.917 E1.63007
G1 X65.791 Y17.917 E.02452
G1 X89.591 Y41.717 E1.69063
G1 X89.956 Y42.57 E.04658
G1 X65.303 Y17.917 E1.7512
G1 X64.815 Y17.917 E.02452
G1 X90.32 Y43.423 E1.81177
G1 X90.685 Y44.275 E.04658
G1 X64.327 Y17.917 E1.87233
G1 X63.839 Y17.917 E.02452
G1 X91.049 Y45.128 E1.9329
G1 X91.414 Y45.981 E.04658
G1 X63.35 Y17.917 E1.99347
G1 X62.862 Y17.917 E.02452
G1 X91.778 Y46.833 E2.05403
G1 X92.142 Y47.686 E.04658
G1 X62.374 Y17.917 E2.1146
G1 X61.886 Y17.917 E.02452
G1 X92.507 Y48.538 E2.17517
G1 X92.871 Y49.391 E.04658
G1 X61.398 Y17.917 E2.23573
G1 X60.91 Y17.917 E.02452
G1 X93.236 Y50.244 E2.2963
G1 X93.6 Y51.096 E.04658
G1 X60.421 Y17.917 E2.35687
G1 X59.933 Y17.917 E.02452
G1 X93.965 Y51.949 E2.41743
G1 X94.329 Y52.802 E.04658
G1 X59.445 Y17.917 E2.478
G1 X58.957 Y17.917 E.02452
G1 X94.694 Y53.654 E2.53856
G1 X95.058 Y54.507 E.04658
G1 X58.469 Y17.917 E2.59913
G1 X57.981 Y17.917 E.02452
G1 X95.423 Y55.359 E2.6597
G1 X95.787 Y56.212 E.04658
G1 X57.492 Y17.917 E2.72026
G1 X57.004 Y17.917 E.02452
G1 X96.151 Y57.065 E2.78083
G1 X96.516 Y57.917 E.04658
G1 X56.516 Y17.917 E2.8414
G1 X56.028 Y17.917 E.02452
G1 X96.88 Y58.77 E2.90196
G1 X97.245 Y59.623 E.04658
G1 X55.54 Y17.917 E2.96253
G1 X55.052 Y17.917 E.02452
G1 X97.609 Y60.475 E3.0231
G1 X97.974 Y61.328 E.04658
G1 X54.563 Y17.917 E3.08366
G1 X54.075 Y17.917 E.02452
G1 X98.338 Y62.18 E3.14423
G1 X98.703 Y63.033 E.04658
G1 X53.587 Y17.917 E3.2048
G1 X53.099 Y17.917 E.02452
G1 X99.067 Y63.886 E3.26536
G1 X99.432 Y64.738 E.04658
G1 X52.611 Y17.917 E3.32593
G1 X52.123 Y17.917 E.02452
G1 X99.796 Y65.591 E3.38649
G1 X100.16 Y66.444 E.04658
G1 X51.634 Y17.917 E3.44706
G1 X51.146 Y17.917 E.02452
G1 X100.525 Y67.296 E3.50763
G1 X100.889 Y68.149 E.04658
M73 P0 R262
G1 X50.658 Y17.917 E3.56819
G1 X50.17 Y17.917 E.02452
G1 X101.254 Y69.001 E3.62876
G1 X101.618 Y69.854 E.04658
G1 X49.682 Y17.917 E3.68933
G1 X49.194 Y17.917 E.02452
G1 X101.983 Y70.707 E3.74989
G1 X102.347 Y71.559 E.04658
G1 X48.705 Y17.917 E3.81046
G1 X48.217 Y17.917 E.02452
G1 X102.712 Y72.412 E3.87103
G1 X103.076 Y73.265 E.04658
G1 X47.729 Y17.917 E3.93159
G1 X47.241 Y17.917 E.02452
G1 X103.441 Y74.117 E3.99216
G1 X103.805 Y74.97 E.04658
G1 X46.753 Y17.917 E4.05273
G1 X46.264 Y17.917 E.02452
G1 X104.169 Y75.822 E4.11329
G1 X104.534 Y76.675 E.04658
G1 X45.776 Y17.917 E4.17386
G1 X45.288 Y17.917 E.02452
G1 X104.898 Y77.528 E4.23442
G1 X105.263 Y78.38 E.04658
G1 X44.8 Y17.917 E4.29499
G1 X44.312 Y17.917 E.02452
G1 X105.627 Y79.233 E4.35556
G1 X105.992 Y80.086 E.04658
G1 X43.824 Y17.917 E4.41612
G1 X43.335 Y17.917 E.02452
G1 X106.356 Y80.938 E4.47669
G1 X106.721 Y81.791 E.04658
M73 P1 R262
G1 X42.847 Y17.917 E4.53726
G1 X42.359 Y17.917 E.02452
G1 X107.085 Y82.643 E4.59782
G1 X107.45 Y83.496 E.04658
G1 X41.871 Y17.917 E4.65839
G1 X41.383 Y17.917 E.02452
G1 X107.814 Y84.349 E4.71896
G1 X108.178 Y85.201 E.04658
G1 X40.895 Y17.917 E4.77952
G1 X40.406 Y17.917 E.02452
M73 P1 R261
G1 X108.543 Y86.054 E4.84009
G1 X108.907 Y86.907 E.04658
G1 X39.918 Y17.917 E4.90066
G1 X39.43 Y17.917 E.02452
G1 X109.272 Y87.759 E4.96122
G1 X109.636 Y88.612 E.04658
G1 X38.942 Y17.917 E5.02179
G1 X38.454 Y17.917 E.02452
G1 X110.001 Y89.464 E5.08235
G1 X110.365 Y90.317 E.04658
G1 X37.966 Y17.917 E5.14292
G1 X37.477 Y17.917 E.02452
G1 X110.73 Y91.17 E5.20349
G1 X111.094 Y92.022 E.04658
G1 X36.989 Y17.917 E5.26405
G1 X36.501 Y17.917 E.02452
G1 X111.459 Y92.875 E5.32462
G1 X111.823 Y93.728 E.04658
G1 X36.013 Y17.917 E5.38519
G1 X35.525 Y17.917 E.02452
G1 X112.187 Y94.58 E5.44575
G1 X112.552 Y95.433 E.04658
G1 X35.037 Y17.917 E5.50632
G1 X34.548 Y17.917 E.02452
G1 X112.916 Y96.285 E5.56689
G1 X113.281 Y97.138 E.04658
G1 X34.06 Y17.917 E5.62745
G1 X33.572 Y17.917 E.02452
G1 X113.645 Y97.991 E5.68802
G1 X114.01 Y98.843 E.04658
G1 X33.339 Y18.173 E5.73046
G1 X33.339 Y18.661 E.02452
G1 X114.374 Y99.696 E5.75635
G1 X114.739 Y100.549 E.04658
M73 P1 R260
G1 X33.339 Y19.149 E5.78224
G1 X33.339 Y19.637 E.02452
G1 X115.103 Y101.401 E5.80813
G1 X115.467 Y102.254 E.04658
G1 X33.339 Y20.125 E5.83402
G1 X33.339 Y20.613 E.02452
G1 X115.832 Y103.106 E5.85991
G1 X116.196 Y103.959 E.04658
G1 X33.339 Y21.102 E5.8858
G1 X33.339 Y21.59 E.02452
G1 X116.561 Y104.812 E5.91169
G1 X116.925 Y105.664 E.04658
G1 X33.339 Y22.078 E5.93758
G1 X33.339 Y22.566 E.02452
G1 X117.29 Y106.517 E5.96347
G1 X117.654 Y107.37 E.04658
G1 X33.339 Y23.054 E5.98935
G1 X33.339 Y23.542 E.02452
G1 X118.019 Y108.222 E6.01524
G1 X118.383 Y109.075 E.04658
G1 X33.339 Y24.031 E6.04113
G1 X33.339 Y24.519 E.02452
G1 X118.748 Y109.927 E6.06702
G1 X119.112 Y110.78 E.04658
G1 X33.339 Y25.007 E6.09291
G1 X33.339 Y25.495 E.02452
G1 X119.476 Y111.633 E6.1188
G1 X119.841 Y112.485 E.04658
G1 X33.339 Y25.983 E6.14469
G1 X33.339 Y26.471 E.02452
M73 P1 R259
G1 X120.205 Y113.338 E6.17058
G1 X120.57 Y114.191 E.04658
G1 X33.339 Y26.96 E6.19647
G1 X33.339 Y27.448 E.02452
G1 X120.934 Y115.043 E6.22236
G1 X121.299 Y115.896 E.04658
G1 X33.339 Y27.936 E6.24825
G1 X33.339 Y28.424 E.02452
G1 X121.663 Y116.748 E6.27413
G1 X122.028 Y117.601 E.04658
M73 P2 R259
G1 X33.339 Y28.912 E6.30002
G1 X33.339 Y29.401 E.02452
G1 X122.392 Y118.454 E6.32591
G1 X122.757 Y119.306 E.04658
G1 X33.339 Y29.889 E6.3518
G1 X33.339 Y30.377 E.02452
G1 X123.121 Y120.159 E6.37769
G1 X123.485 Y121.011 E.04658
G1 X33.339 Y30.865 E6.40358
G1 X33.339 Y31.353 E.02452
G1 X123.85 Y121.864 E6.42947
G1 X124.214 Y122.717 E.04658
G1 X33.339 Y31.841 E6.45536
G1 X33.339 Y32.33 E.02452
G1 X124.579 Y123.569 E6.48125
G1 X124.943 Y124.422 E.04658
G1 X33.339 Y32.818 E6.50714
G1 X33.339 Y33.306 E.02452
M73 P2 R258
G1 X125.308 Y125.275 E6.53302
G1 X125.672 Y126.127 E.04658
G1 X33.339 Y33.794 E6.55891
G1 X33.339 Y34.282 E.02452
G1 X126.037 Y126.98 E6.5848
G1 X126.401 Y127.832 E.04658
G1 X33.339 Y34.77 E6.61069
G1 X33.339 Y35.259 E.02452
G1 X126.766 Y128.685 E6.63658
G1 X127.13 Y129.538 E.04658
G1 X33.339 Y35.747 E6.66247
G1 X33.339 Y36.235 E.02452
G1 X127.494 Y130.39 E6.68836
G1 X127.859 Y131.243 E.04658
G1 X33.339 Y36.723 E6.71425
G1 X33.339 Y37.211 E.02452
G1 X128.223 Y132.096 E6.74014
G1 X128.588 Y132.948 E.04658
G1 X33.339 Y37.699 E6.76603
G1 X33.339 Y38.188 E.02452
G1 X128.952 Y133.801 E6.79192
G1 X129.317 Y134.653 E.04658
G1 X33.339 Y38.676 E6.8178
G1 X33.339 Y39.164 E.02452
G1 X129.681 Y135.506 E6.84369
G1 X130.046 Y136.359 E.04658
G1 X33.339 Y39.652 E6.86958
G1 X33.339 Y40.14 E.02452
M73 P2 R257
G1 X130.41 Y137.211 E6.89547
G1 X130.775 Y138.064 E.04658
G1 X33.339 Y40.628 E6.92136
G1 X33.339 Y41.117 E.02452
G1 X131.139 Y138.917 E6.94725
G1 X131.503 Y139.769 E.04658
G1 X33.339 Y41.605 E6.97314
G1 X33.339 Y42.093 E.02452
G1 X131.868 Y140.622 E6.99903
G1 X132.232 Y141.474 E.04658
G1 X33.339 Y42.581 E7.02492
G1 X33.339 Y43.069 E.02452
G1 X132.597 Y142.327 E7.05081
G1 X132.961 Y143.18 E.04658
G1 X33.339 Y43.557 E7.0767
G1 X33.339 Y44.046 E.02452
G1 X133.326 Y144.032 E7.10258
G1 X133.69 Y144.885 E.04658
G1 X33.339 Y44.534 E7.12847
G1 X33.339 Y45.022 E.02452
G1 X134.055 Y145.738 E7.15436
G1 X134.419 Y146.59 E.04658
G1 X33.339 Y45.51 E7.18025
G1 X33.339 Y45.998 E.02452
M73 P3 R256
G1 X134.784 Y147.443 E7.20614
G1 X135.148 Y148.295 E.04658
G1 X33.339 Y46.486 E7.23203
G1 X33.339 Y46.975 E.02452
G1 X135.512 Y149.148 E7.25792
G1 X135.877 Y150.001 E.04658
G1 X33.339 Y47.463 E7.28381
G1 X33.339 Y47.951 E.02452
G1 X136.241 Y150.853 E7.3097
G1 X136.606 Y151.706 E.04658
G1 X33.339 Y48.439 E7.33559
G1 X33.339 Y48.927 E.02452
G1 X136.97 Y152.559 E7.36148
G1 X137.335 Y153.411 E.04658
G1 X33.339 Y49.416 E7.38736
G1 X33.339 Y49.904 E.02452
G1 X137.699 Y154.264 E7.41325
G1 X138.064 Y155.116 E.04658
G1 X33.339 Y50.392 E7.43914
G1 X33.339 Y50.88 E.02452
G1 X138.428 Y155.969 E7.46503
G1 X138.793 Y156.822 E.04658
G1 X33.339 Y51.368 E7.49092
G1 X33.339 Y51.856 E.02452
M73 P3 R255
G1 X139.157 Y157.674 E7.51681
G1 X139.521 Y158.527 E.04658
G1 X33.339 Y52.345 E7.5427
G1 X33.339 Y52.833 E.02452
G1 X139.886 Y159.38 E7.56859
G1 X140.25 Y160.232 E.04658
G1 X33.339 Y53.321 E7.59448
G1 X33.339 Y53.809 E.02452
G1 X140.615 Y161.085 E7.62037
G1 X140.979 Y161.937 E.04658
G1 X33.339 Y54.297 E7.64626
G1 X33.339 Y54.785 E.02452
G1 X140.636 Y162.083 E7.62188
G1 X140.148 Y162.083 E.02452
G1 X33.339 Y55.274 E7.58721
G1 X33.339 Y55.762 E.02452
G1 X139.66 Y162.083 E7.55253
G1 X139.172 Y162.083 E.02452
G1 X33.339 Y56.25 E7.51785
G1 X33.339 Y56.738 E.02452
G1 X138.683 Y162.083 E7.48317
G1 X138.195 Y162.083 E.02452
G1 X33.339 Y57.226 E7.4485
G1 X33.339 Y57.714 E.02452
M73 P3 R254
G1 X137.707 Y162.083 E7.41382
G1 X137.219 Y162.083 E.02452
G1 X33.339 Y58.203 E7.37914
G1 X33.339 Y58.691 E.02452
G1 X136.731 Y162.083 E7.34447
G1 X136.243 Y162.083 E.02452
G1 X33.339 Y59.179 E7.30979
G1 X33.339 Y59.667 E.02452
G1 X135.754 Y162.083 E7.27511
G1 X135.266 Y162.083 E.02452
G1 X33.339 Y60.155 E7.24043
G1 X33.339 Y60.643 E.02452
G1 X134.778 Y162.083 E7.20576
G1 X134.29 Y162.083 E.02452
G1 X33.339 Y61.132 E7.17108
G1 X33.339 Y61.62 E.02452
M73 P4 R254
G1 X133.802 Y162.083 E7.1364
G1 X133.314 Y162.083 E.02452
G1 X33.339 Y62.108 E7.10172
G1 X33.339 Y62.596 E.02452
G1 X132.825 Y162.083 E7.06705
G1 X132.337 Y162.083 E.02452
G1 X33.339 Y63.084 E7.03237
G1 X33.339 Y63.572 E.02452
G1 X131.849 Y162.083 E6.99769
G1 X131.361 Y162.083 E.02452
M73 P4 R253
G1 X33.339 Y64.061 E6.96301
G1 X33.339 Y64.549 E.02452
G1 X130.873 Y162.083 E6.92834
G1 X130.385 Y162.083 E.02452
G1 X33.339 Y65.037 E6.89366
G1 X33.339 Y65.525 E.02452
G1 X129.896 Y162.083 E6.85898
G1 X129.408 Y162.083 E.02452
G1 X33.339 Y66.013 E6.82431
G1 X33.339 Y66.501 E.02452
G1 X128.92 Y162.083 E6.78963
G1 X128.432 Y162.083 E.02452
G1 X33.339 Y66.99 E6.75495
G1 X33.339 Y67.478 E.02452
G1 X127.944 Y162.083 E6.72027
G1 X127.456 Y162.083 E.02452
G1 X33.339 Y67.966 E6.6856
G1 X33.339 Y68.454 E.02452
G1 X126.967 Y162.083 E6.65092
G1 X126.479 Y162.083 E.02452
G1 X33.339 Y68.942 E6.61624
G1 X33.339 Y69.431 E.02452
G1 X125.991 Y162.083 E6.58156
G1 X125.503 Y162.083 E.02452
G1 X33.339 Y69.919 E6.54689
G1 X33.339 Y70.407 E.02452
M73 P4 R252
G1 X125.015 Y162.083 E6.51221
G1 X124.527 Y162.083 E.02452
G1 X33.339 Y70.895 E6.47753
G1 X33.339 Y71.383 E.02452
G1 X124.038 Y162.083 E6.44285
G1 X123.55 Y162.083 E.02452
G1 X33.339 Y71.871 E6.40818
G1 X33.339 Y72.36 E.02452
G1 X123.062 Y162.083 E6.3735
G1 X122.574 Y162.083 E.02452
G1 X33.339 Y72.848 E6.33882
G1 X33.339 Y73.336 E.02452
G1 X122.086 Y162.083 E6.30414
G1 X121.598 Y162.083 E.02452
G1 X33.339 Y73.824 E6.26947
G1 X33.339 Y74.312 E.02452
G1 X121.109 Y162.083 E6.23479
G1 X120.621 Y162.083 E.02452
G1 X33.339 Y74.8 E6.20011
G1 X33.339 Y75.289 E.02452
G1 X120.133 Y162.083 E6.16544
G1 X119.645 Y162.083 E.02452
G1 X33.339 Y75.777 E6.13076
G1 X33.339 Y76.265 E.02452
G1 X119.157 Y162.083 E6.09608
G1 X118.668 Y162.083 E.02452
G1 X33.339 Y76.753 E6.0614
G1 X33.339 Y77.241 E.02452
M73 P4 R251
G1 X118.18 Y162.083 E6.02673
G1 X117.692 Y162.083 E.02452
G1 X33.339 Y77.729 E5.99205
G1 X33.339 Y78.218 E.02452
G1 X117.204 Y162.083 E5.95737
G1 X116.716 Y162.083 E.02452
G1 X33.339 Y78.706 E5.92269
G1 X33.339 Y79.194 E.02452
G1 X116.228 Y162.083 E5.88802
G1 X115.739 Y162.083 E.02452
M73 P5 R251
G1 X33.339 Y79.682 E5.85334
G1 X33.339 Y80.17 E.02452
G1 X115.251 Y162.083 E5.81866
G1 X114.763 Y162.083 E.02452
G1 X33.339 Y80.658 E5.78398
G1 X33.339 Y81.147 E.02452
G1 X114.275 Y162.083 E5.74931
G1 X113.787 Y162.083 E.02452
G1 X33.339 Y81.635 E5.71463
G1 X33.339 Y82.123 E.02452
G1 X113.299 Y162.083 E5.67995
G1 X112.81 Y162.083 E.02452
G1 X33.339 Y82.611 E5.64528
G1 X33.339 Y83.099 E.02452
G1 X112.322 Y162.083 E5.6106
G1 X111.834 Y162.083 E.02452
G1 X33.339 Y83.587 E5.57592
G1 X33.339 Y84.076 E.02452
G1 X111.346 Y162.083 E5.54124
G1 X110.858 Y162.083 E.02452
M73 P5 R250
G1 X33.339 Y84.564 E5.50657
G1 X33.339 Y85.052 E.02452
G1 X110.37 Y162.083 E5.47189
G1 X109.881 Y162.083 E.02452
G1 X33.339 Y85.54 E5.43721
G1 X33.339 Y86.028 E.02452
G1 X109.393 Y162.083 E5.40253
G1 X108.905 Y162.083 E.02452
G1 X33.339 Y86.517 E5.36786
G1 X33.339 Y87.005 E.02452
G1 X108.417 Y162.083 E5.33318
G1 X107.929 Y162.083 E.02452
G1 X33.339 Y87.493 E5.2985
G1 X33.339 Y87.981 E.02452
G1 X107.441 Y162.083 E5.26382
G1 X106.952 Y162.083 E.02452
G1 X33.339 Y88.469 E5.22915
G1 X33.339 Y88.957 E.02452
G1 X106.464 Y162.083 E5.19447
G1 X105.976 Y162.083 E.02452
G1 X33.339 Y89.446 E5.15979
G1 X33.339 Y89.934 E.02452
G1 X105.488 Y162.083 E5.12511
G1 X105 Y162.083 E.02452
G1 X33.339 Y90.422 E5.09044
G1 X33.339 Y90.91 E.02452
G1 X104.512 Y162.083 E5.05576
G1 X104.023 Y162.083 E.02452
G1 X33.339 Y91.398 E5.02108
G1 X33.339 Y91.886 E.02452
G1 X103.535 Y162.083 E4.98641
G1 X103.047 Y162.083 E.02452
G1 X33.339 Y92.375 E4.95173
G1 X33.339 Y92.863 E.02452
M73 P5 R249
G1 X102.559 Y162.083 E4.91705
G1 X102.071 Y162.083 E.02452
G1 X33.339 Y93.351 E4.88237
G1 X33.339 Y93.839 E.02452
G1 X101.583 Y162.083 E4.8477
G1 X101.094 Y162.083 E.02452
G1 X33.339 Y94.327 E4.81302
G1 X33.339 Y94.815 E.02452
G1 X100.606 Y162.083 E4.77834
G1 X100.118 Y162.083 E.02452
G1 X33.339 Y95.304 E4.74366
G1 X33.339 Y95.792 E.02452
G1 X99.63 Y162.083 E4.70899
