; generated by PrusaSlicer 2.5.0+win64 on 2022-12-07 at 00:06:30 UTC

; 

; external perimeters extrusion width = 1.00mm
; perimeters extrusion width = 1.00mm
; infill extrusion width = 1.00mm
; solid infill extrusion width = 1.00mm
; top infill extrusion width = 1.00mm
; support material extrusion width = 1.00mm
; first layer extrusion width = 0.42mm

M73 P0 R108
M107
;TYPE:Custom
G90 ; use absolute coordinates
M83 ; extruder relative mode
M140 S60 ; set final bed temp
M104 S150 ; set temporary nozzle temp to prevent oozing during homing and auto bed leveling
G4 S10 ; allow partial nozzle warmup
G28 ; home all axisG1 Z50 F240
G1 X7.6 Y10 F3000
M104 S210 ; set final nozzle temp
M190 S60 ; wait for bed temp to stabilize
M109 S210 ; wait for nozzle temp to stabilize
G1 Z0.28 F240
G92 E0
G1 Y140 E10 F1500 ; prime the nozzle
G1 X4 F5000
G92 E0
G1 Y10 E10 F1200 ; prime the nozzle
G92 E0
G21 ; set units to millimeters
G90 ; use absolute coordinates
M83 ; use relative distances for extrusion
; Filament gcode
M107
;LAYER_CHANGE
;Z:0.35
;HEIGHT:0.35
;BEFORE_LAYER_CHANGE
G92 E0
;0.35


G1 E-1 F3600
G1 Z.35 F7800
;AFTER_LAYER_CHANGE
;0.35
G1 X156.709 Y135.027
G1 E1 F2400
;TYPE:Perimeter
;WIDTH:0.42
G1 F1800
G1 X138.803 Y123.138 E1.07867
G1 X115.27 Y109.547 E1.36384
G1 X106.106 Y104.181 E.53294
G1 X29.201 Y57.895 E4.50464
G1 X23.291 Y54.996 E.33037
G1 X23.291 Y35.927 E.95698
G1 X29.629 Y39.586 E.36726
G1 X33.675 Y41.552 E.22578
G1 X132.531 Y101.064 E5.79081
G1 X146.412 Y109.085 E.80455
G1 X156.709 Y115.922 E.62029
G1 X156.709 Y134.877 E.95127
G1 X157.054 Y135.67 F7800
;TYPE:External perimeter
G1 F1800
G1 X138.63 Y123.436 E1.10986
G1 X115.096 Y109.845 E1.36389
G1 X105.93 Y104.478 E.53309
G1 X29.023 Y58.191 E4.50475
G1 X22.946 Y55.211 E.33967
M73 P0 R107
G1 X22.946 Y35.33 E.99775
G1 X29.801 Y39.287 E.39723
G1 X33.84 Y41.249 E.22532
G1 X132.709 Y100.769 E5.79158
G1 X146.594 Y108.792 E.80478
G1 X157.054 Y115.737 E.63011
G1 X157.054 Y135.52 E.99282
G1 X156.35 Y134.959 F7800
G1 E-.7 F3600
;WIPE_START
G1 F6240
G1 X156.619 Y135.234 E-.285
;WIPE_END
G1 E-.015 F3600
G1 X154.506 Y114.583 F7800
G1 E1 F2400
;TYPE:Solid infill
;WIDTH:0.42016
G1 F1800
G1 X156.45 Y116.527 E.13806
G1 X156.45 Y117.015 E.0245
G1 X153.608 Y114.173 E.2018
G1 X152.156 Y113.209 E.08751
G1 X156.45 Y117.503 E.30491
G1 X156.45 Y117.991 E.0245
G1 X150.704 Y112.245 E.40801
G1 X149.252 Y111.281 E.08751
G1 X156.45 Y118.479 E.51112
G1 X156.45 Y118.967 E.0245
G1 X147.8 Y110.317 E.61422
G1 X146.348 Y109.353 E.08751
G1 X156.45 Y119.455 E.71733
G1 X156.45 Y119.943 E.0245
G1 X145.177 Y108.67 E.80045
G1 X144.021 Y108.002 E.06703
G1 X156.45 Y120.431 E.88253
G1 X156.45 Y120.919 E.0245
G1 X142.866 Y107.334 E.9646
G1 X141.71 Y106.666 E.06703
G1 X156.45 Y121.407 E1.04668
G1 X156.45 Y121.895 E.0245
G1 X140.554 Y105.999 E1.12876
G1 X139.398 Y105.331 E.06703
G1 X156.45 Y122.383 E1.21083
G1 X156.45 Y122.871 E.0245
G1 X138.242 Y104.663 E1.29291
G1 X137.086 Y103.995 E.06703
G1 X156.45 Y123.359 E1.37498
G1 X156.45 Y123.847 E.0245
G1 X135.93 Y103.327 E1.45706
G1 X134.774 Y102.659 E.06703
G1 X156.45 Y124.335 E1.53914
G1 X156.45 Y124.823 E.0245
G1 X133.618 Y101.991 E1.62121
G1 X132.463 Y101.323 E.06703
G1 X156.45 Y125.311 E1.70329
G1 X156.45 Y125.799 E.0245
G1 X131.24 Y100.589 E1.79007
G1 X130.014 Y99.851 E.07186
G1 X156.45 Y126.287 E1.87713
G1 X156.45 Y126.775 E.0245
G1 X128.788 Y99.113 E1.96419
G1 X127.562 Y98.375 E.07186
G1 X156.45 Y127.263 E2.05125
G1 X156.45 Y127.751 E.0245
G1 X126.336 Y97.636 E2.13831
G1 X125.11 Y96.898 E.07186
G1 X156.45 Y128.239 E2.22537
G1 X156.45 Y128.727 E.0245
G1 X123.884 Y96.16 E2.31243
G1 X122.658 Y95.422 E.07186
G1 X156.45 Y129.215 E2.39949
G1 X156.45 Y129.703 E.0245
G1 X121.432 Y94.684 E2.48655
G1 X120.206 Y93.946 E.07186
G1 X156.45 Y130.191 E2.57361
M73 P1 R107
G1 X156.45 Y130.679 E.0245
G1 X118.979 Y93.208 E2.66067
G1 X117.753 Y92.47 E.07186
G1 X156.45 Y131.167 E2.74773
G1 X156.45 Y131.655 E.0245
G1 X116.527 Y91.731 E2.83479
G1 X115.301 Y90.993 E.07186
G1 X156.45 Y132.143 E2.92185
G1 X156.45 Y132.63 E.0245
G1 X114.075 Y90.255 E3.00891
G1 X112.849 Y89.517 E.07186
G1 X156.45 Y133.118 E3.09597
G1 X156.45 Y133.606 E.0245
G1 X111.623 Y88.779 E3.18303
G1 X110.397 Y88.041 E.07186
G1 X156.45 Y134.094 E3.27009
G1 X156.45 Y134.544 E.02259
G1 X156.337 Y134.469 E.00683
G1 X109.171 Y87.303 E3.3491
G1 X107.945 Y86.565 E.07186
G1 X154.885 Y133.505 E3.33306
G1 X153.433 Y132.541 E.08751
G1 X106.719 Y85.827 E3.31702
G1 X105.493 Y85.088 E.07186
G1 X151.981 Y131.577 E3.30099
G1 X150.529 Y130.613 E.08751
M73 P1 R106
G1 X104.266 Y84.35 E3.28495
G1 X103.04 Y83.612 E.07186
G1 X149.077 Y129.649 E3.26891
G1 X147.625 Y128.685 E.08751
G1 X101.814 Y82.874 E3.25287
G1 X100.588 Y82.136 E.07186
G1 X146.173 Y127.721 E3.23683
G1 X144.721 Y126.757 E.08751
G1 X99.362 Y81.398 E3.22079
G1 X98.136 Y80.66 E.07186
G1 X143.269 Y125.793 E3.20475
G1 X141.817 Y124.829 E.08751
G1 X96.91 Y79.922 E3.18871
G1 X95.684 Y79.184 E.07186
G1 X140.365 Y123.865 E3.17267
G1 X138.918 Y122.905 E.0872
G1 X94.458 Y78.445 E3.15694
G1 X93.232 Y77.707 E.07186
G1 X137.763 Y122.238 E3.16198
G1 X136.608 Y121.571 E.06697
G1 X92.006 Y76.969 E3.16703
G1 X90.779 Y76.231 E.07186
G1 X135.453 Y120.904 E3.17208
G1 X134.298 Y120.237 E.06697
G1 X89.553 Y75.493 E3.17713
G1 X88.327 Y74.755 E.07186
G1 X133.143 Y119.57 E3.18217
G1 X131.988 Y118.903 E.06697
G1 X87.101 Y74.017 E3.18722
G1 X85.875 Y73.279 E.07186
G1 X130.833 Y118.236 E3.19227
G1 X129.678 Y117.569 E.06697
G1 X84.649 Y72.541 E3.19732
G1 X83.423 Y71.802 E.07186
G1 X128.523 Y116.902 E3.20236
G1 X127.368 Y116.235 E.06697
M73 P2 R106
G1 X82.197 Y71.064 E3.20741
G1 X80.971 Y70.326 E.07186
G1 X126.213 Y115.568 E3.21246
G1 X125.058 Y114.901 E.06697
G1 X79.745 Y69.588 E3.21751
G1 X78.519 Y68.85 E.07186
G1 X123.903 Y114.234 E3.22255
G1 X122.748 Y113.567 E.06697
G1 X77.292 Y68.112 E3.2276
G1 X76.066 Y67.374 E.07186
G1 X121.593 Y112.9 E3.23265
G1 X120.438 Y112.233 E.06697
G1 X74.84 Y66.636 E3.2377
G1 X73.614 Y65.897 E.07186
G1 X119.283 Y111.566 E3.24274
G1 X118.128 Y110.899 E.06697
G1 X72.388 Y65.159 E3.24779
G1 X71.162 Y64.421 E.07186
M73 P2 R105
G1 X116.973 Y110.232 E3.25284
G1 X115.817 Y109.565 E.06697
G1 X69.936 Y63.683 E3.25788
G1 X68.71 Y62.945 E.07186
G1 X114.648 Y108.883 E3.26192
G1 X113.471 Y108.194 E.0685
G1 X67.484 Y62.207 E3.26538
G1 X66.258 Y61.469 E.07186
G1 X112.294 Y107.505 E3.26884
G1 X111.116 Y106.815 E.0685
G1 X65.032 Y60.731 E3.2723
G1 X63.806 Y59.993 E.07186
G1 X109.939 Y106.126 E3.27576
G1 X108.761 Y105.436 E.0685
G1 X62.579 Y59.254 E3.27922
G1 X61.353 Y58.516 E.07186
G1 X107.584 Y104.747 E3.28268
G1 X106.407 Y104.058 E.0685
G1 X60.127 Y57.778 E3.28614
G1 X58.901 Y57.04 E.07186
G1 X105.188 Y103.327 E3.28667
G1 X103.962 Y102.589 E.07182
G1 X57.675 Y56.302 E3.2867
G1 X56.449 Y55.564 E.07186
G1 X102.737 Y101.852 E3.28673
G1 X101.511 Y101.114 E.07182
G1 X55.223 Y54.826 E3.28676
G1 X53.997 Y54.088 E.07186
G1 X100.285 Y100.376 E3.28679
G1 X99.06 Y99.639 E.07182
G1 X52.771 Y53.35 E3.28683
G1 X51.545 Y52.611 E.07186
G1 X97.834 Y98.901 E3.28686
G1 X96.609 Y98.163 E.07182
G1 X50.319 Y51.873 E3.28689
G1 X49.092 Y51.135 E.07186
G1 X95.383 Y97.426 E3.28692
G1 X94.157 Y96.688 E.07182
G1 X47.866 Y50.397 E3.28695
G1 X46.64 Y49.659 E.07186
M73 P3 R105
G1 X92.932 Y95.95 E3.28698
G1 X91.706 Y95.213 E.07182
G1 X45.414 Y48.921 E3.28702
G1 X44.188 Y48.183 E.07186
G1 X90.48 Y94.475 E3.28705
G1 X89.255 Y93.737 E.07182
G1 X42.962 Y47.445 E3.28708
G1 X41.736 Y46.707 E.07186
G1 X88.029 Y93 E3.28711
G1 X86.803 Y92.262 E.07182
G1 X40.51 Y45.968 E3.28714
G1 X39.284 Y45.23 E.07186
M73 P3 R104
G1 X85.578 Y91.524 E3.28718
G1 X84.352 Y90.787 E.07182
G1 X38.058 Y44.492 E3.28721
G1 X36.832 Y43.754 E.07186
G1 X83.127 Y90.049 E3.28724
G1 X81.901 Y89.311 E.07182
G1 X35.606 Y43.016 E3.28727
G1 X34.379 Y42.278 E.07186
G1 X80.675 Y88.574 E3.2873
G1 X79.45 Y87.836 E.07182
G1 X33.243 Y41.63 E3.28095
G1 X32.294 Y41.168 E.053
G1 X78.224 Y87.098 E3.26133
G1 X76.998 Y86.361 E.07182
G1 X31.345 Y40.707 E3.24172
G1 X30.395 Y40.245 E.053
G1 X75.773 Y85.623 E3.2221
G1 X74.547 Y84.885 E.07182
G1 X29.434 Y39.772 E3.20335
G1 X28.279 Y39.106 E.06692
G1 X73.321 Y84.148 E3.19828
G1 X72.096 Y83.41 E.07182
G1 X27.125 Y38.439 E3.19321
G1 X25.971 Y37.773 E.06692
G1 X70.87 Y82.672 E3.18814
G1 X69.645 Y81.935 E.07182
G1 X24.817 Y37.107 E3.18307
G1 X23.662 Y36.44 E.06692
G1 X68.419 Y81.197 E3.17801
G1 X67.193 Y80.459 E.07182
G1 X23.55 Y36.816 E3.09898
G1 X23.55 Y37.304 E.0245
G1 X65.968 Y79.722 E3.01195
G1 X64.742 Y78.984 E.07182
G1 X23.55 Y37.792 E2.92492
G1 X23.55 Y38.28 E.0245
G1 X63.516 Y78.246 E2.83789
G1 X62.291 Y77.509 E.07182
G1 X23.55 Y38.768 E2.75086
G1 X23.55 Y39.256 E.0245
G1 X61.065 Y76.771 E2.66384
G1 X59.839 Y76.033 E.07182
G1 X23.55 Y39.744 E2.57681
G1 X23.55 Y40.232 E.0245
G1 X58.614 Y75.296 E2.48978
G1 X57.388 Y74.558 E.07182
G1 X23.55 Y40.72 E2.40275
G1 X23.55 Y41.207 E.0245
M73 P4 R104
G1 X56.162 Y73.82 E2.31572
G1 X54.937 Y73.083 E.07182
G1 X23.55 Y41.695 E2.22869
G1 X23.55 Y42.183 E.0245
G1 X53.711 Y72.345 E2.14167
G1 X52.486 Y71.607 E.07182
G1 X23.55 Y42.671 E2.05464
G1 X23.55 Y43.159 E.0245
G1 X51.26 Y70.87 E1.96761
G1 X50.034 Y70.132 E.07182
G1 X23.55 Y43.647 E1.88058
G1 X23.55 Y44.135 E.0245
G1 X48.809 Y69.394 E1.79355
G1 X47.583 Y68.657 E.07182
M73 P4 R103
G1 X23.55 Y44.623 E1.70652
G1 X23.55 Y45.111 E.0245
G1 X46.357 Y67.919 E1.6195
G1 X45.132 Y67.181 E.07182
G1 X23.55 Y45.599 E1.53247
G1 X23.55 Y46.087 E.0245
G1 X43.906 Y66.444 E1.44544
G1 X42.68 Y65.706 E.07182
G1 X23.55 Y46.575 E1.35841
G1 X23.55 Y47.063 E.0245
G1 X41.455 Y64.968 E1.27138
G1 X40.229 Y64.231 E.07182
G1 X23.55 Y47.551 E1.18436
G1 X23.55 Y48.039 E.0245
G1 X39.004 Y63.493 E1.09733
G1 X37.778 Y62.755 E.07182
G1 X23.55 Y48.527 E1.0103
G1 X23.55 Y49.015 E.0245
G1 X36.552 Y62.018 E.92327
G1 X35.327 Y61.28 E.07182
G1 X23.55 Y49.503 E.83624
G1 X23.55 Y49.991 E.0245
G1 X34.101 Y60.542 E.74921
G1 X32.875 Y59.805 E.07182
G1 X23.55 Y50.479 E.66219
G1 X23.55 Y50.967 E.0245
G1 X31.65 Y59.067 E.57516
G1 X30.424 Y58.329 E.07182
G1 X23.55 Y51.455 E.48813
G1 X23.55 Y51.943 E.0245
G1 X29.227 Y57.621 E.40316
G1 X28.269 Y57.151 E.05358
G1 X23.55 Y52.431 E.33514
G1 X23.55 Y52.919 E.0245
G1 X27.311 Y56.681 E.26711
G1 X26.353 Y56.211 E.05358
G1 X23.55 Y53.407 E.19908
G1 X23.55 Y53.895 E.0245
G1 X25.395 Y55.74 E.13106
G1 X24.437 Y55.27 E.05358
G1 X23.394 Y54.228 E.07405
M106 S255
;LAYER_CHANGE
;Z:0.85
;HEIGHT:0.5
;BEFORE_LAYER_CHANGE
G92 E0
;0.85


G1 E-.7 F3600
;WIPE_START
G1 F6240
G1 X23.762 Y54.595 E-.285
;WIPE_END
G1 E-.015 F3600
G1 Z.85 F7800
;AFTER_LAYER_CHANGE
;0.85
M104 S205 ; set temperature
G1 X155.871 Y133.748
G1 E1 F2400
;TYPE:Perimeter
;WIDTH:1
G1 F2016.357
G1 X139.178 Y122.666 E3.71824
G1 X114.786 Y108.587 E5.22637
G1 X112.628 Y107.311 E.46511
G1 X107.466 Y104.31 E1.10806
G1 X105.628 Y103.217 E.39685
G1 X29.643 Y57.484 E16.45766
G1 X24.129 Y54.775 E1.13996
G1 X24.129 Y37.737 E3.16181
G1 X28.655 Y40.35 E.96989
G1 X33.294 Y42.606 E.95718
G1 X131.192 Y101.541 E21.20488
G1 X145.911 Y110.047 E3.15483
G1 X155.871 Y116.66 E2.21852
G1 X155.871 Y133.598 E3.14326
G1 E-.7 F3600
;WIPE_START
G1 F6240
G1 X155.436 Y133.313 E-.285
;WIPE_END
G1 E-.015 F3600
G1 X156.764 Y135.412 F7800
G1 E1 F2400
;TYPE:External perimeter
G1 F1800
G1 X138.731 Y123.44 E4.01672
G1 X114.335 Y109.358 E5.22725
G1 X112.183 Y108.085 E.46411
G1 X107.014 Y105.08 E1.10952
G1 X105.17 Y103.983 E.39811
G1 X29.182 Y58.248 E16.4581
G1 X23.236 Y55.332 E1.22902
G1 X23.236 Y36.191 E3.552
G1 X29.102 Y39.577 E1.2568
G1 X33.72 Y41.82 E.9528
G1 X131.652 Y100.776 E21.21233
G1 X146.382 Y109.288 E3.15701
G1 X156.764 Y116.181 E2.31253
G1 X156.764 Y135.262 E3.54097
G1 X156.059 Y134.703 F7800
G1 E-.7 F3600
;WIPE_START
G1 F6240
G1 X156.329 Y134.977 E-.285
;WIPE_END
G1 E-.015 F3600
G1 X155.603 Y131.478 F7800
G1 E1 F2400
;TYPE:Solid infill
;WIDTH:1.00206
G1 F1200
G1 X154.829 Y132.253 E.20366
G1 X154.069 Y131.748 E.16979
G1 X155.202 Y130.615 E.29805
G1 X155.202 Y129.349 E.23536
G1 X153.308 Y131.243 E.49812
G1 X152.547 Y130.738 E.16979
G1 X155.202 Y128.084 E.69818
G1 X155.202 Y126.819 E.23536
G1 X151.787 Y130.233 E.89824
G1 X151.026 Y129.728 E.16979
G1 X155.202 Y125.553 E1.0983
G1 X155.202 Y124.288 E.23536
G1 X150.266 Y129.224 E1.29836
G1 X149.505 Y128.719 E.16979
G1 X155.202 Y123.022 E1.49842
G1 X155.202 Y121.757 E.23536
G1 X148.745 Y128.214 E1.69848
G1 X147.984 Y127.709 E.16979
G1 X155.202 Y120.492 E1.89854
G1 X155.202 Y119.226 E.23536
G1 X147.224 Y127.204 E2.0986
G1 X146.463 Y126.7 E.16979
G1 X155.202 Y117.961 E2.29866
G1 X155.202 Y117.019 E.17521
G1 X155.007 Y116.89 E.04339
G1 X145.702 Y126.195 E2.4476
G1 X144.942 Y125.69 E.16979
G1 X154.247 Y116.385 E2.44762
G1 X153.486 Y115.88 E.16979
G1 X144.181 Y125.185 E2.44764
G1 X143.421 Y124.68 E.16979
G1 X152.726 Y115.375 E2.44767
G1 X151.965 Y114.87 E.16979
G1 X142.66 Y124.175 E2.44769
G1 X141.9 Y123.671 E.16979
G1 X151.205 Y114.365 E2.44771
G1 X150.444 Y113.86 E.16979
G1 X141.139 Y123.166 E2.44774
G1 X140.378 Y122.661 E.16979
G1 X149.684 Y113.355 E2.44776
G1 X148.924 Y112.85 E.16979
G1 X139.618 Y122.156 E2.44778
G1 X138.821 Y121.688 E.17194
G1 X148.163 Y112.346 E2.45735
G1 X147.403 Y111.841 E.16979
G1 X138.019 Y121.224 E2.46835
G1 X137.216 Y120.761 E.1723
G1 X146.642 Y111.336 E2.47935
G1 X145.882 Y110.831 E.16979
G1 X136.414 Y120.298 E2.49036
G1 X135.612 Y119.835 E.1723
G1 X145.097 Y110.35 E2.49508
G1 X144.295 Y109.886 E.17228
G1 X134.81 Y119.372 E2.49517
G1 X134.007 Y118.909 E.1723
G1 X143.493 Y109.423 E2.49526
G1 X142.691 Y108.959 E.17228
G1 X133.205 Y118.446 E2.49534
G1 X132.403 Y117.983 E.1723
M73 P5 R103
G1 X141.889 Y108.496 E2.49543
G1 X141.087 Y108.033 E.17228
G1 X131.6 Y117.52 E2.49552
G1 X130.798 Y117.057 E.1723
G1 X140.285 Y107.569 E2.49561
G1 X139.484 Y107.106 E.17228
G1 X129.996 Y116.594 E2.49569
G1 X129.193 Y116.13 E.1723
G1 X138.682 Y106.642 E2.49578
G1 X137.88 Y106.179 E.17228
G1 X128.391 Y115.667 E2.49587
G1 X127.589 Y115.204 E.1723
G1 X137.078 Y105.716 E2.49596
M73 P5 R102
G1 X136.276 Y105.252 E.17228
G1 X126.787 Y114.741 E2.49604
G1 X125.984 Y114.278 E.1723
G1 X135.474 Y104.789 E2.49613
G1 X134.672 Y104.325 E.17228
G1 X125.182 Y113.815 E2.49622
G1 X124.38 Y113.352 E.1723
G1 X133.87 Y103.862 E2.49631
G1 X133.068 Y103.398 E.17228
G1 X123.577 Y112.889 E2.4964
G1 X122.775 Y112.426 E.1723
G1 X132.266 Y102.935 E2.49648
G1 X131.464 Y102.472 E.17228
G1 X121.973 Y111.963 E2.49657
G1 X121.17 Y111.5 E.1723
G1 X130.665 Y102.005 E2.4974
G1 X129.875 Y101.53 E.17148
G1 X120.368 Y111.037 E2.50066
G1 X119.566 Y110.573 E.1723
G1 X129.085 Y101.054 E2.50393
G1 X128.295 Y100.579 E.17148
G1 X118.764 Y110.11 E2.5072
G1 X117.961 Y109.647 E.1723
G1 X127.505 Y100.103 E2.51047
G1 X126.715 Y99.628 E.17148
G1 X117.159 Y109.184 E2.51374
G1 X116.357 Y108.721 E.1723
G1 X125.925 Y99.152 E2.51701
G1 X125.136 Y98.677 E.17148
G1 X115.554 Y108.258 E2.52027
G1 X114.755 Y107.792 E.17208
G1 X124.346 Y98.201 E2.52267
G1 X123.556 Y97.726 E.17148
G1 X113.96 Y107.321 E2.52404
G1 X113.165 Y106.851 E.17182
G1 X122.766 Y97.25 E2.52541
G1 X121.976 Y96.775 E.17148
G1 X112.366 Y106.385 E2.52779
G1 X111.566 Y105.919 E.17216
G1 X121.186 Y96.299 E2.5305
G1 X120.396 Y95.824 E.17148
G1 X110.766 Y105.454 E2.53322
G1 X109.966 Y104.989 E.17216
G1 X119.606 Y95.348 E2.53594
G1 X118.817 Y94.873 E.17148
G1 X109.165 Y104.524 E2.53866
G1 X108.365 Y104.059 E.17216
G1 X118.027 Y94.397 E2.54137
G1 X117.237 Y93.922 E.17148
G1 X107.567 Y103.591 E2.54356
G1 X106.774 Y103.12 E.17172
G1 X116.447 Y93.446 E2.54451
G1 X115.657 Y92.971 E.17148
G1 X105.98 Y102.648 E2.54546
G1 X105.19 Y102.172 E.17149
G1 X114.867 Y92.495 E2.54549
G1 X114.077 Y92.02 E.17148
G1 X104.4 Y101.697 E2.54551
G1 X103.61 Y101.221 E.17149
G1 X113.287 Y91.544 E2.54553
G1 X112.498 Y91.069 E.17148
G1 X102.82 Y100.746 E2.54554
G1 X102.03 Y100.27 E.17149
G1 X111.708 Y90.593 E2.54556
G1 X110.918 Y90.118 E.17148
G1 X101.24 Y99.795 E2.54558
G1 X100.45 Y99.32 E.17149
G1 X110.128 Y89.642 E2.5456
G1 X109.338 Y89.167 E.17148
G1 X99.66 Y98.844 E2.54561
G1 X98.871 Y98.369 E.17149
G1 X108.548 Y88.691 E2.54563
G1 X107.758 Y88.216 E.17148
