; generated by PrusaSlicer 2.5.0+win64 on 2022-12-07 at 00:06:33 UTC

; 

; external perimeters extrusion width = 1.00mm
; perimeters extrusion width = 1.00mm
; infill extrusion width = 1.00mm
; solid infill extrusion width = 1.00mm
; top infill extrusion width = 1.00mm
; support material extrusion width = 1.00mm
; first layer extrusion width = 0.42mm

M73 P0 R142
M107
;TYPE:Custom
G90 ; use absolute coordinates
M83 ; extruder relative mode
M140 S60 ; set final bed temp
M104 S150 ; set temporary nozzle temp to prevent oozing during homing and auto bed leveling
G4 S10 ; allow partial nozzle warmup
G28 ; home all axisG1 Z50 F240
G1 X7.6 Y10 F3000
M104 S210 ; set final nozzle temp
M190 S60 ; wait for bed temp to stabilize
M109 S210 ; wait for nozzle temp to stabilize
G1 Z0.28 F240
G92 E0
G1 Y140 E10 F1500 ; prime the nozzle
G1 X4 F5000
G92 E0
G1 Y10 E10 F1200 ; prime the nozzle
G92 E0
G21 ; set units to millimeters
G90 ; use absolute coordinates
M83 ; use relative distances for extrusion
; Filament gcode
M107
;LAYER_CHANGE
;Z:0.35
;HEIGHT:0.35
;BEFORE_LAYER_CHANGE
G92 E0
;0.35


G1 E-1 F3600
M73 P0 R141
G1 Z.35 F7800
;AFTER_LAYER_CHANGE
;0.35
G1 X45.738 Y31.975
G1 E1 F2400
;TYPE:Support material
;WIDTH:0.42
G1 F1800
G1 X18.91 Y31.975 E1.34642
G1 X18.91 Y22.11 E.49509
G1 X45.738 Y22.11 E1.34642
G1 X45.738 Y31.923 E.4925
G1 X45.164 Y31.82 F7800
G1 F1800
G1 X45.164 Y22.42 E.47173
G1 X44.781 Y22.42 E.01923
G1 X44.781 Y31.665 E.46394
G1 X44.398 Y31.665 E.01923
G1 X44.398 Y22.42 E.46394
G1 X44.015 Y22.42 E.01923
G1 X44.015 Y31.665 E.46394
G1 X43.632 Y31.665 E.01923
G1 X43.632 Y22.42 E.46394
G1 X43.248 Y22.42 E.01923
G1 X43.248 Y31.665 E.46394
G1 X42.865 Y31.665 E.01923
G1 X42.865 Y22.42 E.46394
G1 X42.482 Y22.42 E.01923
G1 X42.482 Y31.665 E.46394
G1 X42.099 Y31.665 E.01923
G1 X42.099 Y22.42 E.46394
G1 X41.716 Y22.42 E.01923
G1 X41.716 Y31.665 E.46394
G1 X41.332 Y31.665 E.01923
G1 X41.332 Y22.42 E.46394
G1 X40.949 Y22.42 E.01923
G1 X40.949 Y31.665 E.46394
G1 X40.566 Y31.665 E.01923
G1 X40.566 Y22.42 E.46394
G1 X40.183 Y22.42 E.01923
G1 X40.183 Y31.665 E.46394
G1 X39.799 Y31.665 E.01923
G1 X39.799 Y22.42 E.46394
G1 X39.416 Y22.42 E.01923
G1 X39.416 Y31.665 E.46394
G1 X39.033 Y31.665 E.01923
G1 X39.033 Y22.42 E.46394
G1 X38.65 Y22.42 E.01923
G1 X38.65 Y31.665 E.46394
G1 X38.267 Y31.665 E.01923
G1 X38.267 Y22.42 E.46394
G1 X37.883 Y22.42 E.01923
G1 X37.883 Y31.665 E.46394
G1 X37.5 Y31.665 E.01923
G1 X37.5 Y22.42 E.46394
G1 X37.117 Y22.42 E.01923
G1 X37.117 Y31.665 E.46394
G1 X36.734 Y31.665 E.01923
G1 X36.734 Y22.42 E.46394
G1 X36.351 Y22.42 E.01923
G1 X36.351 Y31.665 E.46394
G1 X35.967 Y31.665 E.01923
G1 X35.967 Y22.42 E.46394
G1 X35.584 Y22.42 E.01923
G1 X35.584 Y31.665 E.46394
G1 X35.201 Y31.665 E.01923
G1 X35.201 Y22.42 E.46394
G1 X34.818 Y22.42 E.01923
G1 X34.818 Y31.665 E.46394
G1 X34.435 Y31.665 E.01923
G1 X34.435 Y22.42 E.46394
G1 X34.051 Y22.42 E.01923
G1 X34.051 Y31.665 E.46394
G1 X33.668 Y31.665 E.01923
G1 X33.668 Y22.42 E.46394
G1 X33.285 Y22.42 E.01923
G1 X33.285 Y31.665 E.46394
G1 X32.902 Y31.665 E.01923
G1 X32.902 Y22.42 E.46394
G1 X32.518 Y22.42 E.01923
G1 X32.518 Y31.665 E.46394
G1 X32.135 Y31.665 E.01923
G1 X32.135 Y22.42 E.46394
G1 X31.752 Y22.42 E.01923
G1 X31.752 Y31.665 E.46394
G1 X31.369 Y31.665 E.01923
G1 X31.369 Y22.42 E.46394
G1 X30.986 Y22.42 E.01923
G1 X30.986 Y31.665 E.46394
G1 X30.602 Y31.665 E.01923
G1 X30.602 Y22.42 E.46394
G1 X30.219 Y22.42 E.01923
G1 X30.219 Y31.665 E.46394
G1 X29.836 Y31.665 E.01923
G1 X29.836 Y22.42 E.46394
G1 X29.453 Y22.42 E.01923
G1 X29.453 Y31.665 E.46394
G1 X29.07 Y31.665 E.01923
G1 X29.07 Y22.42 E.46394
G1 X28.686 Y22.42 E.01923
G1 X28.686 Y31.665 E.46394
G1 X28.303 Y31.665 E.01923
G1 X28.303 Y22.42 E.46394
G1 X27.92 Y22.42 E.01923
G1 X27.92 Y31.665 E.46394
G1 X27.537 Y31.665 E.01923
G1 X27.537 Y22.42 E.46394
G1 X27.154 Y22.42 E.01923
G1 X27.154 Y31.665 E.46394
G1 X26.77 Y31.665 E.01923
G1 X26.77 Y22.42 E.46394
G1 X26.387 Y22.42 E.01923
G1 X26.387 Y31.665 E.46394
G1 X26.004 Y31.665 E.01923
G1 X26.004 Y22.42 E.46394
G1 X25.621 Y22.42 E.01923
G1 X25.621 Y31.665 E.46394
G1 X25.238 Y31.665 E.01923
G1 X25.238 Y22.42 E.46394
G1 X24.854 Y22.42 E.01923
G1 X24.854 Y31.665 E.46394
G1 X24.471 Y31.665 E.01923
G1 X24.471 Y22.42 E.46394
G1 X24.088 Y22.42 E.01923
G1 X24.088 Y31.665 E.46394
G1 X23.705 Y31.665 E.01923
G1 X23.705 Y22.42 E.46394
G1 X23.321 Y22.42 E.01923
G1 X23.321 Y31.665 E.46394
G1 X22.938 Y31.665 E.01923
G1 X22.938 Y22.42 E.46394
G1 X22.555 Y22.42 E.01923
G1 X22.555 Y31.665 E.46394
G1 X22.172 Y31.665 E.01923
G1 X22.172 Y22.42 E.46394
G1 X21.789 Y22.42 E.01923
G1 X21.789 Y31.665 E.46394
G1 X21.405 Y31.665 E.01923
G1 X21.405 Y22.42 E.46394
G1 X21.022 Y22.42 E.01923
G1 X21.022 Y31.665 E.46394
G1 X20.639 Y31.665 E.01923
G1 X20.639 Y22.42 E.46394
G1 X20.256 Y22.42 E.01923
G1 X20.256 Y31.665 E.46394
G1 X19.873 Y31.665 E.01923
G1 X19.873 Y22.42 E.46394
G1 X19.489 Y22.42 E.01923
G1 X19.489 Y31.82 E.47173
M106 S255
;LAYER_CHANGE
;Z:1.09314
;HEIGHT:0.743137
;BEFORE_LAYER_CHANGE
G92 E0
;1.09314


G1 E-.7 F3600
;WIPE_START
G1 F6240
G1 X19.489 Y31.3 E-.285
;WIPE_END
G1 E-.015 F3600
G1 Z1.093 F7800
;AFTER_LAYER_CHANGE
;1.09314
M104 S205 ; set temperature
G1 X42.449 Y28.685
G1 E1 F2400
;WIDTH:1
G1 F900
G1 X22.2 Y28.685 E5.2584
G1 X22.2 Y25.4 E.85318
G1 X42.449 Y25.4 E5.2584
G1 X42.449 Y28.559 E.82044
;LAYER_CHANGE
;Z:1.35
;HEIGHT:0.256863
;BEFORE_LAYER_CHANGE
G92 E0
;1.35


G1 E-.7 F3600
;WIPE_START
G1 F6240
G1 X42.449 Y28.039 E-.285
;WIPE_END
G1 E-.015 F3600
G1 Z1.35 F7800
;AFTER_LAYER_CHANGE
;1.35
G1 X157.084 Y26.029
G1 E1 F2400
;TYPE:External perimeter
;WIDTH:0.957301
;HEIGHT:0.5
G1 F900
G1 X157.03 Y26.121 E.01877
G1 X156.924 Y26.121 E.01877
G1 X156.871 Y26.029 E.01877
G1 X156.924 Y25.937 E.01877
G1 X157.03 Y25.937 E.01877
;LAYER_CHANGE
;Z:1.83627
;HEIGHT:0.486274
;BEFORE_LAYER_CHANGE
G92 E0
;1.83627


G1 E-.7 F3600
;WIPE_START
G1 F6240
G1 X156.924 Y25.937 E-.05823
G1 X156.871 Y26.029 E-.05823
G1 X156.924 Y26.121 E-.05823
G1 X157.03 Y26.121 E-.05823
G1 X157.078 Y26.038 E-.05207
;WIPE_END
G1 E-.015 F3600
G1 Z1.836 F7800
;AFTER_LAYER_CHANGE
;1.83627
G1 X42.449 Y28.559
G1 E1 F2400
;TYPE:Support material
;WIDTH:1
;HEIGHT:0.743137
G1 F900
G1 X42.449 Y25.4 E.82044
G1 X22.2 Y25.4 E5.2584
G1 X22.2 Y28.685 E.85318
G1 X42.449 Y28.685 E5.2584
;LAYER_CHANGE
;Z:1.85
;HEIGHT:0.0137255
;BEFORE_LAYER_CHANGE
G92 E0
;1.85


G1 E-.7 F3600
;WIPE_START
G1 F6240
G1 X41.929 Y28.685 E-.285
;WIPE_END
G1 E-.015 F3600
G1 Z1.85 F7800
;AFTER_LAYER_CHANGE
;1.85
G1 X156.939 Y26.169
G1 E1 F2400
;TYPE:External perimeter
;WIDTH:0.957301
;HEIGHT:0.5
G1 F900
G1 X156.886 Y26.261 E.01877
G1 X156.78 Y26.261 E.01877
G1 X156.726 Y26.169 E.01877
G1 X156.78 Y26.077 E.01877
G1 X156.886 Y26.077 E.01877
;LAYER_CHANGE
;Z:2.35
;HEIGHT:0.5
;BEFORE_LAYER_CHANGE
G92 E0
;2.35


G1 E-.7 F3600
;WIPE_START
G1 F6240
G1 X156.78 Y26.077 E-.05823
G1 X156.726 Y26.169 E-.05823
G1 X156.78 Y26.261 E-.05823
G1 X156.886 Y26.261 E-.05823
G1 X156.933 Y26.179 E-.05207
;WIPE_END
G1 E-.015 F3600
G1 Z2.35 F7800
;AFTER_LAYER_CHANGE
;2.35
G1 X156.753 Y26.201
G1 E1 F2400
;WIDTH:1.15187
G1 F900
G1 X156.623 Y26.201 E.02835
G1 X156.557 Y26.314 E.02835
G1 X156.623 Y26.427 E.02835
G1 X156.753 Y26.427 E.02835
G1 X156.819 Y26.314 E.02835
;LAYER_CHANGE
;Z:2.57941
;HEIGHT:0.229412
;BEFORE_LAYER_CHANGE
G92 E0
;2.57941


G1 E-.7 F3600
;WIPE_START
G1 F6240
G1 X156.753 Y26.427 E-.07156
G1 X156.623 Y26.427 E-.07156
G1 X156.557 Y26.314 E-.07156
G1 X156.622 Y26.203 E-.07031
;WIPE_END
G1 E-.015 F3600
G1 Z2.579 F7800
;AFTER_LAYER_CHANGE
;2.57941
G1 X42.449 Y28.559
G1 E1 F2400
;TYPE:Support material
;WIDTH:1
;HEIGHT:0.743137
G1 F900
G1 X42.449 Y25.4 E.82044
G1 X22.2 Y25.4 E5.2584
G1 X22.2 Y28.685 E.85318
G1 X42.449 Y28.685 E5.2584
;LAYER_CHANGE
;Z:2.85
;HEIGHT:0.270588
;BEFORE_LAYER_CHANGE
G92 E0
;2.85


G1 E-.7 F3600
;WIPE_START
G1 F6240
G1 X41.929 Y28.685 E-.285
;WIPE_END
G1 E-.015 F3600
G1 Z2.85 F7800
;AFTER_LAYER_CHANGE
;2.85
G1 X156.709 Y26.46
G1 E1 F2400
;TYPE:External perimeter
;WIDTH:1.44496
;HEIGHT:0.5
G1 F900
G1 X156.625 Y26.605 E.04649
G1 X156.458 Y26.605 E.04649
G1 X156.374 Y26.46 E.04649
G1 X156.458 Y26.316 E.04649
G1 X156.625 Y26.316 E.04649
;LAYER_CHANGE
;Z:3.32255
;HEIGHT:0.472549
;BEFORE_LAYER_CHANGE
G92 E0
;3.32255


G1 E-.7 F3600
;WIPE_START
G1 F6240
G1 X156.458 Y26.316 E-.09164
G1 X156.374 Y26.46 E-.09164
G1 X156.458 Y26.605 E-.09164
G1 X156.476 Y26.605 E-.01007
;WIPE_END
G1 E-.015 F3600
G1 Z3.323 F7800
;AFTER_LAYER_CHANGE
;3.32255
G1 X42.449 Y28.559
G1 E1 F2400
;TYPE:Support material
;WIDTH:1
;HEIGHT:0.743137
G1 F900
G1 X42.449 Y25.4 E.82044
G1 X22.2 Y25.4 E5.2584
G1 X22.2 Y28.685 E.85318
G1 X42.449 Y28.685 E5.2584
;LAYER_CHANGE
;Z:3.35
;HEIGHT:0.0274508
;BEFORE_LAYER_CHANGE
G92 E0
;3.35


G1 E-.7 F3600
;WIPE_START
G1 F6240
G1 X41.929 Y28.685 E-.285
;WIPE_END
G1 E-.015 F3600
G1 Z3.35 F7800
;AFTER_LAYER_CHANGE
;3.35
G1 X156.803 Y26.199
G1 E1 F2400
;TYPE:External perimeter
;WIDTH:0.922672
;HEIGHT:0.5
G1 F900
G1 X156.803 Y27.385 E.20105
G1 X155.091 Y26.199 E.353
G1 X156.653 Y26.199 E.26473
G1 X155.937 Y25.699 F7800
;LAYER_CHANGE
;Z:3.85
;HEIGHT:0.5
;BEFORE_LAYER_CHANGE
G92 E0
;3.85


G1 E-.7 F3600
;WIPE_START
G1 F6240
G1 X156.718 Y26.715 E-.285
;WIPE_END
G1 E-.015 F3600
G1 Z3.85 F7800
;AFTER_LAYER_CHANGE
;3.85
G1 X156.729 Y26.273
G1 E1 F2400
;WIDTH:1.06921
G1 F900
G1 X156.729 Y27.672 E.27981
G1 X154.71 Y26.273 E.49129
G1 X156.579 Y26.273 E.37383
G1 X155.863 Y25.773 F7800
;LAYER_CHANGE
;Z:4.06569
;HEIGHT:0.215686
;BEFORE_LAYER_CHANGE
G92 E0
;4.06569


G1 E-.7 F3600
;WIPE_START
G1 F6240
G1 X156.635 Y26.79 E-.285
;WIPE_END
G1 E-.015 F3600
G1 Z4.066 F7800
;AFTER_LAYER_CHANGE
;4.06569
G1 X42.449 Y28.559
G1 E1 F2400
;TYPE:Support material
;WIDTH:1
;HEIGHT:0.743137
M73 P0 R140
G1 F900
G1 X42.449 Y25.4 E.82044
G1 X22.2 Y25.4 E5.2584
G1 X22.2 Y28.685 E.85318
G1 X42.449 Y28.685 E5.2584
;LAYER_CHANGE
;Z:4.35
;HEIGHT:0.284314
;BEFORE_LAYER_CHANGE
G92 E0
;4.35


G1 E-.7 F3600
;WIPE_START
G1 F6240
G1 X41.929 Y28.685 E-.285
;WIPE_END
G1 E-.015 F3600
G1 Z4.35 F7800
;AFTER_LAYER_CHANGE
;4.35
G1 X156.656 Y26.346
G1 E1 F2400
;TYPE:External perimeter
;WIDTH:1.21576
;HEIGHT:0.5
G1 F900
G1 X156.656 Y27.958 E.37156
G1 X154.329 Y26.346 E.65239
G1 X156.506 Y26.346 E.50168
G1 X155.79 Y25.846 F7800
;LAYER_CHANGE
;Z:4.80882
;HEIGHT:0.458824
;BEFORE_LAYER_CHANGE
G92 E0
;4.80882


G1 E-.7 F3600
;WIPE_START
G1 F6240
G1 X156.554 Y26.864 E-.285
;WIPE_END
G1 E-.015 F3600
G1 Z4.809 F7800
;AFTER_LAYER_CHANGE
;4.80882
G1 X42.449 Y28.559
G1 E1 F2400
;TYPE:Support material
;WIDTH:1
;HEIGHT:0.743137
G1 F900
G1 X42.449 Y25.4 E.82044
G1 X22.2 Y25.4 E5.2584
G1 X22.2 Y28.685 E.85318
G1 X42.449 Y28.685 E5.2584
;LAYER_CHANGE
;Z:4.85
;HEIGHT:0.0411763
;BEFORE_LAYER_CHANGE
G92 E0
;4.85


G1 E-.7 F3600
;WIPE_START
G1 F6240
G1 X41.929 Y28.685 E-.285
;WIPE_END
G1 E-.015 F3600
G1 Z4.85 F7800
;AFTER_LAYER_CHANGE
;4.85
G1 X156.583 Y26.419
G1 E1 F2400
;TYPE:External perimeter
;WIDTH:1.3623
;HEIGHT:0.5
G1 F900
G1 X156.583 Y28.245 E.4763
G1 X153.948 Y26.419 E.83629
G1 X156.433 Y26.419 E.64826
G1 X155.717 Y25.919 F7800
;LAYER_CHANGE
;Z:5.35
;HEIGHT:0.5
;BEFORE_LAYER_CHANGE
G92 E0
;5.35


G1 E-.7 F3600
;WIPE_START
G1 F6240
G1 X156.475 Y26.937 E-.285
;WIPE_END
G1 E-.015 F3600
G1 Z5.35 F7800
;AFTER_LAYER_CHANGE
;5.35
G1 X156.764 Y26.238
G1 E1 F2400
;WIDTH:1
G1 F900
G1 X156.764 Y29.017 E.51572
G1 X152.753 Y26.238 E.90551
G1 X156.614 Y26.238 E.71646
G1 X155.898 Y25.738 F7800
G1 X155.936 Y27.193
;TYPE:Perimeter
;WIDTH:1.12498
G1 F900
G1 X155.872 Y27.303 E.02691
G1 X155.745 Y27.303 E.02691
G1 X155.681 Y27.193 E.02691
G1 X155.745 Y27.083 E.02691
G1 X155.872 Y27.083 E.02691
;LAYER_CHANGE
;Z:5.55196
;HEIGHT:0.201961
;BEFORE_LAYER_CHANGE
G92 E0
;5.55196


G1 E-.7 F3600
;WIPE_START
G1 F6240
G1 X155.745 Y27.083 E-.06972
G1 X155.681 Y27.193 E-.06972
G1 X155.745 Y27.303 E-.06972
G1 X155.872 Y27.303 E-.06972
G1 X155.878 Y27.294 E-.00612
;WIPE_END
G1 E-.015 F3600
G1 Z5.552 F7800
;AFTER_LAYER_CHANGE
;5.55196
G1 X42.449 Y28.559
G1 E1 F2400
;TYPE:Support material
;WIDTH:1
;HEIGHT:0.743137
G1 F900
G1 X42.449 Y25.4 E.82044
G1 X22.2 Y25.4 E5.2584
G1 X22.2 Y28.685 E.85318
G1 X42.449 Y28.685 E5.2584
;LAYER_CHANGE
;Z:5.85
;HEIGHT:0.298039
;BEFORE_LAYER_CHANGE
G92 E0
;5.85


G1 E-.7 F3600
;WIPE_START
G1 F6240
G1 X41.929 Y28.685 E-.285
;WIPE_END
G1 E-.015 F3600
G1 Z5.85 F7800
;AFTER_LAYER_CHANGE
;5.85
G1 X156.764 Y26.238
G1 E1 F2400
;TYPE:External perimeter
;WIDTH:1
;HEIGHT:0.5
M73 P1 R140
G1 F900
G1 X156.764 Y29.448 E.59571
G1 X152.131 Y26.238 E1.04596
G1 X156.614 Y26.238 E.83191
G1 X155.898 Y25.738 F7800
G1 X155.825 Y27.341
;TYPE:Perimeter
;WIDTH:1.42129
G1 F900
G1 X155.743 Y27.484 E.04486
G1 X155.578 Y27.484 E.04486
G1 X155.496 Y27.341 E.04486
G1 X155.578 Y27.199 E.04486
G1 X155.743 Y27.199 E.04486
;LAYER_CHANGE
;Z:6.2951
;HEIGHT:0.445098
;BEFORE_LAYER_CHANGE
G92 E0
;6.2951


G1 E-.7 F3600
;WIPE_START
G1 F6240
G1 X155.578 Y27.199 E-.09002
G1 X155.496 Y27.341 E-.09002
G1 X155.578 Y27.484 E-.09002
G1 X155.606 Y27.484 E-.01494
;WIPE_END
G1 E-.015 F3600
G1 Z6.295 F7800
;AFTER_LAYER_CHANGE
;6.2951
G1 X42.449 Y28.559
G1 E1 F2400
;TYPE:Support material
;WIDTH:1
;HEIGHT:0.743137
G1 F900
G1 X42.449 Y25.4 E.82044
G1 X22.2 Y25.4 E5.2584
G1 X22.2 Y28.685 E.85318
G1 X42.449 Y28.685 E5.2584
;LAYER_CHANGE
;Z:6.35
;HEIGHT:0.0549021
;BEFORE_LAYER_CHANGE
G92 E0
;6.35


G1 E-.7 F3600
;WIPE_START
G1 F6240
G1 X41.929 Y28.685 E-.285
;WIPE_END
G1 E-.015 F3600
G1 Z6.35 F7800
;AFTER_LAYER_CHANGE
;6.35
G1 X155.915 Y27.087
G1 E1 F2400
;TYPE:Perimeter
;WIDTH:0.913114
;HEIGHT:0.5
G1 F900
G1 X155.915 Y28.259 E.19636
G1 X154.223 Y27.087 E.34478
G1 X155.765 Y27.087 E.25827
G1 X156.764 Y26.238 F7800
;TYPE:External perimeter
;WIDTH:1
G1 F900
G1 X156.764 Y29.881 E.67606
G1 X151.506 Y26.238 E1.18704
G1 X156.614 Y26.238 E.94787
G1 X155.898 Y25.738 F7800
;LAYER_CHANGE
;Z:6.85
;HEIGHT:0.5
;BEFORE_LAYER_CHANGE
G92 E0
;6.85


G1 E-.7 F3600
;WIPE_START
G1 F6240
G1 X156.635 Y26.757 E-.285
;WIPE_END
G1 E-.015 F3600
G1 Z6.85 F7800
;AFTER_LAYER_CHANGE
;6.85
G1 X155.841 Y27.161
G1 E1 F2400
;TYPE:Perimeter
;WIDTH:1.06028
G1 F900
G1 X155.841 Y28.548 E.27488
G1 X153.843 Y27.161 E.48187
G1 X155.691 Y27.161 E.36607
G1 X156.764 Y26.238 F7800
;TYPE:External perimeter
;WIDTH:1
G1 F900
G1 X156.764 Y30.313 E.75618
G1 X150.897 Y26.238 E1.32562
G1 X156.614 Y26.238 E1.06096
G1 X155.898 Y25.738 F7800
;LAYER_CHANGE
;Z:7.03824
;HEIGHT:0.188235
;BEFORE_LAYER_CHANGE
G92 E0
;7.03824


G1 E-.7 F3600
;WIPE_START
G1 F6240
G1 X156.633 Y26.758 E-.285
;WIPE_END
G1 E-.015 F3600
G1 Z7.038 F7800
;AFTER_LAYER_CHANGE
;7.03824
G1 X42.449 Y28.559
G1 E1 F2400
;TYPE:Support material
;WIDTH:1
;HEIGHT:0.743137
G1 F900
G1 X42.449 Y25.4 E.82044
G1 X22.2 Y25.4 E5.2584
G1 X22.2 Y28.685 E.85318
G1 X42.449 Y28.685 E5.2584
;LAYER_CHANGE
;Z:7.35
;HEIGHT:0.311765
;BEFORE_LAYER_CHANGE
G92 E0
;7.35


G1 E-.7 F3600
;WIPE_START
G1 F6240
G1 X41.929 Y28.685 E-.285
;WIPE_END
G1 E-.015 F3600
G1 Z7.35 F7800
;AFTER_LAYER_CHANGE
;7.35
G1 X155.768 Y27.234
G1 E1 F2400
;TYPE:Perimeter
;WIDTH:1.20693
;HEIGHT:0.5
G1 F900
G1 X155.768 Y28.837 E.36635
G1 X153.466 Y27.234 E.64109
G1 X155.618 Y27.234 E.49181
G1 X156.764 Y26.238 F7800
;TYPE:External perimeter
;WIDTH:1
G1 F900
G1 X156.764 Y30.744 E.83626
G1 X150.292 Y26.238 E1.46339
G1 X156.614 Y26.238 E1.17307
G1 X155.898 Y25.738 F7800
;LAYER_CHANGE
;Z:7.78137
;HEIGHT:0.431373
;BEFORE_LAYER_CHANGE
G92 E0
;7.78137


G1 E-.7 F3600
;WIPE_START
G1 F6240
G1 X156.631 Y26.758 E-.285
;WIPE_END
G1 E-.015 F3600
G1 Z7.781 F7800
;AFTER_LAYER_CHANGE
;7.78137
G1 X42.449 Y28.559
G1 E1 F2400
;TYPE:Support material
;WIDTH:1
;HEIGHT:0.743137
G1 F900
G1 X42.449 Y25.4 E.82044
G1 X22.2 Y25.4 E5.2584
G1 X22.2 Y28.685 E.85318
G1 X42.449 Y28.685 E5.2584
;LAYER_CHANGE
;Z:7.85
;HEIGHT:0.0686274
;BEFORE_LAYER_CHANGE
G92 E0
;7.85


G1 E-.7 F3600
;WIPE_START
G1 F6240
G1 X41.929 Y28.685 E-.285
;WIPE_END
G1 E-.015 F3600
G1 Z7.85 F7800
;AFTER_LAYER_CHANGE
;7.85
G1 X155.694 Y27.307
G1 E1 F2400
;TYPE:Perimeter
;WIDTH:1.35358
;HEIGHT:0.5
G1 F900
G1 X155.694 Y29.125 E.47098
G1 X153.09 Y27.307 E.82291
