; generated by PrusaSlicer 2.5.0+win64 on 2022-12-07 at 00:06:40 UTC

; 

; external perimeters extrusion width = 1.00mm
; perimeters extrusion width = 1.00mm
; infill extrusion width = 1.00mm
; solid infill extrusion width = 1.00mm
; top infill extrusion width = 1.00mm
; support material extrusion width = 1.00mm
; first layer extrusion width = 0.42mm

M73 P0 R178
M107
;TYPE:Custom
G90 ; use absolute coordinates
M83 ; extruder relative mode
M140 S60 ; set final bed temp
M104 S150 ; set temporary nozzle temp to prevent oozing during homing and auto bed leveling
G4 S10 ; allow partial nozzle warmup
G28 ; home all axisG1 Z50 F240
G1 X7.6 Y10 F3000
M104 S210 ; set final nozzle temp
M190 S60 ; wait for bed temp to stabilize
M109 S210 ; wait for nozzle temp to stabilize
G1 Z0.28 F240
G92 E0
G1 Y140 E10 F1500 ; prime the nozzle
G1 X4 F5000
G92 E0
G1 Y10 E10 F1200 ; prime the nozzle
G92 E0
G21 ; set units to millimeters
G90 ; use absolute coordinates
M83 ; use relative distances for extrusion
; Filament gcode
M107
;LAYER_CHANGE
;Z:0.35
;HEIGHT:0.35
;BEFORE_LAYER_CHANGE
G92 E0
;0.35


G1 E-1 F3600
G1 Z.35 F7800
;AFTER_LAYER_CHANGE
;0.35
G1 X156.709 Y46.252
G1 E1 F2400
;TYPE:Perimeter
;WIDTH:0.42
G1 F1800
G1 X156.709 Y69.243 E1.15386
G1 X146.292 Y67.539 E.52975
G1 X128.974 Y62.491 E.90527
G1 X128.814 Y62.471 E.0081
G1 X88.884 Y63.659 E2.0048
G1 X81.799 Y63.583 E.35559
G1 X53.178 Y66.173 E1.44224
G1 X26.53 Y70.272 E1.35309
M73 P0 R177
G1 X26.374 Y70.323 E.00824
G1 X23.291 Y71.894 E.17364
G1 X23.291 Y42.955 E1.45234
G1 X27.409 Y43.068 E.20674
G1 X79.223 Y38.35 E2.61109
G1 X98.987 Y38.732 E.99204
G1 X128.184 Y37.846 E1.46599
G1 X156.565 Y46.209 E1.48486
G1 X157.054 Y45.994 F7800
;TYPE:External perimeter
G1 F1800
G1 X157.054 Y69.649 E1.18717
G1 X146.215 Y67.876 E.55117
G1 X128.824 Y62.815 E.90899
G1 X88.887 Y64.004 E2.00516
G1 X81.83 Y63.927 E.3542
G1 X53.241 Y66.513 E1.44062
G1 X26.582 Y70.613 E1.35363
G1 X22.946 Y72.457 E.2046
G1 X22.946 Y42.6 E1.4984
G1 X27.378 Y42.725 E.22249
G1 X79.211 Y38.005 E2.61205
G1 X98.977 Y38.387 E.99214
G1 X128.229 Y37.5 E1.46874
G1 X156.91 Y45.951 E1.50056
G1 X156.517 Y46.837 F7800
G1 X155.61 Y46.035
;TYPE:Solid infill
;WIDTH:0.420358
G1 F1800
G1 X156.45 Y46.876 E.05972
G1 X156.45 Y47.364 E.02453
G1 X155.147 Y46.061 E.0926
G1 X154.455 Y45.857 E.03625
G1 X156.45 Y47.852 E.14178
G1 X156.45 Y48.341 E.02453
G1 X153.763 Y45.653 E.19096
G1 X153.07 Y45.449 E.03625
G1 X156.45 Y48.829 E.24014
G1 X156.45 Y49.317 E.02453
G1 X152.378 Y45.245 E.28933
G1 X151.686 Y45.041 E.03625
G1 X156.45 Y49.806 E.33851
G1 X156.45 Y50.294 E.02453
G1 X150.994 Y44.837 E.38769
G1 X150.301 Y44.633 E.03625
G1 X156.45 Y50.782 E.43687
G1 X156.45 Y51.27 E.02453
G1 X149.609 Y44.429 E.48605
G1 X148.917 Y44.225 E.03625
G1 X156.45 Y51.759 E.53523
G1 X156.45 Y52.247 E.02453
G1 X148.225 Y44.021 E.58441
G1 X147.532 Y43.817 E.03625
G1 X156.45 Y52.735 E.63359
G1 X156.45 Y53.223 E.02453
G1 X146.84 Y43.613 E.68278
G1 X146.148 Y43.409 E.03625
G1 X156.45 Y53.712 E.73196
G1 X156.45 Y54.2 E.02453
G1 X145.456 Y43.205 E.78114
G1 X144.763 Y43.001 E.03625
G1 X156.45 Y54.688 E.83032
G1 X156.45 Y55.176 E.02453
G1 X144.071 Y42.797 E.8795
G1 X143.379 Y42.593 E.03625
G1 X156.45 Y55.665 E.92868
G1 X156.45 Y56.153 E.02453
G1 X142.687 Y42.389 E.97786
G1 X141.995 Y42.185 E.03625
G1 X156.45 Y56.641 E1.02704
G1 X156.45 Y57.129 E.02453
G1 X141.302 Y41.981 E1.07623
G1 X140.61 Y41.777 E.03625
G1 X156.45 Y57.618 E1.12541
G1 X156.45 Y58.106 E.02453
G1 X139.918 Y41.573 E1.17459
G1 X139.226 Y41.369 E.03625
G1 X156.45 Y58.594 E1.22377
G1 X156.45 Y59.082 E.02453
G1 X138.533 Y41.165 E1.27295
G1 X137.841 Y40.961 E.03625
G1 X156.45 Y59.571 E1.32213
G1 X156.45 Y60.059 E.02453
G1 X137.149 Y40.757 E1.37131
G1 X136.457 Y40.553 E.03625
G1 X156.45 Y60.547 E1.42049
G1 X156.45 Y61.035 E.02453
G1 X135.764 Y40.349 E1.46968
G1 X135.072 Y40.145 E.03625
G1 X156.45 Y61.524 E1.51886
G1 X156.45 Y62.012 E.02453
G1 X134.38 Y39.941 E1.56804
G1 X133.688 Y39.737 E.03625
G1 X156.45 Y62.5 E1.61722
G1 X156.45 Y62.988 E.02453
G1 X132.996 Y39.534 E1.6664
G1 X132.303 Y39.33 E.03625
G1 X156.45 Y63.477 E1.71558
G1 X156.45 Y63.965 E.02453
G1 X131.611 Y39.126 E1.76476
G1 X130.919 Y38.922 E.03625
G1 X156.45 Y64.453 E1.81394
G1 X156.45 Y64.941 E.02453
G1 X130.227 Y38.718 E1.86313
G1 X129.534 Y38.514 E.03625
G1 X156.45 Y65.43 E1.91231
G1 X156.45 Y65.918 E.02453
G1 X128.842 Y38.31 E1.96149
G1 X128.15 Y38.106 E.03623
G1 X156.45 Y66.406 E2.01064
G1 X156.45 Y66.894 E.02453
G1 X127.676 Y38.12 E2.04431
G1 X127.202 Y38.135 E.02382
G1 X156.45 Y67.383 E2.07798
G1 X156.45 Y67.871 E.02453
G1 X126.729 Y38.149 E2.11165
G1 X126.255 Y38.163 E.02382
G1 X156.45 Y68.359 E2.14531
G1 X156.45 Y68.847 E.02453
G1 X125.781 Y38.178 E2.17898
G1 X125.307 Y38.192 E.02382
G1 X155.976 Y68.861 E2.17895
G1 X155.392 Y68.766 E.02972
G1 X124.833 Y38.207 E2.17114
G1 X124.359 Y38.221 E.02382
G1 X154.808 Y68.67 E2.16333
G1 X154.225 Y68.575 E.02972
M73 P0 R176
G1 X123.885 Y38.235 E2.15553
G1 X123.411 Y38.25 E.02382
G1 X153.641 Y68.479 E2.14772
G1 X153.057 Y68.384 E.02972
G1 X122.938 Y38.264 E2.13991
G1 X122.464 Y38.278 E.02382
G1 X152.473 Y68.288 E2.1321
G1 X151.89 Y68.193 E.02972
G1 X121.99 Y38.293 E2.1243
G1 X121.516 Y38.307 E.02382
G1 X151.306 Y68.097 E2.11649
G1 X150.722 Y68.002 E.02972
G1 X121.042 Y38.322 E2.10868
G1 X120.568 Y38.336 E.02382
G1 X150.138 Y67.906 E2.10088
G1 X149.555 Y67.811 E.02972
G1 X120.094 Y38.35 E2.09307
G1 X119.62 Y38.365 E.02382
G1 X148.971 Y67.715 E2.08526
G1 X148.387 Y67.62 E.02972
G1 X119.147 Y38.379 E2.07746
G1 X118.673 Y38.393 E.02382
G1 X147.803 Y67.524 E2.06965
G1 X147.22 Y67.429 E.02972
G1 X118.199 Y38.408 E2.06184
G1 X117.725 Y38.422 E.02382
G1 X146.636 Y67.333 E2.05404
G1 X146.349 Y67.286 E.01459
G1 X145.998 Y67.184 E.01835
G1 X117.251 Y38.437 E2.04242
G1 X116.777 Y38.451 E.02382
G1 X145.309 Y66.983 E2.02713
G1 X144.62 Y66.782 E.03606
G1 X116.303 Y38.465 E2.01184
G1 X115.829 Y38.48 E.02382
G1 X143.931 Y66.581 E1.99654
G1 X143.242 Y66.38 E.03606
G1 X115.355 Y38.494 E1.98125
G1 X114.882 Y38.508 E.02382
G1 X142.553 Y66.18 E1.96596
G1 X141.864 Y65.979 E.03606
G1 X114.408 Y38.523 E1.95067
M73 P1 R176
G1 X113.934 Y38.537 E.02382
G1 X141.175 Y65.778 E1.93538
G1 X140.485 Y65.577 E.03606
G1 X113.46 Y38.552 E1.92008
G1 X112.986 Y38.566 E.02382
G1 X139.796 Y65.376 E1.90479
G1 X139.107 Y65.175 E.03606
G1 X112.512 Y38.58 E1.8895
G1 X112.038 Y38.595 E.02382
G1 X138.418 Y64.974 E1.87421
G1 X137.729 Y64.774 E.03606
G1 X111.564 Y38.609 E1.85891
G1 X111.091 Y38.623 E.02382
G1 X137.04 Y64.573 E1.84362
G1 X136.351 Y64.372 E.03606
G1 X110.617 Y38.638 E1.82833
G1 X110.143 Y38.652 E.02382
G1 X135.662 Y64.171 E1.81304
G1 X134.972 Y63.97 E.03606
G1 X109.669 Y38.667 E1.79775
G1 X109.195 Y38.681 E.02382
G1 X134.283 Y63.769 E1.78245
G1 X133.594 Y63.568 E.03606
G1 X108.721 Y38.695 E1.76716
G1 X108.247 Y38.71 E.02382
G1 X132.905 Y63.367 E1.75187
G1 X132.216 Y63.167 E.03606
G1 X107.773 Y38.724 E1.73658
G1 X107.299 Y38.738 E.02382
G1 X131.527 Y62.966 E1.72129
G1 X130.838 Y62.765 E.03606
G1 X106.826 Y38.753 E1.70599
G1 X106.352 Y38.767 E.02382
G1 X130.149 Y62.564 E1.6907
G1 X129.459 Y62.363 E.03606
G1 X105.878 Y38.782 E1.67541
G1 X105.404 Y38.796 E.02382
G1 X128.821 Y62.213 E1.66372
G1 X128.346 Y62.226 E.02389
G1 X104.93 Y38.81 E1.66361
G1 X104.456 Y38.825 E.02382
G1 X127.872 Y62.24 E1.66359
G1 X127.397 Y62.254 E.02383
G1 X103.982 Y38.839 E1.66357
G1 X103.508 Y38.853 E.02382
G1 X126.923 Y62.268 E1.66355
G1 X126.449 Y62.282 E.02383
G1 X103.035 Y38.868 E1.66354
G1 X102.561 Y38.882 E.02382
M73 P1 R175
G1 X125.975 Y62.296 E1.66352
G1 X125.501 Y62.311 E.02383
G1 X102.087 Y38.897 E1.6635
G1 X101.613 Y38.911 E.02382
G1 X125.027 Y62.325 E1.66348
G1 X124.553 Y62.339 E.02383
G1 X101.139 Y38.925 E1.66346
G1 X100.665 Y38.94 E.02382
G1 X124.078 Y62.353 E1.66344
G1 X123.604 Y62.367 E.02383
G1 X100.191 Y38.954 E1.66343
G1 X99.717 Y38.968 E.02382
G1 X123.13 Y62.381 E1.66341
G1 X122.656 Y62.395 E.02383
G1 X99.244 Y38.983 E1.66339
G1 X98.758 Y38.986 E.02437
G1 X122.182 Y62.409 E1.66417
G1 X121.708 Y62.423 E.02383
G1 X98.261 Y38.976 E1.66586
G1 X97.763 Y38.967 E.02502
G1 X121.234 Y62.438 E1.66754
G1 X120.759 Y62.452 E.02383
G1 X97.265 Y38.957 E1.66923
G1 X96.767 Y38.947 E.02502
G1 X120.285 Y62.466 E1.67091
G1 X119.811 Y62.48 E.02383
G1 X96.269 Y38.938 E1.6726
G1 X95.771 Y38.928 E.02502
G1 X119.337 Y62.494 E1.67428
G1 X118.863 Y62.508 E.02383
G1 X95.273 Y38.919 E1.67596
G1 X94.776 Y38.909 E.02502
G1 X118.389 Y62.522 E1.67765
G1 X117.915 Y62.536 E.02383
G1 X94.278 Y38.899 E1.67933
G1 X93.78 Y38.89 E.02502
G1 X117.44 Y62.55 E1.68102
G1 X116.966 Y62.565 E.02383
G1 X93.282 Y38.88 E1.6827
G1 X92.784 Y38.871 E.02502
G1 X116.492 Y62.579 E1.68439
G1 X116.018 Y62.593 E.02383
G1 X92.286 Y38.861 E1.68607
G1 X91.788 Y38.851 E.02502
G1 X115.544 Y62.607 E1.68776
G1 X115.07 Y62.621 E.02383
G1 X91.291 Y38.842 E1.68944
G1 X90.793 Y38.832 E.02502
G1 X114.596 Y62.635 E1.69113
G1 X114.121 Y62.649 E.02383
G1 X90.295 Y38.823 E1.69281
G1 X89.797 Y38.813 E.02502
G1 X113.647 Y62.663 E1.6945
G1 X113.173 Y62.677 E.02383
G1 X89.299 Y38.803 E1.69618
G1 X88.801 Y38.794 E.02502
G1 X112.699 Y62.692 E1.69787
G1 X112.225 Y62.706 E.02383
G1 X88.303 Y38.784 E1.69955
G1 X87.806 Y38.775 E.02502
G1 X111.751 Y62.72 E1.70124
G1 X111.277 Y62.734 E.02383
G1 X87.308 Y38.765 E1.70292
G1 X86.81 Y38.755 E.02502
G1 X110.803 Y62.748 E1.70461
G1 X110.328 Y62.762 E.02383
G1 X86.312 Y38.746 E1.70629
G1 X85.814 Y38.736 E.02502
G1 X109.854 Y62.776 E1.70798
G1 X109.38 Y62.79 E.02383
G1 X85.316 Y38.727 E1.70966
G1 X84.819 Y38.717 E.02502
G1 X108.906 Y62.804 E1.71135
G1 X108.432 Y62.819 E.02383
G1 X84.321 Y38.707 E1.71303
G1 X83.823 Y38.698 E.02502
G1 X107.958 Y62.833 E1.71471
G1 X107.484 Y62.847 E.02383
G1 X83.325 Y38.688 E1.7164
G1 X82.827 Y38.679 E.02502
G1 X107.009 Y62.861 E1.71808
G1 X106.535 Y62.875 E.02383
G1 X82.329 Y38.669 E1.71977
G1 X81.831 Y38.659 E.02502
G1 X106.061 Y62.889 E1.72145
G1 X105.587 Y62.903 E.02383
G1 X81.334 Y38.65 E1.72314
G1 X80.836 Y38.64 E.02502
G1 X105.113 Y62.917 E1.72482
G1 X104.639 Y62.932 E.02383
G1 X80.338 Y38.631 E1.72651
G1 X79.84 Y38.621 E.02502
G1 X104.165 Y62.946 E1.72819
G1 X103.69 Y62.96 E.02383
G1 X79.342 Y38.611 E1.72988
G1 X78.884 Y38.641 E.02309
G1 X103.216 Y62.974 E1.72877
G1 X102.742 Y62.988 E.02383
G1 X78.436 Y38.682 E1.72688
G1 X77.989 Y38.723 E.02257
G1 X102.268 Y63.002 E1.72499
G1 X101.794 Y63.016 E.02383
M73 P1 R174
G1 X77.541 Y38.763 E1.7231
G1 X77.093 Y38.804 E.02257
G1 X101.32 Y63.03 E1.72121
G1 X100.846 Y63.044 E.02383
G1 X76.646 Y38.845 E1.71931
G1 X76.198 Y38.886 E.02257
G1 X100.371 Y63.059 E1.71742
G1 X99.897 Y63.073 E.02383
G1 X75.751 Y38.926 E1.71553
G1 X75.303 Y38.967 E.02257
G1 X99.423 Y63.087 E1.71364
G1 X98.949 Y63.101 E.02383
G1 X74.856 Y39.008 E1.71174
G1 X74.408 Y39.049 E.02257
G1 X98.475 Y63.115 E1.70985
G1 X98.001 Y63.129 E.02383
G1 X73.961 Y39.089 E1.70796
G1 X73.513 Y39.13 E.02257
G1 X97.527 Y63.143 E1.70607
G1 X97.052 Y63.157 E.02383
G1 X73.066 Y39.171 E1.70418
G1 X72.618 Y39.212 E.02257
G1 X96.578 Y63.171 E1.70228
G1 X96.104 Y63.186 E.02383
G1 X72.171 Y39.252 E1.70039
G1 X71.723 Y39.293 E.02257
M73 P2 R174
G1 X95.63 Y63.2 E1.6985
G1 X95.156 Y63.214 E.02383
G1 X71.276 Y39.334 E1.69661
G1 X70.828 Y39.375 E.02257
G1 X94.682 Y63.228 E1.69471
G1 X94.208 Y63.242 E.02383
G1 X70.381 Y39.415 E1.69282
G1 X69.933 Y39.456 E.02257
G1 X93.733 Y63.256 E1.69093
G1 X93.259 Y63.27 E.02383
G1 X69.486 Y39.497 E1.68904
G1 X69.038 Y39.538 E.02257
G1 X92.785 Y63.284 E1.68715
G1 X92.311 Y63.298 E.02383
G1 X68.591 Y39.578 E1.68525
G1 X68.143 Y39.619 E.02257
G1 X91.837 Y63.313 E1.68336
G1 X91.363 Y63.327 E.02383
G1 X67.696 Y39.66 E1.68147
G1 X67.248 Y39.701 E.02257
G1 X90.889 Y63.341 E1.67958
G1 X90.415 Y63.355 E.02383
G1 X66.801 Y39.741 E1.67768
G1 X66.353 Y39.782 E.02257
G1 X89.94 Y63.369 E1.67579
G1 X89.466 Y63.383 E.02383
G1 X65.906 Y39.823 E1.6739
G1 X65.458 Y39.863 E.02257
G1 X88.992 Y63.397 E1.67201
G1 X88.503 Y63.397 E.02457
G1 X65.011 Y39.904 E1.66906
G1 X64.563 Y39.945 E.02257
G1 X88.01 Y63.391 E1.6658
G1 X87.516 Y63.386 E.02479
G1 X64.116 Y39.986 E1.66253
G1 X63.668 Y40.026 E.02257
G1 X87.023 Y63.381 E1.65926
G1 X86.529 Y63.376 E.02479
G1 X63.221 Y40.067 E1.65599
G1 X62.773 Y40.108 E.02257
G1 X86.036 Y63.37 E1.65273
G1 X85.542 Y63.365 E.02479
G1 X62.326 Y40.149 E1.64946
G1 X61.878 Y40.189 E.02257
G1 X85.049 Y63.36 E1.64619
G1 X84.555 Y63.355 E.02479
G1 X61.431 Y40.23 E1.64293
G1 X60.983 Y40.271 E.02257
G1 X84.062 Y63.349 E1.63966
G1 X83.568 Y63.344 E.02479
G1 X60.536 Y40.312 E1.63639
G1 X60.088 Y40.352 E.02257
G1 X83.075 Y63.339 E1.63313
G1 X82.581 Y63.334 E.02479
G1 X59.641 Y40.393 E1.62986
G1 X59.193 Y40.434 E.02257
G1 X82.088 Y63.329 E1.62659
G1 X81.612 Y63.34 E.02393
G1 X58.746 Y40.475 E1.62455
G1 X58.298 Y40.515 E.02257
G1 X81.164 Y63.381 E1.62453
G1 X80.716 Y63.422 E.02259
G1 X57.851 Y40.556 E1.62452
G1 X57.403 Y40.597 E.02257
G1 X80.268 Y63.462 E1.6245
G1 X79.821 Y63.503 E.02259
G1 X56.956 Y40.638 E1.62449
G1 X56.508 Y40.678 E.02257
G1 X79.373 Y63.543 E1.62447
G1 X78.925 Y63.584 E.02259
G1 X56.061 Y40.719 E1.62445
G1 X55.613 Y40.76 E.02257
G1 X78.477 Y63.624 E1.62444
G1 X78.03 Y63.665 E.02259
G1 X55.166 Y40.801 E1.62442
G1 X54.718 Y40.841 E.02257
M73 P2 R173
G1 X77.582 Y63.705 E1.62441
G1 X77.134 Y63.746 E.02259
G1 X54.271 Y40.882 E1.62439
G1 X53.823 Y40.923 E.02257
G1 X76.686 Y63.786 E1.62437
G1 X76.239 Y63.827 E.02259
G1 X53.376 Y40.964 E1.62436
G1 X52.928 Y41.004 E.02257
G1 X75.791 Y63.867 E1.62434
G1 X75.343 Y63.908 E.02259
G1 X52.481 Y41.045 E1.62433
G1 X52.033 Y41.086 E.02257
G1 X74.896 Y63.948 E1.62431
G1 X74.448 Y63.989 E.02259
G1 X51.586 Y41.127 E1.62429
G1 X51.138 Y41.167 E.02257
G1 X74 Y64.029 E1.62428
G1 X73.552 Y64.07 E.02259
G1 X50.691 Y41.208 E1.62426
G1 X50.243 Y41.249 E.02257
G1 X73.105 Y64.11 E1.62425
G1 X72.657 Y64.151 E.02259
G1 X49.796 Y41.29 E1.62423
G1 X49.348 Y41.33 E.02257
G1 X72.209 Y64.191 E1.62421
G1 X71.761 Y64.232 E.02259
G1 X48.901 Y41.371 E1.6242
G1 X48.453 Y41.412 E.02257
G1 X71.314 Y64.272 E1.62418
G1 X70.866 Y64.313 E.02259
G1 X48.006 Y41.453 E1.62416
G1 X47.558 Y41.493 E.02257
G1 X70.418 Y64.353 E1.62415
G1 X69.97 Y64.394 E.02259
G1 X47.111 Y41.534 E1.62413
G1 X46.663 Y41.575 E.02257
G1 X69.523 Y64.435 E1.62412
G1 X69.075 Y64.475 E.02259
G1 X46.216 Y41.616 E1.6241
G1 X45.768 Y41.656 E.02257
G1 X68.627 Y64.516 E1.62408
G1 X68.18 Y64.556 E.02259
G1 X45.321 Y41.697 E1.62407
G1 X44.873 Y41.738 E.02257
G1 X67.732 Y64.597 E1.62405
G1 X67.284 Y64.637 E.02259
G1 X44.426 Y41.779 E1.62404
G1 X43.978 Y41.819 E.02257
G1 X66.836 Y64.678 E1.62402
G1 X66.389 Y64.718 E.02259
G1 X43.531 Y41.86 E1.624
G1 X43.083 Y41.901 E.02257
G1 X65.941 Y64.759 E1.62399
G1 X65.493 Y64.799 E.02259
G1 X42.635 Y41.942 E1.62397
G1 X42.188 Y41.982 E.02257
G1 X65.045 Y64.84 E1.62396
G1 X64.598 Y64.88 E.02259
G1 X41.74 Y42.023 E1.62394
G1 X41.293 Y42.064 E.02257
G1 X64.15 Y64.921 E1.62392
G1 X63.702 Y64.961 E.02259
G1 X40.845 Y42.105 E1.62391
G1 X40.398 Y42.145 E.02257
G1 X63.254 Y65.002 E1.62389
G1 X62.807 Y65.042 E.02259
G1 X39.95 Y42.186 E1.62388
G1 X39.503 Y42.227 E.02257
G1 X62.359 Y65.083 E1.62386
G1 X61.911 Y65.123 E.02259
G1 X39.055 Y42.268 E1.62384
G1 X38.608 Y42.308 E.02257
G1 X61.464 Y65.164 E1.62383
G1 X61.016 Y65.204 E.02259
G1 X38.16 Y42.349 E1.62381
G1 X37.713 Y42.39 E.02257
G1 X60.568 Y65.245 E1.6238
G1 X60.12 Y65.285 E.02259
G1 X37.265 Y42.431 E1.62378
G1 X36.818 Y42.471 E.02257
G1 X59.673 Y65.326 E1.62376
G1 X59.225 Y65.367 E.02259
G1 X36.37 Y42.512 E1.62375
G1 X35.923 Y42.553 E.02257
G1 X58.777 Y65.407 E1.62373
G1 X58.329 Y65.448 E.02259
G1 X35.475 Y42.594 E1.62372
G1 X35.028 Y42.634 E.02257
G1 X57.882 Y65.488 E1.6237
G1 X57.434 Y65.529 E.02259
G1 X34.58 Y42.675 E1.62368
G1 X34.133 Y42.716 E.02257
G1 X56.986 Y65.569 E1.62367
G1 X56.538 Y65.61 E.02259
G1 X33.685 Y42.756 E1.62365
G1 X33.238 Y42.797 E.02257
G1 X56.091 Y65.65 E1.62364
G1 X55.643 Y65.691 E.02259
G1 X32.79 Y42.838 E1.62362
G1 X32.343 Y42.879 E.02257
G1 X55.195 Y65.731 E1.6236
G1 X54.748 Y65.772 E.02259
G1 X31.895 Y42.919 E1.62359
