; generated by PrusaSlicer 2.5.0+win64 on 2022-12-07 at 00:06:43 UTC

; 

; external perimeters extrusion width = 1.00mm
; perimeters extrusion width = 1.00mm
; infill extrusion width = 1.00mm
; solid infill extrusion width = 1.00mm
; top infill extrusion width = 1.00mm
; support material extrusion width = 1.00mm
; first layer extrusion width = 0.42mm

M73 P0 R265
M107
;TYPE:Custom
G90 ; use absolute coordinates
M83 ; extruder relative mode
M140 S60 ; set final bed temp
M104 S150 ; set temporary nozzle temp to prevent oozing during homing and auto bed leveling
G4 S10 ; allow partial nozzle warmup
G28 ; home all axisG1 Z50 F240
G1 X7.6 Y10 F3000
M104 S210 ; set final nozzle temp
M190 S60 ; wait for bed temp to stabilize
M109 S210 ; wait for nozzle temp to stabilize
G1 Z0.28 F240
G92 E0
G1 Y140 E10 F1500 ; prime the nozzle
G1 X4 F5000
G92 E0
G1 Y10 E10 F1200 ; prime the nozzle
G92 E0
G21 ; set units to millimeters
G90 ; use absolute coordinates
M83 ; use relative distances for extrusion
; Filament gcode
M107
;LAYER_CHANGE
;Z:0.35
;HEIGHT:0.35
;BEFORE_LAYER_CHANGE
G92 E0
;0.35


G1 E-1 F3600
M73 P0 R264
G1 Z.35 F7800
;AFTER_LAYER_CHANGE
;0.35
G1 X161.09 Y21.99
G1 E1 F2400
;TYPE:Support material
;WIDTH:0.42
G1 F1800
G1 X83.371 Y21.99 E3.90041
G1 X83.371 Y12.124 E.49509
G1 X161.09 Y12.124 E3.90041
G1 X161.09 Y21.938 E.4925
G1 X160.511 Y21.834 F7800
G1 F1800
G1 X160.511 Y12.435 E.47173
G1 X160.127 Y12.435 E.01923
G1 X160.127 Y21.679 E.46394
G1 X159.744 Y21.679 E.01923
G1 X159.744 Y12.435 E.46394
G1 X159.361 Y12.435 E.01923
G1 X159.361 Y21.679 E.46394
G1 X158.978 Y21.679 E.01923
G1 X158.978 Y12.435 E.46394
G1 X158.595 Y12.435 E.01923
G1 X158.595 Y21.679 E.46394
G1 X158.211 Y21.679 E.01923
G1 X158.211 Y12.435 E.46394
G1 X157.828 Y12.435 E.01923
G1 X157.828 Y21.679 E.46394
G1 X157.445 Y21.679 E.01923
G1 X157.445 Y12.435 E.46394
G1 X157.062 Y12.435 E.01923
G1 X157.062 Y21.679 E.46394
G1 X156.679 Y21.679 E.01923
G1 X156.679 Y12.435 E.46394
G1 X156.295 Y12.435 E.01923
G1 X156.295 Y21.679 E.46394
G1 X155.912 Y21.679 E.01923
G1 X155.912 Y12.435 E.46394
G1 X155.529 Y12.435 E.01923
G1 X155.529 Y21.679 E.46394
G1 X155.146 Y21.679 E.01923
G1 X155.146 Y12.435 E.46394
G1 X154.762 Y12.435 E.01923
G1 X154.762 Y21.679 E.46394
G1 X154.379 Y21.679 E.01923
G1 X154.379 Y12.435 E.46394
G1 X153.996 Y12.435 E.01923
G1 X153.996 Y21.679 E.46394
G1 X153.613 Y21.679 E.01923
G1 X153.613 Y12.435 E.46394
G1 X153.23 Y12.435 E.01923
G1 X153.23 Y21.679 E.46394
G1 X152.846 Y21.679 E.01923
G1 X152.846 Y12.435 E.46394
G1 X152.463 Y12.435 E.01923
G1 X152.463 Y21.679 E.46394
G1 X152.08 Y21.679 E.01923
G1 X152.08 Y12.435 E.46394
G1 X151.697 Y12.435 E.01923
G1 X151.697 Y21.679 E.46394
G1 X151.314 Y21.679 E.01923
G1 X151.314 Y12.435 E.46394
G1 X150.93 Y12.435 E.01923
G1 X150.93 Y21.679 E.46394
G1 X150.547 Y21.679 E.01923
G1 X150.547 Y12.435 E.46394
G1 X150.164 Y12.435 E.01923
G1 X150.164 Y21.679 E.46394
G1 X149.781 Y21.679 E.01923
G1 X149.781 Y12.435 E.46394
G1 X149.398 Y12.435 E.01923
G1 X149.398 Y21.679 E.46394
G1 X149.014 Y21.679 E.01923
G1 X149.014 Y12.435 E.46394
G1 X148.631 Y12.435 E.01923
G1 X148.631 Y21.679 E.46394
G1 X148.248 Y21.679 E.01923
G1 X148.248 Y12.435 E.46394
G1 X147.865 Y12.435 E.01923
G1 X147.865 Y21.679 E.46394
G1 X147.481 Y21.679 E.01923
G1 X147.481 Y12.435 E.46394
G1 X147.098 Y12.435 E.01923
G1 X147.098 Y21.679 E.46394
G1 X146.715 Y21.679 E.01923
G1 X146.715 Y12.435 E.46394
G1 X146.332 Y12.435 E.01923
G1 X146.332 Y21.679 E.46394
G1 X145.949 Y21.679 E.01923
G1 X145.949 Y12.435 E.46394
G1 X145.565 Y12.435 E.01923
G1 X145.565 Y21.679 E.46394
G1 X145.182 Y21.679 E.01923
G1 X145.182 Y12.435 E.46394
G1 X144.799 Y12.435 E.01923
G1 X144.799 Y21.679 E.46394
G1 X144.416 Y21.679 E.01923
G1 X144.416 Y12.435 E.46394
G1 X144.033 Y12.435 E.01923
G1 X144.033 Y21.679 E.46394
G1 X143.649 Y21.679 E.01923
G1 X143.649 Y12.435 E.46394
G1 X143.266 Y12.435 E.01923
G1 X143.266 Y21.679 E.46394
G1 X142.883 Y21.679 E.01923
G1 X142.883 Y12.435 E.46394
G1 X142.5 Y12.435 E.01923
G1 X142.5 Y21.679 E.46394
G1 X142.117 Y21.679 E.01923
G1 X142.117 Y12.435 E.46394
G1 X141.733 Y12.435 E.01923
G1 X141.733 Y21.679 E.46394
G1 X141.35 Y21.679 E.01923
G1 X141.35 Y12.435 E.46394
G1 X140.967 Y12.435 E.01923
G1 X140.967 Y21.679 E.46394
G1 X140.584 Y21.679 E.01923
G1 X140.584 Y12.435 E.46394
G1 X140.201 Y12.435 E.01923
G1 X140.201 Y21.679 E.46394
G1 X139.817 Y21.679 E.01923
G1 X139.817 Y12.435 E.46394
G1 X139.434 Y12.435 E.01923
G1 X139.434 Y21.679 E.46394
G1 X139.051 Y21.679 E.01923
G1 X139.051 Y12.435 E.46394
G1 X138.668 Y12.435 E.01923
G1 X138.668 Y21.679 E.46394
G1 X138.284 Y21.679 E.01923
G1 X138.284 Y12.435 E.46394
G1 X137.901 Y12.435 E.01923
G1 X137.901 Y21.679 E.46394
G1 X137.518 Y21.679 E.01923
G1 X137.518 Y12.435 E.46394
G1 X137.135 Y12.435 E.01923
G1 X137.135 Y21.679 E.46394
G1 X136.752 Y21.679 E.01923
G1 X136.752 Y12.435 E.46394
G1 X136.368 Y12.435 E.01923
G1 X136.368 Y21.679 E.46394
G1 X135.985 Y21.679 E.01923
G1 X135.985 Y12.435 E.46394
G1 X135.602 Y12.435 E.01923
G1 X135.602 Y21.679 E.46394
G1 X135.219 Y21.679 E.01923
G1 X135.219 Y12.435 E.46394
G1 X134.836 Y12.435 E.01923
G1 X134.836 Y21.679 E.46394
G1 X134.452 Y21.679 E.01923
G1 X134.452 Y12.435 E.46394
G1 X134.069 Y12.435 E.01923
G1 X134.069 Y21.679 E.46394
G1 X133.686 Y21.679 E.01923
G1 X133.686 Y12.435 E.46394
G1 X133.303 Y12.435 E.01923
G1 X133.303 Y21.679 E.46394
G1 X132.92 Y21.679 E.01923
G1 X132.92 Y12.435 E.46394
G1 X132.536 Y12.435 E.01923
G1 X132.536 Y21.679 E.46394
G1 X132.153 Y21.679 E.01923
G1 X132.153 Y12.435 E.46394
G1 X131.77 Y12.435 E.01923
G1 X131.77 Y21.679 E.46394
G1 X131.387 Y21.679 E.01923
G1 X131.387 Y12.435 E.46394
G1 X131.003 Y12.435 E.01923
G1 X131.003 Y21.679 E.46394
G1 X130.62 Y21.679 E.01923
G1 X130.62 Y12.435 E.46394
G1 X130.237 Y12.435 E.01923
G1 X130.237 Y21.679 E.46394
G1 X129.854 Y21.679 E.01923
G1 X129.854 Y12.435 E.46394
G1 X129.471 Y12.435 E.01923
G1 X129.471 Y21.679 E.46394
G1 X129.087 Y21.679 E.01923
G1 X129.087 Y12.435 E.46394
G1 X128.704 Y12.435 E.01923
G1 X128.704 Y21.679 E.46394
G1 X128.321 Y21.679 E.01923
G1 X128.321 Y12.435 E.46394
G1 X127.938 Y12.435 E.01923
G1 X127.938 Y21.679 E.46394
G1 X127.555 Y21.679 E.01923
G1 X127.555 Y12.435 E.46394
G1 X127.171 Y12.435 E.01923
G1 X127.171 Y21.679 E.46394
G1 X126.788 Y21.679 E.01923
G1 X126.788 Y12.435 E.46394
G1 X126.405 Y12.435 E.01923
G1 X126.405 Y21.679 E.46394
G1 X126.022 Y21.679 E.01923
G1 X126.022 Y12.435 E.46394
G1 X125.639 Y12.435 E.01923
G1 X125.639 Y21.679 E.46394
G1 X125.255 Y21.679 E.01923
G1 X125.255 Y12.435 E.46394
G1 X124.872 Y12.435 E.01923
G1 X124.872 Y21.679 E.46394
G1 X124.489 Y21.679 E.01923
G1 X124.489 Y12.435 E.46394
G1 X124.106 Y12.435 E.01923
G1 X124.106 Y21.679 E.46394
G1 X123.722 Y21.679 E.01923
G1 X123.722 Y12.435 E.46394
G1 X123.339 Y12.435 E.01923
G1 X123.339 Y21.679 E.46394
G1 X122.956 Y21.679 E.01923
G1 X122.956 Y12.435 E.46394
G1 X122.573 Y12.435 E.01923
G1 X122.573 Y21.679 E.46394
G1 X122.19 Y21.679 E.01923
G1 X122.19 Y12.435 E.46394
G1 X121.806 Y12.435 E.01923
G1 X121.806 Y21.679 E.46394
G1 X121.423 Y21.679 E.01923
G1 X121.423 Y12.435 E.46394
G1 X121.04 Y12.435 E.01923
G1 X121.04 Y21.679 E.46394
G1 X120.657 Y21.679 E.01923
G1 X120.657 Y12.435 E.46394
G1 X120.274 Y12.435 E.01923
G1 X120.274 Y21.679 E.46394
G1 X119.89 Y21.679 E.01923
G1 X119.89 Y12.435 E.46394
G1 X119.507 Y12.435 E.01923
G1 X119.507 Y21.679 E.46394
G1 X119.124 Y21.679 E.01923
G1 X119.124 Y12.435 E.46394
G1 X118.741 Y12.435 E.01923
G1 X118.741 Y21.679 E.46394
G1 X118.358 Y21.679 E.01923
G1 X118.358 Y12.435 E.46394
G1 X117.974 Y12.435 E.01923
G1 X117.974 Y21.679 E.46394
G1 X117.591 Y21.679 E.01923
G1 X117.591 Y12.435 E.46394
G1 X117.208 Y12.435 E.01923
G1 X117.208 Y21.679 E.46394
G1 X116.825 Y21.679 E.01923
G1 X116.825 Y12.435 E.46394
G1 X116.441 Y12.435 E.01923
G1 X116.441 Y21.679 E.46394
G1 X116.058 Y21.679 E.01923
G1 X116.058 Y12.435 E.46394
G1 X115.675 Y12.435 E.01923
G1 X115.675 Y21.679 E.46394
G1 X115.292 Y21.679 E.01923
G1 X115.292 Y12.435 E.46394
G1 X114.909 Y12.435 E.01923
G1 X114.909 Y21.679 E.46394
G1 X114.525 Y21.679 E.01923
G1 X114.525 Y12.435 E.46394
G1 X114.142 Y12.435 E.01923
G1 X114.142 Y21.679 E.46394
G1 X113.759 Y21.679 E.01923
G1 X113.759 Y12.435 E.46394
G1 X113.376 Y12.435 E.01923
G1 X113.376 Y21.679 E.46394
G1 X112.993 Y21.679 E.01923
G1 X112.993 Y12.435 E.46394
G1 X112.609 Y12.435 E.01923
G1 X112.609 Y21.679 E.46394
G1 X112.226 Y21.679 E.01923
G1 X112.226 Y12.435 E.46394
G1 X111.843 Y12.435 E.01923
G1 X111.843 Y21.679 E.46394
G1 X111.46 Y21.679 E.01923
G1 X111.46 Y12.435 E.46394
G1 X111.077 Y12.435 E.01923
G1 X111.077 Y21.679 E.46394
G1 X110.693 Y21.679 E.01923
G1 X110.693 Y12.435 E.46394
G1 X110.31 Y12.435 E.01923
G1 X110.31 Y21.679 E.46394
G1 X109.927 Y21.679 E.01923
G1 X109.927 Y12.435 E.46394
G1 X109.544 Y12.435 E.01923
M73 P0 R263
G1 X109.544 Y21.679 E.46394
G1 X109.16 Y21.679 E.01923
G1 X109.16 Y12.435 E.46394
G1 X108.777 Y12.435 E.01923
G1 X108.777 Y21.679 E.46394
G1 X108.394 Y21.679 E.01923
G1 X108.394 Y12.435 E.46394
G1 X108.011 Y12.435 E.01923
G1 X108.011 Y21.679 E.46394
G1 X107.628 Y21.679 E.01923
G1 X107.628 Y12.435 E.46394
G1 X107.244 Y12.435 E.01923
G1 X107.244 Y21.679 E.46394
G1 X106.861 Y21.679 E.01923
G1 X106.861 Y12.435 E.46394
G1 X106.478 Y12.435 E.01923
G1 X106.478 Y21.679 E.46394
G1 X106.095 Y21.679 E.01923
G1 X106.095 Y12.435 E.46394
G1 X105.712 Y12.435 E.01923
G1 X105.712 Y21.679 E.46394
G1 X105.328 Y21.679 E.01923
G1 X105.328 Y12.435 E.46394
G1 X104.945 Y12.435 E.01923
G1 X104.945 Y21.679 E.46394
G1 X104.562 Y21.679 E.01923
G1 X104.562 Y12.435 E.46394
G1 X104.179 Y12.435 E.01923
G1 X104.179 Y21.679 E.46394
G1 X103.796 Y21.679 E.01923
G1 X103.796 Y12.435 E.46394
G1 X103.412 Y12.435 E.01923
G1 X103.412 Y21.679 E.46394
G1 X103.029 Y21.679 E.01923
G1 X103.029 Y12.435 E.46394
G1 X102.646 Y12.435 E.01923
G1 X102.646 Y21.679 E.46394
G1 X102.263 Y21.679 E.01923
G1 X102.263 Y12.435 E.46394
G1 X101.88 Y12.435 E.01923
G1 X101.88 Y21.679 E.46394
G1 X101.496 Y21.679 E.01923
G1 X101.496 Y12.435 E.46394
G1 X101.113 Y12.435 E.01923
G1 X101.113 Y21.679 E.46394
G1 X100.73 Y21.679 E.01923
G1 X100.73 Y12.435 E.46394
G1 X100.347 Y12.435 E.01923
G1 X100.347 Y21.679 E.46394
G1 X99.963 Y21.679 E.01923
G1 X99.963 Y12.435 E.46394
G1 X99.58 Y12.435 E.01923
G1 X99.58 Y21.679 E.46394
G1 X99.197 Y21.679 E.01923
G1 X99.197 Y12.435 E.46394
G1 X98.814 Y12.435 E.01923
G1 X98.814 Y21.679 E.46394
G1 X98.431 Y21.679 E.01923
G1 X98.431 Y12.435 E.46394
G1 X98.047 Y12.435 E.01923
G1 X98.047 Y21.679 E.46394
G1 X97.664 Y21.679 E.01923
G1 X97.664 Y12.435 E.46394
G1 X97.281 Y12.435 E.01923
G1 X97.281 Y21.679 E.46394
G1 X96.898 Y21.679 E.01923
G1 X96.898 Y12.435 E.46394
G1 X96.515 Y12.435 E.01923
G1 X96.515 Y21.679 E.46394
G1 X96.131 Y21.679 E.01923
G1 X96.131 Y12.435 E.46394
G1 X95.748 Y12.435 E.01923
G1 X95.748 Y21.679 E.46394
G1 X95.365 Y21.679 E.01923
G1 X95.365 Y12.435 E.46394
G1 X94.982 Y12.435 E.01923
G1 X94.982 Y21.679 E.46394
G1 X94.599 Y21.679 E.01923
G1 X94.599 Y12.435 E.46394
G1 X94.215 Y12.435 E.01923
G1 X94.215 Y21.679 E.46394
G1 X93.832 Y21.679 E.01923
G1 X93.832 Y12.435 E.46394
G1 X93.449 Y12.435 E.01923
G1 X93.449 Y21.679 E.46394
G1 X93.066 Y21.679 E.01923
G1 X93.066 Y12.435 E.46394
G1 X92.682 Y12.435 E.01923
G1 X92.682 Y21.679 E.46394
G1 X92.299 Y21.679 E.01923
G1 X92.299 Y12.435 E.46394
G1 X91.916 Y12.435 E.01923
G1 X91.916 Y21.679 E.46394
G1 X91.533 Y21.679 E.01923
G1 X91.533 Y12.435 E.46394
G1 X91.15 Y12.435 E.01923
G1 X91.15 Y21.679 E.46394
G1 X90.766 Y21.679 E.01923
G1 X90.766 Y12.435 E.46394
G1 X90.383 Y12.435 E.01923
G1 X90.383 Y21.679 E.46394
G1 X90 Y21.679 E.01923
G1 X90 Y12.435 E.46394
G1 X89.617 Y12.435 E.01923
G1 X89.617 Y21.679 E.46394
G1 X89.234 Y21.679 E.01923
G1 X89.234 Y12.435 E.46394
G1 X88.85 Y12.435 E.01923
G1 X88.85 Y21.679 E.46394
G1 X88.467 Y21.679 E.01923
G1 X88.467 Y12.435 E.46394
G1 X88.084 Y12.435 E.01923
G1 X88.084 Y21.679 E.46394
G1 X87.701 Y21.679 E.01923
G1 X87.701 Y12.435 E.46394
G1 X87.318 Y12.435 E.01923
G1 X87.318 Y21.679 E.46394
G1 X86.934 Y21.679 E.01923
G1 X86.934 Y12.435 E.46394
G1 X86.551 Y12.435 E.01923
G1 X86.551 Y21.679 E.46394
G1 X86.168 Y21.679 E.01923
G1 X86.168 Y12.435 E.46394
G1 X85.785 Y12.435 E.01923
G1 X85.785 Y21.679 E.46394
G1 X85.401 Y21.679 E.01923
G1 X85.401 Y12.435 E.46394
G1 X85.018 Y12.435 E.01923
G1 X85.018 Y21.679 E.46394
G1 X84.635 Y21.679 E.01923
G1 X84.635 Y12.435 E.46394
G1 X84.252 Y12.435 E.01923
G1 X84.252 Y21.679 E.46394
G1 X83.869 Y21.679 E.01923
G1 X83.869 Y12.28 E.47173
G1 E-.7 F3600
;WIPE_START
G1 F6240
G1 X83.869 Y12.8 E-.285
;WIPE_END
G1 E-.015 F3600
G1 X23.295 Y159.246 F7800
G1 E1 F2400
;TYPE:Perimeter
;WIDTH:0.42
G1 F1800
G1 X23.293 Y90.169 E3.46672
G1 X26.453 Y76.21 E.71823
G1 X34.339 Y17.66 E2.96494
G1 X59.679 Y17.66 E1.27172
G1 X55.451 Y24.906 E.42104
G1 X50.163 Y39.194 E.76457
G1 X50.135 Y39.304 E.00572
G1 X44.702 Y79.763 E2.04867
G1 X32.617 Y133.137 E2.74645
G1 X23.345 Y159.105 E1.38379
G1 E-.7 F3600
;WIPE_START
G1 F6240
G1 X23.345 Y158.585 E-.285
;WIPE_END
G1 E-.015 F3600
G1 X22.95 Y161.238 F7800
G1 E1 F2400
;TYPE:External perimeter
G1 F1800
G1 X22.948 Y90.13 E3.5686
G1 X26.111 Y76.164 E.71863
G1 X34.037 Y17.315 E2.98007
G1 X60.28 Y17.315 E1.31702
G1 X55.775 Y25.026 E.4482
G1 X50.486 Y39.313 E.76457
G1 X45.042 Y79.824 E2.05133
G1 X32.948 Y133.234 E2.74826
G1 X23 Y161.097 E1.48478
G1 X23.038 Y160.242 F7800
G1 E-.7 F3600
;WIPE_START
G1 F6240
G1 X23 Y160.577 E-.285
;WIPE_END
G1 E-.015 F3600
G1 X59.246 Y18.196 F7800
G1 E1 F2400
;TYPE:Solid infill
;WIDTH:0.420269
G1 F1800
G1 X58.969 Y17.919 E.01971
G1 X58.481 Y17.919 E.02452
G1 X58.953 Y18.391 E.03356
G1 X58.773 Y18.699 E.01793
G1 X57.992 Y17.919 E.05546
G1 X57.504 Y17.919 E.02452
G1 X58.593 Y19.008 E.07736
G1 X58.414 Y19.316 E.01793
G1 X57.016 Y17.919 E.09927
G1 X56.528 Y17.919 E.02452
G1 X58.234 Y19.624 E.12117
G1 X58.054 Y19.933 E.01793
G1 X56.04 Y17.919 E.14307
G1 X55.552 Y17.919 E.02452
G1 X57.874 Y20.241 E.16498
G1 X57.695 Y20.55 E.01793
G1 X55.064 Y17.919 E.18688
G1 X54.576 Y17.919 E.02452
G1 X57.515 Y20.858 E.20878
G1 X57.335 Y21.166 E.01793
G1 X54.087 Y17.919 E.23069
G1 X53.599 Y17.919 E.02452
G1 X57.155 Y21.475 E.25259
G1 X56.976 Y21.783 E.01793
G1 X53.111 Y17.919 E.27449
G1 X52.623 Y17.919 E.02452
G1 X56.796 Y22.091 E.2964
G1 X56.616 Y22.4 E.01793
G1 X52.135 Y17.919 E.3183
G1 X51.647 Y17.919 E.02452
G1 X56.436 Y22.708 E.3402
G1 X56.257 Y23.017 E.01793
G1 X51.159 Y17.919 E.36211
G1 X50.671 Y17.919 E.02452
G1 X56.077 Y23.325 E.38401
G1 X55.897 Y23.633 E.01793
G1 X50.182 Y17.919 E.40591
G1 X49.694 Y17.919 E.02452
G1 X55.717 Y23.942 E.42782
G1 X55.538 Y24.25 E.01793
G1 X49.206 Y17.919 E.44972
G1 X48.718 Y17.919 E.02452
G1 X55.358 Y24.558 E.47162
G1 X55.187 Y24.876 E.0181
G1 X48.23 Y17.919 E.49416
G1 X47.742 Y17.919 E.02452
G1 X55.055 Y25.232 E.51946
G1 X54.923 Y25.588 E.01908
G1 X47.254 Y17.919 E.54477
G1 X46.766 Y17.919 E.02452
G1 X54.792 Y25.945 E.57008
G1 X54.66 Y26.301 E.01908
G1 X46.277 Y17.919 E.59539
G1 X45.789 Y17.919 E.02452
G1 X54.528 Y26.657 E.62069
G1 X54.396 Y27.013 E.01908
G1 X45.301 Y17.919 E.646
G1 X44.813 Y17.919 E.02452
G1 X54.264 Y27.37 E.67131
G1 X54.132 Y27.726 E.01908
G1 X44.325 Y17.919 E.69661
G1 X43.837 Y17.919 E.02452
G1 X54 Y28.082 E.72192
G1 X53.869 Y28.439 E.01908
G1 X43.349 Y17.919 E.74723
G1 X42.861 Y17.919 E.02452
M73 P0 R262
G1 X53.737 Y28.795 E.77253
G1 X53.605 Y29.151 E.01908
G1 X42.372 Y17.919 E.79784
G1 X41.884 Y17.919 E.02452
G1 X53.473 Y29.507 E.82315
G1 X53.341 Y29.864 E.01908
G1 X41.396 Y17.919 E.84845
G1 X40.908 Y17.919 E.02452
G1 X53.209 Y30.22 E.87376
G1 X53.078 Y30.576 E.01908
G1 X40.42 Y17.919 E.89907
G1 X39.932 Y17.919 E.02452
G1 X52.946 Y30.933 E.92437
G1 X52.814 Y31.289 E.01908
G1 X39.444 Y17.919 E.94968
G1 X38.955 Y17.919 E.02452
G1 X52.682 Y31.645 E.97499
G1 X52.55 Y32.001 E.01908
G1 X38.467 Y17.919 E1.00029
G1 X37.979 Y17.919 E.02452
G1 X52.418 Y32.358 E1.0256
G1 X52.287 Y32.714 E.01908
G1 X37.491 Y17.919 E1.05091
G1 X37.003 Y17.919 E.02452
G1 X52.155 Y33.07 E1.07621
G1 X52.023 Y33.427 E.01908
