; generated by PrusaSlicer 2.5.0+win64 on 2022-12-07 at 00:06:45 UTC

; 

; external perimeters extrusion width = 1.00mm
; perimeters extrusion width = 1.00mm
; infill extrusion width = 1.00mm
; solid infill extrusion width = 1.00mm
; top infill extrusion width = 1.00mm
; support material extrusion width = 1.00mm
; first layer extrusion width = 0.42mm

M73 P0 R306
M107
;TYPE:Custom
G90 ; use absolute coordinates
M83 ; extruder relative mode
M140 S60 ; set final bed temp
M104 S150 ; set temporary nozzle temp to prevent oozing during homing and auto bed leveling
G4 S10 ; allow partial nozzle warmup
G28 ; home all axisG1 Z50 F240
G1 X7.6 Y10 F3000
M104 S210 ; set final nozzle temp
M190 S60 ; wait for bed temp to stabilize
M109 S210 ; wait for nozzle temp to stabilize
G1 Z0.28 F240
G92 E0
G1 Y140 E10 F1500 ; prime the nozzle
G1 X4 F5000
G92 E0
G1 Y10 E10 F1200 ; prime the nozzle
G92 E0
G21 ; set units to millimeters
G90 ; use absolute coordinates
M83 ; use relative distances for extrusion
; Filament gcode
M107
;LAYER_CHANGE
;Z:0.35
;HEIGHT:0.35
;BEFORE_LAYER_CHANGE
G92 E0
;0.35


G1 E-1 F3600
M73 P0 R305
G1 Z.35 F7800
;AFTER_LAYER_CHANGE
;0.35
G1 X133.949 Y21.99
G1 E1 F2400
;TYPE:Support material
;WIDTH:0.42
G1 F1800
G1 X18.91 Y21.99 E5.77333
G1 X18.91 Y12.124 E.49509
G1 X133.949 Y12.124 E5.77333
G1 X133.949 Y21.938 E.4925
G1 X133.303 Y21.834 F7800
G1 F1800
G1 X133.303 Y12.435 E.47173
G1 X132.92 Y12.435 E.01923
G1 X132.92 Y21.679 E.46394
G1 X132.536 Y21.679 E.01923
G1 X132.536 Y12.435 E.46394
G1 X132.153 Y12.435 E.01923
G1 X132.153 Y21.679 E.46394
G1 X131.77 Y21.679 E.01923
G1 X131.77 Y12.435 E.46394
G1 X131.387 Y12.435 E.01923
G1 X131.387 Y21.679 E.46394
G1 X131.003 Y21.679 E.01923
G1 X131.003 Y12.435 E.46394
G1 X130.62 Y12.435 E.01923
G1 X130.62 Y21.679 E.46394
G1 X130.237 Y21.679 E.01923
G1 X130.237 Y12.435 E.46394
G1 X129.854 Y12.435 E.01923
G1 X129.854 Y21.679 E.46394
G1 X129.471 Y21.679 E.01923
G1 X129.471 Y12.435 E.46394
G1 X129.087 Y12.435 E.01923
G1 X129.087 Y21.679 E.46394
G1 X128.704 Y21.679 E.01923
G1 X128.704 Y12.435 E.46394
G1 X128.321 Y12.435 E.01923
G1 X128.321 Y21.679 E.46394
G1 X127.938 Y21.679 E.01923
G1 X127.938 Y12.435 E.46394
G1 X127.555 Y12.435 E.01923
G1 X127.555 Y21.679 E.46394
G1 X127.171 Y21.679 E.01923
G1 X127.171 Y12.435 E.46394
G1 X126.788 Y12.435 E.01923
G1 X126.788 Y21.679 E.46394
G1 X126.405 Y21.679 E.01923
G1 X126.405 Y12.435 E.46394
G1 X126.022 Y12.435 E.01923
G1 X126.022 Y21.679 E.46394
G1 X125.639 Y21.679 E.01923
G1 X125.639 Y12.435 E.46394
G1 X125.255 Y12.435 E.01923
G1 X125.255 Y21.679 E.46394
G1 X124.872 Y21.679 E.01923
G1 X124.872 Y12.435 E.46394
G1 X124.489 Y12.435 E.01923
G1 X124.489 Y21.679 E.46394
G1 X124.106 Y21.679 E.01923
G1 X124.106 Y12.435 E.46394
G1 X123.722 Y12.435 E.01923
G1 X123.722 Y21.679 E.46394
G1 X123.339 Y21.679 E.01923
G1 X123.339 Y12.435 E.46394
G1 X122.956 Y12.435 E.01923
G1 X122.956 Y21.679 E.46394
G1 X122.573 Y21.679 E.01923
G1 X122.573 Y12.435 E.46394
G1 X122.19 Y12.435 E.01923
G1 X122.19 Y21.679 E.46394
G1 X121.806 Y21.679 E.01923
G1 X121.806 Y12.435 E.46394
G1 X121.423 Y12.435 E.01923
G1 X121.423 Y21.679 E.46394
G1 X121.04 Y21.679 E.01923
G1 X121.04 Y12.435 E.46394
G1 X120.657 Y12.435 E.01923
G1 X120.657 Y21.679 E.46394
G1 X120.274 Y21.679 E.01923
G1 X120.274 Y12.435 E.46394
G1 X119.89 Y12.435 E.01923
G1 X119.89 Y21.679 E.46394
G1 X119.507 Y21.679 E.01923
G1 X119.507 Y12.435 E.46394
G1 X119.124 Y12.435 E.01923
G1 X119.124 Y21.679 E.46394
G1 X118.741 Y21.679 E.01923
G1 X118.741 Y12.435 E.46394
G1 X118.358 Y12.435 E.01923
G1 X118.358 Y21.679 E.46394
G1 X117.974 Y21.679 E.01923
G1 X117.974 Y12.435 E.46394
G1 X117.591 Y12.435 E.01923
G1 X117.591 Y21.679 E.46394
G1 X117.208 Y21.679 E.01923
G1 X117.208 Y12.435 E.46394
G1 X116.825 Y12.435 E.01923
G1 X116.825 Y21.679 E.46394
G1 X116.441 Y21.679 E.01923
G1 X116.441 Y12.435 E.46394
G1 X116.058 Y12.435 E.01923
G1 X116.058 Y21.679 E.46394
G1 X115.675 Y21.679 E.01923
G1 X115.675 Y12.435 E.46394
G1 X115.292 Y12.435 E.01923
G1 X115.292 Y21.679 E.46394
G1 X114.909 Y21.679 E.01923
G1 X114.909 Y12.435 E.46394
G1 X114.525 Y12.435 E.01923
G1 X114.525 Y21.679 E.46394
G1 X114.142 Y21.679 E.01923
G1 X114.142 Y12.435 E.46394
G1 X113.759 Y12.435 E.01923
G1 X113.759 Y21.679 E.46394
G1 X113.376 Y21.679 E.01923
G1 X113.376 Y12.435 E.46394
G1 X112.993 Y12.435 E.01923
G1 X112.993 Y21.679 E.46394
G1 X112.609 Y21.679 E.01923
G1 X112.609 Y12.435 E.46394
G1 X112.226 Y12.435 E.01923
G1 X112.226 Y21.679 E.46394
G1 X111.843 Y21.679 E.01923
G1 X111.843 Y12.435 E.46394
G1 X111.46 Y12.435 E.01923
G1 X111.46 Y21.679 E.46394
G1 X111.077 Y21.679 E.01923
G1 X111.077 Y12.435 E.46394
G1 X110.693 Y12.435 E.01923
G1 X110.693 Y21.679 E.46394
G1 X110.31 Y21.679 E.01923
G1 X110.31 Y12.435 E.46394
G1 X109.927 Y12.435 E.01923
G1 X109.927 Y21.679 E.46394
G1 X109.544 Y21.679 E.01923
G1 X109.544 Y12.435 E.46394
G1 X109.16 Y12.435 E.01923
G1 X109.16 Y21.679 E.46394
G1 X108.777 Y21.679 E.01923
G1 X108.777 Y12.435 E.46394
G1 X108.394 Y12.435 E.01923
G1 X108.394 Y21.679 E.46394
G1 X108.011 Y21.679 E.01923
G1 X108.011 Y12.435 E.46394
G1 X107.628 Y12.435 E.01923
G1 X107.628 Y21.679 E.46394
G1 X107.244 Y21.679 E.01923
G1 X107.244 Y12.435 E.46394
G1 X106.861 Y12.435 E.01923
G1 X106.861 Y21.679 E.46394
G1 X106.478 Y21.679 E.01923
G1 X106.478 Y12.435 E.46394
G1 X106.095 Y12.435 E.01923
G1 X106.095 Y21.679 E.46394
G1 X105.712 Y21.679 E.01923
G1 X105.712 Y12.435 E.46394
G1 X105.328 Y12.435 E.01923
G1 X105.328 Y21.679 E.46394
G1 X104.945 Y21.679 E.01923
G1 X104.945 Y12.435 E.46394
G1 X104.562 Y12.435 E.01923
G1 X104.562 Y21.679 E.46394
G1 X104.179 Y21.679 E.01923
G1 X104.179 Y12.435 E.46394
G1 X103.796 Y12.435 E.01923
G1 X103.796 Y21.679 E.46394
G1 X103.412 Y21.679 E.01923
G1 X103.412 Y12.435 E.46394
G1 X103.029 Y12.435 E.01923
G1 X103.029 Y21.679 E.46394
G1 X102.646 Y21.679 E.01923
G1 X102.646 Y12.435 E.46394
G1 X102.263 Y12.435 E.01923
G1 X102.263 Y21.679 E.46394
G1 X101.88 Y21.679 E.01923
G1 X101.88 Y12.435 E.46394
G1 X101.496 Y12.435 E.01923
G1 X101.496 Y21.679 E.46394
G1 X101.113 Y21.679 E.01923
G1 X101.113 Y12.435 E.46394
G1 X100.73 Y12.435 E.01923
G1 X100.73 Y21.679 E.46394
G1 X100.347 Y21.679 E.01923
G1 X100.347 Y12.435 E.46394
G1 X99.963 Y12.435 E.01923
G1 X99.963 Y21.679 E.46394
G1 X99.58 Y21.679 E.01923
G1 X99.58 Y12.435 E.46394
G1 X99.197 Y12.435 E.01923
G1 X99.197 Y21.679 E.46394
G1 X98.814 Y21.679 E.01923
G1 X98.814 Y12.435 E.46394
G1 X98.431 Y12.435 E.01923
G1 X98.431 Y21.679 E.46394
G1 X98.047 Y21.679 E.01923
G1 X98.047 Y12.435 E.46394
G1 X97.664 Y12.435 E.01923
G1 X97.664 Y21.679 E.46394
G1 X97.281 Y21.679 E.01923
G1 X97.281 Y12.435 E.46394
G1 X96.898 Y12.435 E.01923
G1 X96.898 Y21.679 E.46394
G1 X96.515 Y21.679 E.01923
G1 X96.515 Y12.435 E.46394
G1 X96.131 Y12.435 E.01923
G1 X96.131 Y21.679 E.46394
G1 X95.748 Y21.679 E.01923
G1 X95.748 Y12.435 E.46394
G1 X95.365 Y12.435 E.01923
G1 X95.365 Y21.679 E.46394
G1 X94.982 Y21.679 E.01923
G1 X94.982 Y12.435 E.46394
G1 X94.599 Y12.435 E.01923
G1 X94.599 Y21.679 E.46394
G1 X94.215 Y21.679 E.01923
G1 X94.215 Y12.435 E.46394
G1 X93.832 Y12.435 E.01923
G1 X93.832 Y21.679 E.46394
G1 X93.449 Y21.679 E.01923
G1 X93.449 Y12.435 E.46394
G1 X93.066 Y12.435 E.01923
G1 X93.066 Y21.679 E.46394
G1 X92.682 Y21.679 E.01923
G1 X92.682 Y12.435 E.46394
G1 X92.299 Y12.435 E.01923
G1 X92.299 Y21.679 E.46394
G1 X91.916 Y21.679 E.01923
G1 X91.916 Y12.435 E.46394
G1 X91.533 Y12.435 E.01923
G1 X91.533 Y21.679 E.46394
G1 X91.15 Y21.679 E.01923
G1 X91.15 Y12.435 E.46394
G1 X90.766 Y12.435 E.01923
G1 X90.766 Y21.679 E.46394
G1 X90.383 Y21.679 E.01923
G1 X90.383 Y12.435 E.46394
G1 X90 Y12.435 E.01923
G1 X90 Y21.679 E.46394
G1 X89.617 Y21.679 E.01923
G1 X89.617 Y12.435 E.46394
G1 X89.234 Y12.435 E.01923
G1 X89.234 Y21.679 E.46394
G1 X88.85 Y21.679 E.01923
G1 X88.85 Y12.435 E.46394
G1 X88.467 Y12.435 E.01923
G1 X88.467 Y21.679 E.46394
G1 X88.084 Y21.679 E.01923
G1 X88.084 Y12.435 E.46394
G1 X87.701 Y12.435 E.01923
G1 X87.701 Y21.679 E.46394
G1 X87.318 Y21.679 E.01923
G1 X87.318 Y12.435 E.46394
G1 X86.934 Y12.435 E.01923
M73 P0 R304
G1 X86.934 Y21.679 E.46394
G1 X86.551 Y21.679 E.01923
G1 X86.551 Y12.435 E.46394
G1 X86.168 Y12.435 E.01923
G1 X86.168 Y21.679 E.46394
G1 X85.785 Y21.679 E.01923
G1 X85.785 Y12.435 E.46394
G1 X85.401 Y12.435 E.01923
G1 X85.401 Y21.679 E.46394
G1 X85.018 Y21.679 E.01923
G1 X85.018 Y12.435 E.46394
G1 X84.635 Y12.435 E.01923
G1 X84.635 Y21.679 E.46394
G1 X84.252 Y21.679 E.01923
G1 X84.252 Y12.435 E.46394
G1 X83.869 Y12.435 E.01923
G1 X83.869 Y21.679 E.46394
G1 X83.485 Y21.679 E.01923
G1 X83.485 Y12.435 E.46394
G1 X83.102 Y12.435 E.01923
G1 X83.102 Y21.679 E.46394
G1 X82.719 Y21.679 E.01923
G1 X82.719 Y12.435 E.46394
G1 X82.336 Y12.435 E.01923
G1 X82.336 Y21.679 E.46394
G1 X81.953 Y21.679 E.01923
G1 X81.953 Y12.435 E.46394
G1 X81.569 Y12.435 E.01923
G1 X81.569 Y21.679 E.46394
G1 X81.186 Y21.679 E.01923
G1 X81.186 Y12.435 E.46394
G1 X80.803 Y12.435 E.01923
G1 X80.803 Y21.679 E.46394
G1 X80.42 Y21.679 E.01923
G1 X80.42 Y12.435 E.46394
G1 X80.037 Y12.435 E.01923
G1 X80.037 Y21.679 E.46394
G1 X79.653 Y21.679 E.01923
G1 X79.653 Y12.435 E.46394
G1 X79.27 Y12.435 E.01923
G1 X79.27 Y21.679 E.46394
G1 X78.887 Y21.679 E.01923
G1 X78.887 Y12.435 E.46394
G1 X78.504 Y12.435 E.01923
G1 X78.504 Y21.679 E.46394
G1 X78.12 Y21.679 E.01923
G1 X78.12 Y12.435 E.46394
G1 X77.737 Y12.435 E.01923
G1 X77.737 Y21.679 E.46394
G1 X77.354 Y21.679 E.01923
G1 X77.354 Y12.435 E.46394
G1 X76.971 Y12.435 E.01923
G1 X76.971 Y21.679 E.46394
G1 X76.588 Y21.679 E.01923
G1 X76.588 Y12.435 E.46394
G1 X76.204 Y12.435 E.01923
G1 X76.204 Y21.679 E.46394
G1 X75.821 Y21.679 E.01923
G1 X75.821 Y12.435 E.46394
G1 X75.438 Y12.435 E.01923
G1 X75.438 Y21.679 E.46394
G1 X75.055 Y21.679 E.01923
G1 X75.055 Y12.435 E.46394
G1 X74.672 Y12.435 E.01923
G1 X74.672 Y21.679 E.46394
G1 X74.288 Y21.679 E.01923
G1 X74.288 Y12.435 E.46394
G1 X73.905 Y12.435 E.01923
G1 X73.905 Y21.679 E.46394
G1 X73.522 Y21.679 E.01923
G1 X73.522 Y12.435 E.46394
G1 X73.139 Y12.435 E.01923
G1 X73.139 Y21.679 E.46394
G1 X72.756 Y21.679 E.01923
G1 X72.756 Y12.435 E.46394
G1 X72.372 Y12.435 E.01923
G1 X72.372 Y21.679 E.46394
G1 X71.989 Y21.679 E.01923
G1 X71.989 Y12.435 E.46394
G1 X71.606 Y12.435 E.01923
G1 X71.606 Y21.679 E.46394
G1 X71.223 Y21.679 E.01923
G1 X71.223 Y12.435 E.46394
G1 X70.839 Y12.435 E.01923
G1 X70.839 Y21.679 E.46394
G1 X70.456 Y21.679 E.01923
G1 X70.456 Y12.435 E.46394
G1 X70.073 Y12.435 E.01923
G1 X70.073 Y21.679 E.46394
G1 X69.69 Y21.679 E.01923
G1 X69.69 Y12.435 E.46394
G1 X69.307 Y12.435 E.01923
G1 X69.307 Y21.679 E.46394
G1 X68.923 Y21.679 E.01923
G1 X68.923 Y12.435 E.46394
G1 X68.54 Y12.435 E.01923
G1 X68.54 Y21.679 E.46394
G1 X68.157 Y21.679 E.01923
G1 X68.157 Y12.435 E.46394
G1 X67.774 Y12.435 E.01923
G1 X67.774 Y21.679 E.46394
G1 X67.391 Y21.679 E.01923
G1 X67.391 Y12.435 E.46394
G1 X67.007 Y12.435 E.01923
G1 X67.007 Y21.679 E.46394
G1 X66.624 Y21.679 E.01923
G1 X66.624 Y12.435 E.46394
G1 X66.241 Y12.435 E.01923
G1 X66.241 Y21.679 E.46394
G1 X65.858 Y21.679 E.01923
G1 X65.858 Y12.435 E.46394
G1 X65.475 Y12.435 E.01923
G1 X65.475 Y21.679 E.46394
G1 X65.091 Y21.679 E.01923
G1 X65.091 Y12.435 E.46394
G1 X64.708 Y12.435 E.01923
G1 X64.708 Y21.679 E.46394
G1 X64.325 Y21.679 E.01923
G1 X64.325 Y12.435 E.46394
G1 X63.942 Y12.435 E.01923
G1 X63.942 Y21.679 E.46394
G1 X63.559 Y21.679 E.01923
G1 X63.559 Y12.435 E.46394
G1 X63.175 Y12.435 E.01923
G1 X63.175 Y21.679 E.46394
G1 X62.792 Y21.679 E.01923
G1 X62.792 Y12.435 E.46394
G1 X62.409 Y12.435 E.01923
G1 X62.409 Y21.679 E.46394
G1 X62.026 Y21.679 E.01923
G1 X62.026 Y12.435 E.46394
G1 X61.642 Y12.435 E.01923
G1 X61.642 Y21.679 E.46394
G1 X61.259 Y21.679 E.01923
G1 X61.259 Y12.435 E.46394
G1 X60.876 Y12.435 E.01923
G1 X60.876 Y21.679 E.46394
G1 X60.493 Y21.679 E.01923
G1 X60.493 Y12.435 E.46394
G1 X60.11 Y12.435 E.01923
G1 X60.11 Y21.679 E.46394
G1 X59.726 Y21.679 E.01923
G1 X59.726 Y12.435 E.46394
G1 X59.343 Y12.435 E.01923
G1 X59.343 Y21.679 E.46394
G1 X58.96 Y21.679 E.01923
G1 X58.96 Y12.435 E.46394
G1 X58.577 Y12.435 E.01923
G1 X58.577 Y21.679 E.46394
G1 X58.194 Y21.679 E.01923
G1 X58.194 Y12.435 E.46394
G1 X57.81 Y12.435 E.01923
G1 X57.81 Y21.679 E.46394
G1 X57.427 Y21.679 E.01923
G1 X57.427 Y12.435 E.46394
G1 X57.044 Y12.435 E.01923
G1 X57.044 Y21.679 E.46394
G1 X56.661 Y21.679 E.01923
G1 X56.661 Y12.435 E.46394
G1 X56.278 Y12.435 E.01923
G1 X56.278 Y21.679 E.46394
G1 X55.894 Y21.679 E.01923
G1 X55.894 Y12.435 E.46394
G1 X55.511 Y12.435 E.01923
G1 X55.511 Y21.679 E.46394
G1 X55.128 Y21.679 E.01923
G1 X55.128 Y12.435 E.46394
G1 X54.745 Y12.435 E.01923
G1 X54.745 Y21.679 E.46394
G1 X54.361 Y21.679 E.01923
G1 X54.361 Y12.435 E.46394
G1 X53.978 Y12.435 E.01923
G1 X53.978 Y21.679 E.46394
G1 X53.595 Y21.679 E.01923
G1 X53.595 Y12.435 E.46394
G1 X53.212 Y12.435 E.01923
G1 X53.212 Y21.679 E.46394
G1 X52.829 Y21.679 E.01923
G1 X52.829 Y12.435 E.46394
G1 X52.445 Y12.435 E.01923
G1 X52.445 Y21.679 E.46394
G1 X52.062 Y21.679 E.01923
G1 X52.062 Y12.435 E.46394
G1 X51.679 Y12.435 E.01923
G1 X51.679 Y21.679 E.46394
G1 X51.296 Y21.679 E.01923
G1 X51.296 Y12.435 E.46394
G1 X50.913 Y12.435 E.01923
G1 X50.913 Y21.679 E.46394
G1 X50.529 Y21.679 E.01923
G1 X50.529 Y12.435 E.46394
G1 X50.146 Y12.435 E.01923
G1 X50.146 Y21.679 E.46394
G1 X49.763 Y21.679 E.01923
G1 X49.763 Y12.435 E.46394
G1 X49.38 Y12.435 E.01923
G1 X49.38 Y21.679 E.46394
G1 X48.997 Y21.679 E.01923
G1 X48.997 Y12.435 E.46394
G1 X48.613 Y12.435 E.01923
G1 X48.613 Y21.679 E.46394
G1 X48.23 Y21.679 E.01923
G1 X48.23 Y12.435 E.46394
G1 X47.847 Y12.435 E.01923
G1 X47.847 Y21.679 E.46394
G1 X47.464 Y21.679 E.01923
G1 X47.464 Y12.435 E.46394
G1 X47.08 Y12.435 E.01923
G1 X47.08 Y21.679 E.46394
G1 X46.697 Y21.679 E.01923
G1 X46.697 Y12.435 E.46394
G1 X46.314 Y12.435 E.01923
G1 X46.314 Y21.679 E.46394
G1 X45.931 Y21.679 E.01923
G1 X45.931 Y12.435 E.46394
G1 X45.548 Y12.435 E.01923
G1 X45.548 Y21.679 E.46394
G1 X45.164 Y21.679 E.01923
G1 X45.164 Y12.435 E.46394
G1 X44.781 Y12.435 E.01923
G1 X44.781 Y21.679 E.46394
G1 X44.398 Y21.679 E.01923
G1 X44.398 Y12.435 E.46394
G1 X44.015 Y12.435 E.01923
G1 X44.015 Y21.679 E.46394
G1 X43.632 Y21.679 E.01923
G1 X43.632 Y12.435 E.46394
G1 X43.248 Y12.435 E.01923
G1 X43.248 Y21.679 E.46394
G1 X42.865 Y21.679 E.01923
G1 X42.865 Y12.435 E.46394
G1 X42.482 Y12.435 E.01923
G1 X42.482 Y21.679 E.46394
G1 X42.099 Y21.679 E.01923
G1 X42.099 Y12.435 E.46394
G1 X41.716 Y12.435 E.01923
G1 X41.716 Y21.679 E.46394
G1 X41.332 Y21.679 E.01923
G1 X41.332 Y12.435 E.46394
G1 X40.949 Y12.435 E.01923
G1 X40.949 Y21.679 E.46394
G1 X40.566 Y21.679 E.01923
G1 X40.566 Y12.435 E.46394
G1 X40.183 Y12.435 E.01923
G1 X40.183 Y21.679 E.46394
G1 X39.799 Y21.679 E.01923
G1 X39.799 Y12.435 E.46394
G1 X39.416 Y12.435 E.01923
G1 X39.416 Y21.679 E.46394
G1 X39.033 Y21.679 E.01923
G1 X39.033 Y12.435 E.46394
G1 X38.65 Y12.435 E.01923
G1 X38.65 Y21.679 E.46394
G1 X38.267 Y21.679 E.01923
G1 X38.267 Y12.435 E.46394
G1 X37.883 Y12.435 E.01923
G1 X37.883 Y21.679 E.46394
G1 X37.5 Y21.679 E.01923
G1 X37.5 Y12.435 E.46394
G1 X37.117 Y12.435 E.01923
G1 X37.117 Y21.679 E.46394
G1 X36.734 Y21.679 E.01923
G1 X36.734 Y12.435 E.46394
G1 X36.351 Y12.435 E.01923
G1 X36.351 Y21.679 E.46394
G1 X35.967 Y21.679 E.01923
G1 X35.967 Y12.435 E.46394
G1 X35.584 Y12.435 E.01923
G1 X35.584 Y21.679 E.46394
G1 X35.201 Y21.679 E.01923
G1 X35.201 Y12.435 E.46394
G1 X34.818 Y12.435 E.01923
G1 X34.818 Y21.679 E.46394
G1 X34.435 Y21.679 E.01923
G1 X34.435 Y12.435 E.46394
G1 X34.051 Y12.435 E.01923
G1 X34.051 Y21.679 E.46394
G1 X33.668 Y21.679 E.01923
G1 X33.668 Y12.435 E.46394
G1 X33.285 Y12.435 E.01923
G1 X33.285 Y21.679 E.46394
G1 X32.902 Y21.679 E.01923
G1 X32.902 Y12.435 E.46394
G1 X32.518 Y12.435 E.01923
G1 X32.518 Y21.679 E.46394
G1 X32.135 Y21.679 E.01923
G1 X32.135 Y12.435 E.46394
G1 X31.752 Y12.435 E.01923
G1 X31.752 Y21.679 E.46394
G1 X31.369 Y21.679 E.01923
G1 X31.369 Y12.435 E.46394
G1 X30.986 Y12.435 E.01923
G1 X30.986 Y21.679 E.46394
G1 X30.602 Y21.679 E.01923
G1 X30.602 Y12.435 E.46394
