; generated by PrusaSlicer 2.5.0+win64 on 2022-12-07 at 00:32:40 UTC

; 

; external perimeters extrusion width = 1.00mm
; perimeters extrusion width = 1.00mm
; infill extrusion width = 1.00mm
; solid infill extrusion width = 1.00mm
; top infill extrusion width = 1.00mm
; support material extrusion width = 1.00mm
; first layer extrusion width = 0.42mm

M73 P0 R28
M107
;TYPE:Custom
G90 ; use absolute coordinates
M83 ; extruder relative mode
M140 S60 ; set final bed temp
M104 S150 ; set temporary nozzle temp to prevent oozing during homing and auto bed leveling
G4 S10 ; allow partial nozzle warmup
G28 ; home all axisG1 Z50 F240
G1 X7.6 Y10 F3000
M104 S210 ; set final nozzle temp
M190 S60 ; wait for bed temp to stabilize
M109 S210 ; wait for nozzle temp to stabilize
G1 Z0.28 F240
G92 E0
G1 Y140 E10 F1500 ; prime the nozzle
G1 X4 F5000
G92 E0
G1 Y10 E10 F1200 ; prime the nozzle
G92 E0
G21 ; set units to millimeters
G90 ; use absolute coordinates
M83 ; use relative distances for extrusion
; Filament gcode
M107
;LAYER_CHANGE
;Z:0.35
;HEIGHT:0.35
;BEFORE_LAYER_CHANGE
G92 E0
;0.35


G1 E-1 F3600
G1 Z.35 F7800
;AFTER_LAYER_CHANGE
;0.35
G1 X66.085 Y60.833
G1 E1 F2400
;TYPE:Support material interface
;WIDTH:1
G1 F1800
G1 X66.085 Y59.203 E.21945
G1 X66.978 Y59.203 E.12014
G1 X66.978 Y60.432 E.16539
G1 X67.871 Y60.432 E.12014
G1 X67.871 Y59.203 E.16539
G1 X68.764 Y59.203 E.12014
G1 X68.764 Y62.596 E.45661
G1 X69.656 Y62.596 E.12014
G1 X69.656 Y59.203 E.45661
G1 X70.549 Y59.203 E.12014
G1 X70.549 Y62.596 E.45661
G1 X71.442 Y62.596 E.12014
G1 X71.442 Y59.203 E.45661
G1 X72.334 Y59.203 E.12014
G1 X72.334 Y62.596 E.45661
G1 X73.227 Y62.596 E.12014
G1 X73.227 Y59.203 E.45661
G1 X74.12 Y59.203 E.12014
G1 X74.12 Y62.596 E.45661
G1 X75.012 Y62.596 E.12014
G1 X75.012 Y59.203 E.45661
G1 X75.905 Y59.203 E.12014
G1 X75.905 Y62.997 E.51067
G1 E-.7 F3600
;WIPE_START
G1 F6240
G1 X75.905 Y62.477 E-.285
;WIPE_END
G1 E-.015 F3600
G1 X72.622 Y89.581 F7800
G1 E1 F2400
;TYPE:Support material
;WIDTH:0.42
G1 F1800
G1 X59.364 Y89.581 E.66536
G1 X59.364 Y66.145 E1.17616
G1 X72.622 Y66.145 E.66536
M73 P1 R28
G1 X72.622 Y89.529 E1.17356
G1 X72.114 Y89.426 F7800
G1 F1800
G1 X72.114 Y66.455 E1.15279
G1 X71.731 Y66.455 E.01923
G1 X71.731 Y89.27 E1.145
G1 X71.348 Y89.27 E.01923
G1 X71.348 Y66.455 E1.145
G1 X70.965 Y66.455 E.01923
G1 X70.965 Y89.27 E1.145
G1 X70.582 Y89.27 E.01923
G1 X70.582 Y66.455 E1.145
G1 X70.198 Y66.455 E.01923
G1 X70.198 Y89.27 E1.145
G1 X69.815 Y89.27 E.01923
G1 X69.815 Y66.455 E1.145
G1 X69.432 Y66.455 E.01923
G1 X69.432 Y89.27 E1.145
G1 X69.049 Y89.27 E.01923
G1 X69.049 Y66.455 E1.145
G1 X68.665 Y66.455 E.01923
G1 X68.665 Y89.27 E1.145
G1 X68.282 Y89.27 E.01923
G1 X68.282 Y66.455 E1.145
G1 X67.899 Y66.455 E.01923
G1 X67.899 Y89.27 E1.145
G1 X67.516 Y89.27 E.01923
G1 X67.516 Y66.455 E1.145
G1 X67.133 Y66.455 E.01923
G1 X67.133 Y89.27 E1.145
G1 X66.749 Y89.27 E.01923
G1 X66.749 Y66.455 E1.145
G1 X66.366 Y66.455 E.01923
G1 X66.366 Y89.27 E1.145
G1 X65.983 Y89.27 E.01923
G1 X65.983 Y66.455 E1.145
G1 X65.6 Y66.455 E.01923
G1 X65.6 Y89.27 E1.145
G1 X65.217 Y89.27 E.01923
G1 X65.217 Y66.455 E1.145
G1 X64.833 Y66.455 E.01923
G1 X64.833 Y89.27 E1.145
G1 X64.45 Y89.27 E.01923
M73 P2 R28
G1 X64.45 Y66.455 E1.145
G1 X64.067 Y66.455 E.01923
G1 X64.067 Y89.27 E1.145
G1 X63.684 Y89.27 E.01923
G1 X63.684 Y66.455 E1.145
G1 X63.301 Y66.455 E.01923
G1 X63.301 Y89.27 E1.145
G1 X62.917 Y89.27 E.01923
G1 X62.917 Y66.455 E1.145
G1 X62.534 Y66.455 E.01923
G1 X62.534 Y89.27 E1.145
G1 X62.151 Y89.27 E.01923
G1 X62.151 Y66.455 E1.145
G1 X61.768 Y66.455 E.01923
G1 X61.768 Y89.27 E1.145
G1 X61.384 Y89.27 E.01923
G1 X61.384 Y66.455 E1.145
G1 X61.001 Y66.455 E.01923
G1 X61.001 Y89.27 E1.145
G1 X60.618 Y89.27 E.01923
G1 X60.618 Y66.455 E1.145
G1 X60.235 Y66.455 E.01923
G1 X60.235 Y89.27 E1.145
G1 X59.852 Y89.27 E.01923
G1 X59.852 Y66.3 E1.15279
G1 E-.7 F3600
;WIPE_START
G1 F6240
G1 X59.852 Y66.82 E-.285
;WIPE_END
G1 E-.015 F3600
G1 X65.255 Y61.453 F7800
G1 E1 F2400
;TYPE:External perimeter
;WIDTH:0.925111
G1 F1800
G1 X65.149 Y61.453 E.01314
G1 X65.096 Y61.546 E.01314
G1 X65.149 Y61.638 E.01314
G1 X65.255 Y61.638 E.01314
G1 X65.308 Y61.546 E.01314
M106 S255
;LAYER_CHANGE
;Z:0.65
;HEIGHT:0.3
;BEFORE_LAYER_CHANGE
G92 E0
;0.65


G1 E-.7 F3600
;WIPE_START
G1 F6240
G1 X65.255 Y61.638 E-.05823
G1 X65.149 Y61.638 E-.05823
G1 X65.096 Y61.546 E-.05823
G1 X65.149 Y61.453 E-.05823
G1 X65.244 Y61.453 E-.05207
;WIPE_END
G1 E-.015 F3600
G1 Z.65 F7800
;AFTER_LAYER_CHANGE
;0.65
M104 S205 ; set temperature
G1 X66.085 Y60.833
G1 E1 F2400
;TYPE:Support material interface
;WIDTH:1
G1 F900
G1 X66.085 Y59.203 E.19028
G1 X66.978 Y59.203 E.10417
G1 X66.978 Y60.432 E.14341
G1 X67.871 Y60.432 E.10417
G1 X67.871 Y59.203 E.14341
G1 X68.764 Y59.203 E.10417
G1 X68.764 Y62.596 E.39592
G1 X69.656 Y62.596 E.10417
G1 X69.656 Y59.203 E.39592
G1 X70.549 Y59.203 E.10417
G1 X70.549 Y62.596 E.39592
G1 X71.442 Y62.596 E.10417
G1 X71.442 Y59.203 E.39592
G1 X72.334 Y59.203 E.10417
G1 X72.334 Y62.997 E.44279
;LAYER_CHANGE
;Z:0.75
;HEIGHT:0.1
;BEFORE_LAYER_CHANGE
G92 E0
;0.75


G1 E-.7 F3600
;WIPE_START
G1 F6240
G1 X72.334 Y62.477 E-.285
;WIPE_END
G1 E-.015 F3600
G1 Z.75 F7800
;AFTER_LAYER_CHANGE
;0.75
G1 X69.656 Y60.833
G1 E1 F2400
G1 F900
G1 X69.656 Y59.203 E.06634
G1 X70.549 Y59.203 E.03632
G1 X70.549 Y61.069 E.07591
G1 X70.762 Y61.783 E.03031
G1 X70.614 Y61.88 E.00719
G1 X71.084 Y62.596 E.03484
G1 X71.442 Y62.596 E.01455
G1 X71.442 Y59.203 E.13803
G1 X72.334 Y59.203 E.03632
G1 X72.334 Y62.596 E.13803
G1 X73.227 Y62.596 E.03632
G1 X73.227 Y59.203 E.13803
G1 X73.725 Y59.203 E.02025
;HEIGHT:0.4
G1 X74.12 Y59.203 E.06003
G1 X74.12 Y62.596 E.51578
G1 X75.012 Y62.596 E.13571
G1 X75.012 Y59.203 E.51578
G1 X75.905 Y59.203 E.13571
G1 X75.905 Y62.997 E.57685
G1 E-.7 F3600
;WIPE_START
G1 F6240
G1 X75.905 Y62.477 E-.285
;WIPE_END
G1 E-.015 F3600
G1 X68.439 Y60.378 F7800
G1 E1 F2400
;TYPE:Support material
;HEIGHT:0.1
G1 F900
G1 X66.047 Y60.378 E.09734
G1 X66.047 Y59.257 E.04563
G1 X68.439 Y59.257 E.09734
G1 X68.439 Y60.241 E.04005
G1 E-.7 F3600
;WIPE_START
G1 F6240
G1 X68.439 Y59.721 E-.285
;WIPE_END
G1 E-.015 F3600
G1 X68.922 Y72.774 F7800
G1 E1 F2400
;HEIGHT:0.4
M73 P3 R28
G1 F900
G1 X63.466 Y72.774 E.82942
G1 X63.466 Y76.166 E.51578
G1 X68.52 Y76.166 E.76835
G1 X68.52 Y79.559 E.51578
G1 X63.466 Y79.559 E.76835
G1 X63.466 Y82.952 E.51578
G1 X68.922 Y82.952 E.82942
G1 X69.332 Y86.154 F7800
G1 F900
G1 X69.332 Y69.435 E2.54172
G1 X62.654 Y69.435 E1.01524
G1 X62.654 Y86.291 E2.56257
G1 X69.332 Y86.291 E1.01524
;LAYER_CHANGE
;Z:0.85
;HEIGHT:0.1
;BEFORE_LAYER_CHANGE
G92 E0
;0.85


G1 E-.7 F3600
;WIPE_START
G1 F6240
G1 X68.812 Y86.291 E-.285
;WIPE_END
G1 E-.015 F3600
G1 Z.85 F7800
;AFTER_LAYER_CHANGE
;0.85
G1 X65.68 Y61.844
G1 E1 F2400
;TYPE:External perimeter
;WIDTH:1.15907
;HEIGHT:0.5
G1 F900
G1 X65.549 Y61.844 E.02874
G1 X65.483 Y61.958 E.02874
G1 X65.549 Y62.072 E.02874
G1 X65.624 Y62.072 E.01653
;TYPE:Overhang perimeter
;WIDTH:1
;HEIGHT:1
G1 F1145.916
G1 X65.68 Y62.072 E.01824
G1 X65.714 Y62.013 E.02224
;TYPE:External perimeter
;WIDTH:1.15907
;HEIGHT:0.5
G1 F900
G1 X65.746 Y61.958 E.01385
;LAYER_CHANGE
;Z:1.15
;HEIGHT:0.3
;BEFORE_LAYER_CHANGE
G92 E0
;1.15


G1 E-.7 F3600
;WIPE_START
G1 F6240
M73 P3 R27
G1 X65.714 Y62.013 E-.03473
;WIPE_END
G1 E-.26527 F3600
G1 Z1.15 F7800
;AFTER_LAYER_CHANGE
;1.15
G1 X69.656 Y60.833
G1 E1 F2400
;TYPE:Support material interface
;WIDTH:1
;HEIGHT:0.4
G1 F900
G1 X69.656 Y59.203 E.24789
G1 X70.549 Y59.203 E.13571
G1 X70.549 Y61.069 E.28367
G1 X70.762 Y61.783 E.11326
G1 X70.614 Y61.88 E.02688
G1 X71.084 Y62.596 E.13018
G1 X71.442 Y62.596 E.05436
G1 X71.442 Y59.203 E.51578
G1 X72.334 Y59.203 E.13571
G1 X72.334 Y62.596 E.51578
G1 X73.227 Y62.596 E.13571
G1 X73.227 Y59.203 E.51578
G1 X74.12 Y59.203 E.13571
G1 X74.12 Y62.596 E.51578
G1 X75.012 Y62.596 E.13571
G1 X75.012 Y59.203 E.51578
G1 X75.905 Y59.203 E.13571
G1 X75.905 Y62.997 E.57685
G1 E-.7 F3600
;WIPE_START
G1 F6240
G1 X75.905 Y62.477 E-.285
;WIPE_END
G1 E-.015 F3600
G1 X68.922 Y72.774 F7800
G1 E1 F2400
;TYPE:Support material
G1 F900
G1 X63.466 Y72.774 E.82942
G1 X63.466 Y76.166 E.51578
G1 X68.52 Y76.166 E.76835
G1 X68.52 Y79.559 E.51578
G1 X63.466 Y79.559 E.76835
G1 X63.466 Y82.952 E.51578
G1 X68.922 Y82.952 E.82942
G1 X69.332 Y86.154 F7800
G1 F900
G1 X69.332 Y69.435 E2.54172
G1 X62.654 Y69.435 E1.01524
G1 X62.654 Y86.291 E2.56257
G1 X69.332 Y86.291 E1.01524
;LAYER_CHANGE
;Z:1.35
;HEIGHT:0.2
;BEFORE_LAYER_CHANGE
G92 E0
;1.35


G1 E-.7 F3600
;WIPE_START
G1 F6240
G1 X68.812 Y86.291 E-.285
;WIPE_END
G1 E-.015 F3600
G1 Z1.35 F7800
;AFTER_LAYER_CHANGE
;1.35
G1 X65.593 Y61.936
G1 E1 F2400
;TYPE:External perimeter
;WIDTH:1.11613
;HEIGHT:0.5
G1 F900
G1 X67.615 Y61.936 E.42407
;TYPE:Overhang perimeter
;WIDTH:1
;HEIGHT:1
G1 X67.786 Y61.936 E.05572
G1 X65.593 Y63.375 E.85636
G1 X65.593 Y63.263 E.03655
;TYPE:External perimeter
;WIDTH:1.11613
;HEIGHT:0.5
G1 X65.593 Y62.086 E.24676
;LAYER_CHANGE
;Z:1.65
;HEIGHT:0.3
;BEFORE_LAYER_CHANGE
G92 E0
;1.65


G1 E-.7 F3600
;WIPE_START
G1 F6240
G1 X66.111 Y62.048 E-.285
;WIPE_END
G1 E-.015 F3600
G1 Z1.65 F7800
;AFTER_LAYER_CHANGE
;1.65
G1 X69.656 Y60.834
G1 E1 F2400
;TYPE:Support material interface
;WIDTH:1
;HEIGHT:0.5
G1 F900
G1 X69.656 Y59.203 E.30259
G1 X70.549 Y59.203 E.16566
G1 X70.549 Y60.432 E.22805
G1 X71.442 Y60.432 E.16566
G1 X71.442 Y59.203 E.22805
G1 X72.334 Y59.203 E.16566
G1 X72.334 Y60.432 E.22805
G1 X72.625 Y60.432 E.054
G1 X72.625 Y60.992 E.10389
G1 X72.862 Y61.783 E.15321
G1 X72.714 Y61.88 E.03281
G1 X73.184 Y62.596 E.15891
G1 X73.227 Y62.596 E.00807
G1 X73.227 Y59.203 E.62959
G1 X74.12 Y59.203 E.16566
G1 X74.12 Y62.596 E.62959
G1 X75.012 Y62.596 E.16566
M73 P4 R27
G1 X75.012 Y59.203 E.62959
G1 X75.905 Y59.203 E.16566
G1 X75.905 Y62.997 E.70414
G1 E-.7 F3600
;WIPE_START
G1 F6240
G1 X75.905 Y62.477 E-.285
;WIPE_END
G1 E-.015 F3600
G1 X67.871 Y69.435 F7800
G1 E1 F2400
;TYPE:Support material
G1 F900
G1 X65.56 Y70.951 E.51293
G1 X65.035 Y70.668 E.11069
G1 X65.035 Y69.435 E.22879
G1 X67.737 Y69.435 E.50142
G1 E-.7 F3600
;WIPE_START
G1 F6240
G1 X67.217 Y69.435 E-.285
;WIPE_END
G1 E-.015 F3600
G1 X63.407 Y68.979 F7800
G1 E1 F2400
;TYPE:Support material interface
G1 F900
G1 X63.407 Y76.166 E1.33373
G1 X64.3 Y76.166 E.16566
G1 X64.3 Y71.346 E.89448
G1 X65.193 Y71.828 E.18826
G1 X65.193 Y76.166 E.80503
G1 X65.993 Y76.166 E.14853
G1 X65.993 Y72.774 E.62959
G1 X66.085 Y72.774 E.01713
G1 X66.085 Y71.738 E.19223
G1 X66.978 Y71.152 E.19813
G1 X66.978 Y72.774 E.30091
G1 X67.871 Y72.774 E.16566
G1 X67.871 Y70.567 E.4096
G1 X68.764 Y69.981 E.19813
G1 X68.764 Y73.175 E.59282
G1 X68.93 Y76.166 F7800
;TYPE:Support material
G1 F900
G1 X67.743 Y76.166 E.22037
G1 X67.743 Y77.916 E.32471
G1 X63.458 Y77.916 E.79525
G1 X63.458 Y79.559 E.30488
G1 X68.529 Y79.559 E.94107
G1 X68.529 Y82.952 E.62958
G1 X63.056 Y82.952 E1.01562
G1 X69.332 Y86.157 F7800
G1 F900
G1 X69.332 Y73.72 E2.30792
G1 X66.939 Y73.72 E.44401
G1 X66.939 Y77.113 E.62959
G1 X62.654 Y77.113 E.79525
G1 X62.654 Y86.291 E1.70318
G1 X69.332 Y86.291 E1.23926
;LAYER_CHANGE
;Z:1.85
;HEIGHT:0.2
;BEFORE_LAYER_CHANGE
G92 E0
;1.85


G1 E-.7 F3600
;WIPE_START
G1 F6240
G1 X68.812 Y86.291 E-.285
;WIPE_END
G1 E-.015 F3600
G1 Z1.85 F7800
;AFTER_LAYER_CHANGE
;1.85
G1 X65.535 Y61.878
G1 E1 F2400
;TYPE:External perimeter
;WIDTH:1
;HEIGHT:0.5
G1 F900
G1 X69.803 Y61.878 E.79206
;TYPE:Overhang perimeter
;WIDTH:1
;HEIGHT:1
G1 X70.08 Y61.878 E.09028
G1 X65.535 Y64.86 E1.77485
G1 X65.535 Y64.678 E.05923
;TYPE:External perimeter
;WIDTH:1
;HEIGHT:0.5
G1 X65.535 Y62.028 E.4918
G1 X66.73 Y62.924 F7800
;TYPE:Perimeter
;WIDTH:1.30545
G1 F900
G1 X66.655 Y63.053 E.0373
G1 X66.505 Y63.053 E.0373
G1 X66.43 Y62.924 E.0373
G1 X66.505 Y62.794 E.0373
G1 X66.655 Y62.794 E.0373
;LAYER_CHANGE
;Z:2.15
;HEIGHT:0.3
;BEFORE_LAYER_CHANGE
G92 E0
;2.15


G1 E-.7 F3600
;WIPE_START
G1 F6240
G1 X66.505 Y62.794 E-.08208
G1 X66.43 Y62.924 E-.08208
G1 X66.505 Y63.053 E-.08208
G1 X66.576 Y63.053 E-.03875
;WIPE_END
G1 E-.015 F3600
G1 Z2.15 F7800
;AFTER_LAYER_CHANGE
;2.15
G1 X73.227 Y60.833
G1 E1 F2400
;TYPE:Support material interface
;WIDTH:1
;HEIGHT:0.5
G1 F900
G1 X73.227 Y59.203 E.30259
G1 X74.12 Y59.203 E.16566
G1 X74.12 Y60.432 E.22804
G1 X74.725 Y60.432 E.11229
G1 X74.725 Y60.992 E.10389
G1 X74.961 Y61.783 E.15321
G1 X74.813 Y61.88 E.03281
G1 X75.012 Y62.183 E.06736
G1 X75.012 Y59.203 E.55305
G1 X75.905 Y59.203 E.16566
G1 X75.905 Y62.997 E.70414
;LAYER_CHANGE
;Z:2.35
;HEIGHT:0.2
;BEFORE_LAYER_CHANGE
G92 E0
;2.35


G1 E-.7 F3600
;WIPE_START
G1 F6240
G1 X75.905 Y62.477 E-.285
;WIPE_END
G1 E-.015 F3600
G1 Z2.35 F7800
;AFTER_LAYER_CHANGE
;2.35
G1 X66.522 Y62.865
G1 E1 F2400
;TYPE:Perimeter
;WIDTH:1.18932
;HEIGHT:0.5
G1 F900
G1 X68.874 Y62.865 E.529
G1 X66.522 Y64.408 E.63269
G1 X66.522 Y63.015 E.31332
G1 X65.535 Y61.878 F7800
;TYPE:External perimeter
;WIDTH:1
G1 F900
G1 X71.903 Y61.878 E1.18166
;TYPE:Overhang perimeter
;WIDTH:1
;HEIGHT:1
G1 X72.179 Y61.878 E.09028
G1 X65.535 Y66.237 E2.59476
G1 X65.535 Y66.056 E.05923
;TYPE:External perimeter
;WIDTH:1
;HEIGHT:0.5
G1 X65.535 Y62.028 E.74741
;LAYER_CHANGE
;Z:2.4
;HEIGHT:0.0500002
;BEFORE_LAYER_CHANGE
G92 E0
;2.4


G1 E-.7 F3600
;WIPE_START
G1 F6240
G1 X66.055 Y62.016 E-.285
;WIPE_END
G1 E-.015 F3600
G1 Z2.4 F7800
;AFTER_LAYER_CHANGE
;2.4
G1 X63.407 Y68.979
G1 E1 F2400
;TYPE:Support material interface
;WIDTH:1
;HEIGHT:0.75
G1 F900
G1 X63.407 Y76.166 E1.88035
G1 X64.3 Y76.166 E.23355
G1 X64.3 Y71.346 E1.26108
G1 X65.193 Y71.828 E.26542
G1 X65.193 Y76.166 E1.13497
G1 X66.085 Y76.166 E.23355
G1 X66.085 Y71.738 E1.15863
G1 X66.978 Y71.152 E.27933
G1 X66.978 Y76.166 E1.31186
G1 X67.871 Y76.166 E.23355
G1 X67.871 Y70.567 E1.46508
G1 X68.764 Y69.981 E.27933
G1 X68.764 Y76.568 E1.72341
G1 X68.952 Y79.559 F7800
;TYPE:Support material
M73 P5 R27
G1 F900
G1 X63.436 Y79.559 E1.4431
G1 X63.436 Y82.952 E.88762
G1 X68.952 Y82.952 E1.4431
G1 X69.332 Y86.165 F7800
G1 F900
G1 X69.332 Y77.113 E2.36831
G1 X62.654 Y77.113 E1.74717
G1 X62.654 Y86.291 E2.40123
G1 X69.332 Y86.291 E1.74717
G1 X67.871 Y69.435 F7800
G1 F900
G1 X65.56 Y70.951 E.72318
G1 X65.035 Y70.668 E.15606
G1 X65.035 Y70.427 E.06301
G1 X65.61 Y70.737 E.17086
G1 X67.594 Y69.435 E.62109
G1 X67.745 Y69.435 E.0394
;LAYER_CHANGE
;Z:2.85
;HEIGHT:0.45
;BEFORE_LAYER_CHANGE
G92 E0
;2.85


G1 E-.7 F3600
;WIPE_START
G1 F6240
G1 X67.594 Y69.435 E-.08253
G1 X67.286 Y69.637 E-.20247
;WIPE_END
G1 E-.015 F3600
G1 Z2.85 F7800
;AFTER_LAYER_CHANGE
;2.85
G1 X66.428 Y62.771
G1 E1 F2400
;TYPE:Perimeter
;WIDTH:1
;HEIGHT:0.5
G1 F900
G1 X71.29 Y62.771 E.90241
G1 X66.428 Y65.961 E1.07928
G1 X66.428 Y62.921 E.5642
G1 X65.535 Y61.878 F7800
;TYPE:External perimeter
G1 F900
G1 X74.002 Y61.878 E1.57126
;TYPE:Overhang perimeter
;WIDTH:1
;HEIGHT:1
G1 X74.278 Y61.878 E.09028
G1 X65.535 Y67.615 E3.41468
G1 X65.535 Y67.433 E.05923
;TYPE:External perimeter
;WIDTH:1
;HEIGHT:0.5
G1 X65.535 Y62.028 E1.00301
G1 E-.7 F3600
;WIPE_START
G1 F6240
G1 X66.055 Y62.019 E-.285
;WIPE_END
G1 E-.015 F3600
G1 X67.428 Y64.985 F7800
G1 E1 F2400
;TYPE:Solid infill
;WIDTH:1.17854
G1 F900
G1 X68.942 Y63.47 E.47693
G1 X68.933 Y63.44 E.00696
G1 X67.457 Y63.44 E.3287
G1 X66.695 Y64.202 E.23991
;LAYER_CHANGE
;Z:3.15
;HEIGHT:0.3
;BEFORE_LAYER_CHANGE
G92 E0
;3.15


G1 E-.7 F3600
;WIPE_START
G1 F6240
G1 X67.063 Y63.834 E-.285
;WIPE_END
G1 E-.015 F3600
G1 Z3.15 F7800
;AFTER_LAYER_CHANGE
;3.15
G1 X63.407 Y68.979
G1 E1 F2400
;TYPE:Support material interface
;WIDTH:1
;HEIGHT:0.75
G1 F900
G1 X63.407 Y79.559 E2.76798
G1 X64.3 Y79.559 E.23355
G1 X64.3 Y71.346 E2.1487
G1 X65.193 Y71.828 E.26542
G1 X65.193 Y79.559 E2.0226
G1 X65.993 Y79.559 E.20941
G1 X65.993 Y76.166 E.88762
G1 X66.085 Y76.166 E.02414
G1 X66.085 Y71.738 E1.15863
G1 X66.978 Y71.152 E.27933
G1 X66.978 Y76.166 E1.31186
G1 X67.871 Y76.166 E.23355
G1 X67.871 Y70.567 E1.46509
G1 X68.764 Y69.981 E.27933
G1 X68.764 Y76.568 E1.72341
G1 X68.952 Y79.559 F7800
;TYPE:Support material
G1 F900
G1 X67.721 Y79.559 E.32192
G1 X67.721 Y81.287 E.45218
G1 X63.436 Y81.287 E1.12118
G1 X63.436 Y82.952 E.43544
