; generated by PrusaSlicer 2.5.0+win64 on 2022-12-07 at 00:33:03 UTC

; 

; external perimeters extrusion width = 1.00mm
; perimeters extrusion width = 1.00mm
; infill extrusion width = 1.00mm
; solid infill extrusion width = 1.00mm
; top infill extrusion width = 1.00mm
; support material extrusion width = 1.00mm
; first layer extrusion width = 0.42mm

M73 P0 R150
M107
;TYPE:Custom
G90 ; use absolute coordinates
M83 ; extruder relative mode
M140 S60 ; set final bed temp
M104 S150 ; set temporary nozzle temp to prevent oozing during homing and auto bed leveling
G4 S10 ; allow partial nozzle warmup
G28 ; home all axisG1 Z50 F240
G1 X7.6 Y10 F3000
M104 S210 ; set final nozzle temp
M190 S60 ; wait for bed temp to stabilize
M109 S210 ; wait for nozzle temp to stabilize
G1 Z0.28 F240
G92 E0
G1 Y140 E10 F1500 ; prime the nozzle
G1 X4 F5000
G92 E0
G1 Y10 E10 F1200 ; prime the nozzle
G92 E0
G21 ; set units to millimeters
G90 ; use absolute coordinates
M83 ; use relative distances for extrusion
; Filament gcode
M107
;LAYER_CHANGE
;Z:0.35
;HEIGHT:0.35
;BEFORE_LAYER_CHANGE
G92 E0
;0.35


G1 E-1 F3600
G1 Z.35 F7800
;AFTER_LAYER_CHANGE
;0.35
G1 X44.884 Y52.02
G1 E1 F2400
;TYPE:Support material
;WIDTH:0.42
G1 F1800
G1 X41.884 Y52.02 E.15056
G1 X41.884 Y56.726 E.23616
G1 X44.884 Y56.726 E.15056
G1 X44.884 Y59.306 E.12947
G1 X29.126 Y59.306 E.79082
G1 X29.126 Y49.44 E.49509
G1 X44.884 Y49.44 E.79082
G1 X44.884 Y51.968 E.12687
G1 E-.7 F3600
;WIPE_START
G1 F6240
G1 X44.884 Y51.448 E-.285
;WIPE_END
G1 E-.015 F3600
G1 X44.436 Y59.15 F7800
G1 E1 F2400
G1 F1800
G1 X44.436 Y57.036 E.1061
G1 X44.053 Y57.036 E.01923
G1 X44.053 Y58.995 E.09831
G1 X43.67 Y58.995 E.01923
G1 X43.67 Y57.036 E.09831
G1 X43.286 Y57.036 E.01923
G1 X43.286 Y58.995 E.09831
G1 X42.903 Y58.995 E.01923
G1 X42.903 Y57.036 E.09831
G1 X42.52 Y57.036 E.01923
G1 X42.52 Y58.995 E.09831
G1 X42.137 Y58.995 E.01923
G1 X42.137 Y57.036 E.09831
G1 X41.754 Y57.036 E.01923
G1 X41.754 Y58.995 E.09831
G1 X41.37 Y58.995 E.01923
G1 X41.37 Y49.751 E.46394
G1 X41.754 Y49.751 E.01923
G1 X41.754 Y51.71 E.09831
G1 X42.137 Y51.71 E.01923
G1 X42.137 Y49.751 E.09831
G1 X42.52 Y49.751 E.01923
G1 X42.52 Y51.71 E.09831
G1 X42.903 Y51.71 E.01923
G1 X42.903 Y49.751 E.09831
G1 X43.286 Y49.751 E.01923
G1 X43.286 Y51.71 E.09831
G1 X43.67 Y51.71 E.01923
G1 X43.67 Y49.751 E.09831
G1 X44.053 Y49.751 E.01923
G1 X44.053 Y51.71 E.09831
G1 X44.436 Y51.71 E.01923
G1 X44.436 Y49.596 E.1061
G1 E-.7 F3600
;WIPE_START
G1 F6240
G1 X44.436 Y50.116 E-.285
;WIPE_END
G1 E-.015 F3600
G1 X40.987 Y59.15 F7800
G1 E1 F2400
G1 F1800
G1 X40.987 Y49.751 E.47173
G1 X40.604 Y49.751 E.01923
G1 X40.604 Y58.995 E.46394
G1 X40.221 Y58.995 E.01923
G1 X40.221 Y49.751 E.46394
G1 X39.838 Y49.751 E.01923
G1 X39.838 Y58.995 E.46394
G1 X39.454 Y58.995 E.01923
G1 X39.454 Y49.751 E.46394
G1 X39.071 Y49.751 E.01923
G1 X39.071 Y58.995 E.46394
G1 X38.688 Y58.995 E.01923
G1 X38.688 Y49.751 E.46394
G1 X38.305 Y49.751 E.01923
G1 X38.305 Y58.995 E.46394
G1 X37.922 Y58.995 E.01923
G1 X37.922 Y49.751 E.46394
G1 X37.538 Y49.751 E.01923
G1 X37.538 Y58.995 E.46394
G1 X37.155 Y58.995 E.01923
G1 X37.155 Y49.751 E.46394
G1 X36.772 Y49.751 E.01923
G1 X36.772 Y58.995 E.46394
G1 X36.389 Y58.995 E.01923
G1 X36.389 Y49.751 E.46394
G1 X36.005 Y49.751 E.01923
G1 X36.005 Y58.995 E.46394
G1 X35.622 Y58.995 E.01923
G1 X35.622 Y49.751 E.46394
G1 X35.239 Y49.751 E.01923
G1 X35.239 Y58.995 E.46394
G1 X34.856 Y58.995 E.01923
G1 X34.856 Y49.751 E.46394
G1 X34.473 Y49.751 E.01923
G1 X34.473 Y58.995 E.46394
G1 X34.089 Y58.995 E.01923
G1 X34.089 Y49.751 E.46394
G1 X33.706 Y49.751 E.01923
G1 X33.706 Y58.995 E.46394
G1 X33.323 Y58.995 E.01923
G1 X33.323 Y49.751 E.46394
G1 X32.94 Y49.751 E.01923
G1 X32.94 Y58.995 E.46394
G1 X32.557 Y58.995 E.01923
G1 X32.557 Y49.751 E.46394
G1 X32.173 Y49.751 E.01923
G1 X32.173 Y58.995 E.46394
G1 X31.79 Y58.995 E.01923
G1 X31.79 Y49.751 E.46394
G1 X31.407 Y49.751 E.01923
G1 X31.407 Y58.995 E.46394
G1 X31.024 Y58.995 E.01923
G1 X31.024 Y49.751 E.46394
G1 X30.641 Y49.751 E.01923
G1 X30.641 Y58.995 E.46394
G1 X30.257 Y58.995 E.01923
G1 X30.257 Y49.751 E.46394
G1 X29.874 Y49.751 E.01923
G1 X29.874 Y58.995 E.46394
G1 X29.491 Y58.995 E.01923
G1 X29.491 Y49.596 E.47173
G1 E-.7 F3600
;WIPE_START
G1 F6240
G1 X29.491 Y50.116 E-.285
;WIPE_END
G1 E-.015 F3600
G1 X43.171 Y56.471 F7800
G1 E1 F2400
;TYPE:Support material interface
;WIDTH:1
G1 F1800
G1 X43.171 Y52.677 E.51067
G1 X44.064 Y52.677 E.12014
G1 X44.064 Y56.069 E.45661
G1 X44.918 Y56.069 E.11499
G1 X44.479 Y55.952 E.06121
G1 X44.696 Y54.306 E.22339
G1 X44.957 Y54.306 E.03513
G1 X44.957 Y52.677 E.21928
G1 X45.849 Y52.677 E.12014
G1 X45.849 Y54.708 E.27335
G1 E-.7 F3600
;WIPE_START
G1 F6240
G1 X45.849 Y54.188 E-.285
;WIPE_END
G1 E-.015 F3600
G1 X49.42 Y54.708 F7800
G1 E1 F2400
G1 F1800
G1 X49.42 Y52.677 E.27335
G1 X50.313 Y52.677 E.12014
G1 X50.313 Y54.306 E.21928
G1 X51.206 Y54.306 E.12014
G1 X51.206 Y52.677 E.21928
G1 X52.098 Y52.677 E.12014
G1 X52.098 Y54.306 E.21928
G1 X52.474 Y54.306 E.05052
G1 X52.562 Y56.069 E.23762
G1 X52.991 Y56.069 E.05776
G1 X52.991 Y52.677 E.45661
G1 X53.884 Y52.677 E.12014
G1 X53.884 Y56.069 E.45661
G1 X54.776 Y56.069 E.12014
G1 X54.776 Y52.677 E.45661
G1 X55.669 Y52.677 E.12014
G1 X55.669 Y56.069 E.45661
G1 X56.562 Y56.069 E.12014
G1 X56.562 Y52.677 E.45661
G1 X57.455 Y52.677 E.12014
G1 X57.455 Y56.069 E.45661
G1 X58.347 Y56.069 E.12014
G1 X58.347 Y52.677 E.45661
G1 X59.24 Y52.677 E.12014
G1 X59.24 Y56.471 E.51067
G1 E-.7 F3600
;WIPE_START
G1 F6240
G1 X59.24 Y55.951 E-.285
;WIPE_END
G1 E-.015 F3600
G1 X76.311 Y59.306 F7800
G1 E1 F2400
;TYPE:Support material
;WIDTH:0.42
G1 F1800
G1 X57.16 Y59.306 E.96109
G1 X57.16 Y56.726 E.12947
G1 X60.16 Y56.726 E.15056
G1 X60.16 Y52.02 E.23616
G1 X57.16 Y52.02 E.15056
G1 X57.16 Y49.44 E.12947
G1 X76.311 Y49.44 E.96109
G1 X76.311 Y59.254 E.4925
G1 X75.859 Y59.15 F7800
G1 F1800
G1 X75.859 Y49.751 E.47173
G1 X75.476 Y49.751 E.01923
G1 X75.476 Y58.995 E.46394
G1 X75.093 Y58.995 E.01923
G1 X75.093 Y49.751 E.46394
G1 X74.71 Y49.751 E.01923
G1 X74.71 Y58.995 E.46394
G1 X74.326 Y58.995 E.01923
G1 X74.326 Y49.751 E.46394
G1 X73.943 Y49.751 E.01923
G1 X73.943 Y58.995 E.46394
G1 X73.56 Y58.995 E.01923
G1 X73.56 Y49.751 E.46394
G1 X73.177 Y49.751 E.01923
G1 X73.177 Y58.995 E.46394
G1 X72.794 Y58.995 E.01923
G1 X72.794 Y49.751 E.46394
G1 X72.41 Y49.751 E.01923
G1 X72.41 Y58.995 E.46394
G1 X72.027 Y58.995 E.01923
G1 X72.027 Y49.751 E.46394
G1 X71.644 Y49.751 E.01923
G1 X71.644 Y58.995 E.46394
G1 X71.261 Y58.995 E.01923
G1 X71.261 Y49.751 E.46394
G1 X70.878 Y49.751 E.01923
G1 X70.878 Y58.995 E.46394
G1 X70.494 Y58.995 E.01923
G1 X70.494 Y49.751 E.46394
G1 X70.111 Y49.751 E.01923
G1 X70.111 Y58.995 E.46394
G1 X69.728 Y58.995 E.01923
G1 X69.728 Y49.751 E.46394
G1 X69.345 Y49.751 E.01923
G1 X69.345 Y58.995 E.46394
G1 X68.962 Y58.995 E.01923
G1 X68.962 Y49.751 E.46394
G1 X68.578 Y49.751 E.01923
G1 X68.578 Y58.995 E.46394
G1 X68.195 Y58.995 E.01923
G1 X68.195 Y49.751 E.46394
G1 X67.812 Y49.751 E.01923
G1 X67.812 Y58.995 E.46394
G1 X67.429 Y58.995 E.01923
G1 X67.429 Y49.751 E.46394
G1 X67.045 Y49.751 E.01923
G1 X67.045 Y58.995 E.46394
G1 X66.662 Y58.995 E.01923
G1 X66.662 Y49.751 E.46394
G1 X66.279 Y49.751 E.01923
G1 X66.279 Y58.995 E.46394
G1 X65.896 Y58.995 E.01923
G1 X65.896 Y49.751 E.46394
G1 X65.513 Y49.751 E.01923
G1 X65.513 Y58.995 E.46394
G1 X65.129 Y58.995 E.01923
G1 X65.129 Y49.751 E.46394
G1 X64.746 Y49.751 E.01923
M73 P0 R149
G1 X64.746 Y58.995 E.46394
G1 X64.363 Y58.995 E.01923
G1 X64.363 Y49.751 E.46394
G1 X63.98 Y49.751 E.01923
G1 X63.98 Y58.995 E.46394
G1 X63.597 Y58.995 E.01923
G1 X63.597 Y49.751 E.46394
G1 X63.213 Y49.751 E.01923
G1 X63.213 Y58.995 E.46394
G1 X62.83 Y58.995 E.01923
G1 X62.83 Y49.751 E.46394
G1 X62.447 Y49.751 E.01923
G1 X62.447 Y58.995 E.46394
G1 X62.064 Y58.995 E.01923
G1 X62.064 Y49.751 E.46394
G1 X61.681 Y49.751 E.01923
G1 X61.681 Y58.995 E.46394
G1 X61.297 Y58.995 E.01923
G1 X61.297 Y49.751 E.46394
G1 X60.914 Y49.751 E.01923
G1 X60.914 Y58.995 E.46394
G1 X60.531 Y58.995 E.01923
G1 X60.531 Y49.751 E.46394
G1 X60.148 Y49.751 E.01923
G1 X60.148 Y51.71 E.09831
G1 X59.765 Y51.71 E.01923
G1 X59.765 Y49.751 E.09831
G1 X59.381 Y49.751 E.01923
G1 X59.381 Y51.71 E.09831
G1 X58.998 Y51.71 E.01923
G1 X58.998 Y49.751 E.09831
G1 X58.615 Y49.751 E.01923
G1 X58.615 Y51.71 E.09831
G1 X58.232 Y51.71 E.01923
G1 X58.232 Y49.751 E.09831
G1 X57.848 Y49.751 E.01923
G1 X57.848 Y51.865 E.1061
G1 E-.7 F3600
;WIPE_START
G1 F6240
G1 X57.848 Y51.345 E-.285
;WIPE_END
G1 E-.015 F3600
G1 X60.148 Y59.15 F7800
G1 E1 F2400
G1 F1800
G1 X60.148 Y57.036 E.1061
G1 X59.765 Y57.036 E.01923
G1 X59.765 Y58.995 E.09831
G1 X59.381 Y58.995 E.01923
G1 X59.381 Y57.036 E.09831
G1 X58.998 Y57.036 E.01923
G1 X58.998 Y58.995 E.09831
G1 X58.615 Y58.995 E.01923
G1 X58.615 Y57.036 E.09831
G1 X58.232 Y57.036 E.01923
G1 X58.232 Y58.995 E.09831
G1 X57.848 Y58.995 E.01923
G1 X57.848 Y56.881 E.1061
M106 S255
;LAYER_CHANGE
;Z:0.65
;HEIGHT:0.3
;BEFORE_LAYER_CHANGE
G92 E0
;0.65


G1 E-.7 F3600
;WIPE_START
G1 F6240
G1 X57.848 Y57.401 E-.285
;WIPE_END
G1 E-.015 F3600
G1 Z.65 F7800
;AFTER_LAYER_CHANGE
;0.65
M104 S205 ; set temperature
G1 X55.669 Y56.471
G1 E1 F2400
;TYPE:Support material interface
;WIDTH:1
G1 F900
G1 X55.669 Y52.677 E.44279
G1 X54.776 Y52.677 E.10417
G1 X54.776 Y56.069 E.39592
G1 X53.884 Y56.069 E.10417
G1 X53.884 Y52.677 E.39592
G1 X52.991 Y52.677 E.10417
G1 X52.991 Y56.069 E.39592
G1 X52.562 Y56.069 E.05009
G1 X52.474 Y54.306 E.20604
G1 X52.098 Y54.306 E.0438
G1 X52.098 Y52.677 E.19014
G1 X51.206 Y52.677 E.10417
G1 X51.206 Y54.306 E.19014
G1 X50.313 Y54.306 E.10417
G1 X50.313 Y52.677 E.19014
G1 X49.42 Y52.677 E.10417
G1 X49.42 Y54.708 E.23702
G1 E-.7 F3600
;WIPE_START
G1 F6240
G1 X49.42 Y54.188 E-.285
;WIPE_END
G1 E-.015 F3600
G1 X45.849 Y54.708 F7800
G1 E1 F2400
G1 F900
G1 X45.849 Y52.677 E.23702
G1 X44.957 Y52.677 E.10417
G1 X44.957 Y54.306 E.19014
G1 X44.696 Y54.306 E.03046
G1 X44.479 Y55.952 E.1937
G1 X44.918 Y56.069 E.05308
G1 X44.064 Y56.069 E.0997
G1 X44.064 Y52.677 E.39592
G1 X43.171 Y52.677 E.10417
G1 X43.171 Y56.471 E.44279
;LAYER_CHANGE
;Z:0.75
;HEIGHT:0.1
;BEFORE_LAYER_CHANGE
G92 E0
;0.75


G1 E-.7 F3600
;WIPE_START
G1 F6240
G1 X43.171 Y55.951 E-.285
;WIPE_END
G1 E-.015 F3600
G1 Z.75 F7800
;AFTER_LAYER_CHANGE
;0.75
G1 X45.849 Y54.708
G1 E1 F2400
G1 F900
G1 X45.849 Y52.677 E.08263
G1 X44.957 Y52.677 E.03632
G1 X44.957 Y54.306 E.06629
G1 X44.064 Y54.306 E.03632
G1 X44.064 Y52.677 E.06629
G1 X43.171 Y52.677 E.03632
G1 X43.171 Y56.069 E.13803
G1 X42.279 Y56.069 E.03632
G1 X42.279 Y52.677 E.13803
G1 X41.594 Y52.677 E.02786
;HEIGHT:0.4
G1 X41.386 Y52.677 E.03162
G1 X41.386 Y56.069 E.51578
G1 X40.493 Y56.069 E.13571
G1 X40.493 Y52.677 E.51578
G1 X39.601 Y52.677 E.13571
G1 X39.601 Y56.471 E.57685
G1 X38.201 Y56.016 F7800
;TYPE:Support material
G1 F900
G1 X32.416 Y56.016 E.87953
G1 X32.416 Y52.73 E.49946
G1 X38.201 Y52.73 E.87953
G1 X38.201 Y55.878 E.47862
G1 E-.7 F3600
;WIPE_START
G1 F6240
G1 X38.201 Y55.358 E-.285
;WIPE_END
G1 E-.015 F3600
G1 X51.772 Y54.115 F7800
G1 E1 F2400
;HEIGHT:0.1
G1 F900
G1 X51.772 Y52.73 E.05634
G1 X49.379 Y52.73 E.09734
G1 X49.379 Y54.252 E.06192
G1 X51.772 Y54.252 E.09734
G1 X52.991 Y54.708 F7800
;TYPE:Support material interface
G1 F900
G1 X52.991 Y52.677 E.08263
G1 X53.884 Y52.677 E.03632
G1 X53.884 Y54.306 E.06629
G1 X54.776 Y54.306 E.03632
G1 X54.776 Y52.677 E.06629
G1 X55.669 Y52.677 E.03632
G1 X55.669 Y54.306 E.06629
G1 X56.122 Y54.306 E.01844
G1 X56.211 Y56.069 E.07183
G1 X56.562 Y56.069 E.01429
G1 X56.562 Y52.677 E.13803
G1 X57.057 Y52.677 E.02016
;HEIGHT:0.4
G1 X57.455 Y52.677 E.06037
G1 X57.455 Y56.069 E.51578
G1 X58.347 Y56.069 E.13571
G1 X58.347 Y52.677 E.51578
G1 X59.24 Y52.677 E.13571
G1 X59.24 Y56.069 E.51578
G1 X60.133 Y56.069 E.13571
G1 X60.133 Y52.677 E.51578
G1 X61.025 Y52.677 E.13571
G1 X61.025 Y56.069 E.51578
G1 X61.918 Y56.069 E.13571
G1 X61.918 Y52.677 E.51578
G1 X62.811 Y52.677 E.13571
G1 X62.811 Y56.471 E.57685
G1 X73.021 Y56.016 F7800
;TYPE:Support material
G1 F900
G1 X63.843 Y56.016 E1.3953
G1 X63.843 Y52.73 E.49946
G1 X73.021 Y52.73 E1.3953
G1 X73.021 Y55.878 E.47862
;LAYER_CHANGE
;Z:0.85
;HEIGHT:0.1
;BEFORE_LAYER_CHANGE
G92 E0
;0.85


G1 E-.7 F3600
;WIPE_START
G1 F6240
G1 X73.021 Y55.358 E-.285
;WIPE_END
G1 E-.015 F3600
G1 Z.85 F7800
;AFTER_LAYER_CHANGE
;0.85
G1 X47.19 Y55.471
G1 E1 F2400
;TYPE:External perimeter
;WIDTH:0.957301
;HEIGHT:0.5
G1 F900
G1 X47.992 Y55.431 E.14181
;LAYER_CHANGE
;Z:1.15
;HEIGHT:0.3
;BEFORE_LAYER_CHANGE
G92 E0
;1.15


G1 E-.7 F3600
;WIPE_START
G1 F6240
G1 X47.472 Y55.457 E-.285
;WIPE_END
G1 E-.015 F3600
G1 Z1.15 F7800
;AFTER_LAYER_CHANGE
;1.15
G1 X45.849 Y54.708
G1 E1 F2400
;TYPE:Support material interface
;WIDTH:1
;HEIGHT:0.4
G1 F900
G1 X45.849 Y52.677 E.30878
G1 X44.957 Y52.677 E.13571
G1 X44.957 Y54.306 E.2477
G1 X44.064 Y54.306 E.13571
G1 X44.064 Y52.677 E.2477
G1 X43.171 Y52.677 E.13571
G1 X43.171 Y56.069 E.51578
G1 X42.279 Y56.069 E.13571
G1 X42.279 Y52.677 E.51578
G1 X41.386 Y52.677 E.13571
G1 X41.386 Y56.069 E.51578
G1 X40.493 Y56.069 E.13571
G1 X40.493 Y52.677 E.51578
G1 X39.601 Y52.677 E.13571
G1 X39.601 Y56.069 E.51578
G1 X38.708 Y56.069 E.13571
G1 X38.708 Y52.677 E.51578
G1 X37.815 Y52.677 E.13571
G1 X37.815 Y56.069 E.51578
G1 X36.922 Y56.069 E.13571
G1 X36.922 Y52.677 E.51578
G1 X36.03 Y52.677 E.13571
G1 X36.03 Y56.069 E.51578
G1 X35.137 Y56.069 E.13571
G1 X35.137 Y52.677 E.51578
G1 X34.244 Y52.677 E.13571
G1 X34.244 Y56.069 E.51578
G1 X33.352 Y56.069 E.13571
G1 X33.352 Y52.677 E.51578
G1 X32.459 Y52.677 E.13571
G1 X32.459 Y56.471 E.57685
G1 E-.7 F3600
;WIPE_START
G1 F6240
G1 X32.459 Y55.951 E-.285
;WIPE_END
G1 E-.015 F3600
G1 X52.991 Y52.275 F7800
G1 E1 F2400
G1 F900
G1 X52.991 Y54.306 E.30878
G1 X53.884 Y54.306 E.13571
G1 X53.884 Y52.677 E.2477
G1 X54.776 Y52.677 E.13571
G1 X54.776 Y54.306 E.2477
G1 X55.669 Y54.306 E.13571
G1 X55.669 Y52.677 E.2477
G1 X56.562 Y52.677 E.13571
G1 X56.562 Y56.069 E.51578
G1 X57.455 Y56.069 E.13571
G1 X57.455 Y52.677 E.51578
G1 X58.347 Y52.677 E.13571
G1 X58.347 Y56.069 E.51578
G1 X59.24 Y56.069 E.13571
G1 X59.24 Y52.677 E.51578
G1 X60.133 Y52.677 E.13571
G1 X60.133 Y56.069 E.51578
G1 X61.025 Y56.069 E.13571
G1 X61.025 Y52.677 E.51578
G1 X61.918 Y52.677 E.13571
G1 X61.918 Y56.069 E.51578
G1 X62.811 Y56.069 E.13571
G1 X62.811 Y52.677 E.51578
G1 X63.703 Y52.677 E.13571
G1 X63.703 Y56.069 E.51578
G1 X64.596 Y56.069 E.13571
G1 X64.596 Y52.677 E.51578
G1 X65.489 Y52.677 E.13571
G1 X65.489 Y56.471 E.57685
G1 X73.021 Y56.016 F7800
;TYPE:Support material
G1 F900
G1 X67.236 Y56.016 E.87953
G1 X67.236 Y52.73 E.49946
G1 X73.021 Y52.73 E.87953
G1 X73.021 Y55.878 E.47862
;LAYER_CHANGE
;Z:1.35
;HEIGHT:0.2
;BEFORE_LAYER_CHANGE
G92 E0
;1.35


G1 E-.7 F3600
;WIPE_START
G1 F6240
G1 X73.021 Y55.358 E-.285
;WIPE_END
G1 E-.015 F3600
G1 Z1.35 F7800
;AFTER_LAYER_CHANGE
;1.35
G1 X47.186 Y55.654
G1 E1 F2400
;TYPE:External perimeter
;WIDTH:0.957301
;HEIGHT:0.5
G1 F900
G1 X51.64 Y55.431 E.78807
;LAYER_CHANGE
;Z:1.65
;HEIGHT:0.3
;BEFORE_LAYER_CHANGE
G92 E0
;1.65


G1 E-.7 F3600
;WIPE_START
G1 F6240
G1 X51.121 Y55.457 E-.285
;WIPE_END
G1 E-.015 F3600
G1 Z1.65 F7800
;AFTER_LAYER_CHANGE
;1.65
G1 X45.849 Y54.708
G1 E1 F2400
;TYPE:Support material interface
;WIDTH:1
;HEIGHT:0.5
G1 F900
G1 X45.849 Y52.677 E.37691
G1 X44.957 Y52.677 E.16566
G1 X44.957 Y54.306 E.30236
G1 X44.064 Y54.306 E.16566
G1 X44.064 Y52.677 E.30236
G1 X43.171 Y52.677 E.16566
G1 X43.171 Y54.306 E.30236
G1 X42.279 Y54.306 E.16566
G1 X42.279 Y52.677 E.30236
G1 X41.386 Y52.677 E.16566
G1 X41.386 Y56.069 E.62959
G1 X40.493 Y56.069 E.16566
G1 X40.493 Y52.677 E.62959
G1 X39.601 Y52.677 E.16566
G1 X39.601 Y56.069 E.62959
G1 X38.708 Y56.069 E.16566
G1 X38.708 Y52.677 E.62959
G1 X37.815 Y52.677 E.16566
G1 X37.815 Y56.069 E.62959
G1 X36.922 Y56.069 E.16566
G1 X36.922 Y52.677 E.62959
G1 X36.03 Y52.677 E.16566
G1 X36.03 Y56.069 E.62959
G1 X35.137 Y56.069 E.16566
G1 X35.137 Y52.677 E.62959
G1 X34.244 Y52.677 E.16566
G1 X34.244 Y56.069 E.62959
G1 X33.352 Y56.069 E.16566
