; generated by PrusaSlicer 2.5.0+win64 on 2022-12-07 at 00:33:10 UTC

; 

; external perimeters extrusion width = 1.00mm
; perimeters extrusion width = 1.00mm
; infill extrusion width = 1.00mm
; solid infill extrusion width = 1.00mm
; top infill extrusion width = 1.00mm
; support material extrusion width = 1.00mm
; first layer extrusion width = 0.42mm

M73 P0 R51
M107
;TYPE:Custom
G90 ; use absolute coordinates
M83 ; extruder relative mode
M140 S60 ; set final bed temp
M104 S150 ; set temporary nozzle temp to prevent oozing during homing and auto bed leveling
G4 S10 ; allow partial nozzle warmup
G28 ; home all axisG1 Z50 F240
G1 X7.6 Y10 F3000
M104 S210 ; set final nozzle temp
M190 S60 ; wait for bed temp to stabilize
M109 S210 ; wait for nozzle temp to stabilize
G1 Z0.28 F240
G92 E0
G1 Y140 E10 F1500 ; prime the nozzle
G1 X4 F5000
G92 E0
G1 Y10 E10 F1200 ; prime the nozzle
G92 E0
G21 ; set units to millimeters
G90 ; use absolute coordinates
M83 ; use relative distances for extrusion
; Filament gcode
M107
;LAYER_CHANGE
;Z:0.35
;HEIGHT:0.35
;BEFORE_LAYER_CHANGE
G92 E0
;0.35


G1 E-1 F3600
G1 Z.35 F7800
;AFTER_LAYER_CHANGE
;0.35
G1 X162.482 Y103.638
G1 E1 F2400
;TYPE:Perimeter
;WIDTH:0.42
G1 F1800
G1 X17.518 Y101.247 E7.27615
G1 X17.518 Y85.669 E.7818
G1 X162.482 Y88.059 E7.27615
G1 X162.482 Y103.488 E.77432
G1 X162.827 Y103.988 F7800
;TYPE:External perimeter
G1 F1800
G1 X17.173 Y101.586 E7.31077
G1 X17.173 Y85.318 E.81642
M73 P0 R50
G1 X162.827 Y87.719 E7.31077
G1 X162.827 Y103.838 E.80895
M73 P1 R50
G1 X161.828 Y103.935 F7800
G1 E-.7 F3600
;WIPE_START
G1 F6240
G1 X162.307 Y103.83 E-.285
;WIPE_END
G1 E-.015 F3600
G1 X161.668 Y88.149 F7800
G1 E1 F2400
;TYPE:Solid infill
;WIDTH:0.420587
G1 F1800
G1 X162.224 Y88.704 E.03947
G1 X162.224 Y89.193 E.02456
G1 X161.329 Y88.298 E.06357
G1 X160.833 Y88.29 E.02498
G1 X162.224 Y89.681 E.09889
G1 X162.223 Y90.17 E.02456
G1 X160.336 Y88.282 E.13421
G1 X159.839 Y88.274 E.02498
G1 X162.223 Y90.658 E.16952
G1 X162.223 Y91.147 E.02456
G1 X159.342 Y88.266 E.20484
G1 X158.845 Y88.257 E.02498
G1 X162.223 Y91.635 E.24016
G1 X162.223 Y92.124 E.02456
G1 X158.349 Y88.249 E.27547
G1 X157.852 Y88.241 E.02498
G1 X162.223 Y92.613 E.31079
G1 X162.223 Y93.101 E.02456
G1 X157.355 Y88.233 E.34611
G1 X156.858 Y88.225 E.02498
G1 X162.223 Y93.59 E.38143
G1 X162.223 Y94.078 E.02456
G1 X156.362 Y88.216 E.41674
G1 X155.865 Y88.208 E.02498
G1 X162.223 Y94.567 E.45206
G1 X162.223 Y95.055 E.02456
G1 X155.368 Y88.2 E.48738
G1 X154.871 Y88.192 E.02498
G1 X162.223 Y95.544 E.5227
G1 X162.223 Y96.033 E.02456
G1 X154.375 Y88.184 E.55801
G1 X153.878 Y88.176 E.02498
G1 X162.223 Y96.521 E.59333
G1 X162.223 Y97.01 E.02456
G1 X153.381 Y88.167 E.62865
G1 X152.884 Y88.159 E.02498
G1 X162.223 Y97.498 E.66396
G1 X162.223 Y97.987 E.02456
G1 X152.388 Y88.151 E.69928
G1 X151.891 Y88.143 E.02498
G1 X162.223 Y98.476 E.7346
G1 X162.223 Y98.964 E.02456
G1 X151.394 Y88.135 E.76992
G1 X150.897 Y88.126 E.02498
G1 X162.223 Y99.453 E.80523
G1 X162.223 Y99.941 E.02456
G1 X150.4 Y88.118 E.84055
G1 X149.904 Y88.11 E.02498
G1 X162.223 Y100.43 E.87587
G1 X162.223 Y100.918 E.02456
G1 X149.407 Y88.102 E.91119
G1 X148.91 Y88.094 E.02498
G1 X162.223 Y101.407 E.9465
G1 X162.223 Y101.896 E.02456
G1 X148.413 Y88.085 E.98182
G1 X147.917 Y88.077 E.02498
G1 X162.223 Y102.384 E1.01714
G1 X162.223 Y102.873 E.02456
G1 X147.42 Y88.069 E1.05245
G1 X146.923 Y88.061 E.02498
G1 X162.223 Y103.375 E1.08825
G1 X161.741 Y103.367 E.02428
G1 X146.426 Y88.053 E1.08875
G1 X145.93 Y88.045 E.02498
G1 X161.244 Y103.359 E1.08875
G1 X160.747 Y103.351 E.02498
G1 X145.433 Y88.036 E1.08875
G1 X144.936 Y88.028 E.02498
G1 X160.25 Y103.342 E1.08875
G1 X159.753 Y103.334 E.02498
G1 X144.439 Y88.02 E1.08875
G1 X143.943 Y88.012 E.02498
G1 X159.257 Y103.326 E1.08875
G1 X158.76 Y103.318 E.02498
G1 X143.446 Y88.004 E1.08875
G1 X142.949 Y87.995 E.02498
G1 X158.263 Y103.31 E1.08875
G1 X157.766 Y103.301 E.02498
G1 X142.452 Y87.987 E1.08875
G1 X141.955 Y87.979 E.02498
G1 X157.27 Y103.293 E1.08875
G1 X156.773 Y103.285 E.02498
G1 X141.459 Y87.971 E1.08875
G1 X140.962 Y87.963 E.02498
G1 X156.276 Y103.277 E1.08875
G1 X155.779 Y103.269 E.02498
G1 X140.465 Y87.954 E1.08875
G1 X139.968 Y87.946 E.02498
G1 X155.283 Y103.26 E1.08875
G1 X154.786 Y103.252 E.02498
G1 X139.472 Y87.938 E1.08875
G1 X138.975 Y87.93 E.02498
G1 X154.289 Y103.244 E1.08875
G1 X153.792 Y103.236 E.02498
M73 P2 R50
G1 X138.478 Y87.922 E1.08875
G1 X137.981 Y87.913 E.02498
G1 X153.295 Y103.228 E1.08875
G1 X152.799 Y103.219 E.02498
G1 X137.485 Y87.905 E1.08875
G1 X136.988 Y87.897 E.02498
G1 X152.302 Y103.211 E1.08875
G1 X151.805 Y103.203 E.02498
G1 X136.491 Y87.889 E1.08875
G1 X135.994 Y87.881 E.02498
G1 X151.308 Y103.195 E1.08875
G1 X150.812 Y103.187 E.02498
G1 X135.497 Y87.873 E1.08875
G1 X135.001 Y87.864 E.02498
G1 X150.315 Y103.178 E1.08875
G1 X149.818 Y103.17 E.02498
G1 X134.504 Y87.856 E1.08875
G1 X134.007 Y87.848 E.02498
G1 X149.321 Y103.162 E1.08875
G1 X148.825 Y103.154 E.02498
G1 X133.51 Y87.84 E1.08875
G1 X133.014 Y87.832 E.02498
G1 X148.328 Y103.146 E1.08875
G1 X147.831 Y103.138 E.02498
G1 X132.517 Y87.823 E1.08875
G1 X132.02 Y87.815 E.02498
G1 X147.334 Y103.129 E1.08875
G1 X146.837 Y103.121 E.02498
G1 X131.523 Y87.807 E1.08875
G1 X131.027 Y87.799 E.02498
G1 X146.341 Y103.113 E1.08875
G1 X145.844 Y103.105 E.02498
G1 X130.53 Y87.791 E1.08875
G1 X130.033 Y87.782 E.02498
G1 X145.347 Y103.097 E1.08874
G1 X144.85 Y103.088 E.02498
G1 X129.536 Y87.774 E1.08874
G1 X129.04 Y87.766 E.02498
G1 X144.354 Y103.08 E1.08874
G1 X143.857 Y103.072 E.02498
G1 X128.543 Y87.758 E1.08874
G1 X128.046 Y87.75 E.02498
G1 X143.36 Y103.064 E1.08874
G1 X142.863 Y103.056 E.02498
G1 X127.549 Y87.742 E1.08874
G1 X127.052 Y87.733 E.02498
G1 X142.367 Y103.047 E1.08874
G1 X141.87 Y103.039 E.02498
G1 X126.556 Y87.725 E1.08874
G1 X126.059 Y87.717 E.02498
G1 X141.373 Y103.031 E1.08874
G1 X140.876 Y103.023 E.02498
G1 X125.562 Y87.709 E1.08874
G1 X125.065 Y87.701 E.02498
G1 X140.379 Y103.015 E1.08874
G1 X139.883 Y103.006 E.02498
G1 X124.569 Y87.692 E1.08874
G1 X124.072 Y87.684 E.02498
G1 X139.386 Y102.998 E1.08874
G1 X138.889 Y102.99 E.02498
G1 X123.575 Y87.676 E1.08874
G1 X123.078 Y87.668 E.02498
G1 X138.392 Y102.982 E1.08874
G1 X137.896 Y102.974 E.02498
G1 X122.582 Y87.66 E1.08874
G1 X122.085 Y87.651 E.02498
G1 X137.399 Y102.965 E1.08874
G1 X136.902 Y102.957 E.02498
M73 P2 R49
G1 X121.588 Y87.643 E1.08874
G1 X121.091 Y87.635 E.02498
G1 X136.405 Y102.949 E1.08874
G1 X135.909 Y102.941 E.02498
G1 X120.594 Y87.627 E1.08874
G1 X120.098 Y87.619 E.02498
G1 X135.412 Y102.933 E1.08874
G1 X134.915 Y102.924 E.02498
G1 X119.601 Y87.61 E1.08874
G1 X119.104 Y87.602 E.02498
M73 P3 R49
G1 X134.418 Y102.916 E1.08874
G1 X133.921 Y102.908 E.02498
G1 X118.607 Y87.594 E1.08874
G1 X118.111 Y87.586 E.02498
G1 X133.425 Y102.9 E1.08874
G1 X132.928 Y102.892 E.02498
G1 X117.614 Y87.578 E1.08874
G1 X117.117 Y87.57 E.02498
G1 X132.431 Y102.884 E1.08874
G1 X131.934 Y102.875 E.02498
G1 X116.62 Y87.561 E1.08874
G1 X116.124 Y87.553 E.02498
G1 X131.438 Y102.867 E1.08874
G1 X130.941 Y102.859 E.02498
G1 X115.627 Y87.545 E1.08874
G1 X115.13 Y87.537 E.02498
G1 X130.444 Y102.851 E1.08874
G1 X129.947 Y102.843 E.02498
G1 X114.633 Y87.529 E1.08874
G1 X114.137 Y87.52 E.02498
G1 X129.451 Y102.834 E1.08874
G1 X128.954 Y102.826 E.02498
G1 X113.64 Y87.512 E1.08874
G1 X113.143 Y87.504 E.02498
G1 X128.457 Y102.818 E1.08874
G1 X127.96 Y102.81 E.02498
G1 X112.646 Y87.496 E1.08874
G1 X112.149 Y87.488 E.02498
G1 X127.463 Y102.802 E1.08874
G1 X126.967 Y102.793 E.02498
G1 X111.653 Y87.479 E1.08873
G1 X111.156 Y87.471 E.02498
G1 X126.47 Y102.785 E1.08873
G1 X125.973 Y102.777 E.02498
G1 X110.659 Y87.463 E1.08873
G1 X110.162 Y87.455 E.02498
G1 X125.476 Y102.769 E1.08873
G1 X124.98 Y102.761 E.02498
G1 X109.666 Y87.447 E1.08873
G1 X109.169 Y87.439 E.02498
G1 X124.483 Y102.752 E1.08873
G1 X123.986 Y102.744 E.02498
G1 X108.672 Y87.43 E1.08873
G1 X108.175 Y87.422 E.02498
G1 X123.489 Y102.736 E1.08873
G1 X122.992 Y102.728 E.02498
G1 X107.679 Y87.414 E1.08873
G1 X107.182 Y87.406 E.02498
G1 X122.496 Y102.72 E1.08873
G1 X121.999 Y102.711 E.02498
G1 X106.685 Y87.398 E1.08873
G1 X106.188 Y87.389 E.02498
G1 X121.502 Y102.703 E1.08873
G1 X121.005 Y102.695 E.02498
G1 X105.692 Y87.381 E1.08873
G1 X105.195 Y87.373 E.02498
G1 X120.509 Y102.687 E1.08873
G1 X120.012 Y102.679 E.02498
G1 X104.698 Y87.365 E1.08873
G1 X104.201 Y87.357 E.02498
G1 X119.515 Y102.671 E1.08873
G1 X119.018 Y102.662 E.02498
G1 X103.704 Y87.348 E1.08873
G1 X103.208 Y87.34 E.02498
G1 X118.522 Y102.654 E1.08873
G1 X118.025 Y102.646 E.02498
G1 X102.711 Y87.332 E1.08873
G1 X102.214 Y87.324 E.02498
G1 X117.528 Y102.638 E1.08873
G1 X117.031 Y102.63 E.02498
G1 X101.717 Y87.316 E1.08873
G1 X101.221 Y87.307 E.02498
G1 X116.534 Y102.621 E1.08873
G1 X116.038 Y102.613 E.02498
G1 X100.724 Y87.299 E1.08873
G1 X100.227 Y87.291 E.02498
G1 X115.541 Y102.605 E1.08873
G1 X115.044 Y102.597 E.02498
M73 P4 R49
G1 X99.73 Y87.283 E1.08873
G1 X99.234 Y87.275 E.02498
G1 X114.547 Y102.589 E1.08873
G1 X114.051 Y102.58 E.02498
G1 X98.737 Y87.267 E1.08873
G1 X98.24 Y87.258 E.02498
G1 X113.554 Y102.572 E1.08873
G1 X113.057 Y102.564 E.02498
G1 X97.743 Y87.25 E1.08873
G1 X97.246 Y87.242 E.02498
G1 X112.56 Y102.556 E1.08873
G1 X112.064 Y102.548 E.02498
G1 X96.75 Y87.234 E1.08873
G1 X96.253 Y87.226 E.02498
G1 X111.567 Y102.539 E1.08873
G1 X111.07 Y102.531 E.02498
G1 X95.756 Y87.217 E1.08873
G1 X95.259 Y87.209 E.02498
G1 X110.573 Y102.523 E1.08873
G1 X110.076 Y102.515 E.02498
G1 X94.763 Y87.201 E1.08873
G1 X94.266 Y87.193 E.02498
G1 X109.58 Y102.507 E1.08873
G1 X109.083 Y102.498 E.02498
G1 X93.769 Y87.185 E1.08873
G1 X93.272 Y87.176 E.02498
G1 X108.586 Y102.49 E1.08873
G1 X108.089 Y102.482 E.02498
G1 X92.776 Y87.168 E1.08872
G1 X92.279 Y87.16 E.02498
G1 X107.593 Y102.474 E1.08872
G1 X107.096 Y102.466 E.02498
G1 X91.782 Y87.152 E1.08872
G1 X91.285 Y87.144 E.02498
G1 X106.599 Y102.457 E1.08872
G1 X106.102 Y102.449 E.02498
G1 X90.789 Y87.136 E1.08872
G1 X90.292 Y87.127 E.02498
G1 X105.606 Y102.441 E1.08872
G1 X105.109 Y102.433 E.02498
G1 X89.795 Y87.119 E1.08872
G1 X89.298 Y87.111 E.02498
G1 X104.612 Y102.425 E1.08872
G1 X104.115 Y102.417 E.02498
G1 X88.801 Y87.103 E1.08872
G1 X88.305 Y87.095 E.02498
G1 X103.618 Y102.408 E1.08872
G1 X103.122 Y102.4 E.02498
G1 X87.808 Y87.086 E1.08872
G1 X87.311 Y87.078 E.02498
G1 X102.625 Y102.392 E1.08872
G1 X102.128 Y102.384 E.02498
G1 X86.814 Y87.07 E1.08872
G1 X86.318 Y87.062 E.02498
G1 X101.631 Y102.376 E1.08872
G1 X101.135 Y102.367 E.02498
G1 X85.821 Y87.054 E1.08872
G1 X85.324 Y87.045 E.02498
G1 X100.638 Y102.359 E1.08872
G1 X100.141 Y102.351 E.02498
G1 X84.827 Y87.037 E1.08872
G1 X84.331 Y87.029 E.02498
G1 X99.644 Y102.343 E1.08872
G1 X99.148 Y102.335 E.02498
G1 X83.834 Y87.021 E1.08872
G1 X83.337 Y87.013 E.02498
M73 P4 R48
G1 X98.651 Y102.326 E1.08872
G1 X98.154 Y102.318 E.02498
G1 X82.84 Y87.004 E1.08872
G1 X82.344 Y86.996 E.02498
G1 X97.657 Y102.31 E1.08872
G1 X97.16 Y102.302 E.02498
G1 X81.847 Y86.988 E1.08872
G1 X81.35 Y86.98 E.02498
G1 X96.664 Y102.294 E1.08872
G1 X96.167 Y102.285 E.02498
G1 X80.853 Y86.972 E1.08872
G1 X80.356 Y86.964 E.02498
G1 X95.67 Y102.277 E1.08872
G1 X95.173 Y102.269 E.02498
M73 P5 R48
G1 X79.86 Y86.955 E1.08872
G1 X79.363 Y86.947 E.02498
G1 X94.677 Y102.261 E1.08872
G1 X94.18 Y102.253 E.02498
G1 X78.866 Y86.939 E1.08872
G1 X78.369 Y86.931 E.02498
G1 X93.683 Y102.244 E1.08872
G1 X93.186 Y102.236 E.02498
G1 X77.873 Y86.923 E1.08872
G1 X77.376 Y86.914 E.02498
G1 X92.69 Y102.228 E1.08872
G1 X92.193 Y102.22 E.02498
G1 X76.879 Y86.906 E1.08872
G1 X76.382 Y86.898 E.02498
G1 X91.696 Y102.212 E1.08872
G1 X91.199 Y102.204 E.02498
G1 X75.886 Y86.89 E1.08872
G1 X75.389 Y86.882 E.02498
G1 X90.702 Y102.195 E1.08872
G1 X90.206 Y102.187 E.02498
G1 X74.892 Y86.873 E1.08872
G1 X74.395 Y86.865 E.02498
G1 X89.709 Y102.179 E1.08872
G1 X89.212 Y102.171 E.02498
G1 X73.898 Y86.857 E1.08871
G1 X73.402 Y86.849 E.02498
G1 X88.715 Y102.163 E1.08871
G1 X88.219 Y102.154 E.02498
G1 X72.905 Y86.841 E1.08871
G1 X72.408 Y86.832 E.02498
G1 X87.722 Y102.146 E1.08871
G1 X87.225 Y102.138 E.02498
G1 X71.911 Y86.824 E1.08871
G1 X71.415 Y86.816 E.02498
G1 X86.728 Y102.13 E1.08871
G1 X86.232 Y102.122 E.02498
G1 X70.918 Y86.808 E1.08871
G1 X70.421 Y86.8 E.02498
G1 X85.735 Y102.113 E1.08871
G1 X85.238 Y102.105 E.02498
G1 X69.924 Y86.792 E1.08871
G1 X69.428 Y86.783 E.02498
G1 X84.741 Y102.097 E1.08871
G1 X84.244 Y102.089 E.02498
G1 X68.931 Y86.775 E1.08871
G1 X68.434 Y86.767 E.02498
G1 X83.748 Y102.081 E1.08871
G1 X83.251 Y102.072 E.02498
G1 X67.937 Y86.759 E1.08871
G1 X67.441 Y86.751 E.02498
G1 X82.754 Y102.064 E1.08871
G1 X82.257 Y102.056 E.02498
G1 X66.944 Y86.742 E1.08871
G1 X66.447 Y86.734 E.02498
G1 X81.761 Y102.048 E1.08871
G1 X81.264 Y102.04 E.02498
G1 X65.95 Y86.726 E1.08871
G1 X65.453 Y86.718 E.02498
G1 X80.767 Y102.031 E1.08871
G1 X80.27 Y102.023 E.02498
G1 X64.957 Y86.71 E1.08871
G1 X64.46 Y86.701 E.02498
G1 X79.774 Y102.015 E1.08871
G1 X79.277 Y102.007 E.02498
G1 X63.963 Y86.693 E1.08871
G1 X63.466 Y86.685 E.02498
G1 X78.78 Y101.999 E1.08871
G1 X78.283 Y101.99 E.02498
G1 X62.97 Y86.677 E1.08871
G1 X62.473 Y86.669 E.02498
G1 X77.786 Y101.982 E1.08871
G1 X77.29 Y101.974 E.02498
G1 X61.976 Y86.661 E1.08871
G1 X61.479 Y86.652 E.02498
G1 X76.793 Y101.966 E1.08871
G1 X76.296 Y101.958 E.02498
G1 X60.983 Y86.644 E1.08871
G1 X60.486 Y86.636 E.02498
M73 P6 R48
G1 X75.799 Y101.95 E1.08871
G1 X75.303 Y101.941 E.02498
G1 X59.989 Y86.628 E1.08871
G1 X59.492 Y86.62 E.02498
G1 X74.806 Y101.933 E1.08871
G1 X74.309 Y101.925 E.02498
G1 X58.995 Y86.611 E1.08871
G1 X58.499 Y86.603 E.02498
G1 X73.812 Y101.917 E1.08871
G1 X73.316 Y101.909 E.02498
G1 X58.002 Y86.595 E1.08871
G1 X57.505 Y86.587 E.02498
G1 X72.819 Y101.9 E1.08871
G1 X72.322 Y101.892 E.02498
G1 X57.008 Y86.579 E1.08871
G1 X56.512 Y86.57 E.02498
G1 X71.825 Y101.884 E1.08871
G1 X71.328 Y101.876 E.02498
G1 X56.015 Y86.562 E1.08871
G1 X55.518 Y86.554 E.02498
G1 X70.832 Y101.868 E1.08871
G1 X70.335 Y101.859 E.02498
G1 X55.021 Y86.546 E1.0887
G1 X54.525 Y86.538 E.02498
G1 X69.838 Y101.851 E1.0887
G1 X69.341 Y101.843 E.02498
G1 X54.028 Y86.529 E1.0887
G1 X53.531 Y86.521 E.02498
G1 X68.845 Y101.835 E1.0887
G1 X68.348 Y101.827 E.02498
G1 X53.034 Y86.513 E1.0887
G1 X52.538 Y86.505 E.02498
G1 X67.851 Y101.818 E1.0887
G1 X67.354 Y101.81 E.02498
G1 X52.041 Y86.497 E1.0887
G1 X51.544 Y86.489 E.02498
G1 X66.858 Y101.802 E1.0887
G1 X66.361 Y101.794 E.02498
G1 X51.047 Y86.48 E1.0887
G1 X50.55 Y86.472 E.02498
G1 X65.864 Y101.786 E1.0887
G1 X65.367 Y101.777 E.02498
G1 X50.054 Y86.464 E1.0887
G1 X49.557 Y86.456 E.02498
G1 X64.87 Y101.769 E1.0887
G1 X64.374 Y101.761 E.02498
G1 X49.06 Y86.448 E1.0887
G1 X48.563 Y86.439 E.02498
G1 X63.877 Y101.753 E1.0887
G1 X63.38 Y101.745 E.02498
G1 X48.067 Y86.431 E1.0887
G1 X47.57 Y86.423 E.02498
G1 X62.883 Y101.737 E1.0887
G1 X62.387 Y101.728 E.02498
G1 X47.073 Y86.415 E1.0887
G1 X46.576 Y86.407 E.02498
G1 X61.89 Y101.72 E1.0887
G1 X61.393 Y101.712 E.02498
G1 X46.08 Y86.398 E1.0887
G1 X45.583 Y86.39 E.02498
M73 P6 R47
G1 X60.896 Y101.704 E1.0887
G1 X60.399 Y101.696 E.02498
G1 X45.086 Y86.382 E1.0887
G1 X44.589 Y86.374 E.02498
G1 X59.903 Y101.687 E1.0887
G1 X59.406 Y101.679 E.02498
G1 X44.093 Y86.366 E1.0887
G1 X43.596 Y86.358 E.02498
G1 X58.909 Y101.671 E1.0887
G1 X58.412 Y101.663 E.02498
G1 X43.099 Y86.349 E1.0887
G1 X42.602 Y86.341 E.02498
G1 X57.916 Y101.655 E1.0887
G1 X57.419 Y101.646 E.02498
G1 X42.105 Y86.333 E1.0887
G1 X41.609 Y86.325 E.02498
G1 X56.922 Y101.638 E1.0887
G1 X56.425 Y101.63 E.02498
M73 P7 R47
G1 X41.112 Y86.317 E1.0887
G1 X40.615 Y86.308 E.02498
G1 X55.929 Y101.622 E1.0887
G1 X55.432 Y101.614 E.02498
G1 X40.118 Y86.3 E1.0887
G1 X39.622 Y86.292 E.02498
G1 X54.935 Y101.605 E1.0887
G1 X54.438 Y101.597 E.02498
G1 X39.125 Y86.284 E1.0887
G1 X38.628 Y86.276 E.02498
G1 X53.941 Y101.589 E1.0887
G1 X53.445 Y101.581 E.02498
G1 X38.131 Y86.267 E1.0887
G1 X37.635 Y86.259 E.02498
G1 X52.948 Y101.573 E1.0887
G1 X52.451 Y101.564 E.02498
G1 X37.138 Y86.251 E1.0887
