; generated by PrusaSlicer 2.5.0+win64 on 2022-12-07 at 00:33:12 UTC

; 

; external perimeters extrusion width = 1.00mm
; perimeters extrusion width = 1.00mm
; infill extrusion width = 1.00mm
; solid infill extrusion width = 1.00mm
; top infill extrusion width = 1.00mm
; support material extrusion width = 1.00mm
; first layer extrusion width = 0.42mm

M73 P0 R208
M107
;TYPE:Custom
G90 ; use absolute coordinates
M83 ; extruder relative mode
M140 S60 ; set final bed temp
M104 S150 ; set temporary nozzle temp to prevent oozing during homing and auto bed leveling
G4 S10 ; allow partial nozzle warmup
G28 ; home all axisG1 Z50 F240
G1 X7.6 Y10 F3000
M104 S210 ; set final nozzle temp
M190 S60 ; wait for bed temp to stabilize
M109 S210 ; wait for nozzle temp to stabilize
G1 Z0.28 F240
G92 E0
G1 Y140 E10 F1500 ; prime the nozzle
G1 X4 F5000
G92 E0
G1 Y10 E10 F1200 ; prime the nozzle
G92 E0
G21 ; set units to millimeters
G90 ; use absolute coordinates
M83 ; use relative distances for extrusion
; Filament gcode
M107
;LAYER_CHANGE
;Z:0.35
;HEIGHT:0.35
;BEFORE_LAYER_CHANGE
G92 E0
;0.35


G1 E-1 F3600
G1 Z.35 F7800
;AFTER_LAYER_CHANGE
;0.35
G1 X94.029 Y125.104
G1 E1 F2400
;TYPE:Perimeter
;WIDTH:0.42
G1 F1800
G1 X68.708 Y138.494 E1.43749
G1 X68.708 Y17.18 E6.08824
G1 X111.012 Y17.18 E2.12305
G1 X94.052 Y124.956 E5.47539
G1 X94.325 Y125.337 F7800
;TYPE:External perimeter
G1 F1800
G1 X68.363 Y139.066 E1.47387
G1 X68.363 Y16.835 E6.13429
G1 X111.415 Y16.835 E2.1606
G1 X94.363 Y125.2 E5.50532
G1 X93.332 Y125.217 F7800
G1 E-.7 F3600
;WIPE_START
G1 F6240
G1 X93.904 Y125.445 E-.285
;WIPE_END
G1 E-.015 F3600
G1 X110.195 Y17.283 F7800
G1 E1 F2400
;TYPE:Solid infill
;WIDTH:0.420622
G1 F1800
G1 X110.66 Y17.748 E.03308
G1 X110.594 Y18.171 E.02149
G1 X109.862 Y17.438 E.05207
G1 X109.373 Y17.438 E.02457
G1 X110.527 Y18.593 E.08208
G1 X110.461 Y19.015 E.02149
G1 X108.884 Y17.438 E.1121
G1 X108.396 Y17.438 E.02457
G1 X110.395 Y19.437 E.14212
G1 X110.328 Y19.859 E.02149
G1 X107.907 Y17.438 E.17214
G1 X107.418 Y17.438 E.02457
G1 X110.262 Y20.282 E.20216
G1 X110.195 Y20.704 E.02149
G1 X106.93 Y17.438 E.23218
G1 X106.441 Y17.438 E.02457
G1 X110.129 Y21.126 E.26219
G1 X110.062 Y21.548 E.02149
G1 X105.953 Y17.438 E.29221
G1 X105.464 Y17.438 E.02457
G1 X109.996 Y21.97 E.32223
G1 X109.929 Y22.392 E.02149
G1 X104.975 Y17.438 E.35225
G1 X104.487 Y17.438 E.02457
G1 X109.863 Y22.815 E.38227
G1 X109.797 Y23.237 E.02149
G1 X103.998 Y17.438 E.41229
G1 X103.509 Y17.438 E.02457
G1 X109.73 Y23.659 E.4423
G1 X109.664 Y24.081 E.02149
G1 X103.021 Y17.438 E.47232
G1 X102.532 Y17.438 E.02457
G1 X109.597 Y24.503 E.50234
G1 X109.531 Y24.926 E.02149
G1 X102.044 Y17.438 E.53236
G1 X101.555 Y17.438 E.02457
G1 X109.464 Y25.348 E.56238
G1 X109.398 Y25.77 E.02149
G1 X101.066 Y17.438 E.5924
G1 X100.578 Y17.438 E.02457
G1 X109.332 Y26.192 E.62242
G1 X109.265 Y26.614 E.02149
G1 X100.089 Y17.438 E.65243
G1 X99.6 Y17.438 E.02457
G1 X109.199 Y27.037 E.68245
G1 X109.132 Y27.459 E.02149
G1 X99.112 Y17.438 E.71247
G1 X98.623 Y17.438 E.02457
G1 X109.066 Y27.881 E.74249
G1 X108.999 Y28.303 E.02149
G1 X98.135 Y17.438 E.77251
G1 X97.646 Y17.438 E.02457
G1 X108.933 Y28.725 E.80253
G1 X108.867 Y29.148 E.02149
G1 X97.157 Y17.438 E.83254
G1 X96.669 Y17.438 E.02457
G1 X108.8 Y29.57 E.86256
G1 X108.734 Y29.992 E.02149
G1 X96.18 Y17.438 E.89258
G1 X95.691 Y17.438 E.02457
G1 X108.667 Y30.414 E.9226
G1 X108.601 Y30.836 E.02149
G1 X95.203 Y17.438 E.95262
G1 X94.714 Y17.438 E.02457
G1 X108.534 Y31.258 E.98264
G1 X108.468 Y31.681 E.02149
G1 X94.226 Y17.438 E1.01266
G1 X93.737 Y17.438 E.02457
G1 X108.401 Y32.103 E1.04267
G1 X108.335 Y32.525 E.02149
G1 X93.248 Y17.438 E1.07269
G1 X92.76 Y17.438 E.02457
G1 X108.269 Y32.947 E1.10271
G1 X108.202 Y33.369 E.02149
G1 X92.271 Y17.438 E1.13273
G1 X91.782 Y17.438 E.02457
G1 X108.136 Y33.792 E1.16275
G1 X108.069 Y34.214 E.02149
G1 X91.294 Y17.438 E1.19277
G1 X90.805 Y17.438 E.02457
G1 X108.003 Y34.636 E1.22278
G1 X107.936 Y35.058 E.02149
M73 P0 R207
G1 X90.316 Y17.438 E1.2528
G1 X89.828 Y17.438 E.02457
G1 X107.87 Y35.48 E1.28282
G1 X107.804 Y35.903 E.02149
G1 X89.339 Y17.438 E1.31284
G1 X88.851 Y17.438 E.02457
G1 X107.737 Y36.325 E1.34286
G1 X107.671 Y36.747 E.02149
G1 X88.362 Y17.438 E1.37288
G1 X87.873 Y17.438 E.02457
G1 X107.604 Y37.169 E1.4029
G1 X107.538 Y37.591 E.02149
G1 X87.385 Y17.438 E1.43291
G1 X86.896 Y17.438 E.02457
G1 X107.471 Y38.014 E1.46293
G1 X107.405 Y38.436 E.02149
G1 X86.407 Y17.438 E1.49295
G1 X85.919 Y17.438 E.02457
G1 X107.339 Y38.858 E1.52297
G1 X107.272 Y39.28 E.02149
G1 X85.43 Y17.438 E1.55299
G1 X84.942 Y17.438 E.02457
G1 X107.206 Y39.702 E1.58301
G1 X107.139 Y40.125 E.02149
G1 X84.453 Y17.438 E1.61302
G1 X83.964 Y17.438 E.02457
G1 X107.073 Y40.547 E1.64304
G1 X107.006 Y40.969 E.02149
G1 X83.476 Y17.438 E1.67306
G1 X82.987 Y17.438 E.02457
G1 X106.94 Y41.391 E1.70308
G1 X106.873 Y41.813 E.02149
G1 X82.498 Y17.438 E1.7331
G1 X82.01 Y17.438 E.02457
G1 X106.807 Y42.235 E1.76312
G1 X106.741 Y42.658 E.02149
G1 X81.521 Y17.438 E1.79314
G1 X81.033 Y17.438 E.02457
G1 X106.674 Y43.08 E1.82315
G1 X106.608 Y43.502 E.02149
G1 X80.544 Y17.438 E1.85317
G1 X80.055 Y17.438 E.02457
G1 X106.541 Y43.924 E1.88319
G1 X106.475 Y44.346 E.02149
G1 X79.567 Y17.438 E1.91321
G1 X79.078 Y17.438 E.02457
G1 X106.408 Y44.769 E1.94323
G1 X106.342 Y45.191 E.02149
G1 X78.589 Y17.438 E1.97325
G1 X78.101 Y17.438 E.02457
G1 X106.276 Y45.613 E2.00326
G1 X106.209 Y46.035 E.02149
G1 X77.612 Y17.438 E2.03328
G1 X77.124 Y17.438 E.02457
G1 X106.143 Y46.457 E2.0633
G1 X106.076 Y46.88 E.02149
G1 X76.635 Y17.438 E2.09332
G1 X76.146 Y17.438 E.02457
G1 X106.01 Y47.302 E2.12334
G1 X105.943 Y47.724 E.02149
G1 X75.658 Y17.438 E2.15336
G1 X75.169 Y17.438 E.02457
G1 X105.877 Y48.146 E2.18338
G1 X105.81 Y48.568 E.02149
G1 X74.68 Y17.438 E2.21339
G1 X74.192 Y17.438 E.02457
G1 X105.744 Y48.991 E2.24341
G1 X105.678 Y49.413 E.02149
G1 X73.703 Y17.438 E2.27343
G1 X73.215 Y17.438 E.02457
G1 X105.611 Y49.835 E2.30345
G1 X105.545 Y50.257 E.02149
G1 X72.726 Y17.438 E2.33347
G1 X72.237 Y17.438 E.02457
G1 X105.478 Y50.679 E2.36349
G1 X105.412 Y51.101 E.02149
G1 X71.749 Y17.438 E2.3935
G1 X71.26 Y17.438 E.02457
G1 X105.345 Y51.524 E2.42352
G1 X105.279 Y51.946 E.02149
G1 X70.771 Y17.438 E2.45354
G1 X70.283 Y17.438 E.02457
G1 X105.213 Y52.368 E2.48356
G1 X105.146 Y52.79 E.02149
G1 X69.794 Y17.438 E2.51358
G1 X69.306 Y17.438 E.02457
G1 X105.08 Y53.212 E2.5436
G1 X105.013 Y53.635 E.02149
G1 X68.967 Y17.588 E2.56297
G1 X68.967 Y18.077 E.02457
G1 X104.947 Y54.057 E2.55825
G1 X104.88 Y54.479 E.02149
M73 P0 R206
G1 X68.967 Y18.565 E2.55353
G1 X68.967 Y19.054 E.02457
G1 X104.814 Y54.901 E2.5488
G1 X104.748 Y55.323 E.02149
G1 X68.967 Y19.542 E2.54408
G1 X68.967 Y20.031 E.02457
G1 X104.681 Y55.746 E2.53936
G1 X104.615 Y56.168 E.02149
G1 X68.967 Y20.52 E2.53463
G1 X68.967 Y21.008 E.02457
G1 X104.548 Y56.59 E2.52991
M73 P1 R206
G1 X104.482 Y57.012 E.02149
G1 X68.967 Y21.497 E2.52519
G1 X68.967 Y21.986 E.02457
G1 X104.415 Y57.434 E2.52046
G1 X104.349 Y57.857 E.02149
G1 X68.967 Y22.474 E2.51574
G1 X68.967 Y22.963 E.02457
G1 X104.282 Y58.279 E2.51101
G1 X104.216 Y58.701 E.02149
G1 X68.967 Y23.451 E2.50629
G1 X68.967 Y23.94 E.02457
G1 X104.15 Y59.123 E2.50157
G1 X104.083 Y59.545 E.02149
G1 X68.967 Y24.429 E2.49684
G1 X68.967 Y24.917 E.02457
G1 X104.017 Y59.968 E2.49212
G1 X103.95 Y60.39 E.02149
G1 X68.967 Y25.406 E2.4874
G1 X68.967 Y25.895 E.02457
G1 X103.884 Y60.812 E2.48267
G1 X103.817 Y61.234 E.02149
G1 X68.967 Y26.383 E2.47795
G1 X68.967 Y26.872 E.02457
G1 X103.751 Y61.656 E2.47323
G1 X103.685 Y62.078 E.02149
G1 X68.967 Y27.36 E2.4685
G1 X68.967 Y27.849 E.02457
G1 X103.618 Y62.501 E2.46378
G1 X103.552 Y62.923 E.02149
G1 X68.967 Y28.338 E2.45906
G1 X68.967 Y28.826 E.02457
G1 X103.485 Y63.345 E2.45433
G1 X103.419 Y63.767 E.02149
G1 X68.967 Y29.315 E2.44961
G1 X68.967 Y29.804 E.02457
G1 X103.352 Y64.189 E2.44488
G1 X103.286 Y64.612 E.02149
G1 X68.967 Y30.292 E2.44016
G1 X68.967 Y30.781 E.02457
G1 X103.22 Y65.034 E2.43544
G1 X103.153 Y65.456 E.02149
G1 X68.967 Y31.269 E2.43071
G1 X68.967 Y31.758 E.02457
G1 X103.087 Y65.878 E2.42599
G1 X103.02 Y66.3 E.02149
G1 X68.967 Y32.247 E2.42127
G1 X68.967 Y32.735 E.02457
G1 X102.954 Y66.723 E2.41654
G1 X102.887 Y67.145 E.02149
G1 X68.967 Y33.224 E2.41182
G1 X68.967 Y33.713 E.02457
G1 X102.821 Y67.567 E2.4071
G1 X102.754 Y67.989 E.02149
G1 X68.967 Y34.201 E2.40237
G1 X68.967 Y34.69 E.02457
G1 X102.688 Y68.411 E2.39765
G1 X102.622 Y68.834 E.02149
G1 X68.967 Y35.178 E2.39292
G1 X68.967 Y35.667 E.02457
M73 P1 R205
G1 X102.555 Y69.256 E2.3882
G1 X102.489 Y69.678 E.02149
G1 X68.967 Y36.156 E2.38348
G1 X68.967 Y36.644 E.02457
G1 X102.422 Y70.1 E2.37875
G1 X102.356 Y70.522 E.02149
G1 X68.967 Y37.133 E2.37403
G1 X68.967 Y37.622 E.02457
G1 X102.289 Y70.944 E2.36931
G1 X102.223 Y71.367 E.02149
G1 X68.967 Y38.11 E2.36458
G1 X68.967 Y38.599 E.02457
G1 X102.157 Y71.789 E2.35986
G1 X102.09 Y72.211 E.02149
G1 X68.967 Y39.087 E2.35514
G1 X68.967 Y39.576 E.02457
G1 X102.024 Y72.633 E2.35041
G1 X101.957 Y73.055 E.02149
G1 X68.967 Y40.065 E2.34569
G1 X68.967 Y40.553 E.02457
G1 X101.891 Y73.478 E2.34096
G1 X101.824 Y73.9 E.02149
G1 X68.967 Y41.042 E2.33624
G1 X68.967 Y41.531 E.02457
G1 X101.758 Y74.322 E2.33152
G1 X101.692 Y74.744 E.02149
G1 X68.967 Y42.019 E2.32679
G1 X68.967 Y42.508 E.02457
G1 X101.625 Y75.166 E2.32207
G1 X101.559 Y75.589 E.02149
G1 X68.967 Y42.997 E2.31735
G1 X68.967 Y43.485 E.02457
G1 X101.492 Y76.011 E2.31262
G1 X101.426 Y76.433 E.02149
G1 X68.967 Y43.974 E2.3079
G1 X68.967 Y44.462 E.02457
G1 X101.359 Y76.855 E2.30318
G1 X101.293 Y77.277 E.02149
G1 X68.967 Y44.951 E2.29845
G1 X68.967 Y45.44 E.02457
G1 X101.226 Y77.7 E2.29373
G1 X101.16 Y78.122 E.02149
G1 X68.967 Y45.928 E2.289
G1 X68.967 Y46.417 E.02457
G1 X101.094 Y78.544 E2.28428
G1 X101.027 Y78.966 E.02149
G1 X68.967 Y46.906 E2.27956
G1 X68.967 Y47.394 E.02457
G1 X100.961 Y79.388 E2.27483
G1 X100.894 Y79.81 E.02149
G1 X68.967 Y47.883 E2.27011
G1 X68.967 Y48.371 E.02457
G1 X100.828 Y80.233 E2.26539
G1 X100.761 Y80.655 E.02149
G1 X68.967 Y48.86 E2.26066
G1 X68.967 Y49.349 E.02457
G1 X100.695 Y81.077 E2.25594
G1 X100.629 Y81.499 E.02149
G1 X68.967 Y49.837 E2.25122
G1 X68.967 Y50.326 E.02457
G1 X100.562 Y81.921 E2.24649
G1 X100.496 Y82.344 E.02149
G1 X68.967 Y50.815 E2.24177
G1 X68.967 Y51.303 E.02457
G1 X100.429 Y82.766 E2.23704
G1 X100.363 Y83.188 E.02149
G1 X68.967 Y51.792 E2.23232
G1 X68.967 Y52.28 E.02457
G1 X100.296 Y83.61 E2.2276
G1 X100.23 Y84.032 E.02149
G1 X68.967 Y52.769 E2.22287
G1 X68.967 Y53.258 E.02457
G1 X100.164 Y84.455 E2.21815
G1 X100.097 Y84.877 E.02149
G1 X68.967 Y53.746 E2.21343
G1 X68.967 Y54.235 E.02457
M73 P1 R204
G1 X100.031 Y85.299 E2.2087
G1 X99.964 Y85.721 E.02149
G1 X68.967 Y54.724 E2.20398
G1 X68.967 Y55.212 E.02457
G1 X99.898 Y86.143 E2.19926
G1 X99.831 Y86.566 E.02149
G1 X68.967 Y55.701 E2.19453
G1 X68.967 Y56.189 E.02457
G1 X99.765 Y86.988 E2.18981
G1 X99.698 Y87.41 E.02149
G1 X68.967 Y56.678 E2.18508
G1 X68.967 Y57.167 E.02457
G1 X99.632 Y87.832 E2.18036
G1 X99.566 Y88.254 E.02149
G1 X68.967 Y57.655 E2.17564
G1 X68.967 Y58.144 E.02457
G1 X99.499 Y88.677 E2.17091
G1 X99.433 Y89.099 E.02149
G1 X68.967 Y58.633 E2.16619
G1 X68.967 Y59.121 E.02457
M73 P2 R204
G1 X99.366 Y89.521 E2.16147
G1 X99.3 Y89.943 E.02149
G1 X68.967 Y59.61 E2.15674
G1 X68.967 Y60.098 E.02457
G1 X99.233 Y90.365 E2.15202
G1 X99.167 Y90.787 E.02149
G1 X68.967 Y60.587 E2.1473
G1 X68.967 Y61.076 E.02457
G1 X99.101 Y91.21 E2.14257
G1 X99.034 Y91.632 E.02149
G1 X68.967 Y61.564 E2.13785
G1 X68.967 Y62.053 E.02457
G1 X98.968 Y92.054 E2.13312
G1 X98.901 Y92.476 E.02149
G1 X68.967 Y62.542 E2.1284
G1 X68.967 Y63.03 E.02457
G1 X98.835 Y92.898 E2.12368
G1 X98.768 Y93.321 E.02149
G1 X68.967 Y63.519 E2.11895
G1 X68.967 Y64.007 E.02457
G1 X98.702 Y93.743 E2.11423
G1 X98.636 Y94.165 E.02149
G1 X68.967 Y64.496 E2.10951
G1 X68.967 Y64.985 E.02457
G1 X98.569 Y94.587 E2.10478
G1 X98.503 Y95.009 E.02149
G1 X68.967 Y65.473 E2.10006
G1 X68.967 Y65.962 E.02457
G1 X98.436 Y95.432 E2.09534
G1 X98.37 Y95.854 E.02149
G1 X68.967 Y66.451 E2.09061
G1 X68.967 Y66.939 E.02457
G1 X98.303 Y96.276 E2.08589
G1 X98.237 Y96.698 E.02149
G1 X68.967 Y67.428 E2.08116
G1 X68.967 Y67.916 E.02457
G1 X98.17 Y97.12 E2.07644
G1 X98.104 Y97.543 E.02149
G1 X68.967 Y68.405 E2.07172
G1 X68.967 Y68.894 E.02457
G1 X98.038 Y97.965 E2.06699
G1 X97.971 Y98.387 E.02149
G1 X68.967 Y69.382 E2.06227
G1 X68.967 Y69.871 E.02457
G1 X97.905 Y98.809 E2.05755
G1 X97.838 Y99.231 E.02149
G1 X68.967 Y70.36 E2.05282
G1 X68.967 Y70.848 E.02457
G1 X97.772 Y99.653 E2.0481
G1 X97.705 Y100.076 E.02149
G1 X68.967 Y71.337 E2.04338
G1 X68.967 Y71.825 E.02457
G1 X97.639 Y100.498 E2.03865
G1 X97.573 Y100.92 E.02149
G1 X68.967 Y72.314 E2.03393
G1 X68.967 Y72.803 E.02457
G1 X97.506 Y101.342 E2.0292
G1 X97.44 Y101.764 E.02149
G1 X68.967 Y73.291 E2.02448
G1 X68.967 Y73.78 E.02457
M73 P2 R203
G1 X97.373 Y102.187 E2.01976
G1 X97.307 Y102.609 E.02149
G1 X68.967 Y74.269 E2.01503
G1 X68.967 Y74.757 E.02457
G1 X97.24 Y103.031 E2.01031
G1 X97.174 Y103.453 E.02149
G1 X68.967 Y75.246 E2.00559
G1 X68.967 Y75.734 E.02457
G1 X97.108 Y103.875 E2.00086
G1 X97.041 Y104.298 E.02149
G1 X68.967 Y76.223 E1.99614
G1 X68.967 Y76.712 E.02457
G1 X96.975 Y104.72 E1.99142
G1 X96.908 Y105.142 E.02149
G1 X68.967 Y77.2 E1.98669
G1 X68.967 Y77.689 E.02457
G1 X96.842 Y105.564 E1.98197
G1 X96.775 Y105.986 E.02149
G1 X68.967 Y78.178 E1.97724
G1 X68.967 Y78.666 E.02457
G1 X96.709 Y106.409 E1.97252
G1 X96.642 Y106.831 E.02149
G1 X68.967 Y79.155 E1.9678
G1 X68.967 Y79.643 E.02457
G1 X96.576 Y107.253 E1.96307
G1 X96.51 Y107.675 E.02149
G1 X68.967 Y80.132 E1.95835
G1 X68.967 Y80.621 E.02457
G1 X96.443 Y108.097 E1.95363
G1 X96.377 Y108.52 E.02149
G1 X68.967 Y81.109 E1.9489
G1 X68.967 Y81.598 E.02457
G1 X96.31 Y108.942 E1.94418
G1 X96.244 Y109.364 E.02149
G1 X68.967 Y82.087 E1.93946
G1 X68.967 Y82.575 E.02457
G1 X96.177 Y109.786 E1.93473
G1 X96.111 Y110.208 E.02149
G1 X68.967 Y83.064 E1.93001
G1 X68.967 Y83.552 E.02457
G1 X96.045 Y110.63 E1.92529
G1 X95.978 Y111.053 E.02149
G1 X68.967 Y84.041 E1.92056
G1 X68.967 Y84.53 E.02457
G1 X95.912 Y111.475 E1.91584
G1 X95.845 Y111.897 E.02149
G1 X68.967 Y85.018 E1.91111
G1 X68.967 Y85.507 E.02457
G1 X95.779 Y112.319 E1.90639
G1 X95.712 Y112.741 E.02149
G1 X68.967 Y85.996 E1.90167
G1 X68.967 Y86.484 E.02457
G1 X95.646 Y113.164 E1.89694
G1 X95.58 Y113.586 E.02149
G1 X68.967 Y86.973 E1.89222
G1 X68.967 Y87.462 E.02457
G1 X95.513 Y114.008 E1.8875
G1 X95.447 Y114.43 E.02149
G1 X68.967 Y87.95 E1.88277
G1 X68.967 Y88.439 E.02457
G1 X95.38 Y114.852 E1.87805
G1 X95.314 Y115.275 E.02149
G1 X68.967 Y88.927 E1.87333
G1 X68.967 Y89.416 E.02457
G1 X95.247 Y115.697 E1.8686
G1 X95.181 Y116.119 E.02149
G1 X68.967 Y89.905 E1.86388
G1 X68.967 Y90.393 E.02457
G1 X95.114 Y116.541 E1.85915
G1 X95.048 Y116.963 E.02149
G1 X68.967 Y90.882 E1.85443
G1 X68.967 Y91.371 E.02457
G1 X94.982 Y117.386 E1.84971
G1 X94.915 Y117.808 E.02149
G1 X68.967 Y91.859 E1.84498
G1 X68.967 Y92.348 E.02457
G1 X94.849 Y118.23 E1.84026
G1 X94.782 Y118.652 E.02149
G1 X68.967 Y92.836 E1.83554
G1 X68.967 Y93.325 E.02457
G1 X94.716 Y119.074 E1.83081
G1 X94.649 Y119.496 E.02149
G1 X68.967 Y93.814 E1.82609
G1 X68.967 Y94.302 E.02457
G1 X94.583 Y119.919 E1.82137
G1 X94.517 Y120.341 E.02149
G1 X68.967 Y94.791 E1.81664
G1 X68.967 Y95.28 E.02457
G1 X94.45 Y120.763 E1.81192
G1 X94.384 Y121.185 E.02149
G1 X68.967 Y95.768 E1.80719
G1 X68.967 Y96.257 E.02457
M73 P2 R202
G1 X94.317 Y121.607 E1.80247
G1 X94.251 Y122.03 E.02149
G1 X68.967 Y96.745 E1.79775
G1 X68.967 Y97.234 E.02457
G1 X94.184 Y122.452 E1.79302
G1 X94.118 Y122.874 E.02149
G1 X68.967 Y97.723 E1.7883
G1 X68.967 Y98.211 E.02457
G1 X94.052 Y123.296 E1.78358
G1 X93.985 Y123.718 E.02149
G1 X68.967 Y98.7 E1.77885
G1 X68.967 Y99.189 E.02457
G1 X93.919 Y124.141 E1.77413
G1 X93.852 Y124.563 E.02149
G1 X68.967 Y99.677 E1.76941
G1 X68.967 Y100.166 E.02457
G1 X93.756 Y124.955 E1.76258
G1 X93.437 Y125.124 E.01818
G1 X68.967 Y100.654 E1.73986
G1 X68.967 Y101.143 E.02457
G1 X93.117 Y125.293 E1.71713
