; generated by PrusaSlicer 2.5.0+win64 on 2022-12-07 at 00:33:09 UTC

; 

; external perimeters extrusion width = 1.00mm
; perimeters extrusion width = 1.00mm
; infill extrusion width = 1.00mm
; solid infill extrusion width = 1.00mm
; top infill extrusion width = 1.00mm
; support material extrusion width = 1.00mm
; first layer extrusion width = 0.42mm

M73 P0 R305
M107
;TYPE:Custom
G90 ; use absolute coordinates
M83 ; extruder relative mode
M140 S60 ; set final bed temp
M104 S150 ; set temporary nozzle temp to prevent oozing during homing and auto bed leveling
G4 S10 ; allow partial nozzle warmup
G28 ; home all axisG1 Z50 F240
G1 X7.6 Y10 F3000
M104 S210 ; set final nozzle temp
M190 S60 ; wait for bed temp to stabilize
M109 S210 ; wait for nozzle temp to stabilize
G1 Z0.28 F240
G92 E0
G1 Y140 E10 F1500 ; prime the nozzle
G1 X4 F5000
G92 E0
G1 Y10 E10 F1200 ; prime the nozzle
G92 E0
G21 ; set units to millimeters
G90 ; use absolute coordinates
M83 ; use relative distances for extrusion
; Filament gcode
M107
;LAYER_CHANGE
;Z:0.35
;HEIGHT:0.35
;BEFORE_LAYER_CHANGE
G92 E0
;0.35


G1 E-1 F3600
G1 Z.35 F7800
;AFTER_LAYER_CHANGE
;0.35
G1 X82.911 Y17.18
G1 E1 F2400
;TYPE:Perimeter
;WIDTH:0.42
G1 F1800
G1 X59.995 Y162.82 E7.39902
G1 X17.517 Y162.82 E2.13181
G1 X17.517 Y74.484 E4.43324
G1 X18.3 Y69.481 E.25415
G1 X27.652 Y17.18 E2.6664
G1 X82.761 Y17.18 E2.76567
G1 X83.314 Y16.835 F7800
;TYPE:External perimeter
G1 F1800
G1 X60.29 Y163.165 E7.43407
G1 X17.172 Y163.165 E2.16392
G1 X17.172 Y74.457 E4.45189
M73 P0 R304
G1 X17.96 Y69.423 E.25569
G1 X27.363 Y16.835 E2.68107
G1 X83.164 Y16.835 E2.80041
G1 X82.923 Y17.755 F7800
G1 X82.094 Y17.283
;TYPE:Solid infill
;WIDTH:0.420748
G1 F1800
G1 X82.559 Y17.749 E.03311
G1 X82.493 Y18.171 E.0215
G1 X81.76 Y17.438 E.05211
G1 X81.271 Y17.438 E.02458
G1 X82.426 Y18.593 E.08215
G1 X82.36 Y19.016 E.0215
G1 X80.783 Y17.438 E.11219
G1 X80.294 Y17.438 E.02458
G1 X82.293 Y19.438 E.14223
G1 X82.227 Y19.86 E.0215
G1 X79.805 Y17.438 E.17228
G1 X79.316 Y17.438 E.02458
G1 X82.161 Y20.283 E.20232
G1 X82.094 Y20.705 E.0215
G1 X78.827 Y17.438 E.23236
G1 X78.339 Y17.438 E.02458
G1 X82.028 Y21.127 E.2624
G1 X81.961 Y21.55 E.0215
G1 X77.85 Y17.438 E.29244
G1 X77.361 Y17.438 E.02458
G1 X81.895 Y21.972 E.32248
G1 X81.828 Y22.394 E.0215
G1 X76.872 Y17.438 E.35252
G1 X76.383 Y17.438 E.02458
G1 X81.762 Y22.817 E.38256
G1 X81.695 Y23.239 E.0215
G1 X75.895 Y17.438 E.4126
G1 X75.406 Y17.438 E.02458
G1 X81.629 Y23.662 E.44264
G1 X81.562 Y24.084 E.0215
G1 X74.917 Y17.438 E.47268
G1 X74.428 Y17.438 E.02458
G1 X81.496 Y24.506 E.50272
G1 X81.43 Y24.929 E.0215
G1 X73.939 Y17.438 E.53276
G1 X73.45 Y17.438 E.02458
G1 X81.363 Y25.351 E.56281
G1 X81.297 Y25.773 E.0215
G1 X72.962 Y17.438 E.59285
G1 X72.473 Y17.438 E.02458
G1 X81.23 Y26.196 E.62289
G1 X81.164 Y26.618 E.0215
G1 X71.984 Y17.438 E.65293
G1 X71.495 Y17.438 E.02458
G1 X81.097 Y27.04 E.68297
G1 X81.031 Y27.463 E.0215
G1 X71.006 Y17.438 E.71301
G1 X70.518 Y17.438 E.02458
G1 X80.964 Y27.885 E.74305
G1 X80.898 Y28.307 E.0215
G1 X70.029 Y17.438 E.77309
G1 X69.54 Y17.438 E.02458
G1 X80.832 Y28.73 E.80313
G1 X80.765 Y29.152 E.0215
G1 X69.051 Y17.438 E.83317
G1 X68.562 Y17.438 E.02458
G1 X80.699 Y29.574 E.86321
G1 X80.632 Y29.997 E.0215
G1 X68.074 Y17.438 E.89325
G1 X67.585 Y17.438 E.02458
G1 X80.566 Y30.419 E.9233
G1 X80.499 Y30.841 E.0215
G1 X67.096 Y17.438 E.95334
G1 X66.607 Y17.438 E.02458
G1 X80.433 Y31.264 E.98338
G1 X80.366 Y31.686 E.0215
G1 X66.118 Y17.438 E1.01342
G1 X65.63 Y17.438 E.02458
G1 X80.3 Y32.109 E1.04346
G1 X80.233 Y32.531 E.0215
G1 X65.141 Y17.438 E1.0735
G1 X64.652 Y17.438 E.02458
G1 X80.167 Y32.953 E1.10354
G1 X80.101 Y33.376 E.0215
G1 X64.163 Y17.438 E1.13358
G1 X63.674 Y17.438 E.02458
G1 X80.034 Y33.798 E1.16362
G1 X79.968 Y34.22 E.0215
G1 X63.186 Y17.438 E1.19366
G1 X62.697 Y17.438 E.02458
G1 X79.901 Y34.643 E1.2237
G1 X79.835 Y35.065 E.0215
G1 X62.208 Y17.438 E1.25374
G1 X61.719 Y17.438 E.02458
G1 X79.768 Y35.487 E1.28378
G1 X79.702 Y35.91 E.0215
G1 X61.23 Y17.438 E1.31383
G1 X60.742 Y17.438 E.02458
G1 X79.635 Y36.332 E1.34387
G1 X79.569 Y36.754 E.0215
G1 X60.253 Y17.438 E1.37391
G1 X59.764 Y17.438 E.02458
G1 X79.502 Y37.177 E1.40395
G1 X79.436 Y37.599 E.0215
G1 X59.275 Y17.438 E1.43399
G1 X58.786 Y17.438 E.02458
G1 X79.37 Y38.021 E1.46403
G1 X79.303 Y38.444 E.0215
G1 X58.298 Y17.438 E1.49407
G1 X57.809 Y17.438 E.02458
G1 X79.237 Y38.866 E1.52411
G1 X79.17 Y39.289 E.0215
G1 X57.32 Y17.438 E1.55415
G1 X56.831 Y17.438 E.02458
G1 X79.104 Y39.711 E1.58419
G1 X79.037 Y40.133 E.0215
G1 X56.342 Y17.438 E1.61423
G1 X55.854 Y17.438 E.02458
G1 X78.971 Y40.556 E1.64427
G1 X78.904 Y40.978 E.0215
G1 X55.365 Y17.438 E1.67431
G1 X54.876 Y17.438 E.02458
G1 X78.838 Y41.4 E1.70436
G1 X78.771 Y41.823 E.0215
G1 X54.387 Y17.438 E1.7344
G1 X53.898 Y17.438 E.02458
G1 X78.705 Y42.245 E1.76444
G1 X78.639 Y42.667 E.0215
G1 X53.41 Y17.438 E1.79448
G1 X52.921 Y17.438 E.02458
G1 X78.572 Y43.09 E1.82452
G1 X78.506 Y43.512 E.0215
G1 X52.432 Y17.438 E1.85456
G1 X51.943 Y17.438 E.02458
G1 X78.439 Y43.934 E1.8846
G1 X78.373 Y44.357 E.0215
G1 X51.454 Y17.438 E1.91464
G1 X50.965 Y17.438 E.02458
G1 X78.306 Y44.779 E1.94468
G1 X78.24 Y45.201 E.0215
G1 X50.477 Y17.438 E1.97472
G1 X49.988 Y17.438 E.02458
G1 X78.173 Y45.624 E2.00476
G1 X78.107 Y46.046 E.0215
G1 X49.499 Y17.438 E2.0348
G1 X49.01 Y17.438 E.02458
G1 X78.04 Y46.468 E2.06484
G1 X77.974 Y46.891 E.0215
G1 X48.521 Y17.438 E2.09489
G1 X48.033 Y17.438 E.02458
M73 P0 R303
G1 X77.908 Y47.313 E2.12493
G1 X77.841 Y47.736 E.0215
G1 X47.544 Y17.438 E2.15497
G1 X47.055 Y17.438 E.02458
G1 X77.775 Y48.158 E2.18501
G1 X77.708 Y48.58 E.0215
G1 X46.566 Y17.438 E2.21505
G1 X46.077 Y17.438 E.02458
G1 X77.642 Y49.003 E2.24509
G1 X77.575 Y49.425 E.0215
G1 X45.589 Y17.438 E2.27513
G1 X45.1 Y17.438 E.02458
G1 X77.509 Y49.847 E2.30517
G1 X77.442 Y50.27 E.0215
G1 X44.611 Y17.438 E2.33521
G1 X44.122 Y17.438 E.02458
G1 X77.376 Y50.692 E2.36525
G1 X77.309 Y51.114 E.0215
G1 X43.633 Y17.438 E2.39529
G1 X43.145 Y17.438 E.02458
G1 X77.243 Y51.537 E2.42533
G1 X77.177 Y51.959 E.0215
G1 X42.656 Y17.438 E2.45538
G1 X42.167 Y17.438 E.02458
G1 X77.11 Y52.381 E2.48542
G1 X77.044 Y52.804 E.0215
G1 X41.678 Y17.438 E2.51546
G1 X41.189 Y17.438 E.02458
G1 X76.977 Y53.226 E2.5455
G1 X76.911 Y53.648 E.0215
G1 X40.701 Y17.438 E2.57554
G1 X40.212 Y17.438 E.02458
G1 X76.844 Y54.071 E2.60558
G1 X76.778 Y54.493 E.0215
G1 X39.723 Y17.438 E2.63562
G1 X39.234 Y17.438 E.02458
G1 X76.711 Y54.916 E2.66566
G1 X76.645 Y55.338 E.0215
G1 X38.745 Y17.438 E2.6957
G1 X38.257 Y17.438 E.02458
G1 X76.579 Y55.76 E2.72574
G1 X76.512 Y56.183 E.0215
G1 X37.768 Y17.438 E2.75578
G1 X37.279 Y17.438 E.02458
G1 X76.446 Y56.605 E2.78582
G1 X76.379 Y57.027 E.0215
G1 X36.79 Y17.438 E2.81586
G1 X36.301 Y17.438 E.02458
G1 X76.313 Y57.45 E2.84591
G1 X76.246 Y57.872 E.0215
G1 X35.813 Y17.438 E2.87595
G1 X35.324 Y17.438 E.02458
G1 X76.18 Y58.294 E2.90599
G1 X76.113 Y58.717 E.0215
G1 X34.835 Y17.438 E2.93603
G1 X34.346 Y17.438 E.02458
G1 X76.047 Y59.139 E2.96607
G1 X75.98 Y59.561 E.0215
G1 X33.857 Y17.438 E2.99611
G1 X33.369 Y17.438 E.02458
G1 X75.914 Y59.984 E3.02615
G1 X75.848 Y60.406 E.0215
G1 X32.88 Y17.438 E3.05619
G1 X32.391 Y17.438 E.02458
G1 X75.781 Y60.828 E3.08623
G1 X75.715 Y61.251 E.0215
M73 P0 R302
G1 X31.902 Y17.438 E3.11627
G1 X31.413 Y17.438 E.02458
G1 X75.648 Y61.673 E3.14631
G1 X75.582 Y62.095 E.0215
G1 X30.925 Y17.438 E3.17635
G1 X30.436 Y17.438 E.02458
G1 X75.515 Y62.518 E3.20639
G1 X75.449 Y62.94 E.0215
G1 X29.947 Y17.438 E3.23644
G1 X29.458 Y17.438 E.02458
G1 X75.382 Y63.363 E3.26648
G1 X75.316 Y63.785 E.0215
G1 X28.969 Y17.438 E3.29652
G1 X28.48 Y17.438 E.02458
G1 X75.249 Y64.207 E3.32656
G1 X75.183 Y64.63 E.0215
G1 X27.992 Y17.438 E3.3566
G1 X27.868 Y17.438 E.0062
G1 X27.813 Y17.748 E.01585
G1 X75.117 Y65.052 E3.36458
G1 X75.05 Y65.474 E.0215
G1 X27.739 Y18.163 E3.36513
G1 X27.665 Y18.578 E.02119
G1 X74.984 Y65.897 E3.36567
G1 X74.917 Y66.319 E.0215
G1 X27.591 Y18.992 E3.36622
G1 X27.516 Y19.407 E.02119
G1 X74.851 Y66.741 E3.36677
G1 X74.784 Y67.164 E.0215
M73 P1 R302
G1 X27.442 Y19.822 E3.36731
G1 X27.368 Y20.236 E.02119
G1 X74.718 Y67.586 E3.36786
G1 X74.651 Y68.008 E.0215
G1 X27.294 Y20.651 E3.36841
G1 X27.22 Y21.066 E.02119
G1 X74.585 Y68.431 E3.36896
G1 X74.518 Y68.853 E.0215
G1 X27.146 Y21.48 E3.3695
G1 X27.072 Y21.895 E.02119
G1 X74.452 Y69.275 E3.37005
G1 X74.386 Y69.698 E.0215
G1 X26.997 Y22.31 E3.3706
G1 X26.923 Y22.724 E.02119
G1 X74.319 Y70.12 E3.37115
G1 X74.253 Y70.543 E.0215
G1 X26.849 Y23.139 E3.37169
G1 X26.775 Y23.554 E.02119
G1 X74.186 Y70.965 E3.37224
G1 X74.12 Y71.387 E.0215
G1 X26.701 Y23.968 E3.37279
G1 X26.627 Y24.383 E.02119
G1 X74.053 Y71.81 E3.37333
G1 X73.987 Y72.232 E.0215
G1 X26.553 Y24.798 E3.37388
G1 X26.478 Y25.212 E.02119
M73 P1 R301
G1 X73.92 Y72.654 E3.37443
G1 X73.854 Y73.077 E.0215
G1 X26.404 Y25.627 E3.37498
G1 X26.33 Y26.042 E.02119
G1 X73.787 Y73.499 E3.37552
G1 X73.721 Y73.921 E.0215
G1 X26.256 Y26.456 E3.37607
G1 X26.182 Y26.871 E.02119
G1 X73.655 Y74.344 E3.37662
G1 X73.588 Y74.766 E.0215
G1 X26.108 Y27.286 E3.37717
G1 X26.033 Y27.7 E.02119
G1 X73.522 Y75.188 E3.37771
G1 X73.455 Y75.611 E.0215
G1 X25.959 Y28.115 E3.37826
G1 X25.885 Y28.53 E.02119
G1 X73.389 Y76.033 E3.37881
G1 X73.322 Y76.455 E.0215
G1 X25.811 Y28.944 E3.37935
G1 X25.737 Y29.359 E.02119
G1 X73.256 Y76.878 E3.3799
G1 X73.189 Y77.3 E.0215
G1 X25.663 Y29.773 E3.38045
G1 X25.589 Y30.188 E.02119
G1 X73.123 Y77.722 E3.381
G1 X73.056 Y78.145 E.0215
G1 X25.514 Y30.603 E3.38154
G1 X25.44 Y31.017 E.02119
G1 X72.99 Y78.567 E3.38209
G1 X72.924 Y78.99 E.0215
G1 X25.366 Y31.432 E3.38264
G1 X25.292 Y31.847 E.02119
G1 X72.857 Y79.412 E3.38319
G1 X72.791 Y79.834 E.0215
G1 X25.218 Y32.261 E3.38373
G1 X25.144 Y32.676 E.02119
G1 X72.724 Y80.257 E3.38428
G1 X72.658 Y80.679 E.0215
G1 X25.07 Y33.091 E3.38483
G1 X24.995 Y33.505 E.02119
G1 X72.591 Y81.101 E3.38537
G1 X72.525 Y81.524 E.0215
G1 X24.921 Y33.92 E3.38592
G1 X24.847 Y34.335 E.02119
G1 X72.458 Y81.946 E3.38647
G1 X72.392 Y82.368 E.0215
G1 X24.773 Y34.749 E3.38702
G1 X24.699 Y35.164 E.02119
G1 X72.326 Y82.791 E3.38756
G1 X72.259 Y83.213 E.0215
G1 X24.625 Y35.579 E3.38811
G1 X24.551 Y35.993 E.02119
M73 P1 R300
G1 X72.193 Y83.635 E3.38866
G1 X72.126 Y84.058 E.0215
G1 X24.476 Y36.408 E3.38921
G1 X24.402 Y36.823 E.02119
G1 X72.06 Y84.48 E3.38975
G1 X71.993 Y84.902 E.0215
G1 X24.328 Y37.237 E3.3903
G1 X24.254 Y37.652 E.02119
G1 X71.927 Y85.325 E3.39085
G1 X71.86 Y85.747 E.0215
G1 X24.18 Y38.067 E3.39139
G1 X24.106 Y38.481 E.02119
G1 X71.794 Y86.17 E3.39194
G1 X71.727 Y86.592 E.0215
G1 X24.032 Y38.896 E3.39249
G1 X23.957 Y39.311 E.02119
G1 X71.661 Y87.014 E3.39304
G1 X71.595 Y87.437 E.0215
G1 X23.883 Y39.725 E3.39358
G1 X23.809 Y40.14 E.02119
G1 X71.528 Y87.859 E3.39413
G1 X71.462 Y88.281 E.0215
G1 X23.735 Y40.555 E3.39468
G1 X23.661 Y40.969 E.02119
G1 X71.395 Y88.704 E3.39523
G1 X71.329 Y89.126 E.0215
G1 X23.587 Y41.384 E3.39577
G1 X23.512 Y41.799 E.02119
G1 X71.262 Y89.548 E3.39632
G1 X71.196 Y89.971 E.0215
G1 X23.438 Y42.213 E3.39687
G1 X23.364 Y42.628 E.02119
G1 X71.129 Y90.393 E3.39741
G1 X71.063 Y90.815 E.0215
G1 X23.29 Y43.043 E3.39796
G1 X23.216 Y43.457 E.02119
G1 X70.996 Y91.238 E3.39851
G1 X70.93 Y91.66 E.0215
G1 X23.142 Y43.872 E3.39906
G1 X23.068 Y44.286 E.02119
G1 X70.864 Y92.082 E3.3996
G1 X70.797 Y92.505 E.0215
G1 X22.993 Y44.701 E3.40015
G1 X22.919 Y45.116 E.02119
G1 X70.731 Y92.927 E3.4007
G1 X70.664 Y93.349 E.0215
G1 X22.845 Y45.53 E3.40125
G1 X22.771 Y45.945 E.02119
G1 X70.598 Y93.772 E3.40179
G1 X70.531 Y94.194 E.0215
G1 X22.697 Y46.36 E3.40234
G1 X22.623 Y46.774 E.02119
M73 P1 R299
G1 X70.465 Y94.617 E3.40289
G1 X70.398 Y95.039 E.0215
G1 X22.549 Y47.189 E3.40343
G1 X22.474 Y47.604 E.02119
G1 X70.332 Y95.461 E3.40398
G1 X70.265 Y95.884 E.0215
G1 X22.4 Y48.018 E3.40453
G1 X22.326 Y48.433 E.02119
G1 X70.199 Y96.306 E3.40508
G1 X70.133 Y96.728 E.0215
G1 X22.252 Y48.848 E3.40562
G1 X22.178 Y49.262 E.02119
G1 X70.066 Y97.151 E3.40617
G1 X70 Y97.573 E.0215
G1 X22.104 Y49.677 E3.40672
G1 X22.03 Y50.092 E.02119
G1 X69.933 Y97.995 E3.40726
G1 X69.867 Y98.418 E.0215
G1 X21.955 Y50.506 E3.40781
G1 X21.881 Y50.921 E.02119
G1 X69.8 Y98.84 E3.40836
G1 X69.734 Y99.262 E.0215
G1 X21.807 Y51.336 E3.40891
G1 X21.733 Y51.75 E.02119
G1 X69.667 Y99.685 E3.40945
G1 X69.601 Y100.107 E.0215
G1 X21.659 Y52.165 E3.41
G1 X21.585 Y52.58 E.02119
G1 X69.534 Y100.529 E3.41055
G1 X69.468 Y100.952 E.0215
M73 P2 R299
G1 X21.511 Y52.994 E3.4111
G1 X21.436 Y53.409 E.02119
G1 X69.402 Y101.374 E3.41164
G1 X69.335 Y101.797 E.0215
G1 X21.362 Y53.824 E3.41219
G1 X21.288 Y54.238 E.02119
G1 X69.269 Y102.219 E3.41274
G1 X69.202 Y102.641 E.0215
G1 X21.214 Y54.653 E3.41328
G1 X21.14 Y55.068 E.02119
G1 X69.136 Y103.064 E3.41383
G1 X69.069 Y103.486 E.0215
G1 X21.066 Y55.482 E3.41438
G1 X20.991 Y55.897 E.02119
G1 X69.003 Y103.908 E3.41493
G1 X68.936 Y104.331 E.0215
G1 X20.917 Y56.312 E3.41547
G1 X20.843 Y56.726 E.02119
G1 X68.87 Y104.753 E3.41602
G1 X68.803 Y105.175 E.0215
G1 X20.769 Y57.141 E3.41657
G1 X20.695 Y57.556 E.02119
M73 P2 R298
G1 X68.737 Y105.598 E3.41712
G1 X68.671 Y106.02 E.0215
G1 X20.621 Y57.97 E3.41766
G1 X20.547 Y58.385 E.02119
G1 X68.604 Y106.442 E3.41821
G1 X68.538 Y106.865 E.0215
G1 X20.472 Y58.8 E3.41876
G1 X20.398 Y59.214 E.02119
G1 X68.471 Y107.287 E3.4193
G1 X68.405 Y107.709 E.0215
G1 X20.324 Y59.629 E3.41985
G1 X20.25 Y60.043 E.02119
G1 X68.338 Y108.132 E3.4204
G1 X68.272 Y108.554 E.0215
G1 X20.176 Y60.458 E3.42095
G1 X20.102 Y60.873 E.02119
G1 X68.205 Y108.976 E3.42149
G1 X68.139 Y109.399 E.0215
G1 X20.028 Y61.287 E3.42204
G1 X19.953 Y61.702 E.02119
G1 X68.073 Y109.821 E3.42259
G1 X68.006 Y110.244 E.0215
G1 X19.879 Y62.117 E3.42314
G1 X19.805 Y62.531 E.02119
G1 X67.94 Y110.666 E3.42368
G1 X67.873 Y111.088 E.0215
G1 X19.731 Y62.946 E3.42423
G1 X19.657 Y63.361 E.02119
G1 X67.807 Y111.511 E3.42478
G1 X67.74 Y111.933 E.0215
G1 X19.583 Y63.775 E3.42532
G1 X19.509 Y64.19 E.02119
G1 X67.674 Y112.355 E3.42587
G1 X67.607 Y112.778 E.0215
G1 X19.434 Y64.605 E3.42642
G1 X19.36 Y65.019 E.02119
G1 X67.541 Y113.2 E3.42697
G1 X67.474 Y113.622 E.0215
G1 X19.286 Y65.434 E3.42751
G1 X19.212 Y65.849 E.02119
G1 X67.408 Y114.045 E3.42806
G1 X67.342 Y114.467 E.0215
G1 X19.138 Y66.263 E3.42861
G1 X19.064 Y66.678 E.02119
G1 X67.275 Y114.889 E3.42916
G1 X67.209 Y115.312 E.0215
G1 X18.99 Y67.093 E3.4297
G1 X18.915 Y67.507 E.02119
G1 X67.142 Y115.734 E3.43025
G1 X67.076 Y116.156 E.0215
G1 X18.841 Y67.922 E3.4308
G1 X18.767 Y68.337 E.02119
M73 P2 R297
G1 X67.009 Y116.579 E3.43134
G1 X66.943 Y117.001 E.0215
G1 X18.693 Y68.751 E3.43189
G1 X18.619 Y69.166 E.02119
G1 X66.876 Y117.424 E3.43244
G1 X66.81 Y117.846 E.0215
G1 X18.546 Y69.582 E3.43291
G1 X18.48 Y70.004 E.02152
G1 X66.743 Y118.268 E3.43288
G1 X66.677 Y118.691 E.0215
G1 X18.413 Y70.427 E3.43286
G1 X18.347 Y70.85 E.02152
G1 X66.611 Y119.113 E3.43284
G1 X66.544 Y119.535 E.0215
G1 X18.281 Y71.272 E3.43281
G1 X18.215 Y71.695 E.02152
G1 X66.478 Y119.958 E3.43279
G1 X66.411 Y120.38 E.0215
G1 X18.149 Y72.118 E3.43276
G1 X18.083 Y72.541 E.02152
G1 X66.345 Y120.802 E3.43274
G1 X66.278 Y121.225 E.0215
G1 X18.017 Y72.963 E3.43272
G1 X17.951 Y73.386 E.02152
G1 X66.212 Y121.647 E3.43269
G1 X66.145 Y122.069 E.0215
G1 X17.885 Y73.809 E3.43267
G1 X17.818 Y74.231 E.02152
G1 X66.079 Y122.492 E3.43264
G1 X66.012 Y122.914 E.0215
G1 X17.776 Y74.677 E3.43095
G1 X17.776 Y75.166 E.02458
G1 X65.946 Y123.336 E3.42623
G1 X65.88 Y123.759 E.0215
G1 X17.776 Y75.655 E3.4215
G1 X17.776 Y76.144 E.02458
G1 X65.813 Y124.181 E3.41677
G1 X65.747 Y124.603 E.0215
G1 X17.776 Y76.633 E3.41205
G1 X17.776 Y77.121 E.02458
G1 X65.68 Y125.026 E3.40732
G1 X65.614 Y125.448 E.0215
G1 X17.776 Y77.61 E3.40259
G1 X17.776 Y78.099 E.02458
G1 X65.547 Y125.871 E3.39787
G1 X65.481 Y126.293 E.0215
G1 X17.776 Y78.588 E3.39314
G1 X17.776 Y79.077 E.02458
G1 X65.414 Y126.715 E3.38841
G1 X65.348 Y127.138 E.0215
M73 P2 R296
G1 X17.776 Y79.565 E3.38369
G1 X17.776 Y80.054 E.02458
G1 X65.281 Y127.56 E3.37896
G1 X65.215 Y127.982 E.0215
G1 X17.776 Y80.543 E3.37423
