; generated by PrusaSlicer 2.5.0+win64 on 2022-12-07 at 00:33:23 UTC

; 

; external perimeters extrusion width = 1.00mm
; perimeters extrusion width = 1.00mm
; infill extrusion width = 1.00mm
; solid infill extrusion width = 1.00mm
; top infill extrusion width = 1.00mm
; support material extrusion width = 1.00mm
; first layer extrusion width = 0.42mm

M73 P0 R148
M107
;TYPE:Custom
G90 ; use absolute coordinates
M83 ; extruder relative mode
M140 S60 ; set final bed temp
M104 S150 ; set temporary nozzle temp to prevent oozing during homing and auto bed leveling
G4 S10 ; allow partial nozzle warmup
G28 ; home all axisG1 Z50 F240
G1 X7.6 Y10 F3000
M104 S210 ; set final nozzle temp
M190 S60 ; wait for bed temp to stabilize
M109 S210 ; wait for nozzle temp to stabilize
G1 Z0.28 F240
G92 E0
G1 Y140 E10 F1500 ; prime the nozzle
G1 X4 F5000
G92 E0
G1 Y10 E10 F1200 ; prime the nozzle
G92 E0
G21 ; set units to millimeters
G90 ; use absolute coordinates
M83 ; use relative distances for extrusion
; Filament gcode
M107
;LAYER_CHANGE
;Z:0.35
;HEIGHT:0.35
;BEFORE_LAYER_CHANGE
G92 E0
;0.35


G1 E-1 F3600
G1 Z.35 F7800
;AFTER_LAYER_CHANGE
;0.35
G1 X25.382 Y83.369
G1 E1 F2400
;TYPE:Support material
;WIDTH:0.42
G1 F1800
G1 X38.953 Y83.369 E.68106
G1 X38.953 Y86.762 E.17027
G1 X52.524 Y86.762 E.68106
G1 X52.524 Y90.155 E.17027
G1 X58.417 Y90.155 E.29573
G1 X58.417 Y92.734 E.12947
G1 X55.417 Y92.734 E.15056
G1 X55.417 Y96.127 E.17027
G1 X52.024 Y96.127 E.17027
G1 X52.024 Y97.167 E.05219
G1 X55.417 Y97.156 E.17027
G1 X55.417 Y97.763 E.03048
G1 X58.809 Y97.752 E.17027
G1 X58.809 Y98.36 E.03048
G1 X61.781 Y98.35 E.14916
G1 X61.372 Y97.524 E.04625
G1 X61.846 Y96.774 E.04457
G1 X63.079 Y96.794 E.06187
G1 X63.069 Y97.39 E.02989
G1 X63.254 Y97.764 E.02098
G1 X63.227 Y97.771 E.00142
G1 X63.232 Y97.897 E.00633
G1 X63.06 Y97.904 E.00863
G1 X63.053 Y98.346 E.02218
G1 X63.876 Y98.343 E.04135
G1 X63.558 Y97.688 E.03655
G1 X63.475 Y97.709 E.00431
G1 X63.702 Y97.352 E.02123
G1 X64.231 Y97.361 E.02653
G1 X64.234 Y98.438 E.05403
G1 X35.873 Y98.53 E1.42332
G1 X35.873 Y96.627 E.09551
G1 X22.302 Y96.627 E.68106
G1 X22.302 Y93.234 E.17027
G1 X12.124 Y93.234 E.5108
G1 X12.124 Y79.977 E.66536
G1 X25.382 Y79.977 E.66536
G1 X25.382 Y83.317 E.16767
G1 E-.7 F3600
;WIPE_START
G1 F6240
G1 X25.382 Y82.797 E-.285
;WIPE_END
G1 E-.015 F3600
G1 X58.194 Y98.302 F7800
G1 E1 F2400
G1 F1800
G1 X58.194 Y98.065 E.01193
G1 X57.81 Y98.066 E.01923
G1 X57.81 Y98.149 E.00414
G1 X57.427 Y98.15 E.01923
G1 X57.427 Y98.067 E.00414
G1 X57.044 Y98.068 E.01923
G1 X57.044 Y98.151 E.00414
G1 X56.661 Y98.152 E.01923
G1 X56.661 Y98.07 E.00414
G1 X56.278 Y98.071 E.01923
G1 X56.278 Y98.153 E.00414
G1 X55.894 Y98.155 E.01923
G1 X55.894 Y98.072 E.00414
G1 X55.511 Y98.073 E.01923
G1 X55.511 Y98.156 E.00414
G1 X55.128 Y98.157 E.01923
G1 X55.128 Y98.075 E.00414
G1 X55.106 Y98.075 E.00109
G1 X55.106 Y97.467 E.03048
G1 X54.745 Y97.469 E.01814
G1 X54.745 Y98.158 E.03462
G1 X54.361 Y98.16 E.01923
G1 X54.361 Y97.47 E.03462
G1 X53.978 Y97.471 E.01923
G1 X53.978 Y98.161 E.03462
G1 X53.595 Y98.162 E.01923
G1 X53.595 Y97.472 E.03462
G1 X53.212 Y97.474 E.01923
G1 X53.212 Y98.163 E.03462
G1 X52.829 Y98.165 E.01923
G1 X52.829 Y97.475 E.03462
G1 X52.445 Y97.476 E.01923
G1 X52.445 Y98.166 E.03462
G1 X52.062 Y98.167 E.01923
G1 X52.062 Y97.477 E.03462
G1 X51.713 Y97.478 E.0175
G1 X51.713 Y95.817 E.0834
G1 X52.062 Y95.817 E.0175
G1 X52.062 Y87.072 E.43885
G1 X51.679 Y87.072 E.01923
G1 X51.679 Y98.168 E.55687
G1 X51.296 Y98.17 E.01923
G1 X51.296 Y87.072 E.55693
G1 X50.913 Y87.072 E.01923
G1 X50.913 Y98.171 E.55699
G1 X50.529 Y98.172 E.01923
G1 X50.529 Y87.072 E.55706
G1 X50.146 Y87.072 E.01923
G1 X50.146 Y98.173 E.55712
G1 X49.763 Y98.175 E.01923
G1 X49.763 Y87.072 E.55718
G1 X49.38 Y87.072 E.01923
G1 X49.38 Y98.176 E.55724
G1 X48.997 Y98.177 E.01923
G1 X48.997 Y87.072 E.55731
G1 X48.613 Y87.072 E.01923
G1 X48.613 Y98.178 E.55737
G1 X48.23 Y98.18 E.01923
G1 X48.23 Y87.072 E.55743
G1 X47.847 Y87.072 E.01923
G1 X47.847 Y98.181 E.55749
G1 X47.464 Y98.182 E.01923
G1 X47.464 Y87.072 E.55756
G1 X47.08 Y87.072 E.01923
G1 X47.08 Y98.183 E.55762
G1 X46.697 Y98.185 E.01923
G1 X46.697 Y87.072 E.55768
G1 X46.314 Y87.072 E.01923
G1 X46.314 Y98.186 E.55774
G1 X45.931 Y98.187 E.01923
G1 X45.931 Y87.072 E.55781
G1 X45.548 Y87.072 E.01923
G1 X45.548 Y98.188 E.55787
G1 X45.164 Y98.19 E.01923
G1 X45.164 Y87.072 E.55793
G1 X44.781 Y87.072 E.01923
G1 X44.781 Y98.191 E.55799
G1 X44.398 Y98.192 E.01923
G1 X44.398 Y87.072 E.55806
G1 X44.015 Y87.072 E.01923
G1 X44.015 Y98.193 E.55812
G1 X43.632 Y98.195 E.01923
G1 X43.632 Y87.072 E.55818
G1 X43.248 Y87.072 E.01923
G1 X43.248 Y98.196 E.55824
G1 X42.865 Y98.197 E.01923
G1 X42.865 Y87.072 E.55831
G1 X42.482 Y87.072 E.01923
G1 X42.482 Y98.198 E.55837
G1 X42.099 Y98.2 E.01923
G1 X42.099 Y87.072 E.55843
G1 X41.716 Y87.072 E.01923
G1 X41.716 Y98.201 E.55849
G1 X41.332 Y98.202 E.01923
G1 X41.332 Y87.072 E.55856
G1 X40.949 Y87.072 E.01923
G1 X40.949 Y98.203 E.55862
G1 X40.566 Y98.205 E.01923
G1 X40.566 Y87.072 E.55868
G1 X40.183 Y87.072 E.01923
G1 X40.183 Y98.206 E.55874
G1 X39.799 Y98.207 E.01923
G1 X39.799 Y87.072 E.55881
G1 X39.416 Y87.072 E.01923
G1 X39.416 Y98.208 E.55887
G1 X39.033 Y98.21 E.01923
G1 X39.033 Y87.072 E.55893
G1 X38.65 Y87.072 E.01923
G1 X38.65 Y98.211 E.55899
G1 X38.267 Y98.212 E.01923
G1 X38.267 Y83.68 E.72932
G1 X37.883 Y83.68 E.01923
G1 X37.883 Y98.213 E.72938
G1 X37.5 Y98.214 E.01923
G1 X37.5 Y83.68 E.72945
G1 X37.117 Y83.68 E.01923
G1 X37.117 Y98.216 E.72951
G1 X36.734 Y98.217 E.01923
G1 X36.734 Y83.68 E.72957
G1 X36.351 Y83.68 E.01923
G1 X36.351 Y98.218 E.72963
G1 X36.184 Y98.219 E.00838
G1 X36.184 Y96.317 E.09546
G1 X35.967 Y96.317 E.01085
G1 X35.967 Y83.68 E.63421
G1 X35.584 Y83.68 E.01923
G1 X35.584 Y96.317 E.63421
G1 X35.201 Y96.317 E.01923
G1 X35.201 Y83.68 E.63421
G1 X34.818 Y83.68 E.01923
G1 X34.818 Y96.317 E.63421
G1 X34.435 Y96.317 E.01923
G1 X34.435 Y83.68 E.63421
G1 X34.051 Y83.68 E.01923
G1 X34.051 Y96.317 E.63421
G1 X33.668 Y96.317 E.01923
G1 X33.668 Y83.68 E.63421
G1 X33.285 Y83.68 E.01923
G1 X33.285 Y96.317 E.63421
G1 X32.902 Y96.317 E.01923
G1 X32.902 Y83.68 E.63421
G1 X32.519 Y83.68 E.01923
G1 X32.518 Y96.317 E.63421
G1 X32.135 Y96.317 E.01923
G1 X32.135 Y83.68 E.63421
G1 X31.752 Y83.68 E.01923
G1 X31.752 Y96.317 E.63421
G1 X31.369 Y96.317 E.01923
G1 X31.369 Y83.68 E.63421
G1 X30.986 Y83.68 E.01923
G1 X30.986 Y96.317 E.63421
G1 X30.602 Y96.317 E.01923
G1 X30.602 Y83.68 E.63421
G1 X30.219 Y83.68 E.01923
G1 X30.219 Y96.317 E.63421
G1 X29.836 Y96.317 E.01923
G1 X29.836 Y83.68 E.63421
G1 X29.453 Y83.68 E.01923
G1 X29.453 Y96.317 E.63421
G1 X29.07 Y96.317 E.01923
G1 X29.07 Y83.68 E.63421
G1 X28.686 Y83.68 E.01923
G1 X28.686 Y96.317 E.63421
G1 X28.303 Y96.317 E.01923
G1 X28.303 Y83.68 E.63421
G1 X27.92 Y83.68 E.01923
G1 X27.92 Y96.317 E.63421
G1 X27.537 Y96.317 E.01923
G1 X27.537 Y83.68 E.63421
G1 X27.154 Y83.68 E.01923
G1 X27.154 Y96.317 E.63421
G1 X26.77 Y96.317 E.01923
G1 X26.77 Y83.68 E.63421
G1 X26.387 Y83.68 E.01923
G1 X26.387 Y96.317 E.63421
G1 X26.004 Y96.317 E.01923
G1 X26.004 Y83.68 E.63421
G1 X25.621 Y83.68 E.01923
G1 X25.621 Y96.317 E.63421
G1 X25.238 Y96.317 E.01923
G1 X25.238 Y83.68 E.63421
G1 X25.072 Y83.68 E.00831
G1 X25.072 Y80.287 E.17027
G1 X24.854 Y80.287 E.01092
G1 X24.854 Y96.317 E.80447
G1 X24.471 Y96.317 E.01923
G1 X24.471 Y80.287 E.80447
G1 X24.088 Y80.287 E.01923
G1 X24.088 Y96.317 E.80447
G1 X23.705 Y96.317 E.01923
G1 X23.705 Y80.287 E.80447
G1 X23.321 Y80.287 E.01923
G1 X23.321 Y96.317 E.80447
G1 X22.938 Y96.317 E.01923
G1 X22.938 Y80.287 E.80447
G1 X22.555 Y80.287 E.01923
G1 X22.555 Y92.924 E.63421
G1 X22.172 Y92.924 E.01923
G1 X22.172 Y80.287 E.63421
G1 X21.789 Y80.287 E.01923
G1 X21.789 Y92.924 E.63421
G1 X21.405 Y92.924 E.01923
M73 P0 R147
G1 X21.405 Y80.287 E.63421
G1 X21.022 Y80.287 E.01923
G1 X21.022 Y92.924 E.63421
G1 X20.639 Y92.924 E.01923
G1 X20.639 Y80.287 E.63421
G1 X20.256 Y80.287 E.01923
G1 X20.256 Y92.924 E.63421
G1 X19.873 Y92.924 E.01923
G1 X19.873 Y80.287 E.63421
G1 X19.489 Y80.287 E.01923
G1 X19.489 Y92.924 E.63421
G1 X19.106 Y92.924 E.01923
G1 X19.106 Y80.287 E.63421
G1 X18.723 Y80.287 E.01923
G1 X18.723 Y92.924 E.63421
G1 X18.34 Y92.924 E.01923
G1 X18.34 Y80.287 E.63421
G1 X17.957 Y80.287 E.01923
G1 X17.957 Y92.924 E.63421
G1 X17.573 Y92.924 E.01923
G1 X17.573 Y80.287 E.63421
G1 X17.19 Y80.287 E.01923
G1 X17.19 Y92.924 E.63421
G1 X16.807 Y92.924 E.01923
G1 X16.807 Y80.287 E.63421
G1 X16.424 Y80.287 E.01923
G1 X16.424 Y92.924 E.63421
G1 X16.04 Y92.924 E.01923
G1 X16.04 Y80.287 E.63421
G1 X15.657 Y80.287 E.01923
G1 X15.657 Y92.924 E.63421
G1 X15.274 Y92.924 E.01923
G1 X15.274 Y80.287 E.63421
G1 X14.891 Y80.287 E.01923
G1 X14.891 Y92.924 E.63421
G1 X14.508 Y92.924 E.01923
G1 X14.508 Y80.287 E.63421
G1 X14.124 Y80.287 E.01923
G1 X14.124 Y92.924 E.63421
G1 X13.741 Y92.924 E.01923
G1 X13.741 Y80.287 E.63421
G1 X13.358 Y80.287 E.01923
G1 X13.358 Y92.924 E.63421
G1 X12.975 Y92.924 E.01923
G1 X12.975 Y80.287 E.63421
G1 X12.592 Y80.287 E.01923
G1 X12.592 Y93.079 E.64199
G1 X57.81 Y92.579 F7800
G1 F1800
G1 X57.81 Y90.465 E.1061
G1 X57.427 Y90.465 E.01923
G1 X57.427 Y92.424 E.09831
G1 X57.044 Y92.424 E.01923
G1 X57.044 Y90.465 E.09831
G1 X56.661 Y90.465 E.01923
G1 X56.661 Y92.424 E.09831
G1 X56.278 Y92.424 E.01923
G1 X56.278 Y90.465 E.09831
G1 X55.894 Y90.465 E.01923
G1 X55.894 Y92.424 E.09831
G1 X55.511 Y92.424 E.01923
G1 X55.511 Y90.465 E.09831
G1 X55.128 Y90.465 E.01923
G1 X55.128 Y92.424 E.09831
G1 X55.106 Y92.424 E.00109
G1 X55.106 Y95.817 E.17027
G1 X54.745 Y95.817 E.01814
G1 X54.745 Y90.465 E.26858
G1 X54.361 Y90.465 E.01923
G1 X54.361 Y95.817 E.26858
G1 X53.978 Y95.817 E.01923
G1 X53.978 Y90.465 E.26858
G1 X53.595 Y90.465 E.01923
G1 X53.595 Y95.817 E.26858
G1 X53.212 Y95.817 E.01923
G1 X53.212 Y90.465 E.26858
G1 X52.829 Y90.465 E.01923
G1 X52.829 Y95.817 E.26858
G1 X52.445 Y95.817 E.01923
G1 X52.445 Y90.31 E.27637
G1 E-.7 F3600
;WIPE_START
G1 F6240
G1 X52.445 Y90.83 E-.285
;WIPE_END
G1 E-.015 F3600
G1 X62.792 Y98.288 F7800
G1 E1 F2400
G1 F1800
G1 X62.792 Y97.531 E.03797
G1 X62.757 Y97.46 E.00396
G1 X62.763 Y97.1 E.0181
G1 X62.409 Y97.094 E.01778
G1 X62.409 Y98.134 E.05219
G1 X62.026 Y98.135 E.01923
G1 X62.026 Y96.932 E.06037
G1 X62.773 Y96.534 F7800
;TYPE:Support material interface
;WIDTH:1
G1 F1800
G1 X62.773 Y93.391 E.42308
G1 X61.88 Y93.391 E.12014
G1 X61.88 Y96.118 E.36699
G1 X61.488 Y96.111 E.05276
G1 X60.987 Y96.904 E.12619
G1 X60.987 Y93.391 E.4728
G1 X60.095 Y93.391 E.12014
G1 X60.095 Y97.699 E.5798
G1 X59.466 Y97.701 E.08463
G1 X59.466 Y97.094 E.08173
G1 X59.202 Y97.095 E.03551
G1 X59.202 Y93.391 E.49846
G1 X58.309 Y93.391 E.12014
G1 X58.309 Y97.097 E.49885
G1 X57.416 Y97.1 E.12014
G1 X57.416 Y93.391 E.49924
G1 X56.524 Y93.391 E.12014
G1 X56.524 Y97.505 E.5537
G1 E-.7 F3600
;WIPE_START
G1 F6240
G1 X56.524 Y96.985 E-.285
;WIPE_END
G1 E-.015 F3600
G1 X64.227 Y96.127 F7800
G1 E1 F2400
;TYPE:Support material
;WIDTH:0.42
G1 F1800
G1 X63.515 Y96.127 E.03571
G1 X63.515 Y95.344 E.03929
G1 X64.224 Y95.342 E.03559
G1 X64.226 Y96.075 E.03681
G1 E-.7 F3600
;WIPE_START
G1 F6240
G1 X64.225 Y95.555 E-.285
;WIPE_END
G1 E-.015 F3600
G1 X162.483 Y121.226 F7800
G1 E1 F2400
;TYPE:Perimeter
;WIDTH:0.42
G1 F1800
G1 X121.069 Y120.529 E2.07871
G1 X119.704 Y120.738 E.0693
G1 X119.546 Y120.791 E.00835
G1 X119.342 Y120.982 E.01401
G1 X118.926 Y121.671 E.04039
G1 X17.517 Y121.97 E5.08933
G1 X17.517 Y99.855 E1.10987
G1 X65.644 Y99.698 E2.41531
G1 X66.52 Y99.708 E.04394
G1 X66.752 Y99.621 E.01246
G1 X66.939 Y99.385 E.01509
G1 X66.922 Y98.965 E.02112
G1 X66.798 Y98.715 E.01402
G1 X162.483 Y100.321 E4.80271
G1 X162.483 Y121.076 E1.0416
M73 P1 R147
G1 X162.828 Y121.577 F7800
;TYPE:External perimeter
G1 F1800
G1 X121.063 Y120.874 E2.09631
G1 X119.758 Y121.079 E.06629
G1 X119.638 Y121.16 E.00729
G1 X119.121 Y122.015 E.05012
G1 X17.172 Y122.316 E5.11642
G1 X17.172 Y99.511 E1.14448
G1 X66.502 Y99.362 E2.47568
G1 X66.619 Y99.258 E.0078
G1 X66.613 Y99.118 E.00704
G1 X66.237 Y98.36 E.04245
G1 X162.828 Y99.982 E4.84816
G1 X162.828 Y121.427 E1.07623
G1 X161.832 Y121.487 F7800
G1 E-.7 F3600
;WIPE_START
G1 F6240
G1 X162.308 Y121.42 E-.285
;WIPE_END
G1 E-.015 F3600
G1 X161.668 Y100.411 F7800
G1 E1 F2400
;TYPE:Solid infill
;WIDTH:0.420908
G1 F1800
G1 X162.224 Y100.967 E.03958
G1 X162.224 Y101.456 E.02461
G1 X161.329 Y100.561 E.06374
G1 X160.831 Y100.552 E.02503
G1 X162.224 Y101.945 E.09913
G1 X162.224 Y102.434 E.02461
G1 X160.334 Y100.544 E.13452
G1 X159.836 Y100.535 E.02503
G1 X162.224 Y102.923 E.16992
G1 X162.224 Y103.412 E.02461
G1 X159.339 Y100.527 E.20531
G1 X158.842 Y100.519 E.02503
G1 X162.224 Y103.901 E.24071
G1 X162.224 Y104.39 E.02461
G1 X158.344 Y100.51 E.2761
G1 X157.847 Y100.502 E.02503
G1 X162.224 Y104.879 E.31149
G1 X162.224 Y105.368 E.02461
G1 X157.349 Y100.494 E.34689
G1 X156.852 Y100.485 E.02503
G1 X162.224 Y105.857 E.38228
G1 X162.224 Y106.347 E.02461
G1 X156.355 Y100.477 E.41767
G1 X155.857 Y100.469 E.02503
G1 X162.224 Y106.836 E.45307
G1 X162.224 Y107.325 E.02461
G1 X155.36 Y100.46 E.48846
G1 X154.863 Y100.452 E.02503
G1 X162.224 Y107.814 E.52386
G1 X162.224 Y108.303 E.02461
G1 X154.365 Y100.444 E.55925
G1 X153.868 Y100.435 E.02503
G1 X162.224 Y108.792 E.59464
G1 X162.224 Y109.281 E.02461
G1 X153.37 Y100.427 E.63004
G1 X152.873 Y100.419 E.02503
G1 X162.224 Y109.77 E.66543
G1 X162.224 Y110.259 E.02461
G1 X152.376 Y100.41 E.70083
G1 X151.878 Y100.402 E.02503
G1 X162.224 Y110.748 E.73622
G1 X162.224 Y111.237 E.02461
G1 X151.381 Y100.394 E.77161
G1 X150.884 Y100.385 E.02503
G1 X162.224 Y111.726 E.80701
G1 X162.224 Y112.215 E.02461
G1 X150.386 Y100.377 E.8424
G1 X149.889 Y100.368 E.02503
G1 X162.224 Y112.704 E.87779
G1 X162.224 Y113.193 E.02461
G1 X149.391 Y100.36 E.91319
G1 X148.894 Y100.352 E.02503
G1 X162.224 Y113.682 E.94858
G1 X162.224 Y114.171 E.02461
G1 X148.397 Y100.343 E.98398
G1 X147.899 Y100.335 E.02503
G1 X162.224 Y114.66 E1.01937
G1 X162.224 Y115.149 E.02461
G1 X147.402 Y100.327 E1.05476
G1 X146.904 Y100.318 E.02503
G1 X162.224 Y115.638 E1.09016
G1 X162.224 Y116.127 E.02461
G1 X146.407 Y100.31 E1.12555
G1 X145.91 Y100.302 E.02503
G1 X162.224 Y116.616 E1.16095
G1 X162.224 Y117.105 E.02461
G1 X145.412 Y100.293 E1.19634
G1 X144.915 Y100.285 E.02503
G1 X162.224 Y117.594 E1.23173
G1 X162.224 Y118.083 E.02461
G1 X144.418 Y100.277 E1.26713
G1 X143.92 Y100.268 E.02503
M73 P1 R146
G1 X162.224 Y118.572 E1.30252
G1 X162.224 Y119.061 E.02461
G1 X143.423 Y100.26 E1.33791
G1 X142.925 Y100.252 E.02503
G1 X162.224 Y119.55 E1.37331
G1 X162.224 Y120.039 E.02461
G1 X142.428 Y100.243 E1.4087
G1 X141.931 Y100.235 E.02503
G1 X162.224 Y120.528 E1.4441
G1 X162.224 Y120.963 E.02187
G1 X162.169 Y120.962 E.00278
G1 X141.433 Y100.227 E1.47556
G1 X140.936 Y100.218 E.02503
G1 X161.672 Y120.954 E1.47556
G1 X161.174 Y120.945 E.02503
G1 X140.439 Y100.21 E1.47555
G1 X139.941 Y100.201 E.02503
G1 X160.677 Y120.937 E1.47555
G1 X160.179 Y120.929 E.02503
G1 X139.444 Y100.193 E1.47555
G1 X138.946 Y100.185 E.02503
G1 X159.682 Y120.92 E1.47555
G1 X159.185 Y120.912 E.02503
G1 X138.449 Y100.176 E1.47555
G1 X137.952 Y100.168 E.02503
G1 X158.687 Y120.904 E1.47554
G1 X158.19 Y120.895 E.02503
G1 X137.454 Y100.16 E1.47554
G1 X136.957 Y100.151 E.02503
G1 X157.692 Y120.887 E1.47554
G1 X157.195 Y120.878 E.02503
G1 X136.459 Y100.143 E1.47554
G1 X135.962 Y100.135 E.02503
G1 X156.697 Y120.87 E1.47554
G1 X156.2 Y120.862 E.02503
G1 X135.465 Y100.126 E1.47554
G1 X134.967 Y100.118 E.02503
G1 X155.703 Y120.853 E1.47553
G1 X155.205 Y120.845 E.02503
G1 X134.47 Y100.11 E1.47553
G1 X133.973 Y100.101 E.02503
G1 X154.708 Y120.837 E1.47553
G1 X154.21 Y120.828 E.02503
G1 X133.475 Y100.093 E1.47553
G1 X132.978 Y100.085 E.02503
G1 X153.713 Y120.82 E1.47553
G1 X153.216 Y120.811 E.02503
G1 X132.48 Y100.076 E1.47552
G1 X131.983 Y100.068 E.02503
G1 X152.718 Y120.803 E1.47552
G1 X152.221 Y120.795 E.02503
G1 X131.486 Y100.06 E1.47552
G1 X130.988 Y100.051 E.02503
G1 X151.723 Y120.786 E1.47552
G1 X151.226 Y120.778 E.02503
G1 X130.491 Y100.043 E1.47552
