; generated by PrusaSlicer 2.5.0+win64 on 2022-12-07 at 00:33:32 UTC

; 

; external perimeters extrusion width = 1.00mm
; perimeters extrusion width = 1.00mm
; infill extrusion width = 1.00mm
; solid infill extrusion width = 1.00mm
; top infill extrusion width = 1.00mm
; support material extrusion width = 1.00mm
; first layer extrusion width = 0.42mm

M73 P0 R366
M107
;TYPE:Custom
G90 ; use absolute coordinates
M83 ; extruder relative mode
M140 S60 ; set final bed temp
M104 S150 ; set temporary nozzle temp to prevent oozing during homing and auto bed leveling
G4 S10 ; allow partial nozzle warmup
G28 ; home all axisG1 Z50 F240
G1 X7.6 Y10 F3000
M104 S210 ; set final nozzle temp
M190 S60 ; wait for bed temp to stabilize
M109 S210 ; wait for nozzle temp to stabilize
G1 Z0.28 F240
G92 E0
G1 Y140 E10 F1500 ; prime the nozzle
G1 X4 F5000
G92 E0
G1 Y10 E10 F1200 ; prime the nozzle
G92 E0
G21 ; set units to millimeters
G90 ; use absolute coordinates
M83 ; use relative distances for extrusion
; Filament gcode
M107
;LAYER_CHANGE
;Z:0.35
;HEIGHT:0.35
;BEFORE_LAYER_CHANGE
G92 E0
;0.35


G1 E-1 F3600
G1 Z.35 F7800
;AFTER_LAYER_CHANGE
;0.35
G1 X106.802 Y21.99
G1 E1 F2400
;TYPE:Support material
;WIDTH:0.42
G1 F1800
G1 X103.409 Y21.99 E.17027
G1 X103.409 Y45.738 E1.19186
G1 X100.017 Y45.738 E.17027
G1 X100.017 Y66.095 E1.02159
G1 X96.624 Y66.095 E.17027
G1 X96.624 Y86.451 E1.02159
G1 X93.231 Y86.451 E.17027
G1 X93.231 Y113.592 E1.36213
G1 X89.839 Y113.592 E.17027
G1 X89.839 Y130.556 E.85133
G1 X86.446 Y130.556 E.17027
G1 X86.446 Y154.305 E1.19186
G1 X83.053 Y154.305 E.17027
G1 X83.053 Y164.483 E.5108
G1 X74.227 Y164.483 E.44296
G1 X74.554 Y164.085 E.02584
G1 X76.01 Y164.085 E.07309
G1 X76.436 Y163.567 E.03366
G1 X72.052 Y141.294 E1.13923
G1 X72.017 Y139.738 E.07811
G1 X71.987 Y139.463 E.01391
G1 X66.587 Y111.514 E1.4286
G1 X66.529 Y111.377 E.00746
G1 X63.626 Y107.22 E.25446
G1 X62.639 Y107.536 E.05201
G1 X62.639 Y163.669 E2.81711
G1 X63.054 Y164.085 E.02952
G1 X72.875 Y164.085 E.49286
G1 X72.875 Y167.876 E.19022
G1 X59.617 Y167.876 E.66536
G1 X59.617 Y15.517 E7.64625
G1 X63.764 Y15.517 E.20809
G1 X63.764 Y15.915 E.01996
G1 X63.054 Y15.915 E.03558
G1 X62.639 Y16.331 E.02952
G1 X62.639 Y96.453 E4.021
G1 X63.936 Y96.565 E.06534
G1 X67.394 Y77.146 E.98992
G1 X69.482 Y77.331 E.10522
G1 X69.482 Y83.371 E.30315
G1 X76.268 Y83.371 E.34053
G1 X76.268 Y86.764 E.17027
G1 X79.973 Y86.764 E.18597
G1 X79.973 Y79.665 E.35623
G1 X76.581 Y79.665 E.17027
G1 X76.581 Y76.273 E.17027
G1 X73.188 Y76.273 E.17027
G1 X73.188 Y66.095 E.5108
G1 X69.795 Y66.095 E.17027
G1 X69.795 Y63.676 E.12138
G1 X73.532 Y42.659 E1.07132
G1 X79.66 Y42.659 E.30756
G1 X79.66 Y46.051 E.17027
G1 X83.366 Y46.051 E.18597
G1 X83.366 Y39.266 E.34053
G1 X86.759 Y39.266 E.17027
G1 X86.759 Y32.168 E.35623
G1 X83.366 Y32.168 E.17027
M73 P0 R365
G1 X83.366 Y12.124 E1.00589
G1 X106.802 Y12.124 E1.17616
G1 X106.802 Y21.938 E.4925
G1 X106.473 Y21.834 F7800
G1 F1800
G1 X106.473 Y12.435 E.47173
G1 X106.09 Y12.435 E.01923
G1 X106.09 Y21.679 E.46394
G1 X105.707 Y21.679 E.01923
G1 X105.707 Y12.435 E.46394
G1 X105.323 Y12.435 E.01923
G1 X105.323 Y21.679 E.46394
G1 X104.94 Y21.679 E.01923
G1 X104.94 Y12.435 E.46394
G1 X104.557 Y12.435 E.01923
G1 X104.557 Y21.679 E.46394
G1 X104.174 Y21.679 E.01923
G1 X104.174 Y12.435 E.46394
G1 X103.791 Y12.435 E.01923
G1 X103.791 Y21.679 E.46394
G1 X103.407 Y21.679 E.01923
G1 X103.407 Y12.435 E.46394
G1 X103.024 Y12.435 E.01923
G1 X103.024 Y45.428 E1.6558
G1 X102.641 Y45.428 E.01923
G1 X102.641 Y12.435 E1.6558
G1 X102.258 Y12.435 E.01923
G1 X102.258 Y45.428 E1.6558
G1 X101.875 Y45.428 E.01923
G1 X101.875 Y12.435 E1.6558
G1 X101.491 Y12.435 E.01923
G1 X101.491 Y45.428 E1.6558
G1 X101.108 Y45.428 E.01923
G1 X101.108 Y12.435 E1.6558
G1 X100.725 Y12.435 E.01923
G1 X100.725 Y45.428 E1.6558
G1 X100.342 Y45.428 E.01923
G1 X100.342 Y12.435 E1.6558
G1 X99.958 Y12.435 E.01923
G1 X99.958 Y45.428 E1.6558
G1 X99.706 Y45.428 E.01266
G1 X99.706 Y65.784 E1.02159
G1 X99.575 Y65.784 E.00657
G1 X99.575 Y12.435 E2.67739
G1 X99.192 Y12.435 E.01923
G1 X99.192 Y65.784 E2.67739
G1 X98.809 Y65.784 E.01923
G1 X98.809 Y12.435 E2.67739
G1 X98.426 Y12.435 E.01923
G1 X98.426 Y65.784 E2.67739
G1 X98.042 Y65.784 E.01923
G1 X98.042 Y12.435 E2.67739
G1 X97.659 Y12.435 E.01923
G1 X97.659 Y65.784 E2.67739
G1 X97.276 Y65.784 E.01923
G1 X97.276 Y12.435 E2.67739
G1 X96.893 Y12.435 E.01923
G1 X96.893 Y65.784 E2.67739
G1 X96.51 Y65.784 E.01923
G1 X96.51 Y12.435 E2.67739
G1 X96.126 Y12.435 E.01923
G1 X96.126 Y86.14 E3.69899
G1 X95.743 Y86.14 E.01923
G1 X95.743 Y12.435 E3.69899
G1 X95.36 Y12.435 E.01923
G1 X95.36 Y86.14 E3.69899
G1 X94.977 Y86.14 E.01923
G1 X94.977 Y12.435 E3.69899
G1 X94.594 Y12.435 E.01923
G1 X94.594 Y86.14 E3.69899
G1 X94.21 Y86.14 E.01923
G1 X94.21 Y12.435 E3.69899
G1 X93.827 Y12.435 E.01923
G1 X93.827 Y86.14 E3.69899
G1 X93.444 Y86.14 E.01923
G1 X93.444 Y12.435 E3.69899
G1 X93.061 Y12.435 E.01923
G1 X93.061 Y86.14 E3.69899
G1 X92.921 Y86.14 E.00702
G1 X92.921 Y113.282 E1.36213
G1 X92.677 Y113.282 E.01221
G1 X92.677 Y12.435 E5.06111
G1 X92.294 Y12.435 E.01923
M73 P0 R364
G1 X92.294 Y113.282 E5.06111
G1 X91.911 Y113.282 E.01923
G1 X91.911 Y12.435 E5.06111
G1 X91.528 Y12.435 E.01923
G1 X91.528 Y113.282 E5.06111
G1 X91.145 Y113.282 E.01923
G1 X91.145 Y12.435 E5.06111
G1 X90.761 Y12.435 E.01923
G1 X90.761 Y113.282 E5.06111
G1 X90.378 Y113.282 E.01923
G1 X90.378 Y12.435 E5.06111
G1 X89.995 Y12.435 E.01923
G1 X89.995 Y113.282 E5.06111
G1 X89.612 Y113.282 E.01923
G1 X89.612 Y12.435 E5.06111
G1 X89.229 Y12.435 E.01923
G1 X89.229 Y130.246 E5.91244
G1 X88.845 Y130.246 E.01923
G1 X88.845 Y12.435 E5.91244
G1 X88.462 Y12.435 E.01923
G1 X88.462 Y130.246 E5.91244
G1 X88.079 Y130.246 E.01923
G1 X88.079 Y12.435 E5.91244
G1 X87.696 Y12.435 E.01923
G1 X87.696 Y130.246 E5.91244
G1 X87.313 Y130.246 E.01923
G1 X87.313 Y12.435 E5.91244
G1 X86.929 Y12.435 E.01923
G1 X86.929 Y130.246 E5.91244
G1 X86.546 Y130.246 E.01923
G1 X86.546 Y39.576 E4.55032
G1 X86.163 Y39.576 E.01923
G1 X86.163 Y130.246 E4.55032
G1 X86.135 Y130.246 E.00138
M73 P0 R363
G1 X86.135 Y153.994 E1.19186
G1 X85.78 Y153.994 E.01785
G1 X85.78 Y39.576 E5.74218
G1 X85.396 Y39.576 E.01923
G1 X85.396 Y153.994 E5.74218
G1 X85.013 Y153.994 E.01923
G1 X85.013 Y39.576 E5.74218
G1 X84.63 Y39.576 E.01923
G1 X84.63 Y153.994 E5.74218
G1 X84.247 Y153.994 E.01923
G1 X84.247 Y39.576 E5.74218
G1 X83.864 Y39.576 E.01923
G1 X83.864 Y153.994 E5.74218
G1 X83.48 Y153.994 E.01923
G1 X83.48 Y46.362 E5.40164
G1 X83.097 Y46.362 E.01923
G1 X83.097 Y153.994 E5.40164
G1 X82.743 Y153.994 E.01779
G1 X82.743 Y164.173 E.5108
G1 X82.714 Y164.173 E.00144
G1 X82.714 Y46.362 E5.91244
G1 X82.331 Y46.362 E.01923
G1 X82.331 Y164.173 E5.91244
G1 X81.948 Y164.173 E.01923
G1 X81.948 Y46.362 E5.91244
G1 X81.564 Y46.362 E.01923
G1 X81.564 Y164.173 E5.91244
G1 X81.181 Y164.173 E.01923
G1 X81.181 Y46.362 E5.91244
G1 X80.798 Y46.362 E.01923
G1 X80.798 Y164.173 E5.91244
G1 X80.415 Y164.173 E.01923
G1 X80.415 Y46.362 E5.91244
G1 X80.032 Y46.362 E.01923
M73 P0 R362
G1 X80.032 Y79.355 E1.6558
G1 X79.648 Y79.355 E.01923
M73 P1 R362
G1 X79.648 Y46.362 E1.6558
G1 X79.35 Y46.362 E.01497
G1 X79.35 Y42.969 E.17027
G1 X79.265 Y42.969 E.00426
G1 X79.265 Y79.355 E1.82606
G1 X78.882 Y79.355 E.01923
G1 X78.882 Y42.969 E1.82606
G1 X78.499 Y42.969 E.01923
G1 X78.499 Y79.355 E1.82606
G1 X78.116 Y79.355 E.01923
G1 X78.116 Y42.969 E1.82606
G1 X77.732 Y42.969 E.01923
G1 X77.732 Y79.355 E1.82606
G1 X77.349 Y79.355 E.01923
G1 X77.349 Y42.969 E1.82606
G1 X76.966 Y42.969 E.01923
G1 X76.966 Y79.355 E1.82606
G1 X76.891 Y79.355 E.00375
G1 X76.891 Y75.962 E.17027
G1 X76.583 Y75.962 E.01548
G1 X76.583 Y42.969 E1.6558
G1 X76.199 Y42.969 E.01923
G1 X76.199 Y75.962 E1.6558
G1 X75.816 Y75.962 E.01923
G1 X75.816 Y42.969 E1.6558
G1 X75.433 Y42.969 E.01923
G1 X75.433 Y75.962 E1.6558
G1 X75.05 Y75.962 E.01923
G1 X75.05 Y42.969 E1.6558
G1 X74.667 Y42.969 E.01923
G1 X74.667 Y75.962 E1.6558
G1 X74.283 Y75.962 E.01923
G1 X74.283 Y42.969 E1.6558
G1 X73.9 Y42.969 E.01923
G1 X73.9 Y75.962 E1.6558
G1 X73.517 Y75.962 E.01923
G1 X73.517 Y44.567 E1.57558
G1 X73.134 Y46.717 E.10958
G1 X73.134 Y65.784 E.9569
G1 X72.751 Y65.784 E.01923
G1 X72.751 Y48.867 E.84902
G1 X72.367 Y51.016 E.10958
G1 X72.367 Y65.784 E.74114
G1 X71.984 Y65.784 E.01923
G1 X71.984 Y53.166 E.63326
G1 X71.601 Y55.316 E.10958
G1 X71.601 Y65.784 E.52538
G1 X71.218 Y65.784 E.01923
G1 X71.218 Y57.465 E.4175
G1 X70.835 Y59.615 E.10958
G1 X70.835 Y65.784 E.30961
G1 X70.451 Y65.784 E.01923
G1 X70.451 Y60.88 E.24611
G1 E-.7 F3600
;WIPE_START
G1 F6240
G1 X70.451 Y61.4 E-.285
;WIPE_END
G1 E-.015 F3600
G1 X86.546 Y32.012 F7800
G1 E1 F2400
G1 F1800
G1 X86.546 Y12.435 E.98253
G1 X86.163 Y12.435 E.01923
G1 X86.163 Y31.857 E.97474
G1 X85.78 Y31.857 E.01923
G1 X85.78 Y12.435 E.97474
G1 X85.397 Y12.435 E.01923
G1 X85.396 Y31.857 E.97474
G1 X85.013 Y31.857 E.01923
G1 X85.013 Y12.435 E.97474
G1 X84.63 Y12.435 E.01923
G1 X84.63 Y31.857 E.97474
G1 X84.247 Y31.857 E.01923
G1 X84.247 Y12.435 E.97474
G1 X83.864 Y12.435 E.01923
G1 X83.864 Y32.012 E.98253
G1 E-.7 F3600
;WIPE_START
G1 F6240
G1 X83.864 Y31.492 E-.285
;WIPE_END
G1 E-.015 F3600
G1 X80.032 Y164.328 F7800
G1 E1 F2400
G1 F1800
G1 X80.032 Y87.074 E3.87704
G1 X79.648 Y87.074 E.01923
G1 X79.648 Y164.173 E3.86925
G1 X79.265 Y164.173 E.01923
G1 X79.265 Y87.074 E3.86925
G1 X78.882 Y87.074 E.01923
G1 X78.882 Y164.173 E3.86925
G1 X78.499 Y164.173 E.01923
G1 X78.499 Y87.074 E3.86925
G1 X78.116 Y87.074 E.01923
G1 X78.115 Y164.173 E3.86925
G1 X77.732 Y164.173 E.01923
G1 X77.732 Y87.074 E3.86925
G1 X77.349 Y87.074 E.01923
G1 X77.349 Y164.173 E3.86925
G1 X76.966 Y164.173 E.01923
G1 X76.966 Y87.074 E3.86925
G1 X76.583 Y87.074 E.01923
G1 X76.583 Y162.703 E3.79552
G1 X76.199 Y160.757 E.09957
M73 P1 R361
G1 X76.199 Y87.074 E3.69782
G1 X75.957 Y87.074 E.01215
G1 X75.957 Y83.681 E.17027
G1 X75.816 Y83.681 E.00708
G1 X75.816 Y158.81 E3.77039
G1 X75.433 Y156.863 E.09957
G1 X75.433 Y83.681 E3.67269
G1 X75.05 Y83.681 E.01923
G1 X75.05 Y154.917 E3.575
G1 X74.667 Y152.97 E.09957
G1 X74.667 Y83.681 E3.4773
G1 X74.283 Y83.681 E.01923
G1 X74.283 Y151.023 E3.37961
G1 X73.9 Y149.076 E.09957
G1 X73.9 Y83.681 E3.28191
G1 X73.517 Y83.681 E.01923
G1 X73.517 Y147.13 E3.18421
G1 X73.134 Y145.183 E.09957
G1 X73.134 Y83.681 E3.08652
G1 X72.751 Y83.681 E.01923
G1 X72.751 Y143.236 E2.98882
G1 X72.367 Y141.29 E.09957
G1 X72.367 Y83.681 E2.89113
G1 X71.984 Y83.681 E.01923
G1 X71.984 Y137.812 E2.71659
G1 X71.601 Y135.83 E.10129
G1 X71.601 Y83.681 E2.61714
G1 X71.218 Y83.681 E.01923
G1 X71.218 Y133.849 E2.51769
G1 X70.835 Y131.867 E.10129
G1 X70.835 Y83.681 E2.41824
G1 X70.451 Y83.681 E.01923
G1 X70.451 Y129.886 E2.31879
G1 X70.068 Y127.904 E.10129
G1 X70.068 Y83.681 E2.21935
G1 X69.685 Y83.681 E.01923
G1 X69.685 Y125.922 E2.1199
G1 X69.302 Y123.941 E.10129
G1 X69.302 Y83.681 E2.02045
G1 X69.172 Y83.681 E.00651
G1 X69.172 Y77.615 E.30446
G1 X68.918 Y77.592 E.01277
G1 X68.918 Y121.959 E2.22659
G1 X68.535 Y119.973 E.10151
G1 X68.535 Y77.558 E2.12862
G1 X68.152 Y77.525 E.01931
G1 X68.152 Y117.987 E2.03063
G1 X67.769 Y116 E.10153
G1 X67.769 Y77.491 E1.93264
G1 X67.65 Y77.48 E.006
G1 X67.386 Y78.962 E.07552
G1 X67.386 Y114.014 E1.75912
G1 X67.002 Y112.027 E.10153
G1 X67.002 Y81.111 E1.55155
G1 X66.619 Y83.261 E.10958
G1 X66.619 Y110.962 E1.39022
G1 X66.236 Y110.411 E.03367
G1 X66.236 Y85.41 E1.2547
G1 X65.853 Y87.56 E.10958
G1 X65.853 Y109.861 E1.11918
G1 X65.47 Y109.31 E.03367
G1 X65.47 Y89.704 E.98397
G1 X65.086 Y91.849 E.10937
G1 X65.086 Y108.759 E.84867
G1 X64.703 Y108.21 E.03363
G1 X64.703 Y94.008 E.71274
G1 X64.32 Y96.17 E.11022
G1 X64.32 Y107.661 E.57664
G1 X63.937 Y107.122 E.03319
G1 X63.937 Y96.877 E.51413
G1 X63.554 Y96.844 E.0193
G1 X63.554 Y106.917 E.50554
G1 X63.17 Y107.04 E.02019
G1 X63.17 Y96.81 E.51337
G1 X62.787 Y96.777 E.0193
G1 X62.787 Y107.325 E.52937
G1 E-.7 F3600
;WIPE_START
G1 F6240
G1 X62.787 Y106.805 E-.285
;WIPE_END
G1 E-.015 F3600
G1 X76.583 Y164.328 F7800
G1 E1 F2400
G1 F1800
G1 X76.583 Y163.634 E.03483
G1 E-.7 F3600
;WIPE_START
G1 F6240
G1 X76.583 Y164.154 E-.285
;WIPE_END
G1 E-.015 F3600
G1 X72.367 Y167.72 F7800
G1 E1 F2400
G1 F1800
G1 X72.367 Y164.396 E.16686
G1 X71.984 Y164.396 E.01923
G1 X71.984 Y167.565 E.15907
G1 X71.601 Y167.565 E.01923
G1 X71.601 Y164.396 E.15907
G1 X71.218 Y164.396 E.01923
G1 X71.218 Y167.565 E.15907
G1 X70.835 Y167.565 E.01923
G1 X70.835 Y164.396 E.15907
G1 X70.451 Y164.396 E.01923
G1 X70.451 Y167.565 E.15907
G1 X70.068 Y167.565 E.01923
G1 X70.068 Y164.396 E.15907
G1 X69.685 Y164.396 E.01923
G1 X69.685 Y167.565 E.15907
G1 X69.302 Y167.565 E.01923
G1 X69.302 Y164.396 E.15907
G1 X68.918 Y164.396 E.01923
G1 X68.918 Y167.565 E.15907
G1 X68.535 Y167.565 E.01923
G1 X68.535 Y164.396 E.15907
G1 X68.152 Y164.396 E.01923
G1 X68.152 Y167.565 E.15907
G1 X67.769 Y167.565 E.01923
G1 X67.769 Y164.396 E.15907
G1 X67.386 Y164.396 E.01923
G1 X67.386 Y167.565 E.15907
G1 X67.002 Y167.565 E.01923
G1 X67.002 Y164.396 E.15907
G1 X66.619 Y164.396 E.01923
G1 X66.619 Y167.565 E.15907
G1 X66.236 Y167.565 E.01923
G1 X66.236 Y164.396 E.15907
G1 X65.853 Y164.396 E.01923
G1 X65.853 Y167.565 E.15907
G1 X65.47 Y167.565 E.01923
G1 X65.47 Y164.396 E.15907
G1 X65.086 Y164.396 E.01923
M73 P1 R360
G1 X65.086 Y167.565 E.15907
G1 X64.703 Y167.565 E.01923
G1 X64.703 Y164.396 E.15907
G1 X64.32 Y164.396 E.01923
G1 X64.32 Y167.565 E.15907
G1 X63.937 Y167.565 E.01923
G1 X63.937 Y164.396 E.15907
G1 X63.554 Y164.396 E.01923
G1 X63.554 Y167.565 E.15907
G1 X63.17 Y167.565 E.01923
G1 X63.17 Y164.396 E.15907
G1 X62.926 Y164.396 E.01227
G1 X62.787 Y164.257 E.00985
G1 X62.787 Y167.565 E.16603
G1 X62.404 Y167.565 E.01923
G1 X62.404 Y15.827 E7.6151
G1 X62.021 Y15.827 E.01923
G1 X62.021 Y167.565 E7.6151
G1 X61.637 Y167.565 E.01923
G1 X61.637 Y15.827 E7.6151
G1 X61.254 Y15.827 E.01923
G1 X61.254 Y167.565 E7.6151
G1 X60.871 Y167.565 E.01923
G1 X60.871 Y15.827 E7.6151
G1 X60.488 Y15.827 E.01923
G1 X60.488 Y167.565 E7.6151
G1 X60.105 Y167.565 E.01923
G1 X60.105 Y15.672 E7.62289
G1 E-.7 F3600
;WIPE_START
G1 F6240
G1 X60.105 Y16.192 E-.285
;WIPE_END
G1 E-.015 F3600
G1 X106.802 Y137.654 F7800
G1 E1 F2400
G1 F1800
G1 X113.587 Y137.654 E.34053
G1 X113.587 Y150.912 E.66536
G1 X110.195 Y150.912 E.17027
G1 X110.195 Y164.483 E.68106
G1 X106.802 Y164.483 E.17027
G1 X106.802 Y167.876 E.17027
G1 X90.151 Y167.876 E.83563
G1 X90.151 Y158.01 E.49509
G1 X93.544 Y158.01 E.17027
G1 X93.544 Y147.832 E.5108
G1 X96.937 Y147.832 E.17027
G1 X96.937 Y134.262 E.68106
G1 X106.802 Y134.262 E.49509
G1 X106.802 Y137.602 E.16767
G1 X112.988 Y150.757 F7800
G1 F1800
G1 X112.988 Y137.965 E.64199
G1 X112.604 Y137.965 E.01923
G1 X112.604 Y150.602 E.6342
G1 X112.221 Y150.602 E.01923
G1 X112.221 Y137.965 E.6342
G1 X111.838 Y137.965 E.01923
G1 X111.838 Y150.602 E.6342
G1 X111.455 Y150.602 E.01923
G1 X111.455 Y137.965 E.6342
G1 X111.072 Y137.965 E.01923
G1 X111.072 Y150.602 E.6342
G1 X110.688 Y150.602 E.01923
G1 X110.688 Y137.965 E.6342
G1 X110.305 Y137.965 E.01923
G1 X110.305 Y150.602 E.6342
G1 X109.922 Y150.602 E.01923
G1 X109.922 Y137.965 E.6342
G1 X109.539 Y137.965 E.01923
G1 X109.539 Y164.173 E1.31527
G1 X109.156 Y164.173 E.01923
G1 X109.156 Y137.965 E1.31527
G1 X108.772 Y137.965 E.01923
G1 X108.772 Y164.173 E1.31527
G1 X108.389 Y164.173 E.01923
G1 X108.389 Y137.965 E1.31527
G1 X108.006 Y137.965 E.01923
G1 X108.006 Y164.173 E1.31527
G1 X107.623 Y164.173 E.01923
G1 X107.623 Y137.965 E1.31527
G1 X107.239 Y137.965 E.01923
G1 X107.239 Y164.173 E1.31527
G1 X106.856 Y164.173 E.01923
G1 X106.856 Y137.965 E1.31527
G1 X106.492 Y137.965 E.0183
G1 X106.492 Y134.572 E.17027
G1 X106.473 Y134.572 E.00093
G1 X106.473 Y167.565 E1.6558
G1 X106.09 Y167.565 E.01923
G1 X106.09 Y134.572 E1.6558
G1 X105.707 Y134.572 E.01923
G1 X105.707 Y167.565 E1.6558
G1 X105.323 Y167.565 E.01923
G1 X105.323 Y134.572 E1.6558
G1 X104.94 Y134.572 E.01923
G1 X104.94 Y167.565 E1.6558
G1 X104.557 Y167.565 E.01923
M73 P1 R359
G1 X104.557 Y134.572 E1.6558
G1 X104.174 Y134.572 E.01923
G1 X104.174 Y167.565 E1.6558
G1 X103.791 Y167.565 E.01923
