; generated by PrusaSlicer 2.5.0+win64 on 2022-12-07 at 00:33:43 UTC

; 

; external perimeters extrusion width = 1.00mm
; perimeters extrusion width = 1.00mm
; infill extrusion width = 1.00mm
; solid infill extrusion width = 1.00mm
; top infill extrusion width = 1.00mm
; support material extrusion width = 1.00mm
; first layer extrusion width = 0.42mm

M73 P0 R571
M107
;TYPE:Custom
G90 ; use absolute coordinates
M83 ; extruder relative mode
M140 S60 ; set final bed temp
M104 S150 ; set temporary nozzle temp to prevent oozing during homing and auto bed leveling
G4 S10 ; allow partial nozzle warmup
G28 ; home all axisG1 Z50 F240
G1 X7.6 Y10 F3000
M104 S210 ; set final nozzle temp
M190 S60 ; wait for bed temp to stabilize
M109 S210 ; wait for nozzle temp to stabilize
G1 Z0.28 F240
G92 E0
G1 Y140 E10 F1500 ; prime the nozzle
G1 X4 F5000
G92 E0
G1 Y10 E10 F1200 ; prime the nozzle
G92 E0
G21 ; set units to millimeters
G90 ; use absolute coordinates
M83 ; use relative distances for extrusion
; Filament gcode
M107
;LAYER_CHANGE
;Z:0.35
;HEIGHT:0.35
;BEFORE_LAYER_CHANGE
G92 E0
;0.35


G1 E-1 F3600
G1 Z.35 F7800
;AFTER_LAYER_CHANGE
;0.35
G1 X14.704 Y36.373
G1 E1 F2400
;TYPE:Support material
;WIDTH:0.42
G1 F1800
G1 X19.41 Y36.373 E.23616
G1 X19.41 Y33.373 E.15056
G1 X21.99 Y33.373 E.12947
G1 X21.99 Y167.876 E6.75012
G1 X12.124 Y167.876 E.49509
G1 X12.124 Y33.373 E6.75012
G1 X14.704 Y33.373 E.12947
G1 X14.704 Y36.322 E.14796
G1 X21.405 Y167.72 F7800
G1 F1800
G1 X21.405 Y33.684 E6.72676
G1 X21.022 Y33.684 E.01923
M73 P0 R570
G1 X21.022 Y167.565 E6.71897
G1 X20.639 Y167.565 E.01923
G1 X20.639 Y33.684 E6.71897
G1 X20.256 Y33.684 E.01923
G1 X20.256 Y167.565 E6.71897
G1 X19.873 Y167.565 E.01923
G1 X19.873 Y33.684 E6.71897
G1 X19.72 Y33.684 E.00765
G1 X19.72 Y36.684 E.15056
G1 X19.489 Y36.684 E.01158
G1 X19.489 Y167.565 E6.56841
G1 X19.106 Y167.565 E.01923
G1 X19.106 Y36.684 E6.56841
G1 X18.723 Y36.684 E.01923
G1 X18.723 Y167.565 E6.56841
G1 X18.34 Y167.565 E.01923
G1 X18.34 Y36.684 E6.56841
G1 X17.957 Y36.684 E.01923
G1 X17.957 Y167.565 E6.56841
G1 X17.573 Y167.565 E.01923
G1 X17.573 Y36.684 E6.56841
G1 X17.19 Y36.684 E.01923
G1 X17.19 Y167.565 E6.56841
G1 X16.807 Y167.565 E.01923
G1 X16.807 Y36.684 E6.56841
G1 X16.424 Y36.684 E.01923
G1 X16.424 Y167.565 E6.56841
G1 X16.04 Y167.565 E.01923
M73 P0 R569
G1 X16.04 Y36.684 E6.56841
G1 X15.657 Y36.684 E.01923
G1 X15.657 Y167.565 E6.56841
G1 X15.274 Y167.565 E.01923
G1 X15.274 Y36.684 E6.56841
G1 X14.891 Y36.684 E.01923
G1 X14.891 Y167.565 E6.56841
G1 X14.508 Y167.565 E.01923
G1 X14.508 Y36.684 E6.56841
G1 X14.394 Y36.684 E.00571
G1 X14.394 Y33.684 E.15056
G1 X14.124 Y33.684 E.01352
G1 X14.124 Y167.565 E6.71897
G1 X13.741 Y167.565 E.01923
G1 X13.741 Y33.684 E6.71897
G1 X13.358 Y33.684 E.01923
G1 X13.358 Y167.565 E6.71897
G1 X12.975 Y167.565 E.01923
G1 X12.975 Y33.684 E6.71897
G1 X12.592 Y33.684 E.01923
G1 X12.592 Y167.72 E6.72676
G1 E-.7 F3600
;WIPE_START
G1 F6240
G1 X12.592 Y167.2 E-.285
;WIPE_END
G1 E-.015 F3600
G1 X15.46 Y36.119 F7800
G1 E1 F2400
;TYPE:Support material interface
;WIDTH:1
G1 F1800
G1 X15.46 Y22.146 E1.88047
G1 X16.016 Y22.146 E.07487
G1 X16.016 Y24.951 E.3775
G1 X16.352 Y24.967 E.04532
G1 X16.352 Y35.717 E1.44676
G1 X17.245 Y35.717 E.12014
G1 X17.245 Y25.009 E1.44105
G1 X17.819 Y25.037 E.07731
G1 X18.094 Y22.146 E.39079
G1 X18.138 Y22.146 E.00587
G1 X18.138 Y36.119 E1.88047
G1 E-.7 F3600
;WIPE_START
G1 F6240
G1 X18.138 Y35.599 E-.285
;WIPE_END
G1 E-.015 F3600
G1 X167.876 Y167.876 F7800
G1 E1 F2400
;TYPE:Support material
;WIDTH:0.42
G1 F1800
G1 X25.695 Y167.876 E7.13546
G1 X25.695 Y134.262 E1.68695
G1 X29.088 Y134.262 E.17027
G1 X29.088 Y124.083 E.5108
G1 X32.481 Y124.083 E.17027
G1 X32.481 Y110.513 E.68106
G1 X35.873 Y110.513 E.17027
G1 X35.873 Y96.942 E.68106
G1 X39.266 Y96.942 E.17027
G1 X39.266 Y83.371 E.68106
G1 X42.659 Y83.371 E.17027
M73 P0 R568
G1 X42.659 Y32.481 E2.55399
G1 X46.051 Y32.481 E.17027
G1 X46.051 Y12.124 E1.02159
G1 X167.876 Y12.124 E6.11386
G1 X167.876 Y167.824 E7.81392
G1 X167.408 Y167.72 F7800
G1 F1800
G1 X167.408 Y12.435 E7.79315
G1 X167.025 Y12.435 E.01923
G1 X167.025 Y167.565 E7.78536
G1 X166.642 Y167.565 E.01923
G1 X166.642 Y12.435 E7.78536
G1 X166.259 Y12.435 E.01923
G1 X166.259 Y167.565 E7.78536
G1 X165.876 Y167.565 E.01923
G1 X165.876 Y12.435 E7.78536
G1 X165.492 Y12.435 E.01923
G1 X165.492 Y167.565 E7.78536
G1 X165.109 Y167.565 E.01923
G1 X165.109 Y12.435 E7.78536
G1 X164.726 Y12.435 E.01923
G1 X164.726 Y167.565 E7.78536
G1 X164.343 Y167.565 E.01923
G1 X164.343 Y12.435 E7.78536
G1 X163.96 Y12.435 E.01923
G1 X163.96 Y167.565 E7.78536
G1 X163.576 Y167.565 E.01923
M73 P0 R567
G1 X163.576 Y12.435 E7.78536
G1 X163.193 Y12.435 E.01923
G1 X163.193 Y167.565 E7.78536
G1 X162.81 Y167.565 E.01923
G1 X162.81 Y12.435 E7.78536
G1 X162.427 Y12.435 E.01923
G1 X162.427 Y167.565 E7.78536
G1 X162.043 Y167.565 E.01923
G1 X162.043 Y12.435 E7.78536
G1 X161.66 Y12.435 E.01923
G1 X161.66 Y167.565 E7.78536
G1 X161.277 Y167.565 E.01923
G1 X161.277 Y12.435 E7.78536
G1 X160.894 Y12.435 E.01923
G1 X160.894 Y167.565 E7.78536
G1 X160.511 Y167.565 E.01923
G1 X160.511 Y12.435 E7.78536
G1 X160.127 Y12.435 E.01923
G1 X160.127 Y167.565 E7.78536
G1 X159.744 Y167.565 E.01923
G1 X159.744 Y12.435 E7.78536
G1 X159.361 Y12.435 E.01923
M73 P0 R566
G1 X159.361 Y167.565 E7.78536
G1 X158.978 Y167.565 E.01923
G1 X158.978 Y12.435 E7.78536
G1 X158.595 Y12.435 E.01923
G1 X158.595 Y167.565 E7.78536
G1 X158.211 Y167.565 E.01923
G1 X158.211 Y12.435 E7.78536
G1 X157.828 Y12.435 E.01923
G1 X157.828 Y167.565 E7.78536
G1 X157.445 Y167.565 E.01923
G1 X157.445 Y12.435 E7.78536
G1 X157.062 Y12.435 E.01923
G1 X157.062 Y167.565 E7.78536
G1 X156.679 Y167.565 E.01923
G1 X156.679 Y12.435 E7.78536
G1 X156.295 Y12.435 E.01923
G1 X156.295 Y167.565 E7.78536
G1 X155.912 Y167.565 E.01923
G1 X155.912 Y12.435 E7.78536
G1 X155.529 Y12.435 E.01923
G1 X155.529 Y167.565 E7.78536
G1 X155.146 Y167.565 E.01923
G1 X155.146 Y12.435 E7.78536
G1 X154.762 Y12.435 E.01923
M73 P0 R565
G1 X154.762 Y167.565 E7.78536
G1 X154.379 Y167.565 E.01923
G1 X154.379 Y12.435 E7.78536
G1 X153.996 Y12.435 E.01923
G1 X153.996 Y167.565 E7.78536
G1 X153.613 Y167.565 E.01923
M73 P1 R565
G1 X153.613 Y12.435 E7.78536
G1 X153.23 Y12.435 E.01923
G1 X153.23 Y167.565 E7.78536
G1 X152.846 Y167.565 E.01923
G1 X152.846 Y12.435 E7.78536
G1 X152.463 Y12.435 E.01923
G1 X152.463 Y167.565 E7.78536
G1 X152.08 Y167.565 E.01923
G1 X152.08 Y12.435 E7.78536
G1 X151.697 Y12.435 E.01923
G1 X151.697 Y167.565 E7.78536
G1 X151.314 Y167.565 E.01923
G1 X151.314 Y12.435 E7.78536
G1 X150.93 Y12.435 E.01923
G1 X150.93 Y167.565 E7.78536
G1 X150.547 Y167.565 E.01923
M73 P1 R564
G1 X150.547 Y12.435 E7.78536
G1 X150.164 Y12.435 E.01923
G1 X150.164 Y167.565 E7.78536
G1 X149.781 Y167.565 E.01923
G1 X149.781 Y12.435 E7.78536
G1 X149.398 Y12.435 E.01923
G1 X149.398 Y167.565 E7.78536
G1 X149.014 Y167.565 E.01923
G1 X149.014 Y12.435 E7.78536
G1 X148.631 Y12.435 E.01923
G1 X148.631 Y167.565 E7.78536
G1 X148.248 Y167.565 E.01923
G1 X148.248 Y12.435 E7.78536
G1 X147.865 Y12.435 E.01923
G1 X147.865 Y167.565 E7.78536
G1 X147.481 Y167.565 E.01923
G1 X147.482 Y12.435 E7.78536
G1 X147.098 Y12.435 E.01923
G1 X147.098 Y167.565 E7.78536
G1 X146.715 Y167.565 E.01923
G1 X146.715 Y12.435 E7.78536
G1 X146.332 Y12.435 E.01923
M73 P1 R563
G1 X146.332 Y167.565 E7.78536
G1 X145.949 Y167.565 E.01923
G1 X145.949 Y12.435 E7.78536
G1 X145.565 Y12.435 E.01923
G1 X145.565 Y167.565 E7.78536
G1 X145.182 Y167.565 E.01923
G1 X145.182 Y12.435 E7.78536
G1 X144.799 Y12.435 E.01923
G1 X144.799 Y167.565 E7.78536
G1 X144.416 Y167.565 E.01923
G1 X144.416 Y12.435 E7.78536
G1 X144.033 Y12.435 E.01923
G1 X144.033 Y167.565 E7.78536
G1 X143.649 Y167.565 E.01923
G1 X143.649 Y12.435 E7.78536
G1 X143.266 Y12.435 E.01923
G1 X143.266 Y167.565 E7.78536
G1 X142.883 Y167.565 E.01923
G1 X142.883 Y12.435 E7.78536
G1 X142.5 Y12.435 E.01923
G1 X142.5 Y167.565 E7.78536
G1 X142.117 Y167.565 E.01923
G1 X142.117 Y12.435 E7.78536
G1 X141.733 Y12.435 E.01923
M73 P1 R562
G1 X141.733 Y167.565 E7.78536
G1 X141.35 Y167.565 E.01923
G1 X141.35 Y12.435 E7.78536
G1 X140.967 Y12.435 E.01923
G1 X140.967 Y167.565 E7.78536
G1 X140.584 Y167.565 E.01923
G1 X140.584 Y12.435 E7.78536
G1 X140.201 Y12.435 E.01923
G1 X140.2 Y167.565 E7.78536
G1 X139.817 Y167.565 E.01923
G1 X139.817 Y12.435 E7.78536
G1 X139.434 Y12.435 E.01923
G1 X139.434 Y167.565 E7.78536
G1 X139.051 Y167.565 E.01923
G1 X139.051 Y12.435 E7.78536
G1 X138.668 Y12.435 E.01923
G1 X138.668 Y167.565 E7.78536
G1 X138.284 Y167.565 E.01923
G1 X138.284 Y12.435 E7.78536
G1 X137.901 Y12.435 E.01923
G1 X137.901 Y167.565 E7.78536
G1 X137.518 Y167.565 E.01923
M73 P1 R561
G1 X137.518 Y12.435 E7.78536
G1 X137.135 Y12.435 E.01923
G1 X137.135 Y167.565 E7.78536
G1 X136.752 Y167.565 E.01923
G1 X136.752 Y12.435 E7.78536
G1 X136.368 Y12.435 E.01923
G1 X136.368 Y167.565 E7.78536
G1 X135.985 Y167.565 E.01923
G1 X135.985 Y12.435 E7.78536
G1 X135.602 Y12.435 E.01923
G1 X135.602 Y167.565 E7.78536
G1 X135.219 Y167.565 E.01923
G1 X135.219 Y12.435 E7.78536
G1 X134.836 Y12.435 E.01923
G1 X134.836 Y167.565 E7.78536
G1 X134.452 Y167.565 E.01923
G1 X134.452 Y12.435 E7.78536
G1 X134.069 Y12.435 E.01923
G1 X134.069 Y167.565 E7.78536
G1 X133.686 Y167.565 E.01923
G1 X133.686 Y12.435 E7.78536
G1 X133.303 Y12.435 E.01923
G1 X133.303 Y167.565 E7.78536
G1 X132.92 Y167.565 E.01923
M73 P1 R560
G1 X132.92 Y12.435 E7.78536
G1 X132.536 Y12.435 E.01923
G1 X132.536 Y167.565 E7.78536
G1 X132.153 Y167.565 E.01923
G1 X132.153 Y12.435 E7.78536
G1 X131.77 Y12.435 E.01923
G1 X131.77 Y167.565 E7.78536
G1 X131.387 Y167.565 E.01923
G1 X131.387 Y12.435 E7.78536
G1 X131.003 Y12.435 E.01923
G1 X131.003 Y167.565 E7.78536
G1 X130.62 Y167.565 E.01923
G1 X130.62 Y12.435 E7.78536
G1 X130.237 Y12.435 E.01923
G1 X130.237 Y167.565 E7.78536
G1 X129.854 Y167.565 E.01923
G1 X129.854 Y12.435 E7.78536
G1 X129.471 Y12.435 E.01923
G1 X129.471 Y167.565 E7.78536
G1 X129.087 Y167.565 E.01923
G1 X129.087 Y12.435 E7.78536
G1 X128.704 Y12.435 E.01923
M73 P2 R559
G1 X128.704 Y167.565 E7.78536
G1 X128.321 Y167.565 E.01923
G1 X128.321 Y12.435 E7.78536
G1 X127.938 Y12.435 E.01923
G1 X127.938 Y167.565 E7.78536
G1 X127.555 Y167.565 E.01923
G1 X127.555 Y12.435 E7.78536
G1 X127.171 Y12.435 E.01923
G1 X127.171 Y167.565 E7.78536
G1 X126.788 Y167.565 E.01923
G1 X126.788 Y12.435 E7.78536
G1 X126.405 Y12.435 E.01923
G1 X126.405 Y167.565 E7.78536
G1 X126.022 Y167.565 E.01923
G1 X126.022 Y12.435 E7.78536
G1 X125.639 Y12.435 E.01923
G1 X125.639 Y167.565 E7.78536
G1 X125.255 Y167.565 E.01923
G1 X125.255 Y12.435 E7.78536
G1 X124.872 Y12.435 E.01923
G1 X124.872 Y167.565 E7.78536
G1 X124.489 Y167.565 E.01923
G1 X124.489 Y12.435 E7.78536
G1 X124.106 Y12.435 E.01923
M73 P2 R558
G1 X124.106 Y167.565 E7.78536
G1 X123.722 Y167.565 E.01923
G1 X123.722 Y12.435 E7.78536
G1 X123.339 Y12.435 E.01923
G1 X123.339 Y167.565 E7.78536
G1 X122.956 Y167.565 E.01923
G1 X122.956 Y12.435 E7.78536
G1 X122.573 Y12.435 E.01923
G1 X122.573 Y167.565 E7.78536
G1 X122.19 Y167.565 E.01923
G1 X122.19 Y12.435 E7.78536
G1 X121.806 Y12.435 E.01923
G1 X121.806 Y167.565 E7.78536
G1 X121.423 Y167.565 E.01923
G1 X121.423 Y12.435 E7.78536
G1 X121.04 Y12.435 E.01923
G1 X121.04 Y167.565 E7.78536
G1 X120.657 Y167.565 E.01923
G1 X120.657 Y12.435 E7.78536
G1 X120.274 Y12.435 E.01923
G1 X120.274 Y167.565 E7.78536
G1 X119.89 Y167.565 E.01923
M73 P2 R557
G1 X119.89 Y12.435 E7.78536
G1 X119.507 Y12.435 E.01923
G1 X119.507 Y167.565 E7.78536
G1 X119.124 Y167.565 E.01923
G1 X119.124 Y12.435 E7.78536
G1 X118.741 Y12.435 E.01923
G1 X118.741 Y167.565 E7.78536
G1 X118.358 Y167.565 E.01923
G1 X118.358 Y12.435 E7.78536
G1 X117.974 Y12.435 E.01923
G1 X117.974 Y167.565 E7.78536
G1 X117.591 Y167.565 E.01923
G1 X117.591 Y12.435 E7.78536
G1 X117.208 Y12.435 E.01923
G1 X117.208 Y167.565 E7.78536
G1 X116.825 Y167.565 E.01923
G1 X116.825 Y12.435 E7.78536
G1 X116.441 Y12.435 E.01923
G1 X116.441 Y167.565 E7.78536
G1 X116.058 Y167.565 E.01923
G1 X116.058 Y12.435 E7.78536
G1 X115.675 Y12.435 E.01923
G1 X115.675 Y167.565 E7.78536
G1 X115.292 Y167.565 E.01923
M73 P2 R556
G1 X115.292 Y12.435 E7.78536
G1 X114.909 Y12.435 E.01923
G1 X114.909 Y167.565 E7.78536
G1 X114.525 Y167.565 E.01923
G1 X114.525 Y12.435 E7.78536
G1 X114.142 Y12.435 E.01923
G1 X114.142 Y167.565 E7.78536
G1 X113.759 Y167.565 E.01923
G1 X113.759 Y12.435 E7.78536
G1 X113.376 Y12.435 E.01923
G1 X113.376 Y167.565 E7.78536
G1 X112.993 Y167.565 E.01923
G1 X112.993 Y12.435 E7.78536
G1 X112.609 Y12.435 E.01923
G1 X112.609 Y167.565 E7.78536
G1 X112.226 Y167.565 E.01923
G1 X112.226 Y12.435 E7.78536
G1 X111.843 Y12.435 E.01923
G1 X111.843 Y167.565 E7.78536
G1 X111.46 Y167.565 E.01923
G1 X111.46 Y12.435 E7.78536
G1 X111.077 Y12.435 E.01923
M73 P2 R555
G1 X111.077 Y167.565 E7.78536
G1 X110.693 Y167.565 E.01923
G1 X110.693 Y12.435 E7.78536
G1 X110.31 Y12.435 E.01923
G1 X110.31 Y167.565 E7.78536
G1 X109.927 Y167.565 E.01923
G1 X109.927 Y12.435 E7.78536
G1 X109.544 Y12.435 E.01923
G1 X109.544 Y167.565 E7.78536
G1 X109.16 Y167.565 E.01923
G1 X109.161 Y12.435 E7.78536
G1 X108.777 Y12.435 E.01923
G1 X108.777 Y167.565 E7.78536
G1 X108.394 Y167.565 E.01923
G1 X108.394 Y12.435 E7.78536
G1 X108.011 Y12.435 E.01923
G1 X108.011 Y167.565 E7.78536
G1 X107.628 Y167.565 E.01923
G1 X107.628 Y12.435 E7.78536
G1 X107.244 Y12.435 E.01923
G1 X107.244 Y167.565 E7.78536
G1 X106.861 Y167.565 E.01923
G1 X106.861 Y12.435 E7.78536
G1 X106.478 Y12.435 E.01923
M73 P2 R554
G1 X106.478 Y167.565 E7.78536
G1 X106.095 Y167.565 E.01923
G1 X106.095 Y12.435 E7.78536
G1 X105.712 Y12.435 E.01923
G1 X105.712 Y167.565 E7.78536
G1 X105.328 Y167.565 E.01923
G1 X105.328 Y12.435 E7.78536
G1 X104.945 Y12.435 E.01923
G1 X104.945 Y167.565 E7.78536
G1 X104.562 Y167.565 E.01923
G1 X104.562 Y12.435 E7.78536
G1 X104.179 Y12.435 E.01923
G1 X104.179 Y167.565 E7.78536
G1 X103.796 Y167.565 E.01923
G1 X103.796 Y12.435 E7.78536
G1 X103.412 Y12.435 E.01923
M73 P3 R554
G1 X103.412 Y167.565 E7.78536
G1 X103.029 Y167.565 E.01923
G1 X103.029 Y12.435 E7.78536
G1 X102.646 Y12.435 E.01923
G1 X102.646 Y167.565 E7.78536
G1 X102.263 Y167.565 E.01923
M73 P3 R553
G1 X102.263 Y12.435 E7.78536
G1 X101.88 Y12.435 E.01923
G1 X101.879 Y167.565 E7.78536
G1 X101.496 Y167.565 E.01923
G1 X101.496 Y12.435 E7.78536
G1 X101.113 Y12.435 E.01923
G1 X101.113 Y167.565 E7.78536
G1 X100.73 Y167.565 E.01923
G1 X100.73 Y12.435 E7.78536
G1 X100.347 Y12.435 E.01923
G1 X100.347 Y167.565 E7.78536
G1 X99.963 Y167.565 E.01923
G1 X99.963 Y12.435 E7.78536
G1 X99.58 Y12.435 E.01923
G1 X99.58 Y167.565 E7.78536
G1 X99.197 Y167.565 E.01923
G1 X99.197 Y12.435 E7.78536
G1 X98.814 Y12.435 E.01923
G1 X98.814 Y167.565 E7.78536
G1 X98.431 Y167.565 E.01923
G1 X98.431 Y12.435 E7.78536
G1 X98.047 Y12.435 E.01923
G1 X98.047 Y167.565 E7.78536
G1 X97.664 Y167.565 E.01923
M73 P3 R552
G1 X97.664 Y12.435 E7.78536
G1 X97.281 Y12.435 E.01923
G1 X97.281 Y167.565 E7.78536
G1 X96.898 Y167.565 E.01923
G1 X96.898 Y12.435 E7.78536
G1 X96.515 Y12.435 E.01923
G1 X96.515 Y167.565 E7.78536
G1 X96.131 Y167.565 E.01923
G1 X96.131 Y12.435 E7.78536
G1 X95.748 Y12.435 E.01923
G1 X95.748 Y167.565 E7.78536
G1 X95.365 Y167.565 E.01923
G1 X95.365 Y12.435 E7.78536
G1 X94.982 Y12.435 E.01923
G1 X94.982 Y167.565 E7.78536
G1 X94.599 Y167.565 E.01923
G1 X94.599 Y12.435 E7.78536
G1 X94.215 Y12.435 E.01923
G1 X94.215 Y167.565 E7.78536
G1 X93.832 Y167.565 E.01923
G1 X93.832 Y12.435 E7.78536
G1 X93.449 Y12.435 E.01923
M73 P3 R551
G1 X93.449 Y167.565 E7.78536
G1 X93.066 Y167.565 E.01923
G1 X93.066 Y12.435 E7.78536
G1 X92.682 Y12.435 E.01923
G1 X92.682 Y167.565 E7.78536
G1 X92.299 Y167.565 E.01923
G1 X92.299 Y12.435 E7.78536
G1 X91.916 Y12.435 E.01923
G1 X91.916 Y167.565 E7.78536
G1 X91.533 Y167.565 E.01923
G1 X91.533 Y12.435 E7.78536
G1 X91.15 Y12.435 E.01923
G1 X91.15 Y167.565 E7.78536
G1 X90.766 Y167.565 E.01923
G1 X90.766 Y12.435 E7.78536
G1 X90.383 Y12.435 E.01923
G1 X90.383 Y167.565 E7.78536
G1 X90 Y167.565 E.01923
G1 X90 Y12.435 E7.78536
G1 X89.617 Y12.435 E.01923
G1 X89.617 Y167.565 E7.78536
G1 X89.234 Y167.565 E.01923
