; generated by PrusaSlicer 2.5.0+win64 on 2022-12-07 at 00:33:41 UTC

; 

; external perimeters extrusion width = 1.00mm
; perimeters extrusion width = 1.00mm
; infill extrusion width = 1.00mm
; solid infill extrusion width = 1.00mm
; top infill extrusion width = 1.00mm
; support material extrusion width = 1.00mm
; first layer extrusion width = 0.42mm

M73 P0 R413
M107
;TYPE:Custom
G90 ; use absolute coordinates
M83 ; extruder relative mode
M140 S60 ; set final bed temp
M104 S150 ; set temporary nozzle temp to prevent oozing during homing and auto bed leveling
G4 S10 ; allow partial nozzle warmup
G28 ; home all axisG1 Z50 F240
G1 X7.6 Y10 F3000
M104 S210 ; set final nozzle temp
M190 S60 ; wait for bed temp to stabilize
M109 S210 ; wait for nozzle temp to stabilize
G1 Z0.28 F240
G92 E0
G1 Y140 E10 F1500 ; prime the nozzle
G1 X4 F5000
G92 E0
G1 Y10 E10 F1200 ; prime the nozzle
G92 E0
G21 ; set units to millimeters
G90 ; use absolute coordinates
M83 ; use relative distances for extrusion
; Filament gcode
M107
;LAYER_CHANGE
;Z:0.35
;HEIGHT:0.35
;BEFORE_LAYER_CHANGE
G92 E0
;0.35


G1 E-1 F3600
G1 Z.35 F7800
;AFTER_LAYER_CHANGE
;0.35
G1 X113.592 Y25.382
G1 E1 F2400
;TYPE:Support material
;WIDTH:0.42
G1 F1800
G1 X110.2 Y25.382 E.17027
G1 X110.2 Y32.168 E.34053
G1 X106.807 Y32.168 E.17027
G1 X106.807 Y35.56 E.17027
G1 X96.629 Y35.56 E.5108
G1 X96.629 Y56.229 E1.0373
G1 X106.807 Y56.229 E.5108
G1 X106.807 Y69.487 E.66536
G1 X103.414 Y69.487 E.17027
G1 X103.414 Y76.273 E.34053
G1 X100.022 Y76.273 E.17027
G1 X100.022 Y93.236 E.85133
G1 X96.629 Y93.236 E.17027
G1 X96.629 Y113.592 E1.02159
G1 X93.236 Y113.592 E.17027
G1 X93.236 Y127.163 E.68106
G1 X83.058 Y127.163 E.5108
G1 X83.058 Y167.876 E2.04319
G1 X12.124 Y167.876 E3.55988
G1 X12.124 Y12.124 E7.81652
G1 X113.592 Y12.124 E5.09227
G1 X113.592 Y25.331 E.66276
G1 E-.7 F3600
;WIPE_START
G1 F6240
G1 X113.592 Y24.811 E-.285
;WIPE_END
G1 E-.015 F3600
G1 X16.668 Y15.915 F7800
G1 E1 F2400
G1 F1800
G1 X16.252 Y16.331 E.02952
G1 X16.252 Y163.669 E7.39433
G1 X16.668 Y164.085 E.02952
G1 X69.009 Y164.085 E2.62677
G1 X69.405 Y163.754 E.0259
G1 X78.82 Y110.928 E2.69291
G1 X93.696 Y16.414 E4.80165
G1 X93.271 Y15.915 E.03292
G1 X16.72 Y15.915 E3.84178
G1 E-.7 F3600
;WIPE_START
M73 P0 R412
G1 F6240
G1 X17.24 Y15.915 E-.285
;WIPE_END
G1 E-.015 F3600
G1 X112.993 Y25.227 F7800
G1 E1 F2400
G1 F1800
G1 X112.993 Y12.435 E.64199
G1 X112.609 Y12.435 E.01923
G1 X112.609 Y25.072 E.6342
G1 X112.226 Y25.072 E.01923
G1 X112.226 Y12.435 E.6342
G1 X111.843 Y12.435 E.01923
G1 X111.843 Y25.072 E.6342
G1 X111.46 Y25.072 E.01923
G1 X111.46 Y12.435 E.6342
G1 X111.077 Y12.435 E.01923
G1 X111.077 Y25.072 E.6342
G1 X110.693 Y25.072 E.01923
G1 X110.693 Y12.435 E.6342
G1 X110.31 Y12.435 E.01923
G1 X110.31 Y25.072 E.6342
G1 X109.927 Y25.072 E.01923
G1 X109.927 Y12.435 E.6342
G1 X109.544 Y12.435 E.01923
G1 X109.544 Y31.857 E.97474
G1 X109.161 Y31.857 E.01923
G1 X109.161 Y12.435 E.97474
G1 X108.777 Y12.435 E.01923
G1 X108.777 Y31.857 E.97474
G1 X108.394 Y31.857 E.01923
G1 X108.394 Y12.435 E.97474
G1 X108.011 Y12.435 E.01923
G1 X108.011 Y31.857 E.97474
G1 X107.628 Y31.857 E.01923
G1 X107.628 Y12.435 E.97474
G1 X107.244 Y12.435 E.01923
G1 X107.244 Y31.857 E.97474
G1 X106.861 Y31.857 E.01923
G1 X106.861 Y12.435 E.97474
G1 X106.478 Y12.435 E.01923
G1 X106.478 Y35.25 E1.145
G1 X106.095 Y35.25 E.01923
G1 X106.095 Y12.435 E1.145
G1 X105.712 Y12.435 E.01923
G1 X105.712 Y35.25 E1.145
G1 X105.328 Y35.25 E.01923
G1 X105.328 Y12.435 E1.145
G1 X104.945 Y12.435 E.01923
G1 X104.945 Y35.25 E1.145
G1 X104.562 Y35.25 E.01923
G1 X104.562 Y12.435 E1.145
G1 X104.179 Y12.435 E.01923
G1 X104.179 Y35.25 E1.145
G1 X103.796 Y35.25 E.01923
G1 X103.796 Y12.435 E1.145
G1 X103.412 Y12.435 E.01923
G1 X103.412 Y35.25 E1.145
G1 X103.029 Y35.25 E.01923
G1 X103.029 Y12.435 E1.145
G1 X102.646 Y12.435 E.01923
G1 X102.646 Y35.25 E1.145
G1 X102.263 Y35.25 E.01923
G1 X102.263 Y12.435 E1.145
G1 X101.88 Y12.435 E.01923
G1 X101.88 Y35.25 E1.145
G1 X101.496 Y35.25 E.01923
G1 X101.496 Y12.435 E1.145
G1 X101.113 Y12.435 E.01923
G1 X101.113 Y35.25 E1.145
G1 X100.73 Y35.25 E.01923
G1 X100.73 Y12.435 E1.145
G1 X100.347 Y12.435 E.01923
G1 X100.347 Y35.25 E1.145
G1 X99.963 Y35.25 E.01923
G1 X99.963 Y12.435 E1.145
G1 X99.58 Y12.435 E.01923
G1 X99.58 Y35.25 E1.145
G1 X99.197 Y35.25 E.01923
G1 X99.197 Y12.435 E1.145
G1 X98.814 Y12.435 E.01923
G1 X98.814 Y35.25 E1.145
G1 X98.431 Y35.25 E.01923
G1 X98.431 Y12.435 E1.145
G1 X98.047 Y12.435 E.01923
G1 X98.047 Y35.25 E1.145
G1 X97.664 Y35.25 E.01923
G1 X97.664 Y12.435 E1.145
G1 X97.281 Y12.435 E.01923
G1 X97.281 Y35.25 E1.145
G1 X96.898 Y35.25 E.01923
G1 X96.898 Y12.435 E1.145
G1 X96.515 Y12.435 E.01923
G1 X96.515 Y35.25 E1.145
G1 X96.319 Y35.25 E.00984
G1 X96.319 Y56.54 E1.06845
G1 X96.515 Y56.54 E.00984
G1 X96.515 Y92.926 E1.82607
G1 X96.898 Y92.926 E.01923
G1 X96.898 Y56.54 E1.82607
G1 X97.281 Y56.54 E.01923
G1 X97.281 Y92.926 E1.82607
G1 X97.664 Y92.926 E.01923
G1 X97.664 Y56.54 E1.82607
G1 X98.047 Y56.54 E.01923
G1 X98.047 Y92.926 E1.82607
G1 X98.431 Y92.926 E.01923
G1 X98.431 Y56.54 E1.82607
G1 X98.814 Y56.54 E.01923
G1 X98.814 Y92.926 E1.82607
G1 X99.197 Y92.926 E.01923
G1 X99.197 Y56.54 E1.82607
G1 X99.58 Y56.54 E.01923
G1 X99.58 Y92.926 E1.82607
G1 X99.711 Y92.926 E.00657
G1 X99.711 Y75.962 E.85133
G1 X99.963 Y75.962 E.01266
G1 X99.963 Y56.54 E.97474
G1 X100.347 Y56.54 E.01923
G1 X100.347 Y75.962 E.97474
G1 X100.73 Y75.962 E.01923
G1 X100.73 Y56.54 E.97474
G1 X101.113 Y56.54 E.01923
G1 X101.113 Y75.962 E.97474
G1 X101.496 Y75.962 E.01923
G1 X101.496 Y56.54 E.97474
G1 X101.88 Y56.54 E.01923
G1 X101.88 Y75.962 E.97474
G1 X102.263 Y75.962 E.01923
G1 X102.263 Y56.54 E.97474
G1 X102.646 Y56.54 E.01923
G1 X102.646 Y75.962 E.97474
G1 X103.029 Y75.962 E.01923
G1 X103.029 Y56.54 E.97474
G1 X103.412 Y56.54 E.01923
G1 X103.412 Y69.177 E.6342
G1 X103.796 Y69.177 E.01923
G1 X103.796 Y56.54 E.6342
G1 X104.179 Y56.54 E.01923
G1 X104.179 Y69.177 E.6342
G1 X104.562 Y69.177 E.01923
G1 X104.562 Y56.54 E.6342
G1 X104.945 Y56.54 E.01923
G1 X104.945 Y69.177 E.6342
G1 X105.328 Y69.177 E.01923
G1 X105.328 Y56.54 E.6342
G1 X105.712 Y56.54 E.01923
G1 X105.712 Y69.177 E.6342
G1 X106.095 Y69.177 E.01923
G1 X106.095 Y56.54 E.6342
G1 X106.478 Y56.54 E.01923
G1 X106.478 Y69.332 E.64199
G1 E-.7 F3600
;WIPE_START
G1 F6240
G1 X106.478 Y68.812 E-.285
;WIPE_END
G1 E-.015 F3600
G1 X96.131 Y113.437 F7800
G1 E1 F2400
G1 F1800
G1 X96.131 Y12.435 E5.0689
G1 X95.748 Y12.435 E.01923
M73 P0 R411
G1 X95.748 Y113.282 E5.06111
G1 X95.365 Y113.282 E.01923
G1 X95.365 Y12.435 E5.06111
G1 X94.982 Y12.435 E.01923
G1 X94.982 Y113.282 E5.06111
G1 X94.599 Y113.282 E.01923
G1 X94.599 Y12.435 E5.06111
G1 X94.215 Y12.435 E.01923
G1 X94.215 Y113.282 E5.06111
G1 X93.832 Y113.282 E.01923
G1 X93.832 Y17.529 E4.80545
G1 X93.449 Y19.969 E.12397
G1 X93.449 Y113.282 E4.68298
G1 X93.066 Y113.282 E.01923
G1 X93.066 Y22.407 E4.56067
G1 X92.682 Y24.84 E.12363
G1 X92.682 Y126.853 E5.1196
G1 X92.299 Y126.853 E.01923
G1 X92.299 Y27.276 E4.99734
G1 X91.916 Y29.712 E.12377
G1 X91.916 Y126.853 E4.87508
G1 X91.533 Y126.853 E.01923
G1 X91.533 Y32.149 E4.75282
G1 X91.15 Y34.585 E.12377
G1 X91.15 Y126.853 E4.63055
G1 X90.766 Y126.853 E.01923
G1 X90.766 Y37.021 E4.50829
G1 X90.383 Y39.455 E.12366
G1 X90.383 Y126.853 E4.38614
G1 X90 Y126.853 E.01923
G1 X90 Y41.884 E4.26421
G1 X89.617 Y44.314 E.12344
G1 X89.617 Y126.853 E4.14228
G1 X89.234 Y126.853 E.01923
G1 X89.234 Y46.763 E4.01939
G1 X88.85 Y49.198 E.12373
G1 X88.85 Y126.853 E3.89717
G1 X88.467 Y126.853 E.01923
M73 P0 R410
G1 X88.467 Y51.63 E3.77514
G1 X88.084 Y54.053 E.12314
G1 X88.084 Y126.853 E3.65351
G1 X87.701 Y126.853 E.01923
G1 X87.701 Y56.485 E3.53146
G1 X87.318 Y58.925 E.12396
G1 X87.318 Y126.853 E3.409
G1 X86.934 Y126.853 E.01923
G1 X86.934 Y61.366 E3.28654
G1 X86.551 Y63.798 E.12357
G1 X86.551 Y126.853 E3.16448
G1 X86.168 Y126.853 E.01923
G1 X86.168 Y66.227 E3.04254
G1 X85.785 Y68.66 E.12359
G1 X85.785 Y126.853 E2.92046
G1 X85.401 Y126.853 E.01923
G1 X85.401 Y71.097 E2.79817
G1 X85.018 Y73.532 E.12373
G1 X85.018 Y126.853 E2.67594
G1 X84.635 Y126.853 E.01923
G1 X84.635 Y75.968 E2.55371
G1 X84.252 Y78.403 E.12373
G1 X84.252 Y126.853 E2.43148
G1 X83.869 Y126.853 E.01923
G1 X83.869 Y80.839 E2.30925
G1 X83.485 Y83.274 E.12373
G1 X83.485 Y126.853 E2.18702
G1 X83.102 Y126.853 E.01923
G1 X83.102 Y85.71 E2.06479
G1 X82.719 Y88.145 E.12373
G1 X82.719 Y167.565 E3.98575
G1 X82.336 Y167.565 E.01923
G1 X82.336 Y90.581 E3.86352
G1 X81.953 Y93.017 E.12373
G1 X81.953 Y167.565 E3.7413
G1 X81.569 Y167.565 E.01923
G1 X81.569 Y95.452 E3.61907
G1 X81.186 Y97.888 E.12373
G1 X81.186 Y167.565 E3.49684
G1 X80.803 Y167.565 E.01923
G1 X80.803 Y100.323 E3.37461
G1 X80.42 Y102.759 E.12373
G1 X80.42 Y167.565 E3.25238
G1 X80.037 Y167.565 E.01923
G1 X80.037 Y105.194 E3.13015
G1 X79.653 Y107.63 E.12373
G1 X79.653 Y167.565 E3.00792
G1 X79.27 Y167.565 E.01923
G1 X79.27 Y110.065 E2.88569
G1 X78.887 Y112.329 E.11522
G1 X78.887 Y167.565 E2.77209
G1 X78.504 Y167.565 E.01923
G1 X78.504 Y114.487 E2.66377
G1 X78.12 Y116.636 E.10954
G1 X78.12 Y167.565 E2.55594
G1 X77.737 Y167.565 E.01923
M73 P0 R409
G1 X77.737 Y118.785 E2.44806
G1 X77.354 Y120.935 E.10958
G1 X77.354 Y167.565 E2.34018
G1 X76.971 Y167.565 E.01923
G1 X76.971 Y123.085 E2.2323
G1 X76.588 Y125.234 E.10958
G1 X76.588 Y167.565 E2.12442
G1 X76.204 Y167.565 E.01923
G1 X76.204 Y127.384 E2.01655
G1 X75.821 Y129.533 E.10958
G1 X75.821 Y167.565 E1.90867
G1 X75.438 Y167.565 E.01923
G1 X75.438 Y131.683 E1.80079
G1 X75.055 Y133.832 E.10958
G1 X75.055 Y167.565 E1.69291
G1 X74.672 Y167.565 E.01923
G1 X74.672 Y135.982 E1.58503
G1 X74.288 Y138.132 E.10958
G1 X74.288 Y167.565 E1.47716
G1 X73.905 Y167.565 E.01923
G1 X73.905 Y140.281 E1.36928
G1 X73.522 Y142.431 E.10958
G1 X73.522 Y167.565 E1.2614
G1 X73.139 Y167.565 E.01923
G1 X73.139 Y144.58 E1.15352
G1 X72.756 Y146.73 E.10958
G1 X72.756 Y167.565 E1.04564
G1 X72.372 Y167.565 E.01923
G1 X72.372 Y148.879 E.93776
G1 X71.989 Y151.029 E.10958
G1 X71.989 Y167.565 E.82989
G1 X71.606 Y167.565 E.01923
G1 X71.606 Y153.179 E.72201
G1 X71.223 Y155.328 E.10956
M73 P1 R409
G1 X71.223 Y167.565 E.61415
G1 X70.839 Y167.565 E.01923
G1 X70.839 Y157.476 E.50632
G1 X70.456 Y159.625 E.10953
G1 X70.456 Y167.565 E.39849
G1 X70.073 Y167.565 E.01923
G1 X70.073 Y161.774 E.29066
G1 X69.69 Y163.92 E.10942
G1 X69.69 Y167.565 E.18295
G1 X69.307 Y167.565 E.01923
G1 X69.307 Y164.241 E.16684
G1 X69.122 Y164.396 E.0121
G1 X68.923 Y164.396 E.00995
G1 X68.923 Y167.565 E.15907
G1 X68.54 Y167.565 E.01923
G1 X68.54 Y164.396 E.15907
G1 X68.157 Y164.396 E.01923
G1 X68.157 Y167.565 E.15907
G1 X67.774 Y167.565 E.01923
G1 X67.774 Y164.396 E.15907
G1 X67.391 Y164.396 E.01923
G1 X67.391 Y167.565 E.15907
G1 X67.007 Y167.565 E.01923
G1 X67.007 Y164.396 E.15907
G1 X66.624 Y164.396 E.01923
G1 X66.624 Y167.565 E.15907
G1 X66.241 Y167.565 E.01923
G1 X66.241 Y164.396 E.15907
G1 X65.858 Y164.396 E.01923
G1 X65.858 Y167.565 E.15907
G1 X65.475 Y167.565 E.01923
G1 X65.475 Y164.396 E.15907
G1 X65.091 Y164.396 E.01923
G1 X65.091 Y167.565 E.15907
G1 X64.708 Y167.565 E.01923
G1 X64.708 Y164.396 E.15907
G1 X64.325 Y164.396 E.01923
G1 X64.325 Y167.565 E.15907
G1 X63.942 Y167.565 E.01923
G1 X63.942 Y164.396 E.15907
G1 X63.559 Y164.396 E.01923
G1 X63.559 Y167.565 E.15907
G1 X63.175 Y167.565 E.01923
G1 X63.175 Y164.396 E.15907
G1 X62.792 Y164.396 E.01923
G1 X62.792 Y167.565 E.15907
G1 X62.409 Y167.565 E.01923
G1 X62.409 Y164.396 E.15907
G1 X62.026 Y164.396 E.01923
G1 X62.026 Y167.565 E.15907
G1 X61.642 Y167.565 E.01923
G1 X61.642 Y164.396 E.15907
G1 X61.259 Y164.396 E.01923
G1 X61.259 Y167.565 E.15907
G1 X60.876 Y167.565 E.01923
G1 X60.876 Y164.396 E.15907
G1 X60.493 Y164.396 E.01923
G1 X60.493 Y167.565 E.15907
G1 X60.11 Y167.565 E.01923
G1 X60.11 Y164.396 E.15907
G1 X59.726 Y164.396 E.01923
G1 X59.726 Y167.565 E.15907
G1 X59.343 Y167.565 E.01923
G1 X59.343 Y164.396 E.15907
G1 X58.96 Y164.396 E.01923
G1 X58.96 Y167.565 E.15907
G1 X58.577 Y167.565 E.01923
G1 X58.577 Y164.396 E.15907
G1 X58.194 Y164.396 E.01923
G1 X58.194 Y167.565 E.15907
G1 X57.81 Y167.565 E.01923
G1 X57.81 Y164.396 E.15907
G1 X57.427 Y164.396 E.01923
G1 X57.427 Y167.565 E.15907
G1 X57.044 Y167.565 E.01923
G1 X57.044 Y164.396 E.15907
G1 X56.661 Y164.396 E.01923
G1 X56.661 Y167.565 E.15907
G1 X56.278 Y167.565 E.01923
G1 X56.278 Y164.396 E.15907
G1 X55.894 Y164.396 E.01923
G1 X55.894 Y167.565 E.15907
G1 X55.511 Y167.565 E.01923
G1 X55.511 Y164.396 E.15907
G1 X55.128 Y164.396 E.01923
G1 X55.128 Y167.565 E.15907
G1 X54.745 Y167.565 E.01923
G1 X54.745 Y164.396 E.15907
G1 X54.361 Y164.396 E.01923
G1 X54.361 Y167.565 E.15907
G1 X53.978 Y167.565 E.01923
G1 X53.978 Y164.396 E.15907
G1 X53.595 Y164.396 E.01923
G1 X53.595 Y167.565 E.15907
G1 X53.212 Y167.565 E.01923
G1 X53.212 Y164.396 E.15907
G1 X52.829 Y164.396 E.01923
G1 X52.829 Y167.565 E.15907
G1 X52.445 Y167.565 E.01923
G1 X52.445 Y164.396 E.15907
G1 X52.062 Y164.396 E.01923
G1 X52.062 Y167.565 E.15907
G1 X51.679 Y167.565 E.01923
G1 X51.679 Y164.396 E.15907
G1 X51.296 Y164.396 E.01923
G1 X51.296 Y167.565 E.15907
G1 X50.913 Y167.565 E.01923
G1 X50.913 Y164.396 E.15907
G1 X50.529 Y164.396 E.01923
G1 X50.529 Y167.565 E.15907
G1 X50.146 Y167.565 E.01923
G1 X50.146 Y164.396 E.15907
G1 X49.763 Y164.396 E.01923
G1 X49.763 Y167.565 E.15907
G1 X49.38 Y167.565 E.01923
G1 X49.38 Y164.396 E.15907
G1 X48.997 Y164.396 E.01923
G1 X48.997 Y167.565 E.15907
G1 X48.613 Y167.565 E.01923
G1 X48.613 Y164.396 E.15907
G1 X48.23 Y164.396 E.01923
G1 X48.23 Y167.565 E.15907
G1 X47.847 Y167.565 E.01923
G1 X47.847 Y164.396 E.15907
G1 X47.464 Y164.396 E.01923
G1 X47.464 Y167.565 E.15907
G1 X47.08 Y167.565 E.01923
G1 X47.08 Y164.396 E.15907
G1 X46.697 Y164.396 E.01923
G1 X46.697 Y167.565 E.15907
G1 X46.314 Y167.565 E.01923
G1 X46.314 Y164.396 E.15907
G1 X45.931 Y164.396 E.01923
G1 X45.931 Y167.565 E.15907
G1 X45.548 Y167.565 E.01923
G1 X45.548 Y164.396 E.15907
G1 X45.164 Y164.396 E.01923
G1 X45.164 Y167.565 E.15907
G1 X44.781 Y167.565 E.01923
G1 X44.781 Y164.396 E.15907
G1 X44.398 Y164.396 E.01923
G1 X44.398 Y167.565 E.15907
G1 X44.015 Y167.565 E.01923
G1 X44.015 Y164.396 E.15907
G1 X43.632 Y164.396 E.01923
G1 X43.632 Y167.565 E.15907
G1 X43.248 Y167.565 E.01923
G1 X43.248 Y164.396 E.15907
G1 X42.865 Y164.396 E.01923
G1 X42.865 Y167.565 E.15907
G1 X42.482 Y167.565 E.01923
G1 X42.482 Y164.396 E.15907
G1 X42.099 Y164.396 E.01923
G1 X42.099 Y167.565 E.15907
G1 X41.716 Y167.565 E.01923
G1 X41.716 Y164.396 E.15907
G1 X41.332 Y164.396 E.01923
G1 X41.332 Y167.565 E.15907
G1 X40.949 Y167.565 E.01923
G1 X40.949 Y164.396 E.15907
G1 X40.566 Y164.396 E.01923
G1 X40.566 Y167.565 E.15907
G1 X40.183 Y167.565 E.01923
G1 X40.183 Y164.396 E.15907
G1 X39.799 Y164.396 E.01923
G1 X39.799 Y167.565 E.15907
G1 X39.416 Y167.565 E.01923
G1 X39.416 Y164.396 E.15907
G1 X39.033 Y164.396 E.01923
G1 X39.033 Y167.565 E.15907
G1 X38.65 Y167.565 E.01923
G1 X38.65 Y164.396 E.15907
G1 X38.267 Y164.396 E.01923
G1 X38.267 Y167.565 E.15907
G1 X37.883 Y167.565 E.01923
G1 X37.883 Y164.396 E.15907
G1 X37.5 Y164.396 E.01923
G1 X37.5 Y167.565 E.15907
G1 X37.117 Y167.565 E.01923
G1 X37.117 Y164.396 E.15907
G1 X36.734 Y164.396 E.01923
G1 X36.734 Y167.565 E.15907
G1 X36.351 Y167.565 E.01923
G1 X36.351 Y164.396 E.15907
G1 X35.967 Y164.396 E.01923
G1 X35.967 Y167.565 E.15907
G1 X35.584 Y167.565 E.01923
G1 X35.584 Y164.396 E.15907
G1 X35.201 Y164.396 E.01923
G1 X35.201 Y167.565 E.15907
G1 X34.818 Y167.565 E.01923
G1 X34.818 Y164.396 E.15907
G1 X34.435 Y164.396 E.01923
G1 X34.435 Y167.565 E.15907
G1 X34.051 Y167.565 E.01923
G1 X34.051 Y164.396 E.15907
G1 X33.668 Y164.396 E.01923
G1 X33.668 Y167.565 E.15907
G1 X33.285 Y167.565 E.01923
G1 X33.285 Y164.396 E.15907
G1 X32.902 Y164.396 E.01923
G1 X32.902 Y167.565 E.15907
G1 X32.518 Y167.565 E.01923
G1 X32.518 Y164.396 E.15907
G1 X32.135 Y164.396 E.01923
G1 X32.135 Y167.565 E.15907
G1 X31.752 Y167.565 E.01923
G1 X31.752 Y164.396 E.15907
G1 X31.369 Y164.396 E.01923
G1 X31.369 Y167.565 E.15907
G1 X30.986 Y167.565 E.01923
G1 X30.986 Y164.396 E.15907
