; generated by PrusaSlicer 2.5.0+win64 on 2022-12-07 at 00:33:49 UTC

; 

; external perimeters extrusion width = 1.00mm
; perimeters extrusion width = 1.00mm
; infill extrusion width = 1.00mm
; solid infill extrusion width = 1.00mm
; top infill extrusion width = 1.00mm
; support material extrusion width = 1.00mm
; first layer extrusion width = 0.42mm

M73 P0 R426
M107
;TYPE:Custom
G90 ; use absolute coordinates
M83 ; extruder relative mode
M140 S60 ; set final bed temp
M104 S150 ; set temporary nozzle temp to prevent oozing during homing and auto bed leveling
G4 S10 ; allow partial nozzle warmup
G28 ; home all axisG1 Z50 F240
G1 X7.6 Y10 F3000
M104 S210 ; set final nozzle temp
M190 S60 ; wait for bed temp to stabilize
M109 S210 ; wait for nozzle temp to stabilize
G1 Z0.28 F240
G92 E0
G1 Y140 E10 F1500 ; prime the nozzle
G1 X4 F5000
G92 E0
G1 Y10 E10 F1200 ; prime the nozzle
G92 E0
G21 ; set units to millimeters
G90 ; use absolute coordinates
M83 ; use relative distances for extrusion
; Filament gcode
M107
;LAYER_CHANGE
;Z:0.35
;HEIGHT:0.35
;BEFORE_LAYER_CHANGE
G92 E0
;0.35


G1 E-1 F3600
G1 Z.35 F7800
;AFTER_LAYER_CHANGE
;0.35
G1 X15.46 Y42.904
G1 E1 F2400
;TYPE:Support material interface
;WIDTH:1
G1 F1800
G1 X15.46 Y22.146 E2.79368
G1 X16.016 Y22.146 E.07487
G1 X16.016 Y25.296 E.42397
G1 X16.352 Y25.311 E.04531
G1 X16.352 Y42.502 E2.31367
G1 X17.245 Y42.502 E.12014
G1 X17.245 Y25.35 E2.30846
G1 X17.827 Y25.375 E.07834
G1 X18.107 Y22.146 E.43619
G1 X18.138 Y22.146 E.00408
G1 X18.138 Y42.904 E2.79368
G1 E-.7 F3600
;WIPE_START
G1 F6240
G1 X18.138 Y42.384 E-.285
;WIPE_END
G1 E-.015 F3600
G1 X167.876 Y167.876 F7800
G1 E1 F2400
;TYPE:Support material
;WIDTH:0.42
G1 F1800
G1 X12.124 Y167.876 E7.81652
G1 X12.124 Y40.159 E6.40959
G1 X14.704 Y40.159 E.12947
G1 X14.704 Y43.159 E.15056
G1 X19.41 Y43.159 E.23616
G1 X19.41 Y40.159 E.15056
G1 X21.99 Y40.159 E.12947
G1 X21.99 Y42.659 E.12546
G1 X25.695 Y42.659 E.18597
G1 X25.695 Y12.124 E1.53239
G1 X167.876 Y12.124 E7.13546
G1 X167.876 Y167.824 E7.81392
G1 E-.7 F3600
;WIPE_START
M73 P0 R425
G1 F6240
G1 X167.876 Y167.304 E-.285
;WIPE_END
G1 E-.015 F3600
G1 X130.556 Y116.985 F7800
G1 E1 F2400
G1 F1800
G1 X130.556 Y120.691 E.18597
G1 X133.949 Y120.691 E.17027
G1 X133.949 Y130.869 E.5108
G1 X140.734 Y130.869 E.34053
G1 X140.734 Y134.262 E.17027
G1 X154.618 Y134.262 E.69677
G1 X154.618 Y130.556 E.18597
G1 X151.225 Y130.556 E.17027
G1 X151.225 Y127.163 E.17027
G1 X147.832 Y127.163 E.17027
G1 X147.832 Y123.771 E.17027
G1 X141.047 Y123.771 E.34053
G1 X141.047 Y120.378 E.17027
G1 X137.654 Y120.378 E.17027
G1 X137.654 Y116.985 E.17027
G1 X130.608 Y116.985 E.35364
G1 E-.7 F3600
;WIPE_START
G1 F6240
G1 X131.128 Y116.985 E-.285
;WIPE_END
G1 E-.015 F3600
G1 X167.408 Y167.72 F7800
G1 E1 F2400
G1 F1800
G1 X167.408 Y12.435 E7.79315
G1 X167.025 Y12.435 E.01923
G1 X167.025 Y167.565 E7.78536
G1 X166.642 Y167.565 E.01923
G1 X166.642 Y12.435 E7.78536
G1 X166.259 Y12.435 E.01923
G1 X166.259 Y167.565 E7.78536
G1 X165.876 Y167.565 E.01923
G1 X165.876 Y12.435 E7.78536
G1 X165.492 Y12.435 E.01923
G1 X165.492 Y167.565 E7.78536
G1 X165.109 Y167.565 E.01923
G1 X165.109 Y12.435 E7.78536
G1 X164.726 Y12.435 E.01923
G1 X164.726 Y167.565 E7.78536
G1 X164.343 Y167.565 E.01923
G1 X164.343 Y12.435 E7.78536
G1 X163.96 Y12.435 E.01923
G1 X163.96 Y167.565 E7.78536
G1 X163.576 Y167.565 E.01923
G1 X163.576 Y12.435 E7.78536
G1 X163.193 Y12.435 E.01923
M73 P0 R424
G1 X163.193 Y167.565 E7.78536
G1 X162.81 Y167.565 E.01923
G1 X162.81 Y12.435 E7.78536
G1 X162.427 Y12.435 E.01923
G1 X162.427 Y167.565 E7.78536
G1 X162.043 Y167.565 E.01923
G1 X162.043 Y12.435 E7.78536
G1 X161.66 Y12.435 E.01923
G1 X161.66 Y167.565 E7.78536
G1 X161.277 Y167.565 E.01923
G1 X161.277 Y12.435 E7.78536
G1 X160.894 Y12.435 E.01923
G1 X160.894 Y167.565 E7.78536
G1 X160.511 Y167.565 E.01923
G1 X160.511 Y12.435 E7.78536
G1 X160.127 Y12.435 E.01923
G1 X160.127 Y167.565 E7.78536
G1 X159.744 Y167.565 E.01923
G1 X159.744 Y12.435 E7.78536
G1 X159.361 Y12.435 E.01923
G1 X159.361 Y167.565 E7.78536
G1 X158.978 Y167.565 E.01923
M73 P0 R423
G1 X158.978 Y12.435 E7.78536
G1 X158.595 Y12.435 E.01923
G1 X158.595 Y167.565 E7.78536
G1 X158.211 Y167.565 E.01923
G1 X158.211 Y12.435 E7.78536
G1 X157.828 Y12.435 E.01923
G1 X157.828 Y167.565 E7.78536
G1 X157.445 Y167.565 E.01923
G1 X157.445 Y12.435 E7.78536
G1 X157.062 Y12.435 E.01923
G1 X157.062 Y167.565 E7.78536
G1 X156.679 Y167.565 E.01923
G1 X156.679 Y12.435 E7.78536
G1 X156.295 Y12.435 E.01923
G1 X156.295 Y167.565 E7.78536
G1 X155.912 Y167.565 E.01923
G1 X155.912 Y12.435 E7.78536
G1 X155.529 Y12.435 E.01923
G1 X155.529 Y167.565 E7.78536
G1 X155.146 Y167.565 E.01923
G1 X155.146 Y12.435 E7.78536
G1 X154.762 Y12.435 E.01923
G1 X154.762 Y130.246 E5.91244
G1 X154.379 Y130.246 E.01923
M73 P0 R422
G1 X154.379 Y12.435 E5.91244
G1 X153.996 Y12.435 E.01923
G1 X153.996 Y130.246 E5.91244
G1 X153.613 Y130.246 E.01923
G1 X153.613 Y12.435 E5.91244
G1 X153.23 Y12.435 E.01923
G1 X153.23 Y130.246 E5.91244
G1 X152.846 Y130.246 E.01923
G1 X152.846 Y12.435 E5.91244
G1 X152.463 Y12.435 E.01923
G1 X152.463 Y130.246 E5.91244
G1 X152.08 Y130.246 E.01923
G1 X152.08 Y12.435 E5.91244
G1 X151.697 Y12.435 E.01923
G1 X151.697 Y130.246 E5.91244
G1 X151.535 Y130.246 E.0081
G1 X151.535 Y126.853 E.17027
G1 X151.314 Y126.853 E.01113
G1 X151.314 Y12.435 E5.74218
G1 X150.93 Y12.435 E.01923
M73 P1 R422
G1 X150.93 Y126.853 E5.74218
G1 X150.547 Y126.853 E.01923
G1 X150.547 Y12.435 E5.74218
G1 X150.164 Y12.435 E.01923
G1 X150.164 Y126.853 E5.74218
G1 X149.781 Y126.853 E.01923
G1 X149.781 Y12.435 E5.74218
G1 X149.398 Y12.435 E.01923
G1 X149.398 Y126.853 E5.74218
G1 X149.014 Y126.853 E.01923
G1 X149.014 Y12.435 E5.74218
G1 X148.631 Y12.435 E.01923
M73 P1 R421
G1 X148.631 Y126.853 E5.74218
G1 X148.248 Y126.853 E.01923
G1 X148.248 Y12.435 E5.74218
G1 X147.865 Y12.435 E.01923
G1 X147.865 Y123.46 E5.57191
G1 X147.481 Y123.46 E.01923
G1 X147.482 Y12.435 E5.57191
G1 X147.098 Y12.435 E.01923
G1 X147.098 Y123.46 E5.57191
G1 X146.715 Y123.46 E.01923
G1 X146.715 Y12.435 E5.57191
G1 X146.332 Y12.435 E.01923
G1 X146.332 Y123.46 E5.57191
G1 X145.949 Y123.46 E.01923
G1 X145.949 Y12.435 E5.57191
G1 X145.565 Y12.435 E.01923
G1 X145.565 Y123.46 E5.57191
G1 X145.182 Y123.46 E.01923
G1 X145.182 Y12.435 E5.57191
G1 X144.799 Y12.435 E.01923
G1 X144.799 Y123.46 E5.57191
G1 X144.416 Y123.46 E.01923
G1 X144.416 Y12.435 E5.57191
G1 X144.033 Y12.435 E.01923
G1 X144.033 Y123.46 E5.57191
G1 X143.649 Y123.46 E.01923
G1 X143.649 Y12.435 E5.57191
G1 X143.266 Y12.435 E.01923
G1 X143.266 Y123.46 E5.57191
G1 X142.883 Y123.46 E.01923
G1 X142.883 Y12.435 E5.57191
G1 X142.5 Y12.435 E.01923
M73 P1 R420
G1 X142.5 Y123.46 E5.57191
G1 X142.117 Y123.46 E.01923
G1 X142.117 Y12.435 E5.57191
G1 X141.733 Y12.435 E.01923
G1 X141.733 Y123.46 E5.57191
G1 X141.357 Y123.46 E.01887
G1 X141.35 Y12.435 E5.57191
G1 X140.967 Y12.435 E.01923
G1 X140.967 Y120.067 E5.40164
G1 X140.584 Y120.067 E.01923
G1 X140.584 Y12.435 E5.40164
G1 X140.201 Y12.435 E.01923
G1 X140.201 Y120.067 E5.40164
G1 X139.817 Y120.067 E.01923
G1 X139.817 Y12.435 E5.40164
G1 X139.434 Y12.435 E.01923
G1 X139.434 Y120.067 E5.40164
G1 X139.051 Y120.067 E.01923
G1 X139.051 Y12.435 E5.40164
G1 X138.668 Y12.435 E.01923
G1 X138.668 Y120.067 E5.40164
G1 X138.284 Y120.067 E.01923
G1 X138.284 Y12.435 E5.40164
G1 X137.901 Y12.435 E.01923
G1 X137.901 Y116.675 E5.23138
G1 X137.518 Y116.675 E.01923
G1 X137.518 Y12.435 E5.23138
G1 X137.135 Y12.435 E.01923
G1 X137.135 Y116.675 E5.23138
G1 X136.752 Y116.675 E.01923
G1 X136.752 Y12.435 E5.23138
G1 X136.368 Y12.435 E.01923
M73 P1 R419
G1 X136.368 Y116.675 E5.23138
G1 X135.985 Y116.675 E.01923
G1 X135.985 Y12.435 E5.23138
G1 X135.602 Y12.435 E.01923
G1 X135.602 Y116.675 E5.23138
G1 X135.219 Y116.675 E.01923
G1 X135.219 Y12.435 E5.23138
G1 X134.836 Y12.435 E.01923
G1 X134.836 Y116.675 E5.23138
G1 X134.452 Y116.675 E.01923
G1 X134.452 Y12.435 E5.23138
G1 X134.069 Y12.435 E.01923
G1 X134.069 Y116.675 E5.23138
G1 X133.686 Y116.675 E.01923
G1 X133.686 Y12.435 E5.23138
G1 X133.303 Y12.435 E.01923
G1 X133.303 Y116.675 E5.23138
G1 X132.92 Y116.675 E.01923
G1 X132.92 Y12.435 E5.23138
G1 X132.536 Y12.435 E.01923
G1 X132.536 Y116.675 E5.23138
G1 X132.153 Y116.675 E.01923
G1 X132.153 Y12.435 E5.23138
G1 X131.77 Y12.435 E.01923
G1 X131.77 Y116.675 E5.23138
G1 X131.387 Y116.675 E.01923
G1 X131.387 Y12.435 E5.23138
G1 X131.003 Y12.435 E.01923
G1 X131.003 Y116.675 E5.23138
G1 X130.62 Y116.675 E.01923
G1 X130.62 Y12.435 E5.23138
G1 X130.237 Y12.435 E.01923
G1 X130.237 Y167.565 E7.78536
G1 X130.62 Y167.565 E.01923
M73 P1 R418
G1 X130.62 Y121.001 E2.33686
G1 X131.003 Y121.001 E.01923
G1 X131.003 Y167.565 E2.33686
G1 X131.387 Y167.565 E.01923
G1 X131.387 Y121.001 E2.33686
G1 X131.77 Y121.001 E.01923
G1 X131.77 Y167.565 E2.33686
G1 X132.153 Y167.565 E.01923
G1 X132.153 Y121.001 E2.33686
G1 X132.536 Y121.001 E.01923
G1 X132.536 Y167.565 E2.33686
G1 X132.92 Y167.565 E.01923
G1 X132.92 Y121.001 E2.33686
G1 X133.303 Y121.001 E.01923
G1 X133.303 Y167.565 E2.33686
G1 X133.686 Y167.565 E.01923
G1 X133.686 Y131.179 E1.82606
G1 X134.069 Y131.179 E.01923
G1 X134.069 Y167.565 E1.82606
G1 X134.452 Y167.565 E.01923
G1 X134.452 Y131.179 E1.82606
G1 X134.836 Y131.179 E.01923
G1 X134.836 Y167.565 E1.82606
G1 X135.219 Y167.565 E.01923
G1 X135.219 Y131.179 E1.82606
G1 X135.602 Y131.179 E.01923
G1 X135.602 Y167.565 E1.82606
G1 X135.985 Y167.565 E.01923
G1 X135.985 Y131.179 E1.82606
G1 X136.368 Y131.179 E.01923
G1 X136.368 Y167.565 E1.82606
G1 X136.752 Y167.565 E.01923
G1 X136.752 Y131.179 E1.82606
G1 X137.135 Y131.179 E.01923
G1 X137.135 Y167.565 E1.82606
G1 X137.518 Y167.565 E.01923
G1 X137.518 Y131.179 E1.82606
G1 X137.901 Y131.179 E.01923
G1 X137.901 Y167.565 E1.82606
G1 X138.284 Y167.565 E.01923
G1 X138.284 Y131.179 E1.82606
G1 X138.668 Y131.179 E.01923
G1 X138.668 Y167.565 E1.82606
G1 X139.051 Y167.565 E.01923
G1 X139.051 Y131.179 E1.82606
G1 X139.434 Y131.179 E.01923
G1 X139.434 Y167.565 E1.82606
G1 X139.817 Y167.565 E.01923
G1 X139.817 Y131.179 E1.82606
G1 X140.201 Y131.179 E.01923
G1 X140.2 Y167.565 E1.82606
G1 X140.584 Y167.565 E.01923
G1 X140.584 Y134.572 E1.6558
G1 X140.967 Y134.572 E.01923
G1 X140.967 Y167.565 E1.6558
G1 X141.35 Y167.565 E.01923
G1 X141.35 Y134.572 E1.6558
G1 X141.733 Y134.572 E.01923
G1 X141.733 Y167.565 E1.6558
G1 X142.117 Y167.565 E.01923
G1 X142.117 Y134.572 E1.6558
G1 X142.5 Y134.572 E.01923
G1 X142.5 Y167.565 E1.6558
G1 X142.883 Y167.565 E.01923
G1 X142.883 Y134.572 E1.6558
G1 X143.266 Y134.572 E.01923
G1 X143.266 Y167.565 E1.6558
G1 X143.649 Y167.565 E.01923
G1 X143.649 Y134.572 E1.6558
G1 X144.033 Y134.572 E.01923
G1 X144.033 Y167.565 E1.6558
G1 X144.416 Y167.565 E.01923
G1 X144.416 Y134.572 E1.6558
G1 X144.799 Y134.572 E.01923
G1 X144.799 Y167.565 E1.6558
G1 X145.182 Y167.565 E.01923
G1 X145.182 Y134.572 E1.6558
G1 X145.565 Y134.572 E.01923
M73 P2 R418
G1 X145.565 Y167.565 E1.6558
G1 X145.949 Y167.565 E.01923
G1 X145.949 Y134.572 E1.6558
G1 X146.332 Y134.572 E.01923
G1 X146.332 Y167.565 E1.6558
G1 X146.715 Y167.565 E.01923
G1 X146.715 Y134.572 E1.6558
G1 X147.098 Y134.572 E.01923
G1 X147.098 Y167.565 E1.6558
G1 X147.481 Y167.565 E.01923
G1 X147.481 Y134.572 E1.6558
G1 X147.865 Y134.572 E.01923
M73 P2 R417
G1 X147.865 Y167.565 E1.6558
G1 X148.248 Y167.565 E.01923
G1 X148.248 Y134.572 E1.6558
G1 X148.631 Y134.572 E.01923
G1 X148.631 Y167.565 E1.6558
G1 X149.014 Y167.565 E.01923
G1 X149.014 Y134.572 E1.6558
G1 X149.398 Y134.572 E.01923
G1 X149.398 Y167.565 E1.6558
G1 X149.781 Y167.565 E.01923
G1 X149.781 Y134.572 E1.6558
G1 X150.164 Y134.572 E.01923
G1 X150.164 Y167.565 E1.6558
G1 X150.547 Y167.565 E.01923
G1 X150.547 Y134.572 E1.6558
G1 X150.93 Y134.572 E.01923
G1 X150.93 Y167.565 E1.6558
G1 X151.314 Y167.565 E.01923
G1 X151.314 Y134.572 E1.6558
G1 X151.697 Y134.572 E.01923
G1 X151.697 Y167.565 E1.6558
G1 X152.08 Y167.565 E.01923
G1 X152.08 Y134.572 E1.6558
G1 X152.463 Y134.572 E.01923
G1 X152.463 Y167.565 E1.6558
G1 X152.846 Y167.565 E.01923
G1 X152.846 Y134.572 E1.6558
G1 X153.23 Y134.572 E.01923
G1 X153.23 Y167.565 E1.6558
G1 X153.613 Y167.565 E.01923
G1 X153.613 Y134.572 E1.6558
G1 X153.996 Y134.572 E.01923
G1 X153.996 Y167.565 E1.6558
G1 X154.379 Y167.565 E.01923
G1 X154.379 Y134.572 E1.6558
G1 X154.762 Y134.572 E.01923
G1 X154.762 Y167.72 E1.66359
G1 X129.854 Y167.72 F7800
G1 F1800
G1 X129.854 Y12.435 E7.79315
G1 X129.471 Y12.435 E.01923
G1 X129.471 Y167.565 E7.78536
G1 X129.087 Y167.565 E.01923
G1 X129.087 Y12.435 E7.78536
G1 X128.704 Y12.435 E.01923
G1 X128.704 Y167.565 E7.78536
G1 X128.321 Y167.565 E.01923
G1 X128.321 Y12.435 E7.78536
G1 X127.938 Y12.435 E.01923
G1 X127.938 Y167.565 E7.78536
G1 X127.555 Y167.565 E.01923
G1 X127.555 Y12.435 E7.78536
G1 X127.171 Y12.435 E.01923
G1 X127.171 Y167.565 E7.78536
G1 X126.788 Y167.565 E.01923
M73 P2 R416
G1 X126.788 Y12.435 E7.78536
G1 X126.405 Y12.435 E.01923
G1 X126.405 Y167.565 E7.78536
G1 X126.022 Y167.565 E.01923
G1 X126.022 Y12.435 E7.78536
G1 X125.639 Y12.435 E.01923
G1 X125.639 Y167.565 E7.78536
G1 X125.255 Y167.565 E.01923
G1 X125.255 Y12.435 E7.78536
G1 X124.872 Y12.435 E.01923
G1 X124.872 Y167.565 E7.78536
G1 X124.489 Y167.565 E.01923
G1 X124.489 Y12.435 E7.78536
G1 X124.106 Y12.435 E.01923
G1 X124.106 Y167.565 E7.78536
G1 X123.722 Y167.565 E.01923
G1 X123.722 Y12.435 E7.78536
G1 X123.339 Y12.435 E.01923
G1 X123.339 Y167.565 E7.78536
G1 X122.956 Y167.565 E.01923
G1 X122.956 Y12.435 E7.78536
G1 X122.573 Y12.435 E.01923
M73 P2 R415
G1 X122.573 Y167.565 E7.78536
G1 X122.19 Y167.565 E.01923
G1 X122.19 Y12.435 E7.78536
G1 X121.806 Y12.435 E.01923
G1 X121.806 Y167.565 E7.78536
G1 X121.423 Y167.565 E.01923
G1 X121.423 Y12.435 E7.78536
G1 X121.04 Y12.435 E.01923
G1 X121.04 Y167.565 E7.78536
G1 X120.657 Y167.565 E.01923
G1 X120.657 Y12.435 E7.78536
G1 X120.274 Y12.435 E.01923
G1 X120.274 Y167.565 E7.78536
G1 X119.89 Y167.565 E.01923
G1 X119.89 Y12.435 E7.78536
G1 X119.507 Y12.435 E.01923
G1 X119.507 Y167.565 E7.78536
G1 X119.124 Y167.565 E.01923
G1 X119.124 Y12.435 E7.78536
G1 X118.741 Y12.435 E.01923
G1 X118.741 Y167.565 E7.78536
G1 X118.358 Y167.565 E.01923
G1 X118.358 Y12.435 E7.78536
G1 X117.974 Y12.435 E.01923
M73 P2 R414
G1 X117.974 Y167.565 E7.78536
G1 X117.591 Y167.565 E.01923
G1 X117.591 Y12.435 E7.78536
G1 X117.208 Y12.435 E.01923
G1 X117.208 Y167.565 E7.78536
G1 X116.825 Y167.565 E.01923
G1 X116.825 Y12.435 E7.78536
G1 X116.441 Y12.435 E.01923
G1 X116.441 Y167.565 E7.78536
G1 X116.058 Y167.565 E.01923
G1 X116.058 Y12.435 E7.78536
G1 X115.675 Y12.435 E.01923
G1 X115.675 Y167.565 E7.78536
G1 X115.292 Y167.565 E.01923
G1 X115.292 Y12.435 E7.78536
G1 X114.909 Y12.435 E.01923
G1 X114.909 Y167.565 E7.78536
G1 X114.525 Y167.565 E.01923
G1 X114.525 Y12.435 E7.78536
G1 X114.142 Y12.435 E.01923
G1 X114.142 Y167.565 E7.78536
G1 X113.759 Y167.565 E.01923
M73 P2 R413
G1 X113.759 Y12.435 E7.78536
G1 X113.376 Y12.435 E.01923
G1 X113.376 Y167.565 E7.78536
G1 X112.993 Y167.565 E.01923
M73 P3 R413
G1 X112.993 Y12.435 E7.78536
G1 X112.609 Y12.435 E.01923
G1 X112.609 Y167.565 E7.78536
G1 X112.226 Y167.565 E.01923
G1 X112.226 Y12.435 E7.78536
G1 X111.843 Y12.435 E.01923
G1 X111.843 Y167.565 E7.78536
G1 X111.46 Y167.565 E.01923
G1 X111.46 Y12.435 E7.78536
G1 X111.077 Y12.435 E.01923
G1 X111.077 Y167.565 E7.78536
G1 X110.693 Y167.565 E.01923
G1 X110.693 Y12.435 E7.78536
G1 X110.31 Y12.435 E.01923
G1 X110.31 Y167.565 E7.78536
G1 X109.927 Y167.565 E.01923
G1 X109.927 Y12.435 E7.78536
G1 X109.544 Y12.435 E.01923
G1 X109.544 Y167.565 E7.78536
M73 P3 R412
G1 X109.16 Y167.565 E.01923
G1 X109.161 Y12.435 E7.78536
G1 X108.777 Y12.435 E.01923
G1 X108.777 Y167.565 E7.78536
G1 X108.394 Y167.565 E.01923
G1 X108.394 Y12.435 E7.78536
G1 X108.011 Y12.435 E.01923
G1 X108.011 Y167.565 E7.78536
G1 X107.628 Y167.565 E.01923
G1 X107.628 Y12.435 E7.78536
G1 X107.244 Y12.435 E.01923
G1 X107.244 Y167.565 E7.78536
G1 X106.861 Y167.565 E.01923
G1 X106.861 Y12.435 E7.78536
G1 X106.478 Y12.435 E.01923
G1 X106.478 Y167.565 E7.78536
G1 X106.095 Y167.565 E.01923
