; generated by PrusaSlicer 2.5.0+win64 on 2022-12-07 at 00:33:56 UTC

; 

; external perimeters extrusion width = 1.00mm
; perimeters extrusion width = 1.00mm
; infill extrusion width = 1.00mm
; solid infill extrusion width = 1.00mm
; top infill extrusion width = 1.00mm
; support material extrusion width = 1.00mm
; first layer extrusion width = 0.42mm

M73 P0 R349
M107
;TYPE:Custom
G90 ; use absolute coordinates
M83 ; extruder relative mode
M140 S60 ; set final bed temp
M104 S150 ; set temporary nozzle temp to prevent oozing during homing and auto bed leveling
G4 S10 ; allow partial nozzle warmup
G28 ; home all axisG1 Z50 F240
G1 X7.6 Y10 F3000
M104 S210 ; set final nozzle temp
M190 S60 ; wait for bed temp to stabilize
M109 S210 ; wait for nozzle temp to stabilize
G1 Z0.28 F240
G92 E0
G1 Y140 E10 F1500 ; prime the nozzle
G1 X4 F5000
G92 E0
G1 Y10 E10 F1200 ; prime the nozzle
G92 E0
G21 ; set units to millimeters
G90 ; use absolute coordinates
M83 ; use relative distances for extrusion
; Filament gcode
M107
;LAYER_CHANGE
;Z:0.35
;HEIGHT:0.35
;BEFORE_LAYER_CHANGE
G92 E0
;0.35


G1 E-1 F3600
G1 Z.35 F7800
;AFTER_LAYER_CHANGE
;0.35
G1 X15.46 Y14.959
G1 E1 F2400
;TYPE:Support material interface
;WIDTH:1
G1 F1800
G1 X15.46 Y154.461 E18.77472
G1 X16.016 Y154.461 E.07487
G1 X16.027 Y140.997 E1.81209
G1 X16.042 Y139.659 E.1801
G1 X16.352 Y139.623 E.04208
G1 X16.352 Y15.361 E16.72361
G1 X17.245 Y15.361 E.12014
G1 X17.245 Y139.519 E16.70962
G1 X18.138 Y139.415 E.12095
G1 X18.138 Y15.361 E16.69564
G1 X19.03 Y15.361 E.12014
G1 X19.03 Y141.115 E16.92452
G1 X19.923 Y144.104 E.41973
G1 X19.923 Y15.361 E17.32669
G1 X20.816 Y15.361 E.12014
G1 X20.816 Y147.092 E17.72887
G1 X21.708 Y150.08 E.41973
G1 X21.708 Y15.361 E18.13104
G1 X22.146 Y15.361 E.05889
G1 X22.146 Y130.712 E15.52444
G1 X22.601 Y130.712 E.06125
G1 X22.601 Y153.069 E3.00877
G1 X23.494 Y156.057 E.41973
G1 X23.494 Y130.712 E3.41094
G1 X24.387 Y130.712 E.12014
G1 X24.387 Y160.452 E4.00241
G1 E-.7 F3600
;WIPE_START
G1 F6240
G1 X24.387 Y159.932 E-.285
;WIPE_END
G1 E-.015 F3600
G1 X19.03 Y163.92 F7800
G1 E1 F2400
G1 F1800
G1 X19.03 Y164.639 E.09684
G1 X19.923 Y164.639 E.12014
G1 X19.923 Y164.322 E.04277
G1 X20.816 Y164.322 E.12014
G1 X20.816 Y164.639 E.04277
G1 X21.708 Y164.639 E.12014
G1 X21.708 Y164.322 E.04277
G1 X22.601 Y164.322 E.12014
G1 X22.601 Y164.639 E.04277
G1 X23.494 Y164.639 E.12014
G1 X23.494 Y164.322 E.04277
G1 X24.387 Y164.322 E.12014
G1 X24.387 Y164.639 E.04277
G1 X25.279 Y164.639 E.12014
G1 X25.279 Y130.712 E4.56602
G1 X25.539 Y130.712 E.03492
G1 X25.539 Y140.89 E1.3698
G1 X26.172 Y140.89 E.08522
G1 X26.172 Y164.639 E3.19621
G1 X27.065 Y164.639 E.12014
G1 X27.065 Y140.89 E3.19621
G1 X27.957 Y140.89 E.12014
M73 P0 R348
G1 X27.957 Y164.639 E3.19621
G1 X28.85 Y164.639 E.12014
G1 X28.85 Y140.89 E3.19621
G1 X28.931 Y140.89 E.01095
G1 X28.931 Y151.069 E1.3698
G1 X29.743 Y151.069 E.10919
G1 X29.743 Y164.639 E1.82641
G1 X30.635 Y164.639 E.12014
G1 X30.635 Y151.069 E1.82641
G1 X31.528 Y151.069 E.12014
G1 X31.528 Y165.041 E1.88047
G1 E-.7 F3600
;WIPE_START
G1 F6240
G1 X31.528 Y164.521 E-.285
;WIPE_END
G1 E-.015 F3600
G1 X14.704 Y155.118 F7800
G1 E1 F2400
;TYPE:Support material
;WIDTH:0.42
G1 F1800
G1 X16.672 Y155.118 E.09877
G1 X16.672 Y152.118 E.15056
G1 X19.252 Y152.118 E.12947
G1 X19.252 Y160.474 E.41936
G1 X18.117 Y160.639 E.05758
G1 X17.467 Y158.46 E.11411
G1 X16.252 Y158.638 E.06162
G1 X16.252 Y161.09 E.12308
G1 X12.124 Y161.09 E.20716
G1 X12.124 Y152.118 E.45029
G1 X14.704 Y152.118 E.12947
G1 X14.704 Y155.066 E.14796
G1 X18.723 Y160.394 F7800
G1 F1800
G1 X18.723 Y152.428 E.39978
G1 X18.34 Y152.428 E.01923
G1 X18.34 Y160.293 E.39472
G1 X17.957 Y159.015 E.06696
G1 X17.957 Y152.428 E.33057
G1 X17.573 Y152.428 E.01923
G1 X17.573 Y158.131 E.28622
G1 X17.19 Y158.187 E.01944
G1 X17.19 Y152.428 E.28902
G1 X16.983 Y152.428 E.01041
G1 X16.983 Y155.428 E.15056
G1 X16.807 Y155.428 E.00883
G1 X16.807 Y158.243 E.14127
G1 X16.424 Y158.299 E.01944
G1 X16.424 Y155.428 E.14408
G1 X16.04 Y155.428 E.01923
G1 X16.04 Y158.355 E.14688
G1 X15.942 Y158.369 E.005
G1 X15.942 Y160.78 E.12097
G1 X15.657 Y160.78 E.01428
G1 X15.657 Y155.428 E.26858
G1 X15.274 Y155.428 E.01923
G1 X15.274 Y160.78 E.26858
G1 X14.891 Y160.78 E.01923
G1 X14.891 Y155.428 E.26858
G1 X14.508 Y155.428 E.01923
G1 X14.508 Y160.78 E.26858
G1 X14.124 Y160.78 E.01923
G1 X14.124 Y152.428 E.41914
G1 X13.741 Y152.428 E.01923
G1 X13.741 Y160.78 E.41914
G1 X13.358 Y160.78 E.01923
G1 X13.358 Y152.428 E.41914
G1 X12.975 Y152.428 E.01923
G1 X12.975 Y160.78 E.41914
G1 X12.592 Y160.78 E.01923
G1 X12.592 Y152.273 E.42693
G1 E-.7 F3600
;WIPE_START
G1 F6240
G1 X12.592 Y152.793 E-.285
;WIPE_END
G1 E-.015 F3600
G1 X167.876 Y167.876 F7800
G1 E1 F2400
G1 F1800
G1 X66.408 Y167.876 E5.09227
G1 X66.408 Y151.225 E.83563
G1 X69.8 Y151.225 E.17027
G1 X69.8 Y147.519 E.18597
G1 X66.095 Y147.519 E.18597
G1 X66.095 Y150.912 E.17027
G1 X62.702 Y150.912 E.17027
G1 X62.702 Y154.305 E.17027
G1 X59.309 Y154.305 E.17027
G1 X59.309 Y157.698 E.17027
G1 X52.524 Y157.698 E.34053
G1 X52.524 Y161.09 E.17027
G1 X49.131 Y161.09 E.17027
G1 X49.131 Y164.483 E.17027
G1 X45.738 Y164.483 E.17027
G1 X45.738 Y167.876 E.17027
G1 X29.981 Y167.876 E.79082
G1 X29.981 Y165.296 E.12947
G1 X32.981 Y165.296 E.15056
G1 X32.981 Y150.412 E.74695
G1 X29.588 Y150.412 E.17027
G1 X29.588 Y140.234 E.5108
G1 X26.195 Y140.234 E.17027
G1 X26.195 Y130.056 E.5108
G1 X22.802 Y130.056 E.17027
G1 X22.802 Y14.704 E5.78903
G1 X19.802 Y14.704 E.15056
G1 X19.802 Y12.124 E.12947
G1 X167.876 Y12.124 E7.43119
G1 X167.876 Y167.824 E7.81392
G1 E-.7 F3600
;WIPE_START
G1 F6240
G1 X167.876 Y167.304 E-.285
;WIPE_END
G1 E-.015 F3600
G1 X100.022 Y120.378 F7800
G1 E1 F2400
G1 F1800
G1 X100.022 Y123.771 E.17027
G1 X96.629 Y123.771 E.17027
G1 X96.629 Y127.163 E.17027
G1 X93.236 Y127.163 E.17027
G1 X93.236 Y130.556 E.17027
G1 X86.451 Y130.556 E.34053
G1 X86.451 Y134.262 E.18597
G1 X89.844 Y134.262 E.17027
G1 X89.844 Y141.047 E.34053
G1 X93.236 Y141.047 E.17027
G1 X93.236 Y147.832 E.34053
G1 X96.629 Y147.832 E.17027
G1 X96.629 Y154.618 E.34053
G1 X154.618 Y154.618 E2.91022
G1 X154.618 Y133.949 E1.0373
G1 X144.44 Y133.949 E.5108
G1 X144.44 Y130.556 E.17027
G1 X134.262 Y130.556 E.5108
G1 X134.262 Y127.163 E.17027
G1 X120.691 Y127.163 E.68106
G1 X120.691 Y123.771 E.17027
G1 X110.513 Y123.771 E.5108
G1 X110.513 Y120.378 E.17027
G1 X100.073 Y120.378 E.5239
G1 E-.7 F3600
;WIPE_START
G1 F6240
G1 X100.593 Y120.378 E-.285
;WIPE_END
G1 E-.015 F3600
G1 X167.408 Y167.72 F7800
G1 E1 F2400
G1 F1800
G1 X167.408 Y12.435 E7.79315
G1 X167.025 Y12.435 E.01923
G1 X167.025 Y167.565 E7.78536
G1 X166.642 Y167.565 E.01923
G1 X166.642 Y12.435 E7.78536
G1 X166.259 Y12.435 E.01923
M73 P0 R347
G1 X166.259 Y167.565 E7.78536
G1 X165.876 Y167.565 E.01923
G1 X165.876 Y12.435 E7.78536
G1 X165.492 Y12.435 E.01923
G1 X165.492 Y167.565 E7.78536
G1 X165.109 Y167.565 E.01923
G1 X165.109 Y12.435 E7.78536
G1 X164.726 Y12.435 E.01923
G1 X164.726 Y167.565 E7.78536
G1 X164.343 Y167.565 E.01923
G1 X164.343 Y12.435 E7.78536
G1 X163.96 Y12.435 E.01923
G1 X163.96 Y167.565 E7.78536
G1 X163.576 Y167.565 E.01923
G1 X163.576 Y12.435 E7.78536
G1 X163.193 Y12.435 E.01923
G1 X163.193 Y167.565 E7.78536
G1 X162.81 Y167.565 E.01923
G1 X162.81 Y12.435 E7.78536
G1 X162.427 Y12.435 E.01923
G1 X162.427 Y167.565 E7.78536
G1 X162.043 Y167.565 E.01923
G1 X162.043 Y12.435 E7.78536
G1 X161.66 Y12.435 E.01923
M73 P0 R346
G1 X161.66 Y167.565 E7.78536
G1 X161.277 Y167.565 E.01923
G1 X161.277 Y12.435 E7.78536
G1 X160.894 Y12.435 E.01923
G1 X160.894 Y167.565 E7.78536
G1 X160.511 Y167.565 E.01923
G1 X160.511 Y12.435 E7.78536
G1 X160.127 Y12.435 E.01923
G1 X160.127 Y167.565 E7.78536
G1 X159.744 Y167.565 E.01923
G1 X159.744 Y12.435 E7.78536
G1 X159.361 Y12.435 E.01923
M73 P1 R346
G1 X159.361 Y167.565 E7.78536
G1 X158.978 Y167.565 E.01923
G1 X158.978 Y12.435 E7.78536
G1 X158.595 Y12.435 E.01923
G1 X158.595 Y167.565 E7.78536
G1 X158.211 Y167.565 E.01923
G1 X158.211 Y12.435 E7.78536
G1 X157.828 Y12.435 E.01923
G1 X157.828 Y167.565 E7.78536
G1 X157.445 Y167.565 E.01923
M73 P1 R345
G1 X157.445 Y12.435 E7.78536
G1 X157.062 Y12.435 E.01923
G1 X157.062 Y167.565 E7.78536
G1 X156.679 Y167.565 E.01923
G1 X156.679 Y12.435 E7.78536
G1 X156.295 Y12.435 E.01923
G1 X156.295 Y167.565 E7.78536
G1 X155.912 Y167.565 E.01923
G1 X155.912 Y12.435 E7.78536
G1 X155.529 Y12.435 E.01923
G1 X155.529 Y167.565 E7.78536
G1 X155.146 Y167.565 E.01923
G1 X155.146 Y12.435 E7.78536
G1 X154.762 Y12.435 E.01923
G1 X154.762 Y133.638 E6.08271
G1 X154.379 Y133.638 E.01923
G1 X154.379 Y12.435 E6.08271
G1 X153.996 Y12.435 E.01923
G1 X153.996 Y133.638 E6.08271
G1 X153.613 Y133.638 E.01923
G1 X153.613 Y12.435 E6.08271
G1 X153.23 Y12.435 E.01923
G1 X153.23 Y133.638 E6.08271
G1 X152.846 Y133.638 E.01923
G1 X152.846 Y12.435 E6.08271
G1 X152.463 Y12.435 E.01923
M73 P1 R344
G1 X152.463 Y133.638 E6.08271
G1 X152.08 Y133.638 E.01923
G1 X152.08 Y12.435 E6.08271
G1 X151.697 Y12.435 E.01923
G1 X151.697 Y133.638 E6.08271
G1 X151.314 Y133.638 E.01923
G1 X151.314 Y12.435 E6.08271
G1 X150.93 Y12.435 E.01923
G1 X150.93 Y133.638 E6.08271
G1 X150.547 Y133.638 E.01923
G1 X150.547 Y12.435 E6.08271
G1 X150.164 Y12.435 E.01923
G1 X150.164 Y133.638 E6.08271
G1 X149.781 Y133.638 E.01923
G1 X149.781 Y12.435 E6.08271
G1 X149.398 Y12.435 E.01923
G1 X149.398 Y133.638 E6.08271
G1 X149.014 Y133.638 E.01923
G1 X149.014 Y12.435 E6.08271
G1 X148.631 Y12.435 E.01923
G1 X148.631 Y133.638 E6.08271
G1 X148.248 Y133.638 E.01923
G1 X148.248 Y12.435 E6.08271
G1 X147.865 Y12.435 E.01923
G1 X147.865 Y133.638 E6.08271
G1 X147.481 Y133.638 E.01923
G1 X147.482 Y12.435 E6.08271
G1 X147.098 Y12.435 E.01923
M73 P1 R343
G1 X147.098 Y133.638 E6.08271
G1 X146.715 Y133.638 E.01923
G1 X146.715 Y12.435 E6.08271
G1 X146.332 Y12.435 E.01923
G1 X146.332 Y133.638 E6.08271
G1 X145.949 Y133.638 E.01923
G1 X145.949 Y12.435 E6.08271
G1 X145.565 Y12.435 E.01923
G1 X145.565 Y133.638 E6.08271
G1 X145.182 Y133.638 E.01923
G1 X145.182 Y12.435 E6.08271
G1 X144.799 Y12.435 E.01923
G1 X144.799 Y133.638 E6.08271
G1 X144.75 Y133.638 E.00246
G1 X144.75 Y130.246 E.17027
G1 X144.416 Y130.246 E.01677
G1 X144.416 Y12.435 E5.91244
G1 X144.033 Y12.435 E.01923
G1 X144.033 Y130.246 E5.91244
G1 X143.649 Y130.246 E.01923
G1 X143.649 Y12.435 E5.91244
G1 X143.266 Y12.435 E.01923
G1 X143.266 Y130.246 E5.91244
G1 X142.883 Y130.246 E.01923
G1 X142.883 Y12.435 E5.91244
G1 X142.5 Y12.435 E.01923
G1 X142.5 Y130.246 E5.91244
G1 X142.117 Y130.246 E.01923
G1 X142.117 Y12.435 E5.91244
G1 X141.733 Y12.435 E.01923
G1 X141.733 Y130.246 E5.91244
G1 X141.35 Y130.246 E.01923
M73 P2 R342
G1 X141.35 Y12.435 E5.91244
G1 X140.967 Y12.435 E.01923
G1 X140.967 Y130.246 E5.91244
G1 X140.584 Y130.246 E.01923
G1 X140.584 Y12.435 E5.91244
G1 X140.201 Y12.435 E.01923
G1 X140.201 Y130.246 E5.91244
G1 X139.817 Y130.246 E.01923
G1 X139.817 Y12.435 E5.91244
G1 X139.434 Y12.435 E.01923
G1 X139.434 Y130.246 E5.91244
G1 X139.051 Y130.246 E.01923
G1 X139.051 Y12.435 E5.91244
G1 X138.668 Y12.435 E.01923
G1 X138.668 Y130.246 E5.91244
G1 X138.284 Y130.246 E.01923
G1 X138.284 Y12.435 E5.91244
G1 X137.901 Y12.435 E.01923
G1 X137.901 Y130.246 E5.91244
G1 X137.518 Y130.246 E.01923
G1 X137.518 Y12.435 E5.91244
G1 X137.135 Y12.435 E.01923
G1 X137.135 Y130.246 E5.91244
G1 X136.752 Y130.246 E.01923
G1 X136.752 Y12.435 E5.91244
G1 X136.368 Y12.435 E.01923
G1 X136.368 Y130.246 E5.91244
G1 X135.985 Y130.246 E.01923
G1 X135.985 Y12.435 E5.91244
G1 X135.602 Y12.435 E.01923
M73 P2 R341
G1 X135.602 Y130.246 E5.91244
G1 X135.219 Y130.246 E.01923
G1 X135.219 Y12.435 E5.91244
G1 X134.836 Y12.435 E.01923
G1 X134.836 Y130.246 E5.91244
G1 X134.572 Y130.246 E.01323
G1 X134.572 Y126.853 E.17027
G1 X134.452 Y126.853 E.006
G1 X134.452 Y12.435 E5.74218
G1 X134.069 Y12.435 E.01923
G1 X134.069 Y126.853 E5.74218
G1 X133.686 Y126.853 E.01923
G1 X133.686 Y12.435 E5.74218
G1 X133.303 Y12.435 E.01923
G1 X133.303 Y126.853 E5.74218
G1 X132.92 Y126.853 E.01923
G1 X132.92 Y12.435 E5.74218
G1 X132.536 Y12.435 E.01923
G1 X132.536 Y126.853 E5.74218
G1 X132.153 Y126.853 E.01923
G1 X132.153 Y12.435 E5.74218
G1 X131.77 Y12.435 E.01923
G1 X131.77 Y126.853 E5.74218
G1 X131.387 Y126.853 E.01923
G1 X131.387 Y12.435 E5.74218
G1 X131.003 Y12.435 E.01923
G1 X131.003 Y126.853 E5.74218
G1 X130.62 Y126.853 E.01923
G1 X130.62 Y12.435 E5.74218
G1 X130.237 Y12.435 E.01923
G1 X130.237 Y126.853 E5.74218
G1 X129.854 Y126.853 E.01923
G1 X129.854 Y12.435 E5.74218
G1 X129.471 Y12.435 E.01923
M73 P2 R340
G1 X129.471 Y126.853 E5.74218
G1 X129.087 Y126.853 E.01923
G1 X129.087 Y12.435 E5.74218
G1 X128.704 Y12.435 E.01923
G1 X128.704 Y126.853 E5.74218
G1 X128.321 Y126.853 E.01923
G1 X128.321 Y12.435 E5.74218
G1 X127.938 Y12.435 E.01923
G1 X127.938 Y126.853 E5.74218
G1 X127.555 Y126.853 E.01923
G1 X127.555 Y12.435 E5.74218
G1 X127.171 Y12.435 E.01923
G1 X127.171 Y126.853 E5.74218
G1 X126.788 Y126.853 E.01923
G1 X126.788 Y12.435 E5.74218
G1 X126.405 Y12.435 E.01923
G1 X126.405 Y126.853 E5.74218
G1 X126.022 Y126.853 E.01923
G1 X126.022 Y12.435 E5.74218
G1 X125.639 Y12.435 E.01923
G1 X125.639 Y126.853 E5.74218
G1 X125.255 Y126.853 E.01923
G1 X125.255 Y12.435 E5.74218
G1 X124.872 Y12.435 E.01923
G1 X124.872 Y126.853 E5.74218
G1 X124.489 Y126.853 E.01923
G1 X124.489 Y12.435 E5.74218
G1 X124.106 Y12.435 E.01923
G1 X124.106 Y126.853 E5.74218
G1 X123.722 Y126.853 E.01923
M73 P2 R339
G1 X123.722 Y12.435 E5.74218
G1 X123.339 Y12.435 E.01923
G1 X123.339 Y126.853 E5.74218
G1 X122.956 Y126.853 E.01923
G1 X122.956 Y12.435 E5.74218
G1 X122.573 Y12.435 E.01923
G1 X122.573 Y126.853 E5.74218
G1 X122.19 Y126.853 E.01923
G1 X122.19 Y12.435 E5.74218
G1 X121.806 Y12.435 E.01923
G1 X121.806 Y126.853 E5.74218
G1 X121.423 Y126.853 E.01923
G1 X121.423 Y12.435 E5.74218
G1 X121.04 Y12.435 E.01923
G1 X121.04 Y126.853 E5.74218
G1 X121.001 Y126.853 E.00195
M73 P3 R339
G1 X121.001 Y123.46 E.17027
G1 X120.657 Y123.46 E.01728
G1 X120.657 Y12.435 E5.57191
G1 X120.274 Y12.435 E.01923
G1 X120.274 Y123.46 E5.57191
G1 X119.89 Y123.46 E.01923
G1 X119.89 Y12.435 E5.57191
G1 X119.507 Y12.435 E.01923
G1 X119.507 Y123.46 E5.57191
G1 X119.124 Y123.46 E.01923
G1 X119.124 Y12.435 E5.57191
G1 X118.741 Y12.435 E.01923
G1 X118.741 Y123.46 E5.57191
G1 X118.358 Y123.46 E.01923
G1 X118.358 Y12.435 E5.57191
G1 X117.974 Y12.435 E.01923
G1 X117.974 Y123.46 E5.57191
G1 X117.591 Y123.46 E.01923
M73 P3 R338
G1 X117.591 Y12.435 E5.57191
G1 X117.208 Y12.435 E.01923
G1 X117.208 Y123.46 E5.57191
G1 X116.825 Y123.46 E.01923
G1 X116.825 Y12.435 E5.57191
G1 X116.441 Y12.435 E.01923
G1 X116.441 Y123.46 E5.57191
G1 X116.058 Y123.46 E.01923
G1 X116.058 Y12.435 E5.57191
G1 X115.675 Y12.435 E.01923
G1 X115.675 Y123.46 E5.57191
G1 X115.292 Y123.46 E.01923
G1 X115.292 Y12.435 E5.57191
G1 X114.909 Y12.435 E.01923
G1 X114.909 Y123.46 E5.57191
G1 X114.525 Y123.46 E.01923
G1 X114.525 Y12.435 E5.57191
G1 X114.142 Y12.435 E.01923
G1 X114.142 Y123.46 E5.57191
G1 X113.759 Y123.46 E.01923
G1 X113.759 Y12.435 E5.57191
G1 X113.376 Y12.435 E.01923
G1 X113.376 Y123.46 E5.57191
G1 X112.993 Y123.46 E.01923
G1 X112.993 Y12.435 E5.57191
G1 X112.609 Y12.435 E.01923
G1 X112.609 Y123.46 E5.57191
G1 X112.226 Y123.46 E.01923
G1 X112.226 Y12.435 E5.57191
G1 X111.843 Y12.435 E.01923
G1 X111.843 Y123.46 E5.57191
G1 X111.46 Y123.46 E.01923
M73 P3 R337
G1 X111.46 Y12.435 E5.57191
G1 X111.077 Y12.435 E.01923
G1 X111.077 Y123.46 E5.57191
G1 X110.823 Y123.46 E.01272
G1 X110.823 Y120.067 E.17027
G1 X110.693 Y120.067 E.00651
G1 X110.693 Y12.435 E5.40164
G1 X110.31 Y12.435 E.01923
G1 X110.31 Y120.067 E5.40164
G1 X109.927 Y120.067 E.01923
G1 X109.927 Y12.435 E5.40164
G1 X109.544 Y12.435 E.01923
G1 X109.544 Y120.067 E5.40164
G1 X109.16 Y120.067 E.01923
G1 X109.161 Y12.435 E5.40164
G1 X108.777 Y12.435 E.01923
G1 X108.777 Y120.067 E5.40164
G1 X108.394 Y120.067 E.01923
G1 X108.394 Y12.435 E5.40164
G1 X108.011 Y12.435 E.01923
G1 X108.011 Y120.067 E5.40164
G1 X107.628 Y120.067 E.01923
G1 X107.628 Y12.435 E5.40164
G1 X107.244 Y12.435 E.01923
G1 X107.244 Y120.067 E5.40164
G1 X106.861 Y120.067 E.01923
