; generated by PrusaSlicer 2.5.0+win64 on 2022-12-07 at 00:08:17 UTC

; 

; external perimeters extrusion width = 1.00mm
; perimeters extrusion width = 1.00mm
; infill extrusion width = 1.00mm
; solid infill extrusion width = 1.00mm
; top infill extrusion width = 1.00mm
; support material extrusion width = 1.00mm
; first layer extrusion width = 0.42mm

M73 P0 R171
M107
;TYPE:Custom
G90 ; use absolute coordinates
M83 ; extruder relative mode
M140 S60 ; set final bed temp
M104 S150 ; set temporary nozzle temp to prevent oozing during homing and auto bed leveling
G4 S10 ; allow partial nozzle warmup
G28 ; home all axisG1 Z50 F240
G1 X7.6 Y10 F3000
M104 S210 ; set final nozzle temp
M190 S60 ; wait for bed temp to stabilize
M109 S210 ; wait for nozzle temp to stabilize
G1 Z0.28 F240
G92 E0
G1 Y140 E10 F1500 ; prime the nozzle
G1 X4 F5000
G92 E0
G1 Y10 E10 F1200 ; prime the nozzle
G92 E0
G21 ; set units to millimeters
G90 ; use absolute coordinates
M83 ; use relative distances for extrusion
; Filament gcode
M107
;LAYER_CHANGE
;Z:0.35
;HEIGHT:0.35
;BEFORE_LAYER_CHANGE
G92 E0
;0.35


G1 E-1 F3600
M73 P0 R170
G1 Z.35 F7800
;AFTER_LAYER_CHANGE
;0.35
G1 X62.851 Y162.82
G1 E1 F2400
;TYPE:Perimeter
;WIDTH:0.42
G1 F1800
G1 X86.796 Y86.607 E4.00915
G1 X109.375 Y17.18 E3.6639
G1 X123.186 Y17.18 E.6931
G1 X100.704 Y86.301 E3.64779
G1 X76.669 Y162.82 E4.02514
G1 X63.001 Y162.82 E.68597
G1 X62.381 Y163.165 F7800
;TYPE:External perimeter
G1 F1800
G1 X86.467 Y86.502 E4.03282
G1 X109.124 Y16.835 E3.67656
G1 X123.66 Y16.835 E.7295
G1 X101.032 Y86.408 E3.67162
G1 X76.922 Y163.165 E4.03767
G1 X62.531 Y163.165 E.72226
G1 X62.732 Y162.229 F7800
G1 E-.7 F3600
;WIPE_START
G1 F6240
G1 X62.686 Y162.669 E-.285
;WIPE_END
G1 E-.015 F3600
G1 X122.352 Y17.283 F7800
G1 E1 F2400
;TYPE:Solid infill
;WIDTH:0.420378
G1 F1800
G1 X122.75 Y17.682 E.02832
G1 X122.63 Y18.05 E.01947
G1 X122.018 Y17.439 E.04348
G1 X121.53 Y17.439 E.02453
G1 X122.511 Y18.419 E.06965
G1 X122.391 Y18.787 E.01947
G1 X121.042 Y17.439 E.09583
G1 X120.554 Y17.439 E.02453
G1 X122.271 Y19.156 E.12201
G1 X122.151 Y19.524 E.01947
G1 X120.065 Y17.439 E.14819
G1 X119.577 Y17.439 E.02453
G1 X122.031 Y19.893 E.17437
G1 X121.911 Y20.261 E.01947
G1 X119.089 Y17.439 E.20055
G1 X118.601 Y17.439 E.02453
G1 X121.792 Y20.63 E.22673
G1 X121.672 Y20.998 E.01947
G1 X118.112 Y17.439 E.2529
G1 X117.624 Y17.439 E.02453
G1 X121.552 Y21.366 E.27908
G1 X121.432 Y21.735 E.01947
G1 X117.136 Y17.439 E.30526
G1 X116.647 Y17.439 E.02453
G1 X121.312 Y22.103 E.33144
G1 X121.192 Y22.472 E.01947
G1 X116.159 Y17.439 E.35762
G1 X115.671 Y17.439 E.02453
G1 X121.073 Y22.84 E.3838
G1 X120.953 Y23.209 E.01947
G1 X115.183 Y17.439 E.40998
G1 X114.694 Y17.439 E.02453
G1 X120.833 Y23.577 E.43615
G1 X120.713 Y23.946 E.01947
G1 X114.206 Y17.439 E.46233
G1 X113.718 Y17.439 E.02453
G1 X120.593 Y24.314 E.48851
G1 X120.473 Y24.682 E.01947
G1 X113.229 Y17.439 E.51469
G1 X112.741 Y17.439 E.02453
G1 X120.354 Y25.051 E.54087
G1 X120.234 Y25.419 E.01947
G1 X112.253 Y17.439 E.56705
G1 X111.765 Y17.439 E.02453
G1 X120.114 Y25.788 E.59323
G1 X119.994 Y26.156 E.01947
G1 X111.276 Y17.439 E.61941
G1 X110.788 Y17.439 E.02453
G1 X119.874 Y26.525 E.64558
G1 X119.754 Y26.893 E.01947
G1 X110.3 Y17.439 E.67176
G1 X109.811 Y17.439 E.02453
G1 X119.635 Y27.262 E.69794
G1 X119.515 Y27.63 E.01947
G1 X109.504 Y17.619 E.71128
G1 X109.384 Y17.988 E.01947
G1 X119.395 Y27.998 E.71128
G1 X119.275 Y28.367 E.01947
G1 X109.264 Y18.356 E.71128
G1 X109.144 Y18.725 E.01947
G1 X119.155 Y28.735 E.71128
G1 X119.035 Y29.104 E.01947
G1 X109.025 Y19.093 E.71128
G1 X108.905 Y19.462 E.01947
G1 X118.916 Y29.472 E.71128
G1 X118.796 Y29.841 E.01947
G1 X108.785 Y19.83 E.71127
G1 X108.665 Y20.198 E.01947
G1 X118.676 Y30.209 E.71127
G1 X118.556 Y30.578 E.01947
G1 X108.545 Y20.567 E.71127
G1 X108.425 Y20.935 E.01947
G1 X118.436 Y30.946 E.71127
G1 X118.316 Y31.315 E.01947
G1 X108.306 Y21.304 E.71127
G1 X108.186 Y21.672 E.01947
G1 X118.197 Y31.683 E.71127
G1 X118.077 Y32.051 E.01947
G1 X108.066 Y22.041 E.71127
G1 X107.946 Y22.409 E.01947
G1 X117.957 Y32.42 E.71127
G1 X117.837 Y32.788 E.01947
G1 X107.826 Y22.778 E.71127
G1 X107.707 Y23.146 E.01947
G1 X117.717 Y33.157 E.71127
G1 X117.597 Y33.525 E.01947
G1 X107.587 Y23.515 E.71127
G1 X107.467 Y23.883 E.01947
G1 X117.477 Y33.894 E.71127
G1 X117.358 Y34.262 E.01947
G1 X107.347 Y24.251 E.71127
G1 X107.227 Y24.62 E.01947
G1 X117.238 Y34.631 E.71127
G1 X117.118 Y34.999 E.01947
G1 X107.107 Y24.988 E.71127
G1 X106.988 Y25.357 E.01947
G1 X116.998 Y35.367 E.71127
G1 X116.878 Y35.736 E.01947
G1 X106.868 Y25.725 E.71127
G1 X106.748 Y26.094 E.01947
G1 X116.758 Y36.104 E.71127
G1 X116.639 Y36.473 E.01947
G1 X106.628 Y26.462 E.71127
G1 X106.508 Y26.831 E.01947
G1 X116.519 Y36.841 E.71126
G1 X116.399 Y37.21 E.01947
G1 X106.388 Y27.199 E.71126
G1 X106.269 Y27.568 E.01947
G1 X116.279 Y37.578 E.71126
G1 X116.159 Y37.947 E.01947
G1 X106.149 Y27.936 E.71126
G1 X106.029 Y28.304 E.01947
G1 X116.039 Y38.315 E.71126
G1 X115.92 Y38.683 E.01947
G1 X105.909 Y28.673 E.71126
G1 X105.789 Y29.041 E.01947
G1 X115.8 Y39.052 E.71126
G1 X115.68 Y39.42 E.01947
G1 X105.669 Y29.41 E.71126
G1 X105.55 Y29.778 E.01947
G1 X115.56 Y39.789 E.71126
G1 X115.44 Y40.157 E.01947
G1 X105.43 Y30.147 E.71126
G1 X105.31 Y30.515 E.01947
G1 X115.32 Y40.526 E.71126
G1 X115.201 Y40.894 E.01947
G1 X105.19 Y30.884 E.71126
G1 X105.07 Y31.252 E.01947
G1 X115.081 Y41.263 E.71126
G1 X114.961 Y41.631 E.01947
G1 X104.95 Y31.621 E.71126
G1 X104.831 Y31.989 E.01947
G1 X114.841 Y41.999 E.71126
G1 X114.721 Y42.368 E.01947
G1 X104.711 Y32.357 E.71126
G1 X104.591 Y32.726 E.01947
G1 X114.601 Y42.736 E.71126
G1 X114.482 Y43.105 E.01947
G1 X104.471 Y33.094 E.71126
G1 X104.351 Y33.463 E.01947
G1 X114.362 Y43.473 E.71125
G1 X114.242 Y43.842 E.01947
G1 X104.232 Y33.831 E.71125
G1 X104.112 Y34.2 E.01947
G1 X114.122 Y44.21 E.71125
G1 X114.002 Y44.579 E.01947
G1 X103.992 Y34.568 E.71125
G1 X103.872 Y34.937 E.01947
G1 X113.882 Y44.947 E.71125
G1 X113.763 Y45.315 E.01947
G1 X103.752 Y35.305 E.71125
G1 X103.632 Y35.674 E.01947
M73 P0 R169
G1 X113.643 Y45.684 E.71125
G1 X113.523 Y46.052 E.01947
G1 X103.513 Y36.042 E.71125
G1 X103.393 Y36.41 E.01947
G1 X113.403 Y46.421 E.71125
G1 X113.283 Y46.789 E.01947
G1 X103.273 Y36.779 E.71125
G1 X103.153 Y37.147 E.01947
G1 X113.163 Y47.158 E.71125
G1 X113.044 Y47.526 E.01947
G1 X103.033 Y37.516 E.71125
G1 X102.913 Y37.884 E.01947
G1 X112.924 Y47.895 E.71125
G1 X112.804 Y48.263 E.01947
G1 X102.794 Y38.253 E.71125
G1 X102.674 Y38.621 E.01947
G1 X112.684 Y48.632 E.71125
G1 X112.564 Y49 E.01947
G1 X102.554 Y38.99 E.71125
G1 X102.434 Y39.358 E.01947
G1 X112.444 Y49.368 E.71125
G1 X112.325 Y49.737 E.01947
G1 X102.314 Y39.727 E.71125
G1 X102.194 Y40.095 E.01947
G1 X112.205 Y50.105 E.71125
G1 X112.085 Y50.474 E.01947
G1 X102.075 Y40.463 E.71124
G1 X101.955 Y40.832 E.01947
G1 X111.965 Y50.842 E.71124
G1 X111.845 Y51.211 E.01947
G1 X101.835 Y41.2 E.71124
G1 X101.715 Y41.569 E.01947
G1 X111.725 Y51.579 E.71124
G1 X111.606 Y51.948 E.01947
G1 X101.595 Y41.937 E.71124
G1 X101.476 Y42.306 E.01947
G1 X111.486 Y52.316 E.71124
G1 X111.366 Y52.684 E.01947
G1 X101.356 Y42.674 E.71124
G1 X101.236 Y43.043 E.01947
G1 X111.246 Y53.053 E.71124
G1 X111.126 Y53.421 E.01947
G1 X101.116 Y43.411 E.71124
G1 X100.996 Y43.78 E.01947
G1 X111.006 Y53.79 E.71124
G1 X110.887 Y54.158 E.01947
G1 X100.876 Y44.148 E.71124
G1 X100.757 Y44.516 E.01947
G1 X110.767 Y54.527 E.71124
G1 X110.647 Y54.895 E.01947
G1 X100.637 Y44.885 E.71124
G1 X100.517 Y45.253 E.01947
G1 X110.527 Y55.264 E.71124
G1 X110.407 Y55.632 E.01947
G1 X100.397 Y45.622 E.71124
G1 X100.277 Y45.99 E.01947
G1 X110.287 Y56 E.71124
G1 X110.168 Y56.369 E.01947
G1 X100.157 Y46.359 E.71124
G1 X100.038 Y46.727 E.01947
G1 X110.048 Y56.737 E.71124
G1 X109.928 Y57.106 E.01947
G1 X99.918 Y47.096 E.71123
G1 X99.798 Y47.464 E.01947
G1 X109.808 Y57.474 E.71123
G1 X109.688 Y57.843 E.01947
G1 X99.678 Y47.833 E.71123
G1 X99.558 Y48.201 E.01947
G1 X109.568 Y58.211 E.71123
G1 X109.449 Y58.58 E.01947
G1 X99.438 Y48.569 E.71123
G1 X99.319 Y48.938 E.01947
G1 X109.329 Y58.948 E.71123
G1 X109.209 Y59.316 E.01947
G1 X99.199 Y49.306 E.71123
G1 X99.079 Y49.675 E.01947
G1 X109.089 Y59.685 E.71123
G1 X108.969 Y60.053 E.01947
G1 X98.959 Y50.043 E.71123
G1 X98.839 Y50.412 E.01947
G1 X108.849 Y60.422 E.71123
G1 X108.73 Y60.79 E.01947
G1 X98.719 Y50.78 E.71123
G1 X98.6 Y51.149 E.01947
G1 X108.61 Y61.159 E.71123
G1 X108.49 Y61.527 E.01947
G1 X98.48 Y51.517 E.71123
G1 X98.36 Y51.886 E.01947
G1 X108.37 Y61.896 E.71123
G1 X108.25 Y62.264 E.01947
G1 X98.24 Y52.254 E.71123
G1 X98.12 Y52.622 E.01947
G1 X108.13 Y62.632 E.71123
G1 X108.011 Y63.001 E.01947
G1 X98.001 Y52.991 E.71123
G1 X97.881 Y53.359 E.01947
G1 X107.891 Y63.369 E.71123
G1 X107.771 Y63.738 E.01947
G1 X97.761 Y53.728 E.71122
G1 X97.641 Y54.096 E.01947
G1 X107.651 Y64.106 E.71122
G1 X107.531 Y64.475 E.01947
G1 X97.521 Y54.465 E.71122
G1 X97.401 Y54.833 E.01947
G1 X107.411 Y64.843 E.71122
G1 X107.292 Y65.212 E.01947
G1 X97.282 Y55.202 E.71122
G1 X97.162 Y55.57 E.01947
G1 X107.172 Y65.58 E.71122
G1 X107.052 Y65.949 E.01947
G1 X97.042 Y55.939 E.71122
G1 X96.922 Y56.307 E.01947
G1 X106.932 Y66.317 E.71122
G1 X106.812 Y66.685 E.01947
G1 X96.802 Y56.675 E.71122
G1 X96.682 Y57.044 E.01947
G1 X106.692 Y67.054 E.71122
M73 P1 R169
G1 X106.573 Y67.422 E.01947
G1 X96.563 Y57.412 E.71122
G1 X96.443 Y57.781 E.01947
G1 X106.453 Y67.791 E.71122
G1 X106.333 Y68.159 E.01947
G1 X96.323 Y58.149 E.71122
G1 X96.203 Y58.518 E.01947
G1 X106.213 Y68.528 E.71122
G1 X106.093 Y68.896 E.01947
G1 X96.083 Y58.886 E.71122
G1 X95.963 Y59.255 E.01947
G1 X105.973 Y69.265 E.71122
G1 X105.854 Y69.633 E.01947
G1 X95.844 Y59.623 E.71122
G1 X95.724 Y59.992 E.01947
G1 X105.734 Y70.001 E.71122
G1 X105.614 Y70.37 E.01947
G1 X95.604 Y60.36 E.71122
G1 X95.484 Y60.728 E.01947
G1 X105.494 Y70.738 E.71121
G1 X105.374 Y71.107 E.01947
G1 X95.364 Y61.097 E.71121
G1 X95.245 Y61.465 E.01947
G1 X105.254 Y71.475 E.71121
G1 X105.135 Y71.844 E.01947
G1 X95.125 Y61.834 E.71121
G1 X95.005 Y62.202 E.01947
G1 X105.015 Y72.212 E.71121
G1 X104.895 Y72.581 E.01947
G1 X94.885 Y62.571 E.71121
G1 X94.765 Y62.939 E.01947
G1 X104.775 Y72.949 E.71121
G1 X104.655 Y73.317 E.01947
G1 X94.645 Y63.308 E.71121
G1 X94.526 Y63.676 E.01947
G1 X104.535 Y73.686 E.71121
G1 X104.416 Y74.054 E.01947
G1 X94.406 Y64.045 E.71121
G1 X94.286 Y64.413 E.01947
G1 X104.296 Y74.423 E.71121
G1 X104.176 Y74.791 E.01947
G1 X94.166 Y64.781 E.71121
G1 X94.046 Y65.15 E.01947
G1 X104.056 Y75.16 E.71121
G1 X103.936 Y75.528 E.01947
G1 X93.926 Y65.518 E.71121
G1 X93.807 Y65.887 E.01947
G1 X103.816 Y75.897 E.71121
G1 X103.697 Y76.265 E.01947
G1 X93.687 Y66.255 E.71121
G1 X93.567 Y66.624 E.01947
G1 X103.577 Y76.633 E.71121
G1 X103.457 Y77.002 E.01947
G1 X93.447 Y66.992 E.71121
G1 X93.327 Y67.361 E.01947
G1 X103.337 Y77.37 E.7112
G1 X103.217 Y77.739 E.01947
G1 X93.207 Y67.729 E.7112
G1 X93.088 Y68.098 E.01947
G1 X103.097 Y78.107 E.7112
G1 X102.978 Y78.476 E.01947
G1 X92.968 Y68.466 E.7112
G1 X92.848 Y68.834 E.01947
G1 X102.858 Y78.844 E.7112
G1 X102.738 Y79.213 E.01947
G1 X92.728 Y69.203 E.7112
G1 X92.608 Y69.571 E.01947
G1 X102.618 Y79.581 E.7112
G1 X102.498 Y79.949 E.01947
G1 X92.488 Y69.94 E.7112
G1 X92.369 Y70.308 E.01947
G1 X102.378 Y80.318 E.7112
G1 X102.259 Y80.686 E.01947
G1 X92.249 Y70.677 E.7112
G1 X92.129 Y71.045 E.01947
G1 X102.139 Y81.055 E.7112
G1 X102.019 Y81.423 E.01947
G1 X92.009 Y71.414 E.7112
G1 X91.889 Y71.782 E.01947
G1 X101.899 Y81.792 E.7112
G1 X101.779 Y82.16 E.01947
G1 X91.77 Y72.151 E.7112
G1 X91.65 Y72.519 E.01947
G1 X101.659 Y82.529 E.7112
G1 X101.539 Y82.897 E.01947
G1 X91.53 Y72.887 E.7112
G1 X91.41 Y73.256 E.01947
G1 X101.42 Y83.266 E.7112
G1 X101.3 Y83.634 E.01947
G1 X91.29 Y73.624 E.7112
G1 X91.17 Y73.993 E.01947
G1 X101.18 Y84.002 E.7112
G1 X101.06 Y84.371 E.01947
G1 X91.051 Y74.361 E.71119
G1 X90.931 Y74.73 E.01947
G1 X100.94 Y84.739 E.71119
G1 X100.82 Y85.108 E.01947
G1 X90.811 Y75.098 E.71119
G1 X90.691 Y75.467 E.01947
G1 X100.701 Y85.476 E.71119
G1 X100.581 Y85.845 E.01947
G1 X90.571 Y75.835 E.71119
G1 X90.451 Y76.204 E.01947
G1 X100.461 Y86.213 E.71119
G1 X100.344 Y86.585 E.01956
G1 X90.332 Y76.572 E.7114
G1 X90.212 Y76.94 E.01947
G1 X100.227 Y86.956 E.71163
G1 X100.111 Y87.328 E.01957
G1 X90.092 Y77.309 E.71185
G1 X89.972 Y77.677 E.01947
M73 P1 R168
G1 X99.994 Y87.699 E.71207
G1 X99.877 Y88.071 E.01957
G1 X89.852 Y78.046 E.71229
G1 X89.732 Y78.414 E.01947
G1 X99.761 Y88.442 E.71251
G1 X99.644 Y88.814 E.01957
G1 X89.613 Y78.783 E.71273
G1 X89.493 Y79.151 E.01947
G1 X99.527 Y89.185 E.71295
G1 X99.41 Y89.557 E.01957
G1 X89.373 Y79.52 E.71317
G1 X89.253 Y79.888 E.01947
G1 X99.294 Y89.929 E.7134
G1 X99.177 Y90.3 E.01957
G1 X89.133 Y80.257 E.71362
G1 X89.014 Y80.625 E.01947
G1 X99.06 Y90.672 E.71384
G1 X98.944 Y91.043 E.01957
G1 X88.894 Y80.993 E.71406
G1 X88.774 Y81.362 E.01947
G1 X98.827 Y91.415 E.71428
G1 X98.71 Y91.786 E.01957
G1 X88.654 Y81.73 E.7145
G1 X88.534 Y82.099 E.01947
G1 X98.593 Y92.158 E.71472
G1 X98.477 Y92.53 E.01957
G1 X88.414 Y82.467 E.71494
G1 X88.295 Y82.836 E.01947
G1 X98.36 Y92.901 E.71517
G1 X98.243 Y93.273 E.01957
G1 X88.175 Y83.204 E.71539
G1 X88.055 Y83.573 E.01947
G1 X98.127 Y93.644 E.71561
G1 X98.01 Y94.016 E.01957
G1 X87.935 Y83.941 E.71583
G1 X87.815 Y84.31 E.01947
G1 X97.893 Y94.387 E.71605
G1 X97.776 Y94.759 E.01957
G1 X87.695 Y84.678 E.71627
G1 X87.576 Y85.046 E.01947
G1 X97.66 Y95.131 E.71649
G1 X97.543 Y95.502 E.01957
G1 X87.456 Y85.415 E.71672
G1 X87.336 Y85.783 E.01947
G1 X97.426 Y95.874 E.71694
G1 X97.31 Y96.245 E.01957
G1 X87.216 Y86.152 E.71716
G1 X87.096 Y86.52 E.01947
G1 X97.193 Y96.617 E.71738
G1 X97.076 Y96.988 E.01957
G1 X86.978 Y86.89 E.71748
G1 X86.861 Y87.262 E.01957
G1 X96.959 Y97.36 E.71748
G1 X96.843 Y97.732 E.01957
G1 X86.745 Y87.633 E.71748
G1 X86.628 Y88.005 E.01957
G1 X96.726 Y98.103 E.71748
G1 X96.609 Y98.475 E.01957
G1 X86.511 Y88.377 E.71749
G1 X86.394 Y88.748 E.01957
G1 X96.493 Y98.846 E.71749
G1 X96.376 Y99.218 E.01957
G1 X86.278 Y89.12 E.71749
G1 X86.161 Y89.491 E.01957
G1 X96.259 Y99.589 E.71749
G1 X96.143 Y99.961 E.01957
G1 X86.044 Y89.863 E.71749
G1 X85.928 Y90.234 E.01957
G1 X96.026 Y100.333 E.7175
G1 X95.909 Y100.704 E.01957
G1 X85.811 Y90.606 E.7175
G1 X85.694 Y90.977 E.01957
G1 X95.792 Y101.076 E.7175
G1 X95.676 Y101.447 E.01957
G1 X85.577 Y91.349 E.7175
G1 X85.461 Y91.72 E.01957
G1 X95.559 Y101.819 E.7175
G1 X95.442 Y102.19 E.01957
G1 X85.344 Y92.092 E.7175
G1 X85.227 Y92.464 E.01957
G1 X95.326 Y102.562 E.71751
G1 X95.209 Y102.934 E.01957
G1 X85.11 Y92.835 E.71751
G1 X84.994 Y93.207 E.01957
G1 X95.092 Y103.305 E.71751
G1 X94.975 Y103.677 E.01957
G1 X84.877 Y93.578 E.71751
G1 X84.76 Y93.95 E.01957
G1 X94.859 Y104.048 E.71751
G1 X94.742 Y104.42 E.01957
G1 X84.643 Y94.321 E.71751
G1 X84.527 Y94.693 E.01957
G1 X94.625 Y104.791 E.71752
G1 X94.509 Y105.163 E.01957
G1 X84.41 Y95.064 E.71752
G1 X84.293 Y95.436 E.01957
G1 X94.392 Y105.535 E.71752
G1 X94.275 Y105.906 E.01957
G1 X84.176 Y95.807 E.71752
G1 X84.06 Y96.179 E.01957
G1 X94.158 Y106.278 E.71752
G1 X94.042 Y106.649 E.01957
G1 X83.943 Y96.551 E.71752
G1 X83.826 Y96.922 E.01957
G1 X93.925 Y107.021 E.71753
G1 X93.808 Y107.392 E.01957
G1 X83.71 Y97.294 E.71753
G1 X83.593 Y97.665 E.01957
G1 X93.692 Y107.764 E.71753
G1 X93.575 Y108.136 E.01957
G1 X83.476 Y98.037 E.71753
G1 X83.359 Y98.408 E.01957
G1 X93.458 Y108.507 E.71753
G1 X93.341 Y108.879 E.01957
G1 X83.243 Y98.78 E.71753
G1 X83.126 Y99.151 E.01957
G1 X93.225 Y109.25 E.71754
G1 X93.108 Y109.622 E.01957
G1 X83.009 Y99.523 E.71754
G1 X82.892 Y99.894 E.01957
G1 X92.991 Y109.993 E.71754
G1 X92.875 Y110.365 E.01957
G1 X82.776 Y100.266 E.71754
G1 X82.659 Y100.638 E.01957
G1 X92.758 Y110.737 E.71754
G1 X92.641 Y111.108 E.01957
G1 X82.542 Y101.009 E.71755
G1 X82.425 Y101.381 E.01957
G1 X92.524 Y111.48 E.71755
G1 X92.408 Y111.851 E.01957
G1 X82.309 Y101.752 E.71755
G1 X82.192 Y102.124 E.01957
G1 X92.291 Y112.223 E.71755
G1 X92.174 Y112.594 E.01957
G1 X82.075 Y102.495 E.71755
G1 X81.958 Y102.867 E.01957
