; generated by PrusaSlicer 2.5.0+win64 on 2022-12-07 at 00:08:27 UTC

; 

; external perimeters extrusion width = 1.00mm
; perimeters extrusion width = 1.00mm
; infill extrusion width = 1.00mm
; solid infill extrusion width = 1.00mm
; top infill extrusion width = 1.00mm
; support material extrusion width = 1.00mm
; first layer extrusion width = 0.42mm

M73 P0 R165
M107
;TYPE:Custom
G90 ; use absolute coordinates
M83 ; extruder relative mode
M140 S60 ; set final bed temp
M104 S150 ; set temporary nozzle temp to prevent oozing during homing and auto bed leveling
G4 S10 ; allow partial nozzle warmup
G28 ; home all axisG1 Z50 F240
G1 X7.6 Y10 F3000
M104 S210 ; set final nozzle temp
M190 S60 ; wait for bed temp to stabilize
M109 S210 ; wait for nozzle temp to stabilize
G1 Z0.28 F240
G92 E0
G1 Y140 E10 F1500 ; prime the nozzle
G1 X4 F5000
G92 E0
G1 Y10 E10 F1200 ; prime the nozzle
G92 E0
G21 ; set units to millimeters
G90 ; use absolute coordinates
M83 ; use relative distances for extrusion
; Filament gcode
M107
;LAYER_CHANGE
;Z:0.35
;HEIGHT:0.35
;BEFORE_LAYER_CHANGE
G92 E0
;0.35


G1 E-1 F3600
G1 Z.35 F7800
;AFTER_LAYER_CHANGE
;0.35
G1 X89.343 Y82.655
G1 E1 F2400
;TYPE:Perimeter
;WIDTH:0.42
G1 F1800
G1 X89.376 Y82.729 E.00408
G1 X101.075 Y97.671 E.95239
G1 X104.258 Y106.786 E.4845
G1 X100.673 Y162.82 E2.81789
G1 X86.622 Y162.82 E.70514
G1 X86.618 Y102.38 E3.03321
G1 X86.513 Y102.127 E.01378
G1 X81.567 Y95.826 E.402
G1 X76.641 Y83.945 E.64548
G1 X76.641 Y37.113 E2.3503
G1 X75.772 Y17.18 E1.00129
G1 X89.693 Y17.18 E.69865
G1 X89.617 Y63.912 E2.34527
G1 X89.632 Y64.034 E.0062
G1 X91.933 Y73.53 E.49035
G1 X89.288 Y82.26 E.4578
G1 X89.283 Y82.517 E.01291
G1 X89.648 Y82.517 F7800
;TYPE:External perimeter
G1 F1800
G1 X101.382 Y97.504 E.95519
G1 X104.607 Y106.738 E.49087
G1 X100.997 Y163.165 E2.83763
G1 X86.278 Y163.165 E.73868
G1 X86.278 Y102.446 E3.04723
G1 X86.241 Y102.34 E.00564
G1 X81.267 Y96.002 E.40436
G1 X76.297 Y84.013 E.6513
G1 X76.297 Y37.113 E2.35375
G1 X75.411 Y16.835 E1.01862
G1 X90.038 Y16.835 E.73406
G1 X89.962 Y63.912 E2.36261
M73 P0 R164
G1 X92.291 Y73.54 E.49711
G1 X89.615 Y82.372 E.46313
G1 X89.075 Y83.337 F7800
G1 E-.7 F3600
;WIPE_START
G1 F6240
G1 X89.935 Y82.783 E-.285
;WIPE_END
G1 E-.015 F3600
G1 X89.588 Y17.98 F7800
G1 E1 F2400
;TYPE:Solid infill
;WIDTH:0.42021
G1 F1800
G1 X89.047 Y17.439 E.03844
G1 X88.559 Y17.439 E.02451
G1 X89.432 Y18.312 E.06204
G1 X89.432 Y18.799 E.02447
G1 X88.071 Y17.439 E.09664
G1 X87.583 Y17.439 E.02451
G1 X89.431 Y19.287 E.13125
G1 X89.43 Y19.774 E.02447
G1 X87.095 Y17.439 E.16585
G1 X86.607 Y17.439 E.02451
G1 X89.429 Y20.261 E.20045
G1 X89.428 Y20.748 E.02447
G1 X86.119 Y17.439 E.23506
G1 X85.63 Y17.439 E.02451
G1 X89.428 Y21.236 E.26966
G1 X89.427 Y21.723 E.02447
G1 X85.142 Y17.439 E.30426
G1 X84.654 Y17.439 E.02451
G1 X89.426 Y22.21 E.33887
G1 X89.425 Y22.697 E.02447
G1 X84.166 Y17.439 E.37347
G1 X83.678 Y17.439 E.02451
G1 X89.424 Y23.185 E.40807
G1 X89.424 Y23.672 E.02447
G1 X83.19 Y17.439 E.44268
G1 X82.702 Y17.439 E.02451
G1 X89.423 Y24.159 E.47728
G1 X89.422 Y24.646 E.02447
G1 X82.214 Y17.439 E.51188
G1 X81.726 Y17.439 E.02451
G1 X89.421 Y25.134 E.54649
G1 X89.42 Y25.621 E.02447
G1 X81.238 Y17.439 E.58109
G1 X80.75 Y17.439 E.02451
G1 X89.42 Y26.108 E.61569
G1 X89.419 Y26.595 E.02447
G1 X80.262 Y17.439 E.6503
G1 X79.774 Y17.439 E.02451
G1 X89.418 Y27.083 E.6849
G1 X89.417 Y27.57 E.02447
G1 X79.286 Y17.439 E.7195
G1 X78.798 Y17.439 E.02451
G1 X89.417 Y28.057 E.7541
G1 X89.416 Y28.544 E.02447
G1 X78.31 Y17.439 E.78871
G1 X77.822 Y17.439 E.02451
G1 X89.415 Y29.032 E.82331
G1 X89.414 Y29.519 E.02447
G1 X77.334 Y17.439 E.85791
G1 X76.846 Y17.439 E.02451
G1 X89.413 Y30.006 E.89252
G1 X89.413 Y30.494 E.02447
G1 X76.358 Y17.439 E.92712
G1 X76.042 Y17.439 E.01586
G1 X76.05 Y17.619 E.00905
G1 X89.412 Y30.981 E.94893
G1 X89.411 Y31.468 E.02447
G1 X76.072 Y18.129 E.9473
G1 X76.094 Y18.639 E.02565
G1 X89.41 Y31.955 E.94566
G1 X89.409 Y32.443 E.02447
G1 X76.116 Y19.15 E.94402
G1 X76.139 Y19.66 E.02565
G1 X89.409 Y32.93 E.94239
G1 X89.408 Y33.417 E.02447
G1 X76.161 Y20.17 E.94075
G1 X76.183 Y20.68 E.02565
G1 X89.407 Y33.904 E.93911
G1 X89.406 Y34.392 E.02447
G1 X76.206 Y21.191 E.93747
G1 X76.228 Y21.701 E.02565
G1 X89.405 Y34.879 E.93584
G1 X89.405 Y35.366 E.02447
G1 X76.25 Y22.211 E.9342
G1 X76.272 Y22.722 E.02565
G1 X89.404 Y35.853 E.93256
G1 X89.403 Y36.341 E.02447
G1 X76.295 Y23.232 E.93093
G1 X76.317 Y23.742 E.02565
G1 X89.402 Y36.828 E.92929
G1 X89.402 Y37.315 E.02447
G1 X76.339 Y24.253 E.92765
G1 X76.361 Y24.763 E.02565
G1 X89.401 Y37.802 E.92601
G1 X89.4 Y38.29 E.02447
G1 X76.384 Y25.273 E.92438
G1 X76.406 Y25.784 E.02565
G1 X89.399 Y38.777 E.92274
G1 X89.398 Y39.264 E.02447
G1 X76.428 Y26.294 E.9211
G1 X76.45 Y26.804 E.02565
G1 X89.398 Y39.751 E.91947
G1 X89.397 Y40.239 E.02447
G1 X76.473 Y27.314 E.91783
G1 X76.495 Y27.825 E.02565
G1 X89.396 Y40.726 E.91619
G1 X89.395 Y41.213 E.02447
G1 X76.517 Y28.335 E.91456
G1 X76.539 Y28.845 E.02565
G1 X89.394 Y41.7 E.91292
G1 X89.394 Y42.188 E.02447
G1 X76.562 Y29.356 E.91128
G1 X76.584 Y29.866 E.02565
G1 X89.393 Y42.675 E.90964
G1 X89.392 Y43.162 E.02447
G1 X76.606 Y30.376 E.90801
G1 X76.629 Y30.887 E.02565
G1 X89.391 Y43.649 E.90637
G1 X89.391 Y44.137 E.02447
G1 X76.651 Y31.397 E.90473
G1 X76.673 Y31.907 E.02565
G1 X89.39 Y44.624 E.9031
G1 X89.389 Y45.111 E.02447
G1 X76.695 Y32.418 E.90146
G1 X76.718 Y32.928 E.02565
G1 X89.388 Y45.598 E.89982
G1 X89.387 Y46.086 E.02447
G1 X76.74 Y33.438 E.89818
G1 X76.762 Y33.948 E.02565
G1 X89.387 Y46.573 E.89655
G1 X89.386 Y47.06 E.02447
G1 X76.784 Y34.459 E.89491
G1 X76.807 Y34.969 E.02565
G1 X89.385 Y47.547 E.89327
G1 X89.384 Y48.035 E.02447
G1 X76.829 Y35.479 E.89164
G1 X76.851 Y35.99 E.02565
G1 X89.383 Y48.522 E.89
G1 X89.383 Y49.009 E.02447
G1 X76.873 Y36.5 E.88836
G1 X76.896 Y37.01 E.02565
G1 X89.382 Y49.496 E.88673
G1 X89.381 Y49.984 E.02447
G1 X76.9 Y37.503 E.88636
G1 X76.9 Y37.991 E.02451
G1 X89.38 Y50.471 E.8863
G1 X89.379 Y50.958 E.02447
G1 X76.9 Y38.479 E.88625
G1 X76.9 Y38.967 E.02451
G1 X89.379 Y51.445 E.88619
G1 X89.378 Y51.933 E.02447
G1 X76.9 Y39.455 E.88613
G1 X76.9 Y39.943 E.02451
G1 X89.377 Y52.42 E.88608
G1 X89.376 Y52.907 E.02447
G1 X76.9 Y40.431 E.88602
G1 X76.9 Y40.919 E.02451
G1 X89.376 Y53.394 E.88597
G1 X89.375 Y53.882 E.02447
G1 X76.9 Y41.407 E.88591
G1 X76.9 Y41.895 E.02451
G1 X89.374 Y54.369 E.88585
G1 X89.373 Y54.856 E.02447
G1 X76.9 Y42.383 E.8858
G1 X76.9 Y42.871 E.02451
G1 X89.372 Y55.343 E.88574
G1 X89.372 Y55.831 E.02447
G1 X76.9 Y43.359 E.88569
G1 X76.9 Y43.847 E.02451
G1 X89.371 Y56.318 E.88563
G1 X89.37 Y56.805 E.02447
G1 X76.9 Y44.335 E.88557
G1 X76.9 Y44.823 E.02451
G1 X89.369 Y57.293 E.88552
G1 X89.368 Y57.78 E.02447
G1 X76.9 Y45.311 E.88546
G1 X76.9 Y45.799 E.02451
G1 X89.368 Y58.267 E.88541
G1 X89.367 Y58.754 E.02447
G1 X76.9 Y46.288 E.88535
G1 X76.9 Y46.776 E.02451
G1 X89.366 Y59.242 E.88529
G1 X89.365 Y59.729 E.02447
G1 X76.9 Y47.264 E.88524
G1 X76.9 Y47.752 E.02451
G1 X89.364 Y60.216 E.88518
G1 X89.364 Y60.703 E.02447
G1 X76.9 Y48.24 E.88513
G1 X76.9 Y48.728 E.02451
G1 X89.363 Y61.191 E.88507
G1 X89.362 Y61.678 E.02447
G1 X76.9 Y49.216 E.88501
G1 X76.9 Y49.704 E.02451
G1 X89.361 Y62.165 E.88496
G1 X89.361 Y62.652 E.02447
G1 X76.9 Y50.192 E.8849
G1 X76.9 Y50.68 E.02451
G1 X89.36 Y63.14 E.88485
G1 X89.359 Y63.627 E.02447
G1 X76.9 Y51.168 E.88479
G1 X76.9 Y51.656 E.02451
G1 X89.393 Y64.149 E.88724
G1 X89.55 Y64.794 E.03329
G1 X76.9 Y52.144 E.89833
G1 X76.9 Y52.632 E.02451
M73 P0 R163
G1 X89.706 Y65.438 E.90942
G1 X89.862 Y66.082 E.03329
G1 X76.9 Y53.12 E.92051
G1 X76.9 Y53.608 E.02451
G1 X90.018 Y66.726 E.9316
G1 X90.174 Y67.37 E.03329
G1 X76.9 Y54.096 E.94268
G1 X76.9 Y54.584 E.02451
G1 X90.33 Y68.015 E.95377
G1 X90.486 Y68.659 E.03329
G1 X76.9 Y55.072 E.96486
G1 X76.9 Y55.56 E.02451
G1 X90.643 Y69.303 E.97595
G1 X90.799 Y69.947 E.03329
G1 X76.9 Y56.048 E.98704
G1 X76.9 Y56.536 E.02451
G1 X90.955 Y70.591 E.99813
G1 X91.111 Y71.235 E.03329
M73 P1 R163
G1 X76.9 Y57.024 E1.00922
G1 X76.9 Y57.513 E.02451
G1 X91.267 Y71.88 E1.02031
G1 X91.423 Y72.524 E.03329
G1 X76.9 Y58.001 E1.0314
G1 X76.9 Y58.489 E.02451
G1 X91.579 Y73.168 E1.04248
G1 X91.665 Y73.522 E.01831
G1 X91.614 Y73.691 E.00884
G1 X76.9 Y58.977 E1.04496
G1 X76.9 Y59.465 E.02451
G1 X91.501 Y74.065 E1.0369
G1 X91.387 Y74.44 E.01965
G1 X76.9 Y59.953 E1.02884
G1 X76.9 Y60.441 E.02451
G1 X91.274 Y74.815 E1.02078
G1 X91.16 Y75.189 E.01965
G1 X76.9 Y60.929 E1.01272
G1 X76.9 Y61.417 E.02451
G1 X91.047 Y75.564 E1.00466
G1 X90.933 Y75.938 E.01965
G1 X76.9 Y61.905 E.9966
G1 X76.9 Y62.393 E.02451
G1 X90.82 Y76.313 E.98854
G1 X90.706 Y76.687 E.01965
G1 X76.9 Y62.881 E.98048
G1 X76.9 Y63.369 E.02451
G1 X90.593 Y77.062 E.97242
G1 X90.479 Y77.436 E.01965
G1 X76.9 Y63.857 E.96436
G1 X76.9 Y64.345 E.02451
G1 X90.366 Y77.811 E.9563
G1 X90.252 Y78.186 E.01965
G1 X76.9 Y64.833 E.94824
G1 X76.9 Y65.321 E.02451
G1 X90.139 Y78.56 E.94019
G1 X90.026 Y78.935 E.01965
G1 X76.9 Y65.809 E.93213
G1 X76.9 Y66.297 E.02451
G1 X89.912 Y79.309 E.92407
G1 X89.799 Y79.684 E.01965
G1 X76.9 Y66.785 E.91601
G1 X76.9 Y67.273 E.02451
G1 X89.685 Y80.058 E.90795
G1 X89.572 Y80.433 E.01965
G1 X76.9 Y67.761 E.89989
G1 X76.9 Y68.249 E.02451
G1 X89.458 Y80.807 E.89183
G1 X89.345 Y81.182 E.01965
G1 X76.9 Y68.738 E.88377
G1 X76.9 Y69.226 E.02451
G1 X89.231 Y81.557 E.87571
G1 X89.118 Y81.931 E.01965
G1 X76.9 Y69.714 E.86765
G1 X76.9 Y70.202 E.02451
G1 X89.016 Y82.317 E.86041
G1 X89.017 Y82.537 E.01104
G1 X89.072 Y82.723 E.00973
G1 X89.169 Y82.884 E.00945
G1 X89.437 Y83.227 E.02185
G1 X76.9 Y70.69 E.89035
G1 X76.9 Y71.178 E.02451
G1 X91.197 Y85.475 E1.01536
G1 X92.958 Y87.723 E.14339
G1 X76.9 Y71.666 E1.14036
G1 X76.9 Y72.154 E.02451
G1 X94.718 Y89.972 E1.26537
G1 X96.478 Y92.22 E.14339
G1 X76.9 Y72.642 E1.39038
G1 X76.9 Y73.13 E.02451
G1 X98.238 Y94.468 E1.51539
G1 X99.999 Y96.717 E.14339
G1 X76.9 Y73.618 E1.64039
G1 X76.9 Y74.106 E.02451
G1 X100.981 Y98.187 E1.71013
G1 X101.243 Y98.937 E.03989
G1 X76.9 Y74.594 E1.72873
G1 X76.9 Y75.082 E.02451
G1 X101.505 Y99.687 E1.74733
G1 X101.767 Y100.437 E.03989
G1 X76.9 Y75.57 E1.76593
G1 X76.9 Y76.058 E.02451
G1 X102.028 Y101.187 E1.78453
G1 X102.29 Y101.936 E.03989
G1 X76.9 Y76.546 E1.80313
G1 X76.9 Y77.034 E.02451
G1 X102.552 Y102.686 E1.82174
G1 X102.814 Y103.436 E.03989
G1 X76.9 Y77.522 E1.84034
G1 X76.9 Y78.01 E.02451
G1 X103.076 Y104.186 E1.85894
G1 X103.338 Y104.936 E.03989
G1 X76.9 Y78.498 E1.87754
G1 X76.9 Y78.986 E.02451
G1 X103.6 Y105.686 E1.89614
G1 X103.862 Y106.436 E.03989
G1 X76.9 Y79.474 E1.91474
G1 X76.9 Y79.963 E.02451
G1 X103.982 Y107.045 E1.92328
G1 X103.953 Y107.503 E.02308
G1 X76.9 Y80.451 E1.92119
G1 X76.9 Y80.939 E.02451
G1 X103.923 Y107.962 E1.91911
G1 X103.894 Y108.421 E.02308
G1 X76.9 Y81.427 E1.91703
G1 X76.9 Y81.915 E.02451
G1 X103.865 Y108.879 E1.91494
G1 X103.835 Y109.338 E.02308
G1 X76.9 Y82.403 E1.91286
G1 X76.9 Y82.891 E.02451
G1 X103.806 Y109.797 E1.91077
G1 X103.777 Y110.255 E.02308
G1 X76.9 Y83.379 E1.90869
G1 X76.9 Y83.867 E.02451
G1 X103.747 Y110.714 E1.90661
G1 X103.718 Y111.173 E.02308
G1 X77.227 Y84.682 E1.88129
G1 X77.573 Y85.516 E.04532
M73 P1 R162
G1 X103.689 Y111.632 E1.85467
G1 X103.659 Y112.09 E.02308
G1 X77.918 Y86.349 E1.82804
G1 X78.264 Y87.183 E.04532
G1 X103.63 Y112.549 E1.80141
G1 X103.601 Y113.008 E.02308
G1 X78.61 Y88.017 E1.77478
G1 X78.955 Y88.85 E.04532
G1 X103.571 Y113.466 E1.74815
G1 X103.542 Y113.925 E.02308
G1 X79.301 Y89.684 E1.72152
G1 X79.646 Y90.518 E.04532
G1 X103.513 Y114.384 E1.6949
G1 X103.483 Y114.842 E.02308
G1 X79.992 Y91.351 E1.66827
G1 X80.338 Y92.185 E.04532
G1 X103.454 Y115.301 E1.64164
G1 X103.425 Y115.76 E.02308
G1 X80.683 Y93.019 E1.61501
G1 X81.029 Y93.852 E.04532
G1 X103.395 Y116.219 E1.58838
G1 X103.366 Y116.677 E.02308
G1 X81.374 Y94.686 E1.56176
G1 X81.72 Y95.52 E.04532
G1 X103.336 Y117.136 E1.53513
G1 X103.307 Y117.595 E.02308
G1 X83.2 Y97.487 E1.42795
G1 X84.98 Y99.755 E.14478
G1 X103.278 Y118.053 E1.29946
G1 X103.248 Y118.512 E.02308
G1 X86.737 Y102.001 E1.17257
G1 X86.807 Y102.113 E.00664
G1 X86.876 Y102.346 E.0122
G1 X86.876 Y102.627 E.01411
G1 X103.219 Y118.971 E1.16066
G1 X103.19 Y119.429 E.02308
G1 X86.876 Y103.115 E1.15858
G1 X86.876 Y103.603 E.02451
G1 X103.16 Y119.888 E1.15649
G1 X103.131 Y120.347 E.02308
G1 X86.876 Y104.091 E1.1544
G1 X86.876 Y104.58 E.02451
G1 X103.102 Y120.805 E1.15231
G1 X103.072 Y121.264 E.02308
G1 X86.876 Y105.068 E1.15023
G1 X86.876 Y105.556 E.02451
G1 X103.043 Y121.723 E1.14814
G1 X103.014 Y122.182 E.02308
G1 X86.876 Y106.044 E1.14605
G1 X86.876 Y106.532 E.02451
G1 X102.984 Y122.64 E1.14396
G1 X102.955 Y123.099 E.02308
G1 X86.876 Y107.02 E1.14188
G1 X86.876 Y107.508 E.02451
G1 X102.926 Y123.558 E1.13979
G1 X102.896 Y124.016 E.02308
G1 X86.876 Y107.996 E1.1377
G1 X86.876 Y108.484 E.02451
G1 X102.867 Y124.475 E1.13562
G1 X102.838 Y124.934 E.02308
G1 X86.876 Y108.972 E1.13353
G1 X86.876 Y109.46 E.02451
G1 X102.808 Y125.392 E1.13144
G1 X102.779 Y125.851 E.02308
G1 X86.876 Y109.949 E1.12935
G1 X86.876 Y110.437 E.02451
G1 X102.75 Y126.31 E1.12727
G1 X102.72 Y126.769 E.02308
G1 X86.876 Y110.925 E1.12518
G1 X86.876 Y111.413 E.02451
G1 X102.691 Y127.227 E1.12309
G1 X102.662 Y127.686 E.02308
G1 X86.876 Y111.901 E1.12101
G1 X86.877 Y112.389 E.02451
G1 X102.632 Y128.145 E1.11892
G1 X102.603 Y128.603 E.02308
G1 X86.877 Y112.877 E1.11683
G1 X86.877 Y113.365 E.02451
G1 X102.574 Y129.062 E1.11474
G1 X102.544 Y129.521 E.02308
G1 X86.877 Y113.853 E1.11266
G1 X86.877 Y114.341 E.02451
G1 X102.515 Y129.979 E1.11057
G1 X102.485 Y130.438 E.02308
G1 X86.877 Y114.829 E1.10848
G1 X86.877 Y115.318 E.02451
G1 X102.456 Y130.897 E1.10639
G1 X102.427 Y131.356 E.02308
G1 X86.877 Y115.806 E1.10431
G1 X86.877 Y116.294 E.02451
G1 X102.397 Y131.814 E1.10222
G1 X102.368 Y132.273 E.02308
G1 X86.877 Y116.782 E1.10013
G1 X86.877 Y117.27 E.02451
G1 X102.339 Y132.732 E1.09805
G1 X102.309 Y133.19 E.02308
G1 X86.877 Y117.758 E1.09596
G1 X86.877 Y118.246 E.02451
G1 X102.28 Y133.649 E1.09387
G1 X102.251 Y134.108 E.02308
M73 P2 R162
G1 X86.877 Y118.734 E1.09178
G1 X86.877 Y119.222 E.02451
G1 X102.221 Y134.566 E1.0897
G1 X102.192 Y135.025 E.02308
G1 X86.877 Y119.71 E1.08761
G1 X86.877 Y120.198 E.02451
G1 X102.163 Y135.484 E1.08552
G1 X102.133 Y135.943 E.02308
G1 X86.877 Y120.686 E1.08344
G1 X86.877 Y121.175 E.02451
G1 X102.104 Y136.401 E1.08135
G1 X102.075 Y136.86 E.02308
G1 X86.877 Y121.663 E1.07926
G1 X86.877 Y122.151 E.02451
G1 X102.045 Y137.319 E1.07717
G1 X102.016 Y137.777 E.02308
G1 X86.877 Y122.639 E1.07509
G1 X86.878 Y123.127 E.02451
G1 X101.987 Y138.236 E1.073
G1 X101.957 Y138.695 E.02308
G1 X86.878 Y123.615 E1.07091
G1 X86.878 Y124.103 E.02451
G1 X101.928 Y139.153 E1.06882
G1 X101.899 Y139.612 E.02308
G1 X86.878 Y124.591 E1.06674
G1 X86.878 Y125.079 E.02451
G1 X101.869 Y140.071 E1.06465
G1 X101.84 Y140.53 E.02308
G1 X86.878 Y125.567 E1.06256
G1 X86.878 Y126.055 E.02451
G1 X101.811 Y140.988 E1.06048
G1 X101.781 Y141.447 E.02308
G1 X86.878 Y126.544 E1.05839
G1 X86.878 Y127.032 E.02451
G1 X101.752 Y141.906 E1.0563
G1 X101.722 Y142.364 E.02308
G1 X86.878 Y127.52 E1.05421
G1 X86.878 Y128.008 E.02451
M73 P2 R161
G1 X101.693 Y142.823 E1.05213
G1 X101.664 Y143.282 E.02308
G1 X86.878 Y128.496 E1.05004
G1 X86.878 Y128.984 E.02451
G1 X101.634 Y143.74 E1.04795
G1 X101.605 Y144.199 E.02308
G1 X86.878 Y129.472 E1.04587
G1 X86.878 Y129.96 E.02451
G1 X101.576 Y144.658 E1.04378
G1 X101.546 Y145.116 E.02308
G1 X86.878 Y130.448 E1.04169
G1 X86.878 Y130.936 E.02451
G1 X101.517 Y145.575 E1.0396
G1 X101.488 Y146.034 E.02308
G1 X86.878 Y131.424 E1.03752
G1 X86.878 Y131.913 E.02451
G1 X101.458 Y146.493 E1.03543
G1 X101.429 Y146.951 E.02308
G1 X86.878 Y132.401 E1.03334
G1 X86.878 Y132.889 E.02451
G1 X101.4 Y147.41 E1.03125
G1 X101.37 Y147.869 E.02308
G1 X86.878 Y133.377 E1.02917
G1 X86.878 Y133.865 E.02451
G1 X101.341 Y148.327 E1.02708
G1 X101.312 Y148.786 E.02308
G1 X86.879 Y134.353 E1.02499
G1 X86.879 Y134.841 E.02451
G1 X101.282 Y149.245 E1.02291
G1 X101.253 Y149.703 E.02308
G1 X86.879 Y135.329 E1.02082
