; generated by PrusaSlicer 2.5.0+win64 on 2022-12-07 at 00:08:32 UTC

; 

; external perimeters extrusion width = 1.00mm
; perimeters extrusion width = 1.00mm
; infill extrusion width = 1.00mm
; solid infill extrusion width = 1.00mm
; top infill extrusion width = 1.00mm
; support material extrusion width = 1.00mm
; first layer extrusion width = 0.42mm

M73 P0 R159
M107
;TYPE:Custom
G90 ; use absolute coordinates
M83 ; extruder relative mode
M140 S60 ; set final bed temp
M104 S150 ; set temporary nozzle temp to prevent oozing during homing and auto bed leveling
G4 S10 ; allow partial nozzle warmup
G28 ; home all axisG1 Z50 F240
G1 X7.6 Y10 F3000
M104 S210 ; set final nozzle temp
M190 S60 ; wait for bed temp to stabilize
M109 S210 ; wait for nozzle temp to stabilize
G1 Z0.28 F240
G92 E0
G1 Y140 E10 F1500 ; prime the nozzle
G1 X4 F5000
G92 E0
G1 Y10 E10 F1200 ; prime the nozzle
G92 E0
G21 ; set units to millimeters
G90 ; use absolute coordinates
M83 ; use relative distances for extrusion
; Filament gcode
M107
;LAYER_CHANGE
;Z:0.35
;HEIGHT:0.35
;BEFORE_LAYER_CHANGE
G92 E0
;0.35


G1 E-1 F3600
G1 Z.35 F7800
;AFTER_LAYER_CHANGE
;0.35
G1 X14.525 Y88.817
G1 E1 F2400
;TYPE:Perimeter
;WIDTH:0.42
G1 F1800
G1 X14.525 Y74.965 E.69516
G1 X29.323 Y72.611 E.75198
G1 X75.305 Y73.279 E2.30787
G1 X131.081 Y90.176 E2.92479
G1 X144.302 Y93.988 E.69053
G1 X144.556 Y93.969 E.0128
G1 X158.574 Y89.254 E.74223
G1 X165.475 Y89.043 E.34648
G1 X165.475 Y102.893 E.69508
G1 X158.922 Y103.093 E.32899
G1 X158.387 Y103.132 E.02692
G1 X148.024 Y106.624 E.54881
G1 X140.344 Y106.624 E.38543
G1 X131.393 Y104.04 E.46754
G1 X90.506 Y91.677 E2.14373
G1 X47.729 Y86.949 E2.15988
G1 X44.287 Y86.676 E.17324
G1 X28.005 Y86.676 E.81716
G1 X14.674 Y88.793 E.67743
G1 X14.18 Y89.221 F7800
;TYPE:External perimeter
G1 F1800
G1 X14.18 Y74.671 E.73021
G1 X29.298 Y72.265 E.76825
G1 X75.358 Y72.935 E2.3118
G1 X131.181 Y89.846 E2.92723
G1 X144.343 Y93.644 E.68752
G1 X144.446 Y93.642 E.00516
G1 X158.512 Y88.911 E.7448
G1 X165.82 Y88.687 E.36688
G1 X165.82 Y103.227 E.72971
G1 X158.497 Y103.459 E.36766
G1 X148.081 Y106.969 E.55164
G1 X140.295 Y106.969 E.39072
G1 X131.296 Y104.371 E.4701
G1 X90.464 Y92.02 E2.14086
G1 X47.691 Y87.292 E2.1597
G1 X44.29 Y87.021 E.17121
G1 X28.005 Y87.021 E.81729
G1 X14.329 Y89.197 E.69499
G1 X14.659 Y88.343 F7800
G1 E-.7 F3600
;WIPE_START
G1 F6240
G1 X14.323 Y88.677 E-.285
;WIPE_END
G1 E-.015 F3600
G1 X164.695 Y89.17 F7800
G1 E1 F2400
;TYPE:Solid infill
;WIDTH:0.420309
G1 F1800
G1 X165.216 Y89.692 E.03704
G1 X165.216 Y90.18 E.02452
G1 X164.372 Y89.335 E.05999
G1 X163.898 Y89.35 E.0238
G1 X165.216 Y90.668 E.09363
G1 X165.216 Y91.156 E.02452
G1 X163.424 Y89.364 E.12728
G1 X162.95 Y89.379 E.0238
G1 X165.216 Y91.644 E.16093
G1 X165.216 Y92.132 E.02452
G1 X162.477 Y89.393 E.19458
G1 X162.003 Y89.408 E.0238
G1 X165.216 Y92.621 E.22823
G1 X165.216 Y93.109 E.02452
G1 X161.529 Y89.422 E.26188
G1 X161.056 Y89.437 E.0238
G1 X165.216 Y93.597 E.29553
G1 X165.216 Y94.085 E.02452
G1 X160.582 Y89.451 E.32918
G1 X160.108 Y89.466 E.0238
G1 X165.216 Y94.573 E.36283
G1 X165.216 Y95.062 E.02452
G1 X159.635 Y89.48 E.39648
G1 X159.161 Y89.495 E.0238
G1 X165.216 Y95.55 E.43012
G1 X165.216 Y96.038 E.02452
G1 X158.687 Y89.509 E.46377
G1 X158.62 Y89.511 E.00338
G1 X158.307 Y89.617 E.01661
G1 X165.216 Y96.526 E.49082
G1 X165.216 Y97.014 E.02452
G1 X157.941 Y89.74 E.51677
G1 X157.576 Y89.863 E.01936
G1 X165.216 Y97.502 E.54272
G1 X165.216 Y97.991 E.02452
G1 X157.211 Y89.985 E.56867
G1 X156.845 Y90.108 E.01936
G1 X165.216 Y98.479 E.59462
G1 X165.216 Y98.967 E.02452
G1 X156.48 Y90.231 E.62057
G1 X156.115 Y90.354 E.01936
G1 X165.216 Y99.455 E.64652
G1 X165.216 Y99.943 E.02452
G1 X155.749 Y90.477 E.67247
G1 X155.384 Y90.6 E.01936
G1 X165.216 Y100.432 E.69843
G1 X165.216 Y100.92 E.02452
G1 X155.019 Y90.723 E.72438
G1 X154.653 Y90.845 E.01936
G1 X165.216 Y101.408 E.75033
G1 X165.216 Y101.896 E.02452
G1 X154.288 Y90.968 E.77628
G1 X153.923 Y91.091 E.01936
G1 X165.216 Y102.384 E.80223
G1 X165.216 Y102.642 E.01295
G1 X164.992 Y102.649 E.01124
G1 X153.558 Y91.214 E.8123
G1 X153.192 Y91.337 E.01936
G1 X164.519 Y102.663 E.8046
G1 X164.045 Y102.678 E.0238
G1 X152.827 Y91.46 E.7969
G1 X152.462 Y91.583 E.01936
M73 P0 R158
G1 X163.571 Y102.692 E.7892
G1 X163.098 Y102.707 E.0238
G1 X152.096 Y91.706 E.7815
G1 X151.731 Y91.828 E.01936
G1 X162.624 Y102.721 E.77381
G1 X162.15 Y102.736 E.0238
G1 X151.366 Y91.951 E.76611
G1 X151 Y92.074 E.01936
G1 X161.677 Y102.75 E.75841
G1 X161.203 Y102.765 E.0238
G1 X150.635 Y92.197 E.75071
G1 X150.27 Y92.32 E.01936
G1 X160.729 Y102.779 E.74301
G1 X160.256 Y102.794 E.0238
G1 X149.904 Y92.443 E.73532
G1 X149.539 Y92.566 E.01936
G1 X159.782 Y102.808 E.72762
G1 X159.308 Y102.823 E.0238
G1 X149.174 Y92.688 E.71992
G1 X148.808 Y92.811 E.01936
G1 X158.834 Y102.837 E.71222
G1 X158.376 Y102.867 E.0231
G1 X148.443 Y92.934 E.70557
G1 X148.078 Y93.057 E.01936
G1 X158.01 Y102.99 E.70558
G1 X157.645 Y103.113 E.01936
G1 X147.712 Y93.18 E.70558
G1 X147.347 Y93.303 E.01936
G1 X157.28 Y103.235 E.70559
G1 X156.915 Y103.358 E.01936
G1 X146.982 Y93.426 E.70559
G1 X146.617 Y93.549 E.01936
G1 X156.549 Y103.481 E.7056
G1 X156.184 Y103.604 E.01936
G1 X146.251 Y93.671 E.7056
G1 X145.886 Y93.794 E.01936
G1 X155.819 Y103.727 E.70561
G1 X155.454 Y103.85 E.01936
G1 X145.521 Y93.917 E.70561
G1 X145.155 Y94.04 E.01936
G1 X155.088 Y103.973 E.70562
G1 X154.723 Y104.096 E.01936
G1 X144.79 Y94.163 E.70562
G1 X144.633 Y94.216 E.0083
G1 X144.389 Y94.25 E.01242
G1 X154.358 Y104.219 E.70819
G1 X153.993 Y104.342 E.01936
G1 X143.745 Y94.095 E.72793
G1 X143.06 Y93.897 E.03585
G1 X153.627 Y104.465 E.75071
G1 X153.262 Y104.588 E.01936
G1 X142.374 Y93.699 E.77348
G1 X141.688 Y93.502 E.03585
G1 X152.897 Y104.711 E.79625
G1 X152.532 Y104.834 E.01936
G1 X141.002 Y93.304 E.81903
G1 X140.316 Y93.107 E.03585
G1 X152.166 Y104.957 E.8418
G1 X151.801 Y105.08 E.01936
G1 X139.63 Y92.909 E.86457
G1 X138.945 Y92.711 E.03585
G1 X151.436 Y105.203 E.88735
G1 X151.071 Y105.325 E.01936
G1 X138.259 Y92.514 E.91012
G1 X137.573 Y92.316 E.03585
G1 X150.705 Y105.448 E.93289
G1 X150.34 Y105.571 E.01936
G1 X136.887 Y92.118 E.95567
G1 X136.201 Y91.921 E.03585
G1 X149.975 Y105.694 E.97844
G1 X149.61 Y105.817 E.01936
G1 X135.515 Y91.723 E1.00121
G1 X134.83 Y91.525 E.03585
G1 X149.244 Y105.94 E1.02399
G1 X148.879 Y106.063 E.01936
G1 X134.144 Y91.328 E1.04676
G1 X133.458 Y91.13 E.03585
G1 X148.514 Y106.186 E1.06953
G1 X148.149 Y106.309 E.01936
G1 X132.772 Y90.932 E1.09231
G1 X132.086 Y90.735 E.03585
G1 X147.717 Y106.365 E1.11034
G1 X147.229 Y106.365 E.02452
G1 X131.401 Y90.537 E1.12438
G1 X130.709 Y90.333 E.03624
G1 X146.74 Y106.365 E1.13886
G1 X146.252 Y106.365 E.02452
G1 X130.008 Y90.121 E1.15393
G1 X129.308 Y89.909 E.03676
G1 X145.764 Y106.365 E1.169
G1 X145.276 Y106.365 E.02452
G1 X128.608 Y89.697 E1.18407
G1 X127.907 Y89.485 E.03676
G1 X144.788 Y106.365 E1.19914
G1 X144.299 Y106.365 E.02452
G1 X127.207 Y89.273 E1.21421
G1 X126.506 Y89.06 E.03676
G1 X143.811 Y106.365 E1.22928
G1 X143.323 Y106.365 E.02452
G1 X125.806 Y88.848 E1.24435
G1 X125.106 Y88.636 E.03676
G1 X142.835 Y106.365 E1.25943
G1 X142.347 Y106.365 E.02452
G1 X124.405 Y88.424 E1.2745
G1 X123.705 Y88.212 E.03676
G1 X141.859 Y106.365 E1.28957
G1 X141.37 Y106.365 E.02452
G1 X123.005 Y88 E1.30464
G1 X122.304 Y87.787 E.03676
G1 X140.882 Y106.365 E1.31971
G1 X140.394 Y106.365 E.02452
G1 X121.604 Y87.575 E1.33478
G1 X120.904 Y87.363 E.03676
G1 X139.713 Y106.172 E1.33616
G1 X139.027 Y105.974 E.03588
G1 X120.203 Y87.151 E1.33716
G1 X119.503 Y86.939 E.03676
G1 X138.34 Y105.776 E1.33815
G1 X137.654 Y105.578 E.03588
G1 X118.803 Y86.727 E1.33915
G1 X118.102 Y86.514 E.03676
G1 X136.968 Y105.38 E1.34015
G1 X136.282 Y105.182 E.03588
G1 X117.402 Y86.302 E1.34114
G1 X116.702 Y86.09 E.03676
G1 X135.595 Y104.984 E1.34214
G1 X134.909 Y104.786 E.03588
G1 X116.001 Y85.878 E1.34314
G1 X115.301 Y85.666 E.03676
G1 X134.223 Y104.587 E1.34413
G1 X133.536 Y104.389 E.03588
G1 X114.601 Y85.454 E1.34513
G1 X113.9 Y85.242 E.03676
M73 P1 R158
G1 X132.85 Y104.191 E1.34613
G1 X132.164 Y103.993 E.03588
G1 X113.2 Y85.029 E1.34713
G1 X112.5 Y84.817 E.03676
G1 X131.477 Y103.795 E1.34812
G1 X130.778 Y103.584 E.0367
G1 X111.799 Y84.605 E1.34818
G1 X111.099 Y84.393 E.03676
G1 X130.078 Y103.372 E1.34823
G1 X129.378 Y103.161 E.03672
G1 X110.399 Y84.181 E1.34827
G1 X109.698 Y83.969 E.03676
G1 X128.679 Y102.949 E1.34832
G1 X127.979 Y102.738 E.03672
G1 X108.998 Y83.756 E1.34837
G1 X108.298 Y83.544 E.03676
G1 X127.279 Y102.526 E1.34841
G1 X126.58 Y102.315 E.03672
G1 X107.597 Y83.332 E1.34846
G1 X106.897 Y83.12 E.03676
G1 X125.88 Y102.103 E1.34851
G1 X125.18 Y101.892 E.03672
G1 X106.197 Y82.908 E1.34855
G1 X105.496 Y82.696 E.03676
G1 X124.481 Y101.68 E1.3486
G1 X123.781 Y101.469 E.03672
G1 X104.796 Y82.483 E1.34864
M73 P1 R157
G1 X104.096 Y82.271 E.03676
G1 X123.081 Y101.257 E1.34869
G1 X122.382 Y101.045 E.03672
G1 X103.395 Y82.059 E1.34874
G1 X102.695 Y81.847 E.03676
G1 X121.682 Y100.834 E1.34878
G1 X120.982 Y100.622 E.03672
G1 X101.994 Y81.635 E1.34883
G1 X101.294 Y81.423 E.03676
G1 X120.282 Y100.411 E1.34887
G1 X119.583 Y100.199 E.03672
G1 X100.594 Y81.211 E1.34892
G1 X99.893 Y80.998 E.03676
G1 X118.883 Y99.988 E1.34897
G1 X118.183 Y99.776 E.03672
G1 X99.193 Y80.786 E1.34901
G1 X98.493 Y80.574 E.03676
G1 X117.484 Y99.565 E1.34906
G1 X116.784 Y99.353 E.03672
G1 X97.792 Y80.362 E1.3491
G1 X97.092 Y80.15 E.03676
G1 X116.084 Y99.142 E1.34915
G1 X115.385 Y98.93 E.03672
G1 X96.392 Y79.938 E1.3492
G1 X95.691 Y79.725 E.03676
G1 X114.685 Y98.719 E1.34924
G1 X113.985 Y98.507 E.03672
G1 X94.991 Y79.513 E1.34929
G1 X94.291 Y79.301 E.03676
G1 X113.286 Y98.296 E1.34933
G1 X112.586 Y98.084 E.03672
G1 X93.59 Y79.089 E1.34938
G1 X92.89 Y78.877 E.03676
G1 X111.886 Y97.873 E1.34943
G1 X111.186 Y97.661 E.03672
G1 X92.19 Y78.665 E1.34947
G1 X91.489 Y78.452 E.03676
G1 X110.487 Y97.45 E1.34952
G1 X109.787 Y97.238 E.03672
G1 X90.789 Y78.24 E1.34956
G1 X90.089 Y78.028 E.03676
G1 X109.087 Y97.027 E1.34961
G1 X108.388 Y96.815 E.03672
G1 X89.388 Y77.816 E1.34966
G1 X88.688 Y77.604 E.03676
G1 X107.688 Y96.604 E1.3497
G1 X106.988 Y96.392 E.03672
G1 X87.988 Y77.392 E1.34975
G1 X87.287 Y77.179 E.03676
G1 X106.289 Y96.181 E1.34979
G1 X105.589 Y95.969 E.03672
G1 X86.587 Y76.967 E1.34984
G1 X85.887 Y76.755 E.03676
G1 X104.889 Y95.758 E1.34989
G1 X104.189 Y95.546 E.03672
G1 X85.186 Y76.543 E1.34993
G1 X84.486 Y76.331 E.03676
G1 X103.49 Y95.335 E1.34998
G1 X102.79 Y95.123 E.03672
G1 X83.786 Y76.119 E1.35003
G1 X83.085 Y75.907 E.03676
G1 X102.09 Y94.912 E1.35007
G1 X101.391 Y94.7 E.03672
G1 X82.385 Y75.694 E1.35012
G1 X81.685 Y75.482 E.03676
G1 X100.691 Y94.489 E1.35016
G1 X99.991 Y94.277 E.03672
G1 X80.984 Y75.27 E1.35021
G1 X80.284 Y75.058 E.03676
G1 X99.292 Y94.066 E1.35026
G1 X98.592 Y93.854 E.03672
G1 X79.584 Y74.846 E1.3503
G1 X78.883 Y74.634 E.03676
G1 X97.892 Y93.643 E1.35035
G1 X97.193 Y93.431 E.03672
G1 X78.183 Y74.421 E1.35039
G1 X77.483 Y74.209 E.03676
G1 X96.493 Y93.22 E1.35044
G1 X95.793 Y93.008 E.03672
G1 X76.782 Y73.997 E1.35049
G1 X76.082 Y73.785 E.03676
G1 X95.093 Y92.797 E1.35053
G1 X94.394 Y92.585 E.03672
G1 X75.381 Y73.573 E1.35058
G1 X75.265 Y73.537 E.00614
G1 X74.852 Y73.531 E.02073
G1 X93.694 Y92.374 E1.3385
G1 X92.994 Y92.162 E.03672
G1 X74.356 Y73.524 E1.32398
G1 X73.861 Y73.517 E.02489
G1 X92.295 Y91.951 E1.30947
G1 X91.595 Y91.739 E.03672
G1 X73.366 Y73.51 E1.29496
G1 X72.87 Y73.503 E.02489
G1 X90.895 Y91.528 E1.28044
G1 X90.544 Y91.421 E.01845
G1 X90.271 Y91.391 E.0138
G1 X72.375 Y73.495 E1.27126
G1 X71.88 Y73.488 E.02489
G1 X89.722 Y91.33 E1.26746
G1 X89.173 Y91.27 E.02774
G1 X71.384 Y73.481 E1.26367
G1 X70.889 Y73.474 E.02489
G1 X88.624 Y91.209 E1.25987
G1 X88.075 Y91.148 E.02774
G1 X70.393 Y73.467 E1.25607
G1 X69.898 Y73.459 E.02489
G1 X87.526 Y91.088 E1.25227
G1 X86.978 Y91.027 E.02774
G1 X69.403 Y73.452 E1.24848
G1 X68.907 Y73.445 E.02489
G1 X86.429 Y90.966 E1.24468
G1 X85.88 Y90.906 E.02774
G1 X68.412 Y73.438 E1.24088
G1 X67.916 Y73.43 E.02489
G1 X85.331 Y90.845 E1.23708
G1 X84.782 Y90.784 E.02774
G1 X67.421 Y73.423 E1.23328
G1 X66.926 Y73.416 E.02489
G1 X84.233 Y90.724 E1.22949
G1 X83.684 Y90.663 E.02774
G1 X66.43 Y73.409 E1.22569
G1 X65.935 Y73.402 E.02489
G1 X83.136 Y90.602 E1.22189
G1 X82.587 Y90.542 E.02774
G1 X65.439 Y73.394 E1.21809
G1 X64.944 Y73.387 E.02489
G1 X82.038 Y90.481 E1.2143
G1 X81.489 Y90.42 E.02774
G1 X64.449 Y73.38 E1.2105
M73 P1 R156
G1 X63.953 Y73.373 E.02489
G1 X80.94 Y90.36 E1.2067
G1 X80.391 Y90.299 E.02774
G1 X63.458 Y73.366 E1.2029
G1 X62.963 Y73.358 E.02489
G1 X79.843 Y90.238 E1.1991
G1 X79.294 Y90.178 E.02774
G1 X62.467 Y73.351 E1.19531
G1 X61.972 Y73.344 E.02489
G1 X78.745 Y90.117 E1.19151
G1 X78.196 Y90.056 E.02774
G1 X61.476 Y73.337 E1.18771
G1 X60.981 Y73.33 E.02489
G1 X77.647 Y89.996 E1.18391
G1 X77.098 Y89.935 E.02774
G1 X60.486 Y73.322 E1.18012
G1 X59.99 Y73.315 E.02489
G1 X76.549 Y89.874 E1.17632
G1 X76.001 Y89.814 E.02774
G1 X59.495 Y73.308 E1.17252
G1 X58.999 Y73.301 E.02489
G1 X75.452 Y89.753 E1.16872
G1 X74.903 Y89.692 E.02774
G1 X58.504 Y73.294 E1.16493
G1 X58.009 Y73.286 E.02489
G1 X74.354 Y89.632 E1.16113
G1 X73.805 Y89.571 E.02774
G1 X57.513 Y73.279 E1.15733
G1 X57.018 Y73.272 E.02489
G1 X73.256 Y89.51 E1.15353
G1 X72.707 Y89.45 E.02774
G1 X56.522 Y73.265 E1.14973
G1 X56.027 Y73.258 E.02489
G1 X72.159 Y89.389 E1.14594
G1 X71.61 Y89.328 E.02774
G1 X55.532 Y73.25 E1.14214
G1 X55.036 Y73.243 E.02489
G1 X71.061 Y89.268 E1.13834
G1 X70.512 Y89.207 E.02774
G1 X54.541 Y73.236 E1.13454
G1 X54.046 Y73.229 E.02489
G1 X69.963 Y89.146 E1.13075
G1 X69.414 Y89.086 E.02774
G1 X53.55 Y73.222 E1.12695
G1 X53.055 Y73.214 E.02489
G1 X68.866 Y89.025 E1.12315
G1 X68.317 Y88.964 E.02774
G1 X52.559 Y73.207 E1.11935
G1 X52.064 Y73.2 E.02489
G1 X67.768 Y88.904 E1.11555
G1 X67.219 Y88.843 E.02774
G1 X51.569 Y73.193 E1.11176
G1 X51.073 Y73.186 E.02489
G1 X66.67 Y88.782 E1.10796
G1 X66.121 Y88.722 E.02774
M73 P2 R156
G1 X50.578 Y73.178 E1.10416
G1 X50.082 Y73.171 E.02489
G1 X65.572 Y88.661 E1.10036
G1 X65.024 Y88.6 E.02774
G1 X49.587 Y73.164 E1.09657
G1 X49.092 Y73.157 E.02489
G1 X64.475 Y88.54 E1.09277
G1 X63.926 Y88.479 E.02774
G1 X48.596 Y73.15 E1.08897
G1 X48.101 Y73.142 E.02489
G1 X63.377 Y88.418 E1.08517
G1 X62.828 Y88.358 E.02774
G1 X47.605 Y73.135 E1.08137
G1 X47.11 Y73.128 E.02489
G1 X62.279 Y88.297 E1.07758
G1 X61.73 Y88.236 E.02774
G1 X46.615 Y73.121 E1.07378
G1 X46.119 Y73.113 E.02489
G1 X61.182 Y88.176 E1.06998
G1 X60.633 Y88.115 E.02774
G1 X45.624 Y73.106 E1.06618
G1 X45.129 Y73.099 E.02489
G1 X60.084 Y88.054 E1.06239
G1 X59.535 Y87.994 E.02774
G1 X44.633 Y73.092 E1.05859
G1 X44.138 Y73.085 E.02489
G1 X58.986 Y87.933 E1.05479
G1 X58.437 Y87.872 E.02774
G1 X43.642 Y73.077 E1.05099
G1 X43.147 Y73.07 E.02489
G1 X57.889 Y87.812 E1.0472
G1 X57.34 Y87.751 E.02774
G1 X42.652 Y73.063 E1.0434
G1 X42.156 Y73.056 E.02489
G1 X56.791 Y87.69 E1.0396
G1 X56.242 Y87.63 E.02774
G1 X41.661 Y73.049 E1.0358
G1 X41.165 Y73.041 E.02489
G1 X55.693 Y87.569 E1.032
G1 X55.144 Y87.508 E.02774
G1 X40.67 Y73.034 E1.02821
G1 X40.175 Y73.027 E.02489
G1 X54.595 Y87.448 E1.02441
G1 X54.047 Y87.387 E.02774
G1 X39.679 Y73.02 E1.02061
G1 X39.184 Y73.013 E.02489
G1 X53.498 Y87.326 E1.01681
G1 X52.949 Y87.266 E.02774
G1 X38.689 Y73.005 E1.01302
G1 X38.193 Y72.998 E.02489
G1 X52.4 Y87.205 E1.00922
G1 X51.851 Y87.144 E.02774
G1 X37.698 Y72.991 E1.00542
G1 X37.202 Y72.984 E.02489
G1 X51.302 Y87.084 E1.00162
G1 X50.753 Y87.023 E.02774
G1 X36.707 Y72.977 E.99782
G1 X36.212 Y72.969 E.02489
G1 X50.205 Y86.962 E.99403
G1 X49.656 Y86.902 E.02774
G1 X35.716 Y72.962 E.99023
G1 X35.221 Y72.955 E.02489
G1 X49.107 Y86.841 E.98643
G1 X48.558 Y86.78 E.02774
G1 X34.725 Y72.948 E.98263
G1 X34.23 Y72.941 E.02489
G1 X48.009 Y86.72 E.97884
G1 X47.47 Y86.669 E.02719
G1 X33.735 Y72.933 E.97575
G1 X33.239 Y72.926 E.02489
G1 X46.94 Y86.627 E.97327
G1 X46.41 Y86.585 E.02672
G1 X32.744 Y72.919 E.97078
G1 X32.248 Y72.912 E.02489
G1 X45.879 Y86.543 E.9683
G1 X45.349 Y86.501 E.02672
G1 X31.753 Y72.905 E.96582
