; generated by PrusaSlicer 2.5.0+win64 on 2022-12-07 at 00:08:22 UTC

; 

; external perimeters extrusion width = 1.00mm
; perimeters extrusion width = 1.00mm
; infill extrusion width = 1.00mm
; solid infill extrusion width = 1.00mm
; top infill extrusion width = 1.00mm
; support material extrusion width = 1.00mm
; first layer extrusion width = 0.42mm

M73 P0 R183
M107
;TYPE:Custom
G90 ; use absolute coordinates
M83 ; extruder relative mode
M140 S60 ; set final bed temp
M104 S150 ; set temporary nozzle temp to prevent oozing during homing and auto bed leveling
G4 S10 ; allow partial nozzle warmup
G28 ; home all axisG1 Z50 F240
G1 X7.6 Y10 F3000
M104 S210 ; set final nozzle temp
M190 S60 ; wait for bed temp to stabilize
M109 S210 ; wait for nozzle temp to stabilize
G1 Z0.28 F240
G92 E0
G1 Y140 E10 F1500 ; prime the nozzle
G1 X4 F5000
G92 E0
G1 Y10 E10 F1200 ; prime the nozzle
G92 E0
G21 ; set units to millimeters
G90 ; use absolute coordinates
M83 ; use relative distances for extrusion
; Filament gcode
M107
;LAYER_CHANGE
;Z:0.35
;HEIGHT:0.35
;BEFORE_LAYER_CHANGE
G92 E0
;0.35


G1 E-1 F3600
G1 Z.35 F7800
;AFTER_LAYER_CHANGE
;0.35
G1 X50.908 Y103.756
G1 E1 F2400
;TYPE:Perimeter
;WIDTH:0.42
G1 F1800
G1 X50.841 Y103.805 E.00419
G1 X47.869 Y107.447 E.23588
G1 X44.042 Y112.029 E.29961
G1 X42.319 Y114.134 E.13653
M73 P0 R182
G1 X19.232 Y139.495 E1.72115
G1 X15.071 Y145.114 E.35091
G1 X14.987 Y145.191 E.00571
G1 X14.522 Y145.439 E.02643
G1 X14.523 Y123.44 E1.10403
G1 X30.851 Y105.513 E1.2169
G1 X40.591 Y93.671 E.76953
G1 X50.109 Y89.894 E.51387
G1 X116.667 Y65.815 E3.55216
G1 X150.656 Y63.283 E1.7105
G1 X165.473 Y62.304 E.74521
G1 X165.472 Y76.169 E.69585
G1 X150.506 Y77.16 E.75274
G1 X116.778 Y79.666 E1.69732
G1 X116.641 Y79.695 E.00705
G1 X58.053 Y100.863 E3.1263
G1 X51.029 Y103.667 E.37955
G1 X51.108 Y104.023 F7800
;TYPE:External perimeter
G1 F1800
G1 X48.135 Y107.666 E.23598
G1 X44.307 Y112.25 E.29971
G1 X42.581 Y114.36 E.13682
G1 X19.487 Y139.727 E1.72161
G1 X15.274 Y145.418 E.35536
G1 X14.883 Y145.662 E.02311
G1 X14.177 Y145.956 E.03838
G1 X14.178 Y123.306 E1.13668
G1 X30.596 Y105.281 E1.2236
G1 X40.382 Y93.383 E.77312
G1 X49.987 Y89.572 E.5186
G1 X116.594 Y65.474 E3.5548
G1 X150.632 Y62.939 E1.71294
G1 X165.818 Y61.935 E.76378
G1 X165.817 Y76.492 E.73054
G1 X150.529 Y77.504 E.76894
G1 X116.758 Y80.02 E1.69951
G1 X58.17 Y101.188 E3.1263
G1 X51.237 Y103.949 E.37454
G1 X50.165 Y103.69 F7800
G1 E-.7 F3600
;WIPE_START
G1 F6240
G1 X50.904 Y104.348 E-.285
;WIPE_END
G1 E-.015 F3600
G1 X165.369 Y63.11 F7800
G1 E1 F2400
;TYPE:Solid infill
;WIDTH:0.420113
G1 F1800
G1 X164.862 Y62.603 E.03601
G1 X164.405 Y62.633 E.02303
G1 X165.214 Y63.443 E.05748
G1 X165.214 Y63.931 E.02449
G1 X163.947 Y62.664 E.08997
G1 X163.489 Y62.694 E.02303
G1 X165.214 Y64.419 E.12246
G1 X165.214 Y64.907 E.02449
G1 X163.032 Y62.724 E.15495
G1 X162.574 Y62.755 E.02302
G1 X165.214 Y65.395 E.18744
G1 X165.214 Y65.883 E.02449
G1 X162.116 Y62.785 E.21993
G1 X161.659 Y62.815 E.02302
G1 X165.214 Y66.37 E.25242
G1 X165.214 Y66.858 E.02449
G1 X161.201 Y62.845 E.28491
G1 X160.743 Y62.876 E.02303
G1 X165.214 Y67.346 E.3174
G1 X165.214 Y67.834 E.02449
G1 X160.286 Y62.906 E.34989
G1 X159.828 Y62.936 E.02302
G1 X165.214 Y68.322 E.38238
G1 X165.214 Y68.81 E.02449
G1 X159.37 Y62.966 E.41487
G1 X158.913 Y62.997 E.02303
G1 X165.214 Y69.298 E.44736
G1 X165.214 Y69.786 E.02449
G1 X158.455 Y63.027 E.47985
G1 X157.998 Y63.057 E.02302
G1 X165.214 Y70.274 E.51234
G1 X165.214 Y70.761 E.02449
G1 X157.54 Y63.087 E.54483
G1 X157.082 Y63.118 E.02303
G1 X165.214 Y71.249 E.57732
G1 X165.214 Y71.737 E.02449
G1 X156.625 Y63.148 E.60981
G1 X156.167 Y63.178 E.02303
G1 X165.214 Y72.225 E.6423
G1 X165.214 Y72.713 E.02449
G1 X155.709 Y63.208 E.6748
G1 X155.252 Y63.239 E.02303
G1 X165.214 Y73.201 E.70729
G1 X165.214 Y73.689 E.02449
G1 X154.794 Y63.269 E.73978
G1 X154.336 Y63.299 E.02303
G1 X165.214 Y74.177 E.77227
G1 X165.214 Y74.665 E.02449
G1 X153.879 Y63.329 E.80476
G1 X153.421 Y63.36 E.02303
G1 X165.214 Y75.152 E.83725
G1 X165.214 Y75.64 E.02449
G1 X152.963 Y63.39 E.86974
G1 X152.506 Y63.42 E.02303
G1 X165.025 Y75.94 E.88883
G1 X164.567 Y75.97 E.02302
G1 X152.048 Y63.451 E.88883
G1 X151.59 Y63.481 E.02303
G1 X164.11 Y76 E.88883
G1 X163.652 Y76.03 E.02302
G1 X151.133 Y63.511 E.88883
G1 X150.675 Y63.541 E.02303
G1 X163.195 Y76.061 E.88883
G1 X162.737 Y76.091 E.02302
G1 X150.221 Y63.575 E.88858
G1 X149.767 Y63.609 E.02286
G1 X162.279 Y76.121 E.88833
G1 X161.822 Y76.152 E.02302
G1 X149.313 Y63.643 E.88808
G1 X148.859 Y63.677 E.02286
G1 X161.364 Y76.182 E.88783
G1 X160.906 Y76.212 E.02302
G1 X148.405 Y63.71 E.88758
G1 X147.951 Y63.744 E.02286
G1 X160.449 Y76.242 E.88733
G1 X159.991 Y76.273 E.02302
G1 X147.497 Y63.778 E.88708
G1 X147.042 Y63.812 E.02286
G1 X159.534 Y76.303 E.88683
G1 X159.076 Y76.333 E.02302
G1 X146.588 Y63.846 E.88658
G1 X146.134 Y63.879 E.02286
G1 X158.618 Y76.364 E.88633
G1 X158.161 Y76.394 E.02302
G1 X145.68 Y63.913 E.88608
G1 X145.226 Y63.947 E.02286
G1 X157.703 Y76.424 E.88583
G1 X157.246 Y76.454 E.02302
G1 X144.772 Y63.981 E.88558
G1 X144.318 Y64.015 E.02286
G1 X156.788 Y76.485 E.88533
G1 X156.33 Y76.515 E.02302
G1 X143.864 Y64.049 E.88508
G1 X143.41 Y64.082 E.02286
G1 X155.873 Y76.545 E.88483
G1 X155.415 Y76.576 E.02302
G1 X142.956 Y64.116 E.88458
G1 X142.502 Y64.15 E.02286
G1 X154.957 Y76.606 E.88433
G1 X154.5 Y76.636 E.02302
G1 X142.047 Y64.184 E.88408
G1 X141.593 Y64.218 E.02286
G1 X154.042 Y76.666 E.88383
G1 X153.585 Y76.697 E.02302
G1 X141.139 Y64.251 E.88358
G1 X140.685 Y64.285 E.02286
G1 X153.127 Y76.727 E.88333
G1 X152.669 Y76.757 E.02302
G1 X140.231 Y64.319 E.88307
G1 X139.777 Y64.353 E.02286
G1 X152.212 Y76.788 E.88282
G1 X151.754 Y76.818 E.02302
G1 X139.323 Y64.387 E.88257
G1 X138.869 Y64.421 E.02286
G1 X151.297 Y76.848 E.88232
G1 X150.839 Y76.879 E.02302
G1 X138.415 Y64.454 E.88207
G1 X137.961 Y64.488 E.02286
G1 X150.382 Y76.91 E.88188
G1 X149.928 Y76.943 E.02286
G1 X137.507 Y64.522 E.88188
G1 X137.053 Y64.556 E.02286
G1 X149.474 Y76.977 E.88188
G1 X149.02 Y77.011 E.02286
G1 X136.598 Y64.59 E.88188
G1 X136.144 Y64.623 E.02286
G1 X148.566 Y77.045 E.88188
G1 X148.112 Y77.079 E.02286
M73 P0 R181
G1 X135.69 Y64.657 E.88188
G1 X135.236 Y64.691 E.02286
G1 X147.658 Y77.113 E.88188
G1 X147.204 Y77.146 E.02286
G1 X134.782 Y64.725 E.88188
G1 X134.328 Y64.759 E.02286
G1 X146.749 Y77.18 E.88188
G1 X146.295 Y77.214 E.02286
G1 X133.874 Y64.793 E.88188
G1 X133.42 Y64.826 E.02286
G1 X145.841 Y77.248 E.88188
G1 X145.387 Y77.282 E.02286
G1 X132.966 Y64.86 E.88188
G1 X132.512 Y64.894 E.02286
G1 X144.933 Y77.315 E.88188
G1 X144.479 Y77.349 E.02286
G1 X132.058 Y64.928 E.88189
G1 X131.603 Y64.962 E.02286
G1 X144.025 Y77.383 E.88189
G1 X143.571 Y77.417 E.02286
G1 X131.149 Y64.995 E.88189
G1 X130.695 Y65.029 E.02286
G1 X143.117 Y77.451 E.88189
G1 X142.663 Y77.485 E.02286
G1 X130.241 Y65.063 E.88189
G1 X129.787 Y65.097 E.02286
G1 X142.209 Y77.518 E.88189
G1 X141.755 Y77.552 E.02286
G1 X129.333 Y65.131 E.88189
G1 X128.879 Y65.165 E.02286
G1 X141.3 Y77.586 E.88189
G1 X140.846 Y77.62 E.02286
G1 X128.425 Y65.198 E.88189
G1 X127.971 Y65.232 E.02286
G1 X140.392 Y77.654 E.88189
G1 X139.938 Y77.688 E.02286
G1 X127.517 Y65.266 E.88189
G1 X127.063 Y65.3 E.02286
G1 X139.484 Y77.721 E.88189
G1 X139.03 Y77.755 E.02286
G1 X126.608 Y65.334 E.88189
G1 X126.154 Y65.367 E.02286
G1 X138.576 Y77.789 E.88189
G1 X138.122 Y77.823 E.02286
G1 X125.7 Y65.401 E.88189
G1 X125.246 Y65.435 E.02286
G1 X137.668 Y77.857 E.88189
G1 X137.214 Y77.891 E.02286
G1 X124.792 Y65.469 E.88189
G1 X124.338 Y65.503 E.02286
G1 X136.76 Y77.924 E.88189
G1 X136.306 Y77.958 E.02286
G1 X123.884 Y65.537 E.88189
G1 X123.43 Y65.57 E.02286
G1 X135.851 Y77.992 E.8819
G1 X135.397 Y78.026 E.02286
G1 X122.976 Y65.604 E.8819
G1 X122.522 Y65.638 E.02286
G1 X134.943 Y78.06 E.8819
G1 X134.489 Y78.093 E.02286
G1 X122.068 Y65.672 E.8819
G1 X121.613 Y65.706 E.02286
G1 X134.035 Y78.127 E.8819
G1 X133.581 Y78.161 E.02286
G1 X121.159 Y65.739 E.8819
G1 X120.705 Y65.773 E.02286
G1 X133.127 Y78.195 E.8819
G1 X132.673 Y78.229 E.02286
G1 X120.251 Y65.807 E.8819
G1 X119.797 Y65.841 E.02286
G1 X132.219 Y78.263 E.8819
G1 X131.765 Y78.296 E.02286
G1 X119.343 Y65.875 E.8819
G1 X118.889 Y65.909 E.02286
G1 X131.311 Y78.33 E.8819
G1 X130.857 Y78.364 E.02286
G1 X118.435 Y65.942 E.8819
G1 X117.981 Y65.976 E.02286
G1 X130.402 Y78.398 E.8819
G1 X129.948 Y78.432 E.02286
G1 X117.527 Y66.01 E.8819
G1 X117.073 Y66.044 E.02286
G1 X129.494 Y78.466 E.8819
G1 X129.04 Y78.499 E.02286
G1 X116.64 Y66.099 E.88036
G1 X116.282 Y66.229 E.01913
G1 X128.586 Y78.533 E.87356
G1 X128.132 Y78.567 E.02286
G1 X115.924 Y66.359 E.86676
G1 X115.565 Y66.488 E.01913
G1 X127.678 Y78.601 E.85995
G1 X127.224 Y78.635 E.02286
G1 X115.207 Y66.618 E.85315
G1 X114.849 Y66.747 E.01913
G1 X126.77 Y78.668 E.84635
G1 X126.316 Y78.702 E.02286
G1 X114.491 Y66.877 E.83955
G1 X114.132 Y67.007 E.01913
G1 X125.862 Y78.736 E.83275
G1 X125.408 Y78.77 E.02286
G1 X113.774 Y67.136 E.82595
G1 X113.416 Y67.266 E.01913
G1 X124.954 Y78.804 E.81915
G1 X124.499 Y78.838 E.02286
G1 X113.057 Y67.396 E.81235
G1 X112.699 Y67.525 E.01913
G1 X124.045 Y78.871 E.80554
G1 X123.591 Y78.905 E.02286
G1 X112.341 Y67.655 E.79874
G1 X111.983 Y67.784 E.01913
G1 X123.137 Y78.939 E.79194
G1 X122.683 Y78.973 E.02286
M73 P1 R181
G1 X111.624 Y67.914 E.78514
G1 X111.266 Y68.044 E.01913
G1 X122.229 Y79.007 E.77834
G1 X121.775 Y79.041 E.02286
G1 X110.908 Y68.173 E.77154
G1 X110.549 Y68.303 E.01913
G1 X121.321 Y79.074 E.76474
G1 X120.867 Y79.108 E.02286
G1 X110.191 Y68.433 E.75794
G1 X109.833 Y68.562 E.01913
G1 X120.413 Y79.142 E.75113
G1 X119.959 Y79.176 E.02286
G1 X109.475 Y68.692 E.74433
G1 X109.116 Y68.821 E.01913
G1 X119.505 Y79.21 E.73753
G1 X119.05 Y79.244 E.02286
G1 X108.758 Y68.951 E.73073
G1 X108.4 Y69.081 E.01913
G1 X118.596 Y79.277 E.72393
G1 X118.142 Y79.311 E.02286
G1 X108.041 Y69.21 E.71713
G1 X107.683 Y69.34 E.01913
G1 X117.688 Y79.345 E.71033
G1 X117.234 Y79.379 E.02286
G1 X107.325 Y69.47 E.70352
G1 X106.967 Y69.599 E.01913
G1 X116.78 Y79.413 E.69672
G1 X116.655 Y79.422 E.0063
G1 X116.395 Y79.516 E.01386
G1 X106.608 Y69.729 E.69484
G1 X106.25 Y69.858 E.01913
G1 X116.037 Y79.645 E.69483
G1 X115.678 Y79.775 E.01913
G1 X105.892 Y69.988 E.69482
G1 X105.533 Y70.118 E.01913
G1 X115.32 Y79.904 E.69481
G1 X114.961 Y80.034 E.01913
G1 X105.175 Y70.247 E.6948
G1 X104.817 Y70.377 E.01913
G1 X114.603 Y80.163 E.69478
G1 X114.245 Y80.293 E.01913
G1 X104.459 Y70.507 E.69477
G1 X104.1 Y70.636 E.01913
G1 X113.886 Y80.422 E.69476
G1 X113.528 Y80.551 E.01913
G1 X103.742 Y70.766 E.69475
G1 X103.384 Y70.895 E.01913
G1 X113.169 Y80.681 E.69474
G1 X112.811 Y80.81 E.01913
G1 X103.025 Y71.025 E.69473
G1 X102.667 Y71.155 E.01913
G1 X112.452 Y80.94 E.69472
G1 X112.094 Y81.069 E.01913
G1 X102.309 Y71.284 E.69471
G1 X101.951 Y71.414 E.01913
G1 X111.736 Y81.199 E.6947
G1 X111.377 Y81.328 E.01913
G1 X101.592 Y71.544 E.69468
G1 X101.234 Y71.673 E.01913
G1 X111.019 Y81.458 E.69467
G1 X110.66 Y81.587 E.01913
G1 X100.876 Y71.803 E.69466
G1 X100.517 Y71.932 E.01913
G1 X110.302 Y81.717 E.69465
G1 X109.943 Y81.846 E.01913
G1 X100.159 Y72.062 E.69464
G1 X99.801 Y72.192 E.01913
G1 X109.585 Y81.976 E.69463
G1 X109.226 Y82.105 E.01913
G1 X99.443 Y72.321 E.69462
G1 X99.084 Y72.451 E.01913
G1 X108.868 Y82.235 E.69461
G1 X108.51 Y82.364 E.01913
G1 X98.726 Y72.58 E.6946
G1 X98.368 Y72.71 E.01913
G1 X108.151 Y82.493 E.69458
G1 X107.793 Y82.623 E.01913
G1 X98.009 Y72.84 E.69457
G1 X97.651 Y72.969 E.01913
G1 X107.434 Y82.752 E.69456
G1 X107.076 Y82.882 E.01913
G1 X97.293 Y73.099 E.69455
G1 X96.935 Y73.229 E.01913
G1 X106.717 Y83.011 E.69454
G1 X106.359 Y83.141 E.01913
G1 X96.576 Y73.358 E.69453
G1 X96.218 Y73.488 E.01913
G1 X106 Y83.27 E.69452
G1 X105.642 Y83.4 E.01913
G1 X95.86 Y73.617 E.69451
G1 X95.501 Y73.747 E.01913
M73 P1 R180
G1 X105.284 Y83.529 E.6945
G1 X104.925 Y83.659 E.01913
G1 X95.143 Y73.877 E.69449
G1 X94.785 Y74.006 E.01913
G1 X104.567 Y83.788 E.69447
G1 X104.208 Y83.918 E.01913
G1 X94.427 Y74.136 E.69446
G1 X94.068 Y74.266 E.01913
G1 X103.85 Y84.047 E.69445
G1 X103.491 Y84.177 E.01913
G1 X93.71 Y74.395 E.69444
G1 X93.352 Y74.525 E.01913
G1 X103.133 Y84.306 E.69443
G1 X102.774 Y84.435 E.01913
G1 X92.994 Y74.654 E.69442
G1 X92.635 Y74.784 E.01913
G1 X102.416 Y84.565 E.69441
G1 X102.058 Y84.694 E.01913
G1 X92.277 Y74.914 E.6944
G1 X91.919 Y75.043 E.01913
G1 X101.699 Y84.824 E.69439
G1 X101.341 Y84.953 E.01913
G1 X91.56 Y75.173 E.69437
G1 X91.202 Y75.303 E.01913
G1 X100.982 Y85.083 E.69436
G1 X100.624 Y85.212 E.01913
G1 X90.844 Y75.432 E.69435
G1 X90.486 Y75.562 E.01913
G1 X100.265 Y85.342 E.69434
G1 X99.907 Y85.471 E.01913
G1 X90.127 Y75.691 E.69433
G1 X89.769 Y75.821 E.01913
G1 X99.549 Y85.601 E.69432
G1 X99.19 Y85.73 E.01913
G1 X89.411 Y75.951 E.69431
G1 X89.052 Y76.08 E.01913
G1 X98.832 Y85.86 E.6943
G1 X98.473 Y85.989 E.01913
G1 X88.694 Y76.21 E.69429
G1 X88.336 Y76.34 E.01913
G1 X98.115 Y86.118 E.69427
G1 X97.756 Y86.248 E.01913
G1 X87.978 Y76.469 E.69426
G1 X87.619 Y76.599 E.01913
G1 X97.398 Y86.377 E.69425
G1 X97.039 Y86.507 E.01913
G1 X87.261 Y76.728 E.69424
G1 X86.903 Y76.858 E.01913
G1 X96.681 Y86.636 E.69423
G1 X96.323 Y86.766 E.01913
G1 X86.544 Y76.988 E.69422
G1 X86.186 Y77.117 E.01913
G1 X95.964 Y86.895 E.69421
G1 X95.606 Y87.025 E.01913
G1 X85.828 Y77.247 E.6942
G1 X85.47 Y77.377 E.01913
G1 X95.247 Y87.154 E.69419
G1 X94.889 Y87.284 E.01913
G1 X85.111 Y77.506 E.69417
G1 X84.753 Y77.636 E.01913
G1 X94.53 Y87.413 E.69416
G1 X94.172 Y87.543 E.01913
G1 X84.395 Y77.765 E.69415
G1 X84.036 Y77.895 E.01913
G1 X93.813 Y87.672 E.69414
G1 X93.455 Y87.802 E.01913
G1 X83.678 Y78.025 E.69413
G1 X83.32 Y78.154 E.01913
G1 X93.097 Y87.931 E.69412
G1 X92.738 Y88.06 E.01913
G1 X82.962 Y78.284 E.69411
G1 X82.603 Y78.413 E.01913
G1 X92.38 Y88.19 E.6941
G1 X92.021 Y88.319 E.01913
G1 X82.245 Y78.543 E.69409
G1 X81.887 Y78.673 E.01913
G1 X91.663 Y88.449 E.69407
G1 X91.304 Y88.578 E.01913
G1 X81.528 Y78.802 E.69406
G1 X81.17 Y78.932 E.01913
G1 X90.946 Y88.708 E.69405
G1 X90.588 Y88.837 E.01913
G1 X80.812 Y79.062 E.69404
G1 X80.454 Y79.191 E.01913
G1 X90.229 Y88.967 E.69403
G1 X89.871 Y89.096 E.01913
G1 X80.095 Y79.321 E.69402
G1 X79.737 Y79.45 E.01913
G1 X89.512 Y89.226 E.69401
G1 X89.154 Y89.355 E.01913
G1 X79.379 Y79.58 E.694
G1 X79.02 Y79.71 E.01913
G1 X88.795 Y89.485 E.69399
G1 X88.437 Y89.614 E.01913
G1 X78.662 Y79.839 E.69398
G1 X78.304 Y79.969 E.01913
G1 X88.078 Y89.744 E.69396
G1 X87.72 Y89.873 E.01913
G1 X77.946 Y80.099 E.69395
G1 X77.587 Y80.228 E.01913
G1 X87.362 Y90.002 E.69394
G1 X87.003 Y90.132 E.01913
G1 X77.229 Y80.358 E.69393
G1 X76.871 Y80.487 E.01913
G1 X86.645 Y90.261 E.69392
G1 X86.286 Y90.391 E.01913
G1 X76.512 Y80.617 E.69391
G1 X76.154 Y80.747 E.01913
G1 X85.928 Y90.52 E.6939
G1 X85.569 Y90.65 E.01913
G1 X75.796 Y80.876 E.69389
G1 X75.438 Y81.006 E.01913
G1 X85.211 Y90.779 E.69388
G1 X84.852 Y90.909 E.01913
G1 X75.079 Y81.136 E.69386
G1 X74.721 Y81.265 E.01913
G1 X84.494 Y91.038 E.69385
G1 X84.136 Y91.168 E.01913
G1 X74.363 Y81.395 E.69384
G1 X74.004 Y81.524 E.01913
G1 X83.777 Y91.297 E.69383
G1 X83.419 Y91.427 E.01913
G1 X73.646 Y81.654 E.69382
G1 X73.288 Y81.784 E.01913
G1 X83.06 Y91.556 E.69381
G1 X82.702 Y91.686 E.01913
G1 X72.93 Y81.913 E.6938
G1 X72.571 Y82.043 E.01913
G1 X82.343 Y91.815 E.69379
G1 X81.985 Y91.944 E.01913
G1 X72.213 Y82.173 E.69378
G1 X71.855 Y82.302 E.01913
G1 X81.627 Y92.074 E.69376
G1 X81.268 Y92.203 E.01913
G1 X71.496 Y82.432 E.69375
G1 X71.138 Y82.561 E.01913
G1 X80.91 Y92.333 E.69374
G1 X80.551 Y92.462 E.01913
G1 X70.78 Y82.691 E.69373
G1 X70.422 Y82.821 E.01913
G1 X80.193 Y92.592 E.69372
G1 X79.834 Y92.721 E.01913
G1 X70.063 Y82.95 E.69371
G1 X69.705 Y83.08 E.01913
G1 X79.476 Y92.851 E.6937
G1 X79.117 Y92.98 E.01913
G1 X69.347 Y83.21 E.69369
G1 X68.988 Y83.339 E.01913
G1 X78.759 Y93.11 E.69368
G1 X78.401 Y93.239 E.01913
G1 X68.63 Y83.469 E.69366
G1 X68.272 Y83.598 E.01913
G1 X78.042 Y93.369 E.69365
G1 X77.684 Y93.498 E.01913
G1 X67.914 Y83.728 E.69364
G1 X67.555 Y83.858 E.01913
