; generated by PrusaSlicer 2.5.0+win64 on 2022-12-07 at 00:20:36 UTC

; 

; external perimeters extrusion width = 1.00mm
; perimeters extrusion width = 1.00mm
; infill extrusion width = 1.00mm
; solid infill extrusion width = 1.00mm
; top infill extrusion width = 1.00mm
; support material extrusion width = 1.00mm
; first layer extrusion width = 0.42mm

M73 P0 R894
M107
;TYPE:Custom
G90 ; use absolute coordinates
M83 ; extruder relative mode
M140 S60 ; set final bed temp
M104 S150 ; set temporary nozzle temp to prevent oozing during homing and auto bed leveling
G4 S10 ; allow partial nozzle warmup
G28 ; home all axisG1 Z50 F240
G1 X7.6 Y10 F3000
M104 S210 ; set final nozzle temp
M190 S60 ; wait for bed temp to stabilize
M109 S210 ; wait for nozzle temp to stabilize
G1 Z0.28 F240
G92 E0
G1 Y140 E10 F1500 ; prime the nozzle
G1 X4 F5000
G92 E0
G1 Y10 E10 F1200 ; prime the nozzle
G92 E0
G21 ; set units to millimeters
G90 ; use absolute coordinates
M83 ; use relative distances for extrusion
; Filament gcode
M107
;LAYER_CHANGE
;Z:0.35
;HEIGHT:0.35
;BEFORE_LAYER_CHANGE
G92 E0
;0.35


G1 E-1 F3600
G1 Z.35 F7800
;AFTER_LAYER_CHANGE
;0.35
G1 X15.46 Y18.352
G1 E1 F2400
;TYPE:Support material interface
;WIDTH:1
G1 F1800
G1 X15.46 Y134.105 E15.57852
G1 X16.352 Y134.105 E.12014
M73 P0 R893
G1 X16.352 Y18.753 E15.52445
G1 X17.245 Y18.753 E.12014
G1 X17.245 Y94.896 E10.24758
G1 X17.328 Y94.762 E.02131
G1 X18.138 Y94.358 E.12175
G1 X18.138 Y18.753 E10.17509
G1 X18.753 Y18.753 E.08285
G1 X18.753 Y15.361 E.4566
G1 X19.03 Y15.361 E.03729
G1 X19.03 Y93.912 E10.57173
G1 X19.923 Y93.472 E.13397
G1 X19.923 Y15.361 E10.51245
G1 X20.816 Y15.361 E.12014
G1 X20.816 Y93.032 E10.45329
G1 X21.708 Y92.592 E.13392
G1 X21.708 Y15.361 E10.39413
G1 X22.601 Y15.361 E.12014
G1 X22.601 Y22.146 E.91321
G1 X23.494 Y22.146 E.12014
G1 X23.494 Y15.361 E.91321
G1 X24.387 Y15.361 E.12014
G1 X24.387 Y22.146 E.91321
G1 X25.279 Y22.146 E.12014
G1 X25.279 Y15.361 E.91321
G1 X26.172 Y15.361 E.12014
G1 X26.172 Y22.146 E.91321
G1 X27.065 Y22.146 E.12014
G1 X27.065 Y15.361 E.91321
G1 X27.957 Y15.361 E.12014
G1 X27.957 Y22.146 E.91321
G1 X28.85 Y22.146 E.12014
G1 X28.85 Y15.361 E.91321
G1 X29.743 Y15.361 E.12014
G1 X29.743 Y22.146 E.91321
G1 X30.635 Y22.146 E.12014
G1 X30.635 Y15.361 E.91321
G1 X31.528 Y15.361 E.12014
G1 X31.528 Y22.146 E.91321
G1 X32.421 Y22.146 E.12014
G1 X32.421 Y15.361 E.91321
G1 X33.314 Y15.361 E.12014
G1 X33.314 Y22.146 E.91321
G1 X34.206 Y22.146 E.12014
G1 X34.206 Y15.361 E.91321
G1 X35.099 Y15.361 E.12014
G1 X35.099 Y22.146 E.91321
G1 X35.992 Y22.146 E.12014
G1 X35.992 Y15.361 E.91321
G1 X36.884 Y15.361 E.12014
G1 X36.884 Y22.146 E.91321
G1 X37.777 Y22.146 E.12014
G1 X37.777 Y15.361 E.91321
G1 X38.67 Y15.361 E.12014
G1 X38.67 Y22.146 E.91321
G1 X39.562 Y22.146 E.12014
G1 X39.562 Y15.361 E.91321
G1 X40.455 Y15.361 E.12014
G1 X40.455 Y22.146 E.91321
G1 X41.348 Y22.146 E.12014
G1 X41.348 Y15.361 E.91321
G1 X42.241 Y15.361 E.12014
G1 X42.241 Y22.146 E.91321
G1 X43.133 Y22.146 E.12014
G1 X43.133 Y15.361 E.91321
G1 X44.026 Y15.361 E.12014
G1 X44.026 Y22.146 E.91321
G1 X44.919 Y22.146 E.12014
G1 X44.919 Y15.361 E.91321
G1 X45.811 Y15.361 E.12014
G1 X45.811 Y22.146 E.91321
G1 X46.704 Y22.146 E.12014
G1 X46.704 Y15.361 E.91321
G1 X47.597 Y15.361 E.12014
G1 X47.597 Y22.146 E.91321
G1 X48.489 Y22.146 E.12014
G1 X48.489 Y15.361 E.91321
G1 X49.382 Y15.361 E.12014
G1 X49.382 Y22.146 E.91321
G1 X50.275 Y22.146 E.12014
G1 X50.275 Y15.361 E.91321
G1 X51.168 Y15.361 E.12014
G1 X51.168 Y22.146 E.91321
G1 X52.06 Y22.146 E.12014
G1 X52.06 Y15.361 E.91321
G1 X52.953 Y15.361 E.12014
G1 X52.953 Y22.146 E.91321
G1 X53.846 Y22.146 E.12014
G1 X53.846 Y15.361 E.91321
G1 X54.738 Y15.361 E.12014
G1 X54.738 Y22.146 E.91321
G1 X55.631 Y22.146 E.12014
G1 X55.631 Y15.361 E.91321
G1 X56.524 Y15.361 E.12014
G1 X56.524 Y22.146 E.91321
G1 X57.416 Y22.146 E.12014
G1 X57.416 Y15.361 E.91321
G1 X58.309 Y15.361 E.12014
G1 X58.309 Y22.146 E.91321
G1 X59.202 Y22.146 E.12014
G1 X59.202 Y15.361 E.91321
G1 X60.095 Y15.361 E.12014
G1 X60.095 Y22.146 E.91321
G1 X60.987 Y22.146 E.12014
G1 X60.987 Y15.361 E.91321
G1 X61.88 Y15.361 E.12014
G1 X61.88 Y22.146 E.91321
G1 X62.773 Y22.146 E.12014
G1 X62.773 Y15.361 E.91321
G1 X63.665 Y15.361 E.12014
G1 X63.665 Y22.146 E.91321
G1 X64.558 Y22.146 E.12014
G1 X64.558 Y15.361 E.91321
G1 X65.451 Y15.361 E.12014
G1 X65.451 Y22.146 E.91321
G1 X66.343 Y22.146 E.12014
G1 X66.343 Y15.361 E.91321
G1 X67.236 Y15.361 E.12014
G1 X67.236 Y22.146 E.91321
G1 X68.129 Y22.146 E.12014
G1 X68.129 Y15.361 E.91321
G1 X69.022 Y15.361 E.12014
G1 X69.022 Y22.146 E.91321
G1 X69.914 Y22.146 E.12014
G1 X69.914 Y15.361 E.91321
G1 X70.807 Y15.361 E.12014
G1 X70.807 Y22.146 E.91321
G1 X71.7 Y22.146 E.12014
G1 X71.7 Y15.361 E.91321
G1 X72.592 Y15.361 E.12014
G1 X72.592 Y22.146 E.91321
G1 X73.485 Y22.146 E.12014
G1 X73.485 Y15.361 E.91321
G1 X74.378 Y15.361 E.12014
G1 X74.378 Y22.146 E.91321
G1 X75.27 Y22.146 E.12014
G1 X75.27 Y15.361 E.91321
G1 X76.163 Y15.361 E.12014
G1 X76.163 Y22.146 E.91321
G1 X77.056 Y22.146 E.12014
G1 X77.056 Y15.361 E.91321
G1 X77.949 Y15.361 E.12014
G1 X77.949 Y22.146 E.91321
G1 X78.841 Y22.146 E.12014
G1 X78.841 Y15.361 E.91321
G1 X79.734 Y15.361 E.12014
G1 X79.734 Y35.717 E2.73961
G1 X79.822 Y35.717 E.01184
G1 X79.822 Y32.324 E.4566
G1 X80.627 Y32.324 E.1083
G1 X80.627 Y15.361 E2.28301
G1 X81.519 Y15.361 E.12014
G1 X81.519 Y32.324 E2.28301
G1 X82.412 Y32.324 E.12014
G1 X82.412 Y15.361 E2.28301
G1 X83.305 Y15.361 E.12014
G1 X83.305 Y32.324 E2.28301
G1 X84.197 Y32.324 E.12014
G1 X84.197 Y15.361 E2.28301
G1 X85.09 Y15.361 E.12014
G1 X85.09 Y32.324 E2.28301
G1 X85.983 Y32.324 E.12014
G1 X85.983 Y15.361 E2.28301
G1 X86.876 Y15.361 E.12014
G1 X86.875 Y28.931 E1.82641
G1 X87.768 Y28.931 E.12014
G1 X87.768 Y15.361 E1.82641
G1 X88.661 Y15.361 E.12014
G1 X88.661 Y28.931 E1.82641
G1 X89.554 Y28.931 E.12014
G1 X89.554 Y15.361 E1.82641
G1 X90.446 Y15.361 E.12014
G1 X90.446 Y28.931 E1.82641
G1 X91.339 Y28.931 E.12014
G1 X91.339 Y15.361 E1.82641
G1 X92.232 Y15.361 E.12014
G1 X92.232 Y28.931 E1.82641
G1 X93.124 Y28.931 E.12014
G1 X93.124 Y15.361 E1.82641
G1 X94.017 Y15.361 E.12014
G1 X94.017 Y25.539 E1.36981
G1 X94.91 Y25.539 E.12014
G1 X94.91 Y15.361 E1.36981
G1 X95.802 Y15.361 E.12014
G1 X95.802 Y25.539 E1.36981
G1 X96.695 Y25.539 E.12014
G1 X96.695 Y15.361 E1.36981
G1 X97.588 Y15.361 E.12014
G1 X97.588 Y25.539 E1.36981
G1 X98.481 Y25.539 E.12014
G1 X98.481 Y15.361 E1.36981
G1 X99.373 Y15.361 E.12014
G1 X99.373 Y25.539 E1.36981
G1 X100.178 Y25.539 E.10832
G1 X100.178 Y22.146 E.4566
G1 X100.266 Y22.146 E.01183
G1 X100.266 Y15.361 E.91321
G1 X101.159 Y15.361 E.12014
G1 X101.159 Y22.146 E.91321
G1 X102.051 Y22.146 E.12014
G1 X102.051 Y15.361 E.91321
G1 X102.944 Y15.361 E.12014
G1 X102.944 Y22.146 E.91321
G1 X103.837 Y22.146 E.12014
G1 X103.837 Y15.361 E.91321
G1 X104.729 Y15.361 E.12014
G1 X104.729 Y22.146 E.91321
G1 X105.622 Y22.146 E.12014
G1 X105.622 Y15.361 E.91321
G1 X106.515 Y15.361 E.12014
G1 X106.515 Y22.146 E.91321
G1 X107.408 Y22.146 E.12014
G1 X107.408 Y15.361 E.91321
G1 X108.3 Y15.361 E.12014
G1 X108.3 Y22.146 E.91321
G1 X109.193 Y22.146 E.12014
G1 X109.193 Y15.361 E.91321
G1 X110.086 Y15.361 E.12014
M73 P0 R892
G1 X110.086 Y22.146 E.91321
G1 X110.978 Y22.146 E.12014
G1 X110.978 Y15.361 E.91321
G1 X111.871 Y15.361 E.12014
G1 X111.871 Y22.146 E.91321
G1 X112.764 Y22.146 E.12014
G1 X112.764 Y15.361 E.91321
G1 X113.656 Y15.361 E.12014
G1 X113.656 Y22.146 E.91321
G1 X114.549 Y22.146 E.12014
G1 X114.549 Y15.361 E.91321
G1 X115.442 Y15.361 E.12014
G1 X115.442 Y22.146 E.91321
G1 X116.335 Y22.146 E.12014
G1 X116.335 Y15.361 E.91321
G1 X117.227 Y15.361 E.12014
G1 X117.227 Y22.146 E.91321
G1 X118.12 Y22.146 E.12014
G1 X118.12 Y15.361 E.91321
G1 X119.013 Y15.361 E.12014
G1 X119.013 Y22.146 E.91321
G1 X119.905 Y22.146 E.12014
G1 X119.905 Y15.361 E.91321
G1 X120.798 Y15.361 E.12014
G1 X120.798 Y22.146 E.91321
G1 X121.691 Y22.146 E.12014
G1 X121.691 Y15.361 E.91321
G1 X122.583 Y15.361 E.12014
G1 X122.583 Y22.146 E.91321
G1 X123.476 Y22.146 E.12014
G1 X123.476 Y15.361 E.91321
G1 X124.369 Y15.361 E.12014
G1 X124.369 Y22.146 E.91321
G1 X125.262 Y22.146 E.12014
G1 X125.262 Y15.361 E.91321
G1 X126.154 Y15.361 E.12014
G1 X126.154 Y22.146 E.91321
G1 X127.047 Y22.146 E.12014
G1 X127.047 Y15.361 E.91321
G1 X127.94 Y15.361 E.12014
G1 X127.94 Y22.146 E.91321
G1 X128.832 Y22.146 E.12014
G1 X128.832 Y15.361 E.91321
G1 X129.725 Y15.361 E.12014
G1 X129.725 Y22.548 E.96727
G1 E-.7 F3600
;WIPE_START
G1 F6240
G1 X129.725 Y22.028 E-.285
;WIPE_END
G1 E-.015 F3600
G1 X117.227 Y42.1 F7800
G1 E1 F2400
G1 F1800
G1 X117.227 Y45.559 E.46545
G1 X118.12 Y45.119 E.13392
G1 X118.12 Y42.502 E.35222
G1 X119.013 Y42.502 E.12014
G1 X119.013 Y44.68 E.29306
G1 X119.905 Y44.24 E.13392
G1 X119.905 Y42.502 E.23391
G1 X120.798 Y42.502 E.12014
G1 X120.798 Y43.801 E.17475
G1 X120.889 Y43.756 E.01367
G1 X121.22 Y43.68 E.04571
G1 X121.691 Y43.685 E.06331
G1 X121.691 Y42.502 E.1592
G1 X122.583 Y42.502 E.12014
G1 X122.583 Y43.694 E.1604
G1 X123.476 Y43.703 E.12015
G1 X123.476 Y42.502 E.1616
G1 X124.369 Y42.502 E.12014
G1 X124.369 Y43.712 E.16281
G1 X125.262 Y43.721 E.12015
G1 X125.262 Y42.502 E.16401
G1 X126.154 Y42.502 E.12014
G1 X126.154 Y43.73 E.16521
G1 X127.047 Y43.74 E.12015
G1 X127.047 Y42.502 E.16659
G1 X127.94 Y42.502 E.12014
G1 X127.94 Y43.758 E.169
G1 X128.832 Y43.776 E.12017
G1 X128.832 Y42.502 E.17141
G1 X129.725 Y42.502 E.12014
G1 X129.725 Y43.794 E.17381
G1 X130.618 Y43.812 E.12017
G1 X130.618 Y15.361 E3.82903
G1 X131.51 Y15.361 E.12014
G1 X131.51 Y43.829 E3.83144
G1 X132.403 Y43.847 E.12017
G1 X132.403 Y15.361 E3.83385
G1 X133.296 Y15.361 E.12014
G1 X133.296 Y43.865 E3.83625
G1 X134.189 Y43.883 E.12017
G1 X134.189 Y18.753 E3.38206
G1 X135.081 Y18.753 E.12014
G1 X135.081 Y43.901 E3.38447
G1 X135.974 Y43.919 E.12017
G1 X135.974 Y18.753 E3.38687
G1 X136.867 Y18.753 E.12014
G1 X136.867 Y44.75 E3.4987
G1 E-.7 F3600
;WIPE_START
G1 F6240
G1 X136.867 Y44.23 E-.285
;WIPE_END
G1 E-.015 F3600
G1 X138.652 Y52.279 F7800
G1 E1 F2400
G1 F1800
G1 X138.652 Y56.797 E.60811
G1 X139.545 Y65.269 E1.1465
G1 X139.545 Y52.68 E1.69424
G1 X140.437 Y52.68 E.12014
G1 X140.437 Y76.831 E3.25028
G1 E-.7 F3600
;WIPE_START
G1 F6240
G1 X140.437 Y76.311 E-.285
;WIPE_END
G1 E-.015 F3600
G1 X116.335 Y46.446 F7800
G1 E1 F2400
G1 F1800
G1 X116.335 Y45.895 E.0742
G1 X115.442 Y45.895 E.12014
G1 X115.442 Y46.438 E.0731
G1 X114.549 Y46.878 E.13392
G1 X114.549 Y45.895 E.13225
G1 X113.656 Y45.895 E.12014
G1 X113.656 Y47.317 E.19141
G1 X112.764 Y47.757 E.13392
G1 X112.764 Y45.895 E.25057
G1 X111.871 Y45.895 E.12014
G1 X111.871 Y48.196 E.30973
G1 X110.978 Y48.636 E.13392
G1 X110.978 Y45.493 E.42295
G1 E-.7 F3600
;WIPE_START
G1 F6240
G1 X110.978 Y46.013 E-.285
;WIPE_END
G1 E-.015 F3600
G1 X109.193 Y49.963 F7800
G1 E1 F2400
G1 F1800
G1 X109.193 Y49.288 E.09087
G1 X108.3 Y49.288 E.12014
G1 X108.3 Y49.955 E.08976
G1 X107.408 Y50.394 E.13392
G1 X107.408 Y49.288 E.14892
G1 X106.515 Y49.288 E.12014
G1 X106.515 Y50.834 E.20808
G1 X105.622 Y51.273 E.13392
G1 X105.622 Y49.288 E.26724
G1 X104.729 Y49.288 E.12014
G1 X104.729 Y51.713 E.32639
G1 X103.837 Y52.152 E.13392
G1 X103.837 Y48.886 E.43962
G1 E-.7 F3600
;WIPE_START
G1 F6240
G1 X103.837 Y49.406 E-.285
;WIPE_END
G1 E-.015 F3600
G1 X102.051 Y53.479 F7800
G1 E1 F2400
G1 F1800
G1 X102.051 Y52.68 E.10753
G1 X101.159 Y52.68 E.12014
G1 X101.159 Y53.471 E.10643
G1 X100.266 Y53.911 E.13392
G1 X100.266 Y52.68 E.16558
G1 X99.373 Y52.68 E.12014
G1 X99.373 Y54.35 E.22474
G1 X98.481 Y54.79 E.13392
G1 X98.481 Y52.68 E.2839
G1 X97.588 Y52.68 E.12014
G1 X97.588 Y55.677 E.40332
G1 X95.802 Y56.556 F7800
G1 F1800
G1 X95.802 Y56.073 E.06504
G1 X94.91 Y56.073 E.12014
G1 X94.91 Y56.548 E.06393
G1 X94.017 Y56.988 E.13392
G1 X94.017 Y56.073 E.12309
G1 X93.124 Y56.073 E.12014
G1 X93.124 Y57.427 E.18225
G1 X92.232 Y57.867 E.13392
G1 X92.232 Y56.073 E.24141
G1 X91.339 Y56.073 E.12014
G1 X91.339 Y58.306 E.30057
G1 X90.446 Y58.746 E.13392
G1 X90.446 Y55.671 E.41379
G1 E-.7 F3600
;WIPE_START
G1 F6240
G1 X90.446 Y56.191 E-.285
;WIPE_END
G1 E-.015 F3600
G1 X88.661 Y60.073 F7800
G1 E1 F2400
G1 F1800
G1 X88.661 Y59.466 E.0817
G1 X87.768 Y59.466 E.12014
G1 X87.768 Y60.065 E.0806
G1 X86.875 Y60.504 E.13392
G1 X86.875 Y59.466 E.13976
G1 X85.983 Y59.466 E.12014
G1 X85.983 Y60.944 E.19892
G1 X85.09 Y61.383 E.13392
G1 X85.09 Y59.466 E.25807
G1 X84.197 Y59.466 E.12014
G1 X84.197 Y61.823 E.31723
G1 X83.305 Y62.262 E.13392
G1 X83.305 Y59.064 E.43045
G1 E-.7 F3600
;WIPE_START
G1 F6240
G1 X83.305 Y59.584 E-.285
;WIPE_END
G1 E-.015 F3600
G1 X81.519 Y63.589 F7800
G1 E1 F2400
G1 F1800
G1 X81.519 Y62.858 E.09837
G1 X80.627 Y62.858 E.12014
G1 X80.627 Y63.581 E.09726
G1 X79.734 Y64.021 E.13392
G1 X79.734 Y62.858 E.15642
G1 X78.841 Y62.858 E.12014
G1 X78.841 Y64.46 E.21558
G1 X77.949 Y64.9 E.13392
G1 X77.949 Y62.858 E.27474
G1 X77.056 Y62.858 E.12014
G1 X77.056 Y65.787 E.39416
G1 E-.7 F3600
;WIPE_START
G1 F6240
G1 X77.056 Y65.267 E-.285
;WIPE_END
G1 E-.015 F3600
G1 X74.378 Y67.106 F7800
G1 E1 F2400
G1 F1800
G1 X74.378 Y66.251 E.11503
G1 X73.485 Y66.251 E.12014
G1 X73.485 Y67.098 E.11393
G1 X72.592 Y67.537 E.13392
G1 X72.592 Y66.251 E.17309
G1 X71.7 Y66.251 E.12014
G1 X71.7 Y67.977 E.23225
G1 X70.807 Y68.416 E.13392
G1 X70.807 Y66.251 E.2914
G1 X69.914 Y66.251 E.12014
G1 X69.914 Y69.304 E.41083
G1 X68.129 Y70.183 F7800
G1 F1800
G1 X68.129 Y69.644 E.07254
G1 X67.236 Y69.644 E.12014
G1 X67.236 Y70.175 E.07144
G1 X66.343 Y70.614 E.13392
G1 X66.343 Y69.644 E.13059
G1 X65.451 Y69.644 E.12014
G1 X65.451 Y71.054 E.18975
G1 X64.558 Y71.493 E.13392
G1 X64.558 Y69.644 E.24891
G1 X63.665 Y69.644 E.12014
G1 X63.665 Y72.381 E.36833
G1 E-.7 F3600
;WIPE_START
G1 F6240
G1 X63.665 Y71.861 E-.285
;WIPE_END
G1 E-.015 F3600
G1 X60.987 Y73.699 F7800
G1 E1 F2400
G1 F1800
G1 X60.987 Y73.037 E.08921
G1 X60.095 Y73.037 E.12014
G1 X60.095 Y73.691 E.0881
G1 X59.202 Y74.131 E.13392
G1 X59.202 Y73.037 E.14726
G1 X58.309 Y73.037 E.12014
G1 X58.309 Y74.57 E.20642
G1 X57.416 Y75.01 E.13392
G1 X57.416 Y73.037 E.26558
G1 X56.524 Y73.037 E.12014
G1 X56.524 Y75.897 E.385
G1 E-.7 F3600
;WIPE_START
G1 F6240
G1 X56.524 Y75.377 E-.285
;WIPE_END
G1 E-.015 F3600
G1 X53.846 Y77.216 F7800
G1 E1 F2400
G1 F1800
G1 X53.846 Y76.429 E.10587
G1 X52.953 Y76.429 E.12014
G1 X52.953 Y77.208 E.10477
G1 X52.06 Y77.647 E.13392
G1 X52.06 Y76.429 E.16392
G1 X51.168 Y76.429 E.12014
G1 X51.168 Y78.087 E.22308
G1 X50.275 Y78.526 E.13392
G1 X50.275 Y76.429 E.28224
G1 X49.382 Y76.429 E.12014
G1 X49.382 Y79.414 E.40166
G1 X47.597 Y80.293 F7800
G1 F1800
G1 X47.597 Y79.822 E.06338
G1 X46.704 Y79.822 E.12014
G1 X46.704 Y80.285 E.06227
G1 X45.811 Y80.724 E.13392
G1 X45.811 Y79.822 E.12143
G1 X44.919 Y79.822 E.12014
G1 X44.919 Y81.164 E.18059
G1 X44.026 Y81.603 E.13392
G1 X44.026 Y79.822 E.23975
G1 X43.133 Y79.822 E.12014
G1 X43.133 Y82.491 E.35917
G1 E-.7 F3600
;WIPE_START
G1 F6240
G1 X43.133 Y81.971 E-.285
;WIPE_END
G1 E-.015 F3600
G1 X40.455 Y83.809 F7800
G1 E1 F2400
G1 F1800
G1 X40.455 Y83.215 E.08004
G1 X39.562 Y83.215 E.12014
G1 X39.562 Y83.801 E.07894
G1 X38.67 Y84.241 E.13392
G1 X38.67 Y83.215 E.1381
G1 X37.777 Y83.215 E.12014
G1 X37.777 Y84.68 E.19725
G1 X36.884 Y85.12 E.13392
G1 X36.884 Y83.215 E.25641
G1 X35.992 Y83.215 E.12014
G1 X35.992 Y86.007 E.37583
G1 E-.7 F3600
;WIPE_START
G1 F6240
G1 X35.992 Y85.487 E-.285
;WIPE_END
G1 E-.015 F3600
G1 X33.314 Y87.326 F7800
G1 E1 F2400
G1 F1800
G1 X33.314 Y86.607 E.09671
G1 X32.421 Y86.607 E.12014
G1 X32.421 Y87.318 E.0956
G1 X31.528 Y87.757 E.13392
G1 X31.528 Y86.607 E.15476
G1 X30.635 Y86.607 E.12014
G1 X30.635 Y88.197 E.21392
G1 X29.743 Y88.636 E.13392
G1 X29.743 Y86.206 E.32714
G1 E-.7 F3600
;WIPE_START
G1 F6240
G1 X29.743 Y86.726 E-.285
;WIPE_END
G1 E-.015 F3600
G1 X26.172 Y90.842 F7800
G1 E1 F2400
G1 F1800
G1 X26.172 Y90 E.11337
G1 X25.279 Y90 E.12014
G1 X25.279 Y90.834 E.11227
G1 X24.387 Y91.274 E.13392
G1 X24.387 Y90 E.17143
G1 X23.494 Y90 E.12014
G1 X23.494 Y91.713 E.23058
G1 X22.601 Y92.153 E.13392
G1 X22.601 Y90 E.28974
G1 X22.146 Y90 E.06125
