; generated by PrusaSlicer 2.5.0+win64 on 2022-12-07 at 00:20:51 UTC

; 

; external perimeters extrusion width = 1.00mm
; perimeters extrusion width = 1.00mm
; infill extrusion width = 1.00mm
; solid infill extrusion width = 1.00mm
; top infill extrusion width = 1.00mm
; support material extrusion width = 1.00mm
; first layer extrusion width = 0.42mm

M73 P0 R173
M107
;TYPE:Custom
G90 ; use absolute coordinates
M83 ; extruder relative mode
M140 S60 ; set final bed temp
M104 S150 ; set temporary nozzle temp to prevent oozing during homing and auto bed leveling
G4 S10 ; allow partial nozzle warmup
G28 ; home all axisG1 Z50 F240
G1 X7.6 Y10 F3000
M104 S210 ; set final nozzle temp
M190 S60 ; wait for bed temp to stabilize
M109 S210 ; wait for nozzle temp to stabilize
G1 Z0.28 F240
G92 E0
G1 Y140 E10 F1500 ; prime the nozzle
G1 X4 F5000
G92 E0
G1 Y10 E10 F1200 ; prime the nozzle
G92 E0
G21 ; set units to millimeters
G90 ; use absolute coordinates
M83 ; use relative distances for extrusion
; Filament gcode
M107
;LAYER_CHANGE
;Z:0.35
;HEIGHT:0.35
;BEFORE_LAYER_CHANGE
G92 E0
;0.35


G1 E-1 F3600
G1 Z.35 F7800
;AFTER_LAYER_CHANGE
;0.35
G1 X40.526 Y72.626
G1 E1 F2400
;TYPE:Perimeter
;WIDTH:0.42
G1 F1800
G1 X40.551 Y72.725 E.00517
G1 X40.691 Y72.917 E.0119
G1 X145.802 Y162.818 E6.94139
G1 X119.52 Y162.818 E1.31902
G1 X29.545 Y85.841 E5.94249
G1 X28.184 Y83.23 E.14781
G1 X26.256 Y79.657 E.20371
G1 X20.49 Y17.182 E3.14872
G1 X35.404 Y17.182 E.74847
G1 X40.503 Y72.478 E2.78685
G1 X40.852 Y72.5 F7800
;TYPE:External perimeter
G1 F1800
G1 X40.915 Y72.655 E.00839
G1 X146.736 Y163.163 E6.98825
G1 X119.392 Y163.163 E1.37228
G1 X29.27 Y86.06 E5.95223
G1 X27.881 Y83.396 E.15078
G1 X25.919 Y79.759 E.20737
G1 X20.112 Y16.837 E3.17123
G1 X35.718 Y16.837 E.78323
G1 X40.838 Y72.351 E2.79782
G1 X40.748 Y72.631 F7800
G1 E-.7 F3600
;WIPE_START
G1 F6240
G1 X40.915 Y72.655 E-.17195
G1 X41.072 Y72.789 E-.11305
;WIPE_END
G1 E-.015 F3600
G1 X141.068 Y158.905 F7800
G1 E1 F2400
;TYPE:Solid infill
;WIDTH:0.420429
G1 F1800
G1 X144.722 Y162.559 E.25967
G1 X144.234 Y162.559 E.02454
G1 X139.105 Y157.43 E.3645
G1 X135.73 Y154.544 E.22315
G1 X143.746 Y162.559 E.56962
G1 X143.257 Y162.559 E.02454
G1 X132.355 Y151.657 E.77474
G1 X128.98 Y148.771 E.22315
G1 X142.769 Y162.559 E.97986
G1 X142.281 Y162.559 E.02454
G1 X125.605 Y145.884 E1.18498
G1 X122.23 Y142.998 E.22315
G1 X141.792 Y162.559 E1.3901
G1 X141.304 Y162.559 E.02454
G1 X118.856 Y140.111 E1.59522
G1 X115.481 Y137.225 E.22315
M73 P0 R172
G1 X140.816 Y162.559 E1.80034
G1 X140.327 Y162.559 E.02454
G1 X112.106 Y134.338 E2.00546
G1 X108.731 Y131.452 E.22315
G1 X139.839 Y162.559 E2.21058
G1 X139.351 Y162.559 E.02454
G1 X105.356 Y128.565 E2.4157
G1 X101.981 Y125.679 E.22315
G1 X138.862 Y162.559 E2.62081
G1 X138.374 Y162.559 E.02454
G1 X98.607 Y122.792 E2.82593
G1 X95.232 Y119.906 E.22315
G1 X137.885 Y162.559 E3.03105
G1 X137.397 Y162.559 E.02454
G1 X91.857 Y117.019 E3.23617
G1 X88.482 Y114.133 E.22315
G1 X136.909 Y162.559 E3.44129
G1 X136.42 Y162.559 E.02454
G1 X85.107 Y111.246 E3.64641
G1 X81.732 Y108.36 E.22315
G1 X135.932 Y162.559 E3.85153
G1 X135.444 Y162.559 E.02454
G1 X78.358 Y105.473 E4.05665
G1 X74.983 Y102.587 E.22315
G1 X134.955 Y162.559 E4.26177
G1 X134.467 Y162.559 E.02454
G1 X71.608 Y99.7 E4.46689
G1 X68.233 Y96.814 E.22315
G1 X133.979 Y162.559 E4.67201
G1 X133.49 Y162.559 E.02454
G1 X64.858 Y93.927 E4.87713
G1 X61.483 Y91.041 E.22315
G1 X133.002 Y162.559 E5.08225
G1 X132.514 Y162.559 E.02454
G1 X58.108 Y88.154 E5.28736
G1 X54.734 Y85.268 E.22315
G1 X132.025 Y162.559 E5.49248
G1 X131.537 Y162.559 E.02454
G1 X51.359 Y82.381 E5.6976
G1 X47.984 Y79.495 E.22315
G1 X131.049 Y162.559 E5.90272
G1 X130.56 Y162.559 E.02454
M73 P1 R172
G1 X43.198 Y75.197 E6.20813
G1 E-.7 F3600
;WIPE_START
M73 P1 R171
G1 F6240
G1 X43.565 Y75.565 E-.285
;WIPE_END
G1 E-.015 F3600
G1 X34.61 Y17.285 F7800
G1 E1 F2400
G1 F1800
G1 X35.209 Y17.884 E.04257
G1 X35.258 Y18.422 E.02715
G1 X34.277 Y17.441 E.06977
G1 X33.788 Y17.441 E.02454
G1 X35.308 Y18.96 E.108
G1 X35.358 Y19.498 E.02715
G1 X33.3 Y17.441 E.14623
G1 X32.812 Y17.441 E.02454
G1 X35.407 Y20.036 E.18445
G1 X35.457 Y20.574 E.02715
G1 X32.323 Y17.441 E.22268
G1 X31.835 Y17.441 E.02454
G1 X35.507 Y21.112 E.26091
G1 X35.556 Y21.65 E.02715
G1 X31.347 Y17.441 E.29914
G1 X30.858 Y17.441 E.02454
G1 X35.606 Y22.188 E.33737
G1 X35.655 Y22.726 E.02715
G1 X30.37 Y17.441 E.3756
G1 X29.881 Y17.441 E.02454
G1 X35.705 Y23.264 E.41383
G1 X35.755 Y23.802 E.02715
G1 X29.393 Y17.441 E.45206
G1 X28.905 Y17.441 E.02454
G1 X35.804 Y24.34 E.49029
G1 X35.854 Y24.878 E.02715
G1 X28.416 Y17.441 E.52851
G1 X27.928 Y17.441 E.02454
G1 X35.903 Y25.416 E.56674
G1 X35.953 Y25.954 E.02715
G1 X27.44 Y17.441 E.60497
G1 X26.951 Y17.441 E.02454
G1 X36.003 Y26.492 E.6432
G1 X36.052 Y27.03 E.02715
G1 X26.463 Y17.441 E.68143
G1 X25.975 Y17.441 E.02454
G1 X36.102 Y27.568 E.71966
G1 X36.151 Y28.106 E.02715
G1 X25.486 Y17.441 E.75789
G1 X24.998 Y17.441 E.02454
G1 X36.201 Y28.644 E.79612
G1 X36.251 Y29.182 E.02715
G1 X24.51 Y17.441 E.83435
G1 X24.021 Y17.441 E.02454
G1 X36.3 Y29.72 E.87257
G1 X36.35 Y30.258 E.02715
G1 X23.533 Y17.441 E.9108
G1 X23.045 Y17.441 E.02454
G1 X36.4 Y30.796 E.94903
G1 X36.449 Y31.334 E.02715
G1 X22.556 Y17.441 E.98726
G1 X22.068 Y17.441 E.02454
G1 X36.499 Y31.871 E1.02549
G1 X36.548 Y32.409 E.02715
G1 X21.579 Y17.441 E1.06372
G1 X21.091 Y17.441 E.02454
G1 X36.598 Y32.947 E1.10195
G1 X36.648 Y33.485 E.02715
G1 X20.791 Y17.629 E1.12681
G1 X20.841 Y18.167 E.02715
G1 X36.697 Y34.023 E1.12681
G1 X36.747 Y34.561 E.02715
G1 X20.89 Y18.705 E1.1268
G1 X20.94 Y19.243 E.02715
G1 X36.796 Y35.099 E1.1268
G1 X36.846 Y35.637 E.02715
G1 X20.989 Y19.781 E1.1268
G1 X21.039 Y20.319 E.02715
G1 X36.896 Y36.175 E1.1268
G1 X36.945 Y36.713 E.02715
G1 X21.089 Y20.857 E1.12679
G1 X21.138 Y21.395 E.02715
G1 X36.995 Y37.251 E1.12679
G1 X37.045 Y37.789 E.02715
G1 X21.188 Y21.933 E1.12679
G1 X21.238 Y22.471 E.02715
G1 X37.094 Y38.327 E1.12678
G1 X37.144 Y38.865 E.02715
G1 X21.287 Y23.009 E1.12678
G1 X21.337 Y23.547 E.02715
G1 X37.193 Y39.403 E1.12678
G1 X37.243 Y39.941 E.02715
G1 X21.387 Y24.085 E1.12678
G1 X21.436 Y24.623 E.02715
G1 X37.293 Y40.479 E1.12677
G1 X37.342 Y41.017 E.02715
G1 X21.486 Y25.161 E1.12677
G1 X21.536 Y25.699 E.02715
G1 X37.392 Y41.555 E1.12677
G1 X37.441 Y42.093 E.02715
G1 X21.585 Y26.237 E1.12676
G1 X21.635 Y26.775 E.02715
G1 X37.491 Y42.631 E1.12676
G1 X37.541 Y43.169 E.02715
G1 X21.685 Y27.313 E1.12676
G1 X21.734 Y27.851 E.02715
G1 X37.59 Y43.707 E1.12676
G1 X37.64 Y44.245 E.02715
G1 X21.784 Y28.389 E1.12675
G1 X21.834 Y28.927 E.02715
G1 X37.689 Y44.783 E1.12675
G1 X37.739 Y45.321 E.02715
G1 X21.883 Y29.465 E1.12675
G1 X21.933 Y30.003 E.02715
G1 X37.789 Y45.859 E1.12674
G1 X37.838 Y46.397 E.02715
G1 X21.983 Y30.541 E1.12674
G1 X22.032 Y31.079 E.02715
G1 X37.888 Y46.935 E1.12674
G1 X37.938 Y47.473 E.02715
G1 X22.082 Y31.617 E1.12673
G1 X22.132 Y32.155 E.02715
G1 X37.987 Y48.011 E1.12673
G1 X38.037 Y48.548 E.02715
G1 X22.181 Y32.693 E1.12673
G1 X22.231 Y33.231 E.02715
G1 X38.086 Y49.086 E1.12673
G1 X38.136 Y49.624 E.02715
G1 X22.28 Y33.769 E1.12672
G1 X22.33 Y34.307 E.02715
G1 X38.186 Y50.162 E1.12672
G1 X38.235 Y50.7 E.02715
G1 X22.38 Y34.845 E1.12672
G1 X22.429 Y35.383 E.02715
G1 X38.285 Y51.238 E1.12671
G1 X38.334 Y51.776 E.02715
G1 X22.479 Y35.921 E1.12671
G1 X22.529 Y36.459 E.02715
G1 X38.384 Y52.314 E1.12671
G1 X38.434 Y52.852 E.02715
G1 X22.578 Y36.997 E1.12671
G1 X22.628 Y37.535 E.02715
G1 X38.483 Y53.39 E1.1267
G1 X38.533 Y53.928 E.02715
G1 X22.678 Y38.073 E1.1267
G1 X22.727 Y38.611 E.02715
G1 X38.583 Y54.466 E1.1267
G1 X38.632 Y55.004 E.02715
G1 X22.777 Y39.149 E1.12669
G1 X22.827 Y39.687 E.02715
G1 X38.682 Y55.542 E1.12669
G1 X38.731 Y56.08 E.02715
G1 X22.876 Y40.225 E1.12669
G1 X22.926 Y40.763 E.02715
G1 X38.781 Y56.618 E1.12669
G1 X38.831 Y57.156 E.02715
G1 X22.976 Y41.301 E1.12668
G1 X23.025 Y41.839 E.02715
G1 X38.88 Y57.694 E1.12668
G1 X38.93 Y58.232 E.02715
G1 X23.075 Y42.377 E1.12668
G1 X23.125 Y42.915 E.02715
G1 X38.979 Y58.77 E1.12667
G1 X39.029 Y59.308 E.02715
G1 X23.174 Y43.453 E1.12667
G1 X23.224 Y43.991 E.02715
G1 X39.079 Y59.846 E1.12667
G1 X39.128 Y60.384 E.02715
G1 X23.274 Y44.529 E1.12667
G1 X23.323 Y45.067 E.02715
G1 X39.178 Y60.922 E1.12666
G1 X39.228 Y61.46 E.02715
G1 X23.373 Y45.605 E1.12666
G1 X23.423 Y46.143 E.02715
G1 X39.277 Y61.998 E1.12666
G1 X39.327 Y62.536 E.02715
G1 X23.472 Y46.681 E1.12665
G1 X23.522 Y47.219 E.02715
G1 X39.376 Y63.074 E1.12665
G1 X39.426 Y63.612 E.02715
M73 P1 R170
G1 X23.571 Y47.757 E1.12665
G1 X23.621 Y48.295 E.02715
G1 X39.476 Y64.15 E1.12665
G1 X39.525 Y64.687 E.02715
G1 X23.671 Y48.833 E1.12664
G1 X23.72 Y49.371 E.02715
G1 X39.575 Y65.225 E1.12664
G1 X39.624 Y65.763 E.02715
G1 X23.77 Y49.909 E1.12664
G1 X23.82 Y50.447 E.02715
G1 X39.674 Y66.301 E1.12663
G1 X39.724 Y66.839 E.02715
G1 X23.869 Y50.985 E1.12663
G1 X23.919 Y51.523 E.02715
G1 X39.773 Y67.377 E1.12663
G1 X39.823 Y67.915 E.02715
G1 X23.969 Y52.061 E1.12662
G1 X24.018 Y52.599 E.02715
G1 X39.872 Y68.453 E1.12662
G1 X39.922 Y68.991 E.02715
G1 X24.068 Y53.137 E1.12662
G1 X24.118 Y53.675 E.02715
G1 X39.972 Y69.529 E1.12662
G1 X40.021 Y70.067 E.02715
G1 X24.167 Y54.213 E1.12661
G1 X24.217 Y54.751 E.02715
G1 X40.071 Y70.605 E1.12661
G1 X40.121 Y71.143 E.02715
G1 X24.267 Y55.289 E1.12661
G1 X24.316 Y55.827 E.02715
G1 X40.17 Y71.681 E1.1266
G1 X40.22 Y72.219 E.02715
G1 X24.366 Y56.365 E1.1266
G1 X24.416 Y56.903 E.02715
G1 X130.072 Y162.559 E7.50812
G1 X129.583 Y162.559 E.02454
G1 X24.465 Y57.441 E7.46989
G1 X24.515 Y57.979 E.02715
G1 X129.095 Y162.559 E7.43166
G1 X128.607 Y162.559 E.02454
G1 X24.565 Y58.517 E7.39343
G1 X24.614 Y59.055 E.02715
G1 X128.118 Y162.559 E7.3552
G1 X127.63 Y162.559 E.02454
G1 X24.664 Y59.593 E7.31696
G1 X24.714 Y60.131 E.02715
M73 P2 R170
G1 X127.142 Y162.559 E7.27873
G1 X126.653 Y162.559 E.02454
G1 X24.763 Y60.669 E7.2405
G1 X24.813 Y61.207 E.02715
G1 X126.165 Y162.559 E7.20227
G1 X125.677 Y162.559 E.02454
G1 X24.862 Y61.745 E7.16404
G1 X24.912 Y62.283 E.02715
M73 P2 R169
G1 X125.188 Y162.559 E7.1258
G1 X124.7 Y162.559 E.02454
G1 X24.962 Y62.821 E7.08757
G1 X25.011 Y63.359 E.02715
G1 X124.212 Y162.559 E7.04934
G1 X123.723 Y162.559 E.02454
G1 X25.061 Y63.897 E7.01111
G1 X25.111 Y64.435 E.02715
G1 X123.235 Y162.559 E6.97288
G1 X122.747 Y162.559 E.02454
G1 X25.16 Y64.973 E6.93465
G1 X25.21 Y65.511 E.02715
G1 X122.258 Y162.559 E6.89641
G1 X121.77 Y162.559 E.02454
G1 X25.26 Y66.049 E6.85818
G1 X25.309 Y66.587 E.02715
G1 X121.281 Y162.559 E6.81995
G1 X120.793 Y162.559 E.02454
G1 X25.359 Y67.125 E6.78172
G1 X25.409 Y67.663 E.02715
G1 X120.305 Y162.559 E6.74349
G1 X119.816 Y162.559 E.02454
G1 X25.458 Y68.201 E6.70526
G1 X25.508 Y68.739 E.02715
G1 X117.628 Y160.859 E6.54618
G1 X114.247 Y157.967 E.22355
M73 P2 R168
G1 X25.558 Y69.277 E6.30243
G1 X25.607 Y69.815 E.02715
G1 X110.866 Y155.075 E6.05867
G1 X107.486 Y152.182 E.22355
G1 X25.657 Y70.353 E5.81491
G1 X25.707 Y70.891 E.02715
G1 X104.105 Y149.29 E5.57116
G1 X100.725 Y146.398 E.22355
G1 X25.756 Y71.429 E5.3274
G1 X25.806 Y71.967 E.02715
G1 X97.344 Y143.506 E5.08364
G1 X93.964 Y140.614 E.22355
M73 P3 R168
G1 X25.856 Y72.505 E4.83989
G1 X25.905 Y73.043 E.02715
G1 X90.583 Y137.721 E4.59613
G1 X87.203 Y134.829 E.22355
G1 X25.955 Y73.581 E4.35237
G1 X26.005 Y74.119 E.02715
G1 X83.822 Y131.937 E4.10862
G1 X80.441 Y129.045 E.22355
G1 X26.054 Y74.657 E3.86486
G1 X26.104 Y75.195 E.02715
G1 X77.061 Y126.153 E3.6211
G1 X73.68 Y123.26 E.22355
G1 X26.154 Y75.733 E3.37735
G1 X26.203 Y76.271 E.02715
G1 X70.3 Y120.368 E3.13359
G1 X66.919 Y117.476 E.22355
G1 X26.253 Y76.809 E2.88983
G1 X26.302 Y77.347 E.02715
G1 X63.539 Y114.584 E2.64608
G1 X60.158 Y111.692 E.22355
G1 X26.352 Y77.885 E2.40232
G1 X26.402 Y78.423 E.02715
G1 X56.778 Y108.799 E2.15856
G1 X53.397 Y105.907 E.22355
G1 X26.451 Y78.962 E1.9148
G1 X26.501 Y79.5 E.02715
G1 X50.016 Y103.015 E1.67105
G1 X46.636 Y100.123 E.22355
G1 X26.994 Y80.481 E1.39577
G1 X27.567 Y81.542 E.06058
G1 X43.255 Y97.231 E1.11485
G1 X39.875 Y94.338 E.22355
M73 P3 R167
G1 X28.139 Y82.603 E.83394
G1 X28.691 Y83.642 E.05912
G1 X36.494 Y91.446 E.55454
G1 X33.114 Y88.554 E.22355
G1 X28.857 Y84.297 E.3025
M106 S255
;LAYER_CHANGE
;Z:0.85
;HEIGHT:0.5
;BEFORE_LAYER_CHANGE
G92 E0
;0.85


G1 E-.7 F3600
;WIPE_START
G1 F6240
G1 X29.225 Y84.665 E-.285
;WIPE_END
G1 E-.015 F3600
G1 Z.85 F7800
;AFTER_LAYER_CHANGE
;0.85
M104 S205 ; set temperature
G1 X39.821 Y72.443
G1 E1 F2400
;TYPE:Perimeter
;WIDTH:1
G1 F2016.357
G1 X39.849 Y72.598 E.02922
G1 X40.036 Y73.003 E.08268
G1 X40.271 Y73.264 E.06523
G1 X143.996 Y161.98 E25.32851
G1 X120.295 Y161.98 E4.39827
G1 X30.346 Y85.025 E21.96704
G1 X29.277 Y82.974 E.42922
G1 X27.2 Y79.126 E.81149
G1 X21.561 Y18.02 E11.3877
G1 X34.795 Y18.02 E2.45593
G1 X39.801 Y72.295 E10.1146
G1 X40.697 Y72.29 F7800
;TYPE:External perimeter
G1 F1800
G1 X40.714 Y72.378 E.01659
G1 X40.851 Y72.586 E.04612
G1 X146.413 Y162.873 E25.77707
G1 X119.965 Y162.873 E4.90802
G1 X29.635 Y85.591 E22.0603
G1 X28.491 Y83.398 E.45894
G1 X26.328 Y79.389 E.84531
G1 X20.582 Y17.127 E11.60317
G1 X35.609 Y17.127 E2.78866
G1 X40.683 Y72.141 E10.25232
G1 X40.633 Y72.353 F7800
G1 E-.7 F3600
;WIPE_START
G1 F6240
G1 X40.714 Y72.378 E-.13104
G1 X40.851 Y72.586 E-.13623
G1 X40.876 Y72.607 E-.01773
;WIPE_END
G1 E-.015 F3600
G1 X141.534 Y161.712 F7800
G1 E1 F2400
;TYPE:Solid infill
;WIDTH:1.00421
G1 F1200
G1 X142.05 Y161.197 E.13604
G1 X141.366 Y160.612 E.16773
G1 X140.667 Y161.311 E.1843
G1 X139.399 Y161.311 E.23649
G1 X140.682 Y160.027 E.33848
G1 X139.999 Y159.442 E.16773
G1 X138.13 Y161.311 E.49267
G1 X136.862 Y161.311 E.23649
G1 X139.315 Y158.858 E.64685
G1 X138.631 Y158.273 E.16773
G1 X135.593 Y161.311 E.80103
G1 X134.325 Y161.311 E.23649
G1 X137.948 Y157.688 E.95522
G1 X137.264 Y157.103 E.16773
G1 X133.057 Y161.311 E1.1094
G1 X131.788 Y161.311 E.23649
G1 X136.58 Y156.519 E1.26358
G1 X135.897 Y155.934 E.16773
G1 X130.52 Y161.311 E1.41776
G1 X129.251 Y161.311 E.23649
G1 X135.213 Y155.349 E1.57195
G1 X134.529 Y154.764 E.16773
G1 X127.983 Y161.311 E1.72613
G1 X126.714 Y161.311 E.23649
G1 X133.846 Y154.18 E1.88031
G1 X133.162 Y153.595 E.16773
G1 X125.446 Y161.311 E2.0345
G1 X124.178 Y161.311 E.23649
G1 X132.478 Y153.01 E2.18868
G1 X131.795 Y152.425 E.16773
G1 X122.909 Y161.311 E2.34286
G1 X121.641 Y161.311 E.23649
G1 X131.111 Y151.841 E2.49704
G1 X130.427 Y151.256 E.16773
G1 X120.451 Y161.232 E2.63058
G1 X119.767 Y160.648 E.16773
G1 X129.744 Y150.671 E2.63056
G1 X129.06 Y150.086 E.16773
G1 X119.083 Y160.063 E2.63054
G1 X118.4 Y159.478 E.16773
G1 X128.376 Y149.502 E2.63051
G1 X127.693 Y148.917 E.16773
G1 X117.716 Y158.893 E2.63049
G1 X117.033 Y158.308 E.16773
G1 X127.009 Y148.332 E2.63046
G1 X126.325 Y147.747 E.16773
G1 X116.349 Y157.723 E2.63044
G1 X115.666 Y157.139 E.16773
G1 X125.642 Y147.163 E2.63041
G1 X124.958 Y146.578 E.16773
G1 X114.982 Y156.554 E2.63039
G1 X114.298 Y155.969 E.16773
G1 X124.274 Y145.993 E2.63037
G1 X123.59 Y145.408 E.16773
G1 X113.615 Y155.384 E2.63034
G1 X112.931 Y154.799 E.16773
G1 X122.907 Y144.824 E2.63032
G1 X122.223 Y144.239 E.16773
G1 X112.248 Y154.214 E2.63029
G1 X111.564 Y153.63 E.16773
G1 X121.539 Y143.654 E2.63027
G1 X120.856 Y143.069 E.16773
G1 X110.88 Y153.045 E2.63024
G1 X110.197 Y152.46 E.16773
G1 X120.172 Y142.485 E2.63022
G1 X119.488 Y141.9 E.16773
G1 X109.513 Y151.875 E2.6302
G1 X108.83 Y151.29 E.16773
G1 X118.805 Y141.315 E2.63017
G1 X118.121 Y140.73 E.16773
G1 X108.146 Y150.705 E2.63015
G1 X107.463 Y150.121 E.16773
G1 X117.437 Y140.146 E2.63012
G1 X116.754 Y139.561 E.16773
G1 X106.779 Y149.536 E2.6301
G1 X106.095 Y148.951 E.16773
G1 X116.07 Y138.976 E2.63007
G1 X115.386 Y138.391 E.16773
G1 X105.412 Y148.366 E2.63005
G1 X104.728 Y147.781 E.16773
G1 X114.703 Y137.807 E2.63003
G1 X114.019 Y137.222 E.16773
G1 X104.045 Y147.196 E2.63
G1 X103.361 Y146.611 E.16773
G1 X113.335 Y136.637 E2.62998
G1 X112.652 Y136.052 E.16773
G1 X102.677 Y146.027 E2.62995
G1 X101.994 Y145.442 E.16773
G1 X111.968 Y135.468 E2.62993
G1 X111.284 Y134.883 E.16773
