; generated by PrusaSlicer 2.5.0+win64 on 2022-12-07 at 00:20:49 UTC

; 

; external perimeters extrusion width = 1.00mm
; perimeters extrusion width = 1.00mm
; infill extrusion width = 1.00mm
; solid infill extrusion width = 1.00mm
; top infill extrusion width = 1.00mm
; support material extrusion width = 1.00mm
; first layer extrusion width = 0.42mm

M73 P0 R186
M107
;TYPE:Custom
G90 ; use absolute coordinates
M83 ; extruder relative mode
M140 S60 ; set final bed temp
M104 S150 ; set temporary nozzle temp to prevent oozing during homing and auto bed leveling
G4 S10 ; allow partial nozzle warmup
G28 ; home all axisG1 Z50 F240
G1 X7.6 Y10 F3000
M104 S210 ; set final nozzle temp
M190 S60 ; wait for bed temp to stabilize
M109 S210 ; wait for nozzle temp to stabilize
G1 Z0.28 F240
G92 E0
G1 Y140 E10 F1500 ; prime the nozzle
G1 X4 F5000
G92 E0
G1 Y10 E10 F1200 ; prime the nozzle
G92 E0
G21 ; set units to millimeters
G90 ; use absolute coordinates
M83 ; use relative distances for extrusion
; Filament gcode
M107
;LAYER_CHANGE
;Z:0.35
;HEIGHT:0.35
;BEFORE_LAYER_CHANGE
G92 E0
;0.35


G1 E-1 F3600
G1 Z.35 F7800
;AFTER_LAYER_CHANGE
;0.35
G1 X47.773 Y139.57
G1 E1 F2400
;TYPE:Perimeter
;WIDTH:0.42
G1 F1800
G1 X47.874 Y139.435 E.0085
G1 X47.913 Y139.187 E.01257
G1 X37.468 Y17.18 E6.14543
G1 X52.228 Y17.18 E.74077
G1 X63.155 Y145.029 E6.43959
G1 X56.118 Y153.563 E.5551
G1 X18.399 Y157.531 E1.90341
G1 X18.399 Y142.804 E.73909
G1 X47.452 Y139.746 E1.46611
G1 X47.66 Y139.662 E.01123
G1 X47.52 Y139.353 F7800
;TYPE:External perimeter
G1 F1800
G1 X47.57 Y139.217 E.00727
G1 X37.092 Y16.835 E6.16428
G1 X52.545 Y16.835 E.77551
G1 X63.51 Y145.14 E6.46254
G1 X56.295 Y153.892 E.56924
G1 X18.054 Y157.914 E1.92971
G1 X18.054 Y142.493 E.7739
G1 X47.382 Y139.407 E1.47997
G1 X47.665 Y139.359 F7800
G1 E-.7 F3600
;WIPE_START
G1 F6240
G1 X47.57 Y139.217 E-.14636
G1 X47.548 Y138.965 E-.13864
;WIPE_END
G1 E-.015 F3600
G1 X51.434 Y17.284 F7800
G1 E1 F2400
;TYPE:Solid infill
;WIDTH:0.420386
G1 F1800
G1 X52.028 Y17.878 E.04224
G1 X52.074 Y18.412 E.02692
G1 X51.1 Y17.439 E.06915
G1 X50.612 Y17.439 E.02453
G1 X52.119 Y18.946 E.10709
G1 X52.165 Y19.48 E.02692
G1 X50.124 Y17.439 E.14502
G1 X49.636 Y17.439 E.02453
G1 X52.211 Y20.014 E.18296
G1 X52.256 Y20.548 E.02692
G1 X49.147 Y17.439 E.2209
G1 X48.659 Y17.439 E.02453
G1 X52.302 Y21.082 E.25883
G1 X52.347 Y21.616 E.02692
G1 X48.171 Y17.439 E.29677
G1 X47.682 Y17.439 E.02453
G1 X52.393 Y22.15 E.33471
G1 X52.439 Y22.684 E.02692
G1 X47.194 Y17.439 E.37264
G1 X46.706 Y17.439 E.02453
G1 X52.484 Y23.218 E.41058
G1 X52.53 Y23.751 E.02692
G1 X46.218 Y17.439 E.44852
G1 X45.729 Y17.439 E.02453
G1 X52.576 Y24.285 E.48646
G1 X52.621 Y24.819 E.02692
G1 X45.241 Y17.439 E.52439
G1 X44.753 Y17.439 E.02453
G1 X52.667 Y25.353 E.56233
G1 X52.713 Y25.887 E.02692
G1 X44.264 Y17.439 E.60027
G1 X43.776 Y17.439 E.02453
G1 X52.758 Y26.421 E.6382
G1 X52.804 Y26.955 E.02692
G1 X43.288 Y17.439 E.67614
G1 X42.8 Y17.439 E.02453
G1 X52.849 Y27.489 E.71408
G1 X52.895 Y28.023 E.02692
G1 X42.311 Y17.439 E.75201
G1 X41.823 Y17.439 E.02453
G1 X52.941 Y28.557 E.78995
M73 P0 R185
G1 X52.986 Y29.091 E.02692
G1 X41.335 Y17.439 E.82789
G1 X40.846 Y17.439 E.02453
G1 X53.032 Y29.625 E.86582
G1 X53.078 Y30.159 E.02692
G1 X40.358 Y17.439 E.90376
G1 X39.87 Y17.439 E.02453
G1 X53.123 Y30.692 E.9417
G1 X53.169 Y31.226 E.02692
G1 X39.381 Y17.439 E.97964
G1 X38.893 Y17.439 E.02453
G1 X53.214 Y31.76 E1.01757
G1 X53.26 Y32.294 E.02692
G1 X38.405 Y17.439 E1.05551
G1 X37.917 Y17.439 E.02453
G1 X53.306 Y32.828 E1.09345
G1 X53.351 Y33.362 E.02692
G1 X37.779 Y17.79 E1.10644
G1 X37.825 Y18.324 E.02693
G1 X53.397 Y33.896 E1.10644
G1 X53.443 Y34.43 E.02692
G1 X37.871 Y18.858 E1.10643
G1 X37.916 Y19.392 E.02693
G1 X53.488 Y34.964 E1.10642
G1 X53.534 Y35.498 E.02692
G1 X37.962 Y19.926 E1.10642
G1 X38.008 Y20.46 E.02693
G1 X53.58 Y36.032 E1.10641
G1 X53.625 Y36.566 E.02692
G1 X38.054 Y20.994 E1.10641
G1 X38.099 Y21.528 E.02693
G1 X53.671 Y37.1 E1.1064
G1 X53.716 Y37.634 E.02692
G1 X38.145 Y22.062 E1.10639
G1 X38.191 Y22.596 E.02693
G1 X53.762 Y38.167 E1.10639
G1 X53.808 Y38.701 E.02692
G1 X38.237 Y23.13 E1.10638
G1 X38.282 Y23.664 E.02693
G1 X53.853 Y39.235 E1.10637
G1 X53.899 Y39.769 E.02692
G1 X38.328 Y24.198 E1.10637
G1 X38.374 Y24.732 E.02693
G1 X53.945 Y40.303 E1.10636
G1 X53.99 Y40.837 E.02692
G1 X38.419 Y25.266 E1.10635
G1 X38.465 Y25.8 E.02693
G1 X54.036 Y41.371 E1.10635
G1 X54.081 Y41.905 E.02692
G1 X38.511 Y26.334 E1.10634
G1 X38.557 Y26.868 E.02693
G1 X54.127 Y42.439 E1.10634
G1 X54.173 Y42.973 E.02692
G1 X38.602 Y27.402 E1.10633
G1 X38.648 Y27.936 E.02693
G1 X54.218 Y43.507 E1.10632
G1 X54.264 Y44.041 E.02692
G1 X38.694 Y28.47 E1.10632
G1 X38.739 Y29.004 E.02693
G1 X54.31 Y44.575 E1.10631
G1 X54.355 Y45.108 E.02692
G1 X38.785 Y29.538 E1.1063
G1 X38.831 Y30.072 E.02693
G1 X54.401 Y45.642 E1.1063
G1 X54.447 Y46.176 E.02692
G1 X38.877 Y30.606 E1.10629
G1 X38.922 Y31.14 E.02693
G1 X54.492 Y46.71 E1.10629
G1 X54.538 Y47.244 E.02692
G1 X38.968 Y31.674 E1.10628
G1 X39.014 Y32.208 E.02693
G1 X54.583 Y47.778 E1.10627
G1 X54.629 Y48.312 E.02692
G1 X39.059 Y32.742 E1.10627
G1 X39.105 Y33.276 E.02693
G1 X54.675 Y48.846 E1.10626
G1 X54.72 Y49.38 E.02692
G1 X39.151 Y33.81 E1.10625
G1 X39.197 Y34.344 E.02693
G1 X54.766 Y49.914 E1.10625
G1 X54.812 Y50.448 E.02692
G1 X39.242 Y34.878 E1.10624
G1 X39.288 Y35.412 E.02693
G1 X54.857 Y50.982 E1.10624
G1 X54.903 Y51.516 E.02692
G1 X39.334 Y35.946 E1.10623
G1 X39.38 Y36.481 E.02693
G1 X54.949 Y52.049 E1.10622
G1 X54.994 Y52.583 E.02692
G1 X39.425 Y37.015 E1.10622
G1 X39.471 Y37.549 E.02693
G1 X55.04 Y53.117 E1.10621
G1 X55.085 Y53.651 E.02692
G1 X39.517 Y38.083 E1.1062
G1 X39.562 Y38.617 E.02693
G1 X55.131 Y54.185 E1.1062
G1 X55.177 Y54.719 E.02692
G1 X39.608 Y39.151 E1.10619
G1 X39.654 Y39.685 E.02693
G1 X55.222 Y55.253 E1.10618
G1 X55.268 Y55.787 E.02692
G1 X39.7 Y40.219 E1.10618
G1 X39.745 Y40.753 E.02693
G1 X55.314 Y56.321 E1.10617
G1 X55.359 Y56.855 E.02692
G1 X39.791 Y41.287 E1.10617
G1 X39.837 Y41.821 E.02693
G1 X55.405 Y57.389 E1.10616
G1 X55.45 Y57.923 E.02692
G1 X39.882 Y42.355 E1.10615
G1 X39.928 Y42.889 E.02693
G1 X55.496 Y58.457 E1.10615
G1 X55.542 Y58.991 E.02692
G1 X39.974 Y43.423 E1.10614
G1 X40.02 Y43.957 E.02693
G1 X55.587 Y59.524 E1.10613
G1 X55.633 Y60.058 E.02692
G1 X40.065 Y44.491 E1.10613
G1 X40.111 Y45.025 E.02693
G1 X55.679 Y60.592 E1.10612
G1 X55.724 Y61.126 E.02692
G1 X40.157 Y45.559 E1.10612
G1 X40.203 Y46.093 E.02693
G1 X55.77 Y61.66 E1.10611
G1 X55.816 Y62.194 E.02692
G1 X40.248 Y46.627 E1.1061
G1 X40.294 Y47.161 E.02693
G1 X55.861 Y62.728 E1.1061
G1 X55.907 Y63.262 E.02692
G1 X40.34 Y47.695 E1.10609
G1 X40.385 Y48.229 E.02693
G1 X55.952 Y63.796 E1.10608
G1 X55.998 Y64.33 E.02692
G1 X40.431 Y48.763 E1.10608
G1 X40.477 Y49.297 E.02693
G1 X56.044 Y64.864 E1.10607
G1 X56.089 Y65.398 E.02692
G1 X40.523 Y49.831 E1.10606
G1 X40.568 Y50.365 E.02693
G1 X56.135 Y65.932 E1.10606
G1 X56.181 Y66.465 E.02692
G1 X40.614 Y50.899 E1.10605
G1 X40.66 Y51.433 E.02693
G1 X56.226 Y66.999 E1.10605
G1 X56.272 Y67.533 E.02692
G1 X40.705 Y51.967 E1.10604
G1 X40.751 Y52.501 E.02693
G1 X56.317 Y68.067 E1.10603
G1 X56.363 Y68.601 E.02692
G1 X40.797 Y53.035 E1.10603
G1 X40.843 Y53.569 E.02693
G1 X56.409 Y69.135 E1.10602
G1 X56.454 Y69.669 E.02692
M73 P0 R184
G1 X40.888 Y54.103 E1.10601
G1 X40.934 Y54.637 E.02693
G1 X56.5 Y70.203 E1.10601
G1 X56.546 Y70.737 E.02692
G1 X40.98 Y55.171 E1.106
G1 X41.025 Y55.705 E.02693
G1 X56.591 Y71.271 E1.106
G1 X56.637 Y71.805 E.02692
G1 X41.071 Y56.239 E1.10599
G1 X41.117 Y56.773 E.02693
G1 X56.683 Y72.339 E1.10598
G1 X56.728 Y72.873 E.02692
G1 X41.163 Y57.307 E1.10598
G1 X41.208 Y57.841 E.02693
G1 X56.774 Y73.406 E1.10597
G1 X56.819 Y73.94 E.02692
M73 P1 R184
G1 X41.254 Y58.375 E1.10596
G1 X41.3 Y58.909 E.02693
G1 X56.865 Y74.474 E1.10596
G1 X56.911 Y75.008 E.02692
G1 X41.346 Y59.443 E1.10595
G1 X41.391 Y59.977 E.02693
G1 X56.956 Y75.542 E1.10595
G1 X57.002 Y76.076 E.02692
G1 X41.437 Y60.511 E1.10594
G1 X41.483 Y61.045 E.02693
G1 X57.048 Y76.61 E1.10593
G1 X57.093 Y77.144 E.02692
G1 X41.528 Y61.579 E1.10593
G1 X41.574 Y62.113 E.02693
G1 X57.139 Y77.678 E1.10592
G1 X57.184 Y78.212 E.02692
G1 X41.62 Y62.647 E1.10591
G1 X41.666 Y63.181 E.02693
G1 X57.23 Y78.746 E1.10591
G1 X57.276 Y79.28 E.02692
G1 X41.711 Y63.715 E1.1059
G1 X41.757 Y64.249 E.02693
G1 X57.321 Y79.814 E1.10589
G1 X57.367 Y80.348 E.02692
G1 X41.803 Y64.783 E1.10589
G1 X41.848 Y65.317 E.02693
G1 X57.413 Y80.881 E1.10588
G1 X57.458 Y81.415 E.02692
G1 X41.894 Y65.851 E1.10588
G1 X41.94 Y66.385 E.02693
G1 X57.504 Y81.949 E1.10587
G1 X57.55 Y82.483 E.02692
G1 X41.986 Y66.919 E1.10586
G1 X42.031 Y67.453 E.02693
G1 X57.595 Y83.017 E1.10586
G1 X57.641 Y83.551 E.02692
G1 X42.077 Y67.987 E1.10585
G1 X42.123 Y68.521 E.02693
G1 X57.686 Y84.085 E1.10584
G1 X57.732 Y84.619 E.02692
G1 X42.169 Y69.055 E1.10584
G1 X42.214 Y69.589 E.02693
G1 X57.778 Y85.153 E1.10583
G1 X57.823 Y85.687 E.02692
G1 X42.26 Y70.123 E1.10583
G1 X42.306 Y70.657 E.02693
G1 X57.869 Y86.221 E1.10582
G1 X57.915 Y86.755 E.02692
G1 X42.351 Y71.191 E1.10581
G1 X42.397 Y71.725 E.02693
G1 X57.96 Y87.289 E1.10581
G1 X58.006 Y87.822 E.02692
G1 X42.443 Y72.259 E1.1058
G1 X42.489 Y72.793 E.02693
G1 X58.052 Y88.356 E1.10579
G1 X58.097 Y88.89 E.02692
G1 X42.534 Y73.327 E1.10579
G1 X42.58 Y73.861 E.02693
G1 X58.143 Y89.424 E1.10578
G1 X58.188 Y89.958 E.02692
G1 X42.626 Y74.395 E1.10577
G1 X42.671 Y74.929 E.02693
G1 X58.234 Y90.492 E1.10577
G1 X58.28 Y91.026 E.02692
G1 X42.717 Y75.463 E1.10576
G1 X42.763 Y75.998 E.02693
G1 X58.325 Y91.56 E1.10576
G1 X58.371 Y92.094 E.02692
G1 X42.809 Y76.532 E1.10575
G1 X42.854 Y77.066 E.02693
G1 X58.417 Y92.628 E1.10574
G1 X58.462 Y93.162 E.02692
G1 X42.9 Y77.6 E1.10574
G1 X42.946 Y78.134 E.02693
G1 X58.508 Y93.696 E1.10573
G1 X58.553 Y94.23 E.02692
G1 X42.991 Y78.668 E1.10572
G1 X43.037 Y79.202 E.02693
G1 X58.599 Y94.763 E1.10572
G1 X58.645 Y95.297 E.02692
G1 X43.083 Y79.736 E1.10571
G1 X43.129 Y80.27 E.02693
G1 X58.69 Y95.831 E1.10571
G1 X58.736 Y96.365 E.02692
G1 X43.174 Y80.804 E1.1057
G1 X43.22 Y81.338 E.02693
G1 X58.782 Y96.899 E1.10569
G1 X58.827 Y97.433 E.02692
G1 X43.266 Y81.872 E1.10569
G1 X43.312 Y82.406 E.02693
G1 X58.873 Y97.967 E1.10568
G1 X58.919 Y98.501 E.02692
G1 X43.357 Y82.94 E1.10567
G1 X43.403 Y83.474 E.02693
G1 X58.964 Y99.035 E1.10567
G1 X59.01 Y99.569 E.02692
G1 X43.449 Y84.008 E1.10566
G1 X43.494 Y84.542 E.02693
G1 X59.055 Y100.103 E1.10566
G1 X59.101 Y100.637 E.02692
G1 X43.54 Y85.076 E1.10565
G1 X43.586 Y85.61 E.02693
G1 X59.147 Y101.171 E1.10564
G1 X59.192 Y101.704 E.02692
G1 X43.632 Y86.144 E1.10564
G1 X43.677 Y86.678 E.02693
G1 X59.238 Y102.238 E1.10563
G1 X59.284 Y102.772 E.02692
G1 X43.723 Y87.212 E1.10562
G1 X43.769 Y87.746 E.02693
G1 X59.329 Y103.306 E1.10562
G1 X59.375 Y103.84 E.02692
G1 X43.814 Y88.28 E1.10561
G1 X43.86 Y88.814 E.02693
G1 X59.42 Y104.374 E1.1056
G1 X59.466 Y104.908 E.02692
G1 X43.906 Y89.348 E1.1056
G1 X43.952 Y89.882 E.02693
G1 X59.512 Y105.442 E1.10559
G1 X59.557 Y105.976 E.02692
G1 X43.997 Y90.416 E1.10559
G1 X44.043 Y90.95 E.02693
G1 X59.603 Y106.51 E1.10558
G1 X59.649 Y107.044 E.02692
G1 X44.089 Y91.484 E1.10557
G1 X44.135 Y92.018 E.02693
G1 X59.694 Y107.578 E1.10557
G1 X59.74 Y108.112 E.02692
G1 X44.18 Y92.552 E1.10556
G1 X44.226 Y93.086 E.02693
G1 X59.786 Y108.646 E1.10555
G1 X59.831 Y109.179 E.02692
G1 X44.272 Y93.62 E1.10555
G1 X44.317 Y94.154 E.02693
M73 P1 R183
G1 X59.877 Y109.713 E1.10554
G1 X59.922 Y110.247 E.02692
G1 X44.363 Y94.688 E1.10554
G1 X44.409 Y95.222 E.02693
G1 X59.968 Y110.781 E1.10553
G1 X60.014 Y111.315 E.02692
G1 X44.455 Y95.756 E1.10552
G1 X44.5 Y96.29 E.02693
G1 X60.059 Y111.849 E1.10552
G1 X60.105 Y112.383 E.02692
G1 X44.546 Y96.824 E1.10551
G1 X44.592 Y97.358 E.02693
G1 X60.151 Y112.917 E1.1055
G1 X60.196 Y113.451 E.02692
G1 X44.637 Y97.892 E1.1055
G1 X44.683 Y98.426 E.02693
G1 X60.242 Y113.985 E1.10549
G1 X60.287 Y114.519 E.02692
G1 X44.729 Y98.96 E1.10549
G1 X44.775 Y99.494 E.02693
G1 X60.333 Y115.053 E1.10548
G1 X60.379 Y115.587 E.02692
G1 X44.82 Y100.028 E1.10547
G1 X44.866 Y100.562 E.02693
G1 X60.424 Y116.12 E1.10547
G1 X60.47 Y116.654 E.02692
G1 X44.912 Y101.096 E1.10546
G1 X44.957 Y101.63 E.02693
G1 X60.516 Y117.188 E1.10545
G1 X60.561 Y117.722 E.02692
G1 X45.003 Y102.164 E1.10545
G1 X45.049 Y102.698 E.02693
G1 X60.607 Y118.256 E1.10544
G1 X60.653 Y118.79 E.02692
G1 X45.095 Y103.232 E1.10543
G1 X45.14 Y103.766 E.02693
G1 X60.698 Y119.324 E1.10543
G1 X60.744 Y119.858 E.02692
G1 X45.186 Y104.3 E1.10542
G1 X45.232 Y104.834 E.02693
G1 X60.789 Y120.392 E1.10542
G1 X60.835 Y120.926 E.02692
G1 X45.278 Y105.368 E1.10541
G1 X45.323 Y105.902 E.02693
G1 X60.881 Y121.46 E1.1054
G1 X60.926 Y121.994 E.02692
G1 X45.369 Y106.436 E1.1054
G1 X45.415 Y106.97 E.02693
G1 X60.972 Y122.528 E1.10539
G1 X61.018 Y123.061 E.02692
G1 X45.46 Y107.504 E1.10538
G1 X45.506 Y108.038 E.02693
G1 X61.063 Y123.595 E1.10538
G1 X61.109 Y124.129 E.02692
G1 X45.552 Y108.572 E1.10537
G1 X45.598 Y109.106 E.02693
G1 X61.155 Y124.663 E1.10537
G1 X61.2 Y125.197 E.02692
G1 X45.643 Y109.64 E1.10536
G1 X45.689 Y110.174 E.02693
G1 X61.246 Y125.731 E1.10535
G1 X61.291 Y126.265 E.02692
G1 X45.735 Y110.708 E1.10535
G1 X45.78 Y111.242 E.02693
G1 X61.337 Y126.799 E1.10534
G1 X61.383 Y127.333 E.02692
G1 X45.826 Y111.776 E1.10533
G1 X45.872 Y112.31 E.02693
G1 X61.428 Y127.867 E1.10533
G1 X61.474 Y128.401 E.02692
G1 X45.918 Y112.844 E1.10532
G1 X45.963 Y113.378 E.02693
G1 X61.52 Y128.935 E1.10531
G1 X61.565 Y129.469 E.02692
G1 X46.009 Y113.912 E1.10531
G1 X46.055 Y114.446 E.02693
G1 X61.611 Y130.003 E1.1053
G1 X61.656 Y130.536 E.02692
G1 X46.101 Y114.98 E1.1053
G1 X46.146 Y115.515 E.02693
G1 X61.702 Y131.07 E1.10529
G1 X61.748 Y131.604 E.02692
G1 X46.192 Y116.049 E1.10528
G1 X46.238 Y116.583 E.02693
G1 X61.793 Y132.138 E1.10528
G1 X61.839 Y132.672 E.02692
G1 X46.283 Y117.117 E1.10527
G1 X46.329 Y117.651 E.02693
G1 X61.885 Y133.206 E1.10526
G1 X61.93 Y133.74 E.02692
G1 X46.375 Y118.185 E1.10526
G1 X46.421 Y118.719 E.02693
G1 X61.976 Y134.274 E1.10525
G1 X62.022 Y134.808 E.02692
G1 X46.466 Y119.253 E1.10525
G1 X46.512 Y119.787 E.02693
G1 X62.067 Y135.342 E1.10524
G1 X62.113 Y135.876 E.02692
G1 X46.558 Y120.321 E1.10523
G1 X46.603 Y120.855 E.02693
G1 X62.158 Y136.41 E1.10523
G1 X62.204 Y136.944 E.02692
G1 X46.649 Y121.389 E1.10522
G1 X46.695 Y121.923 E.02693
G1 X62.25 Y137.477 E1.10521
G1 X62.295 Y138.011 E.02692
G1 X46.741 Y122.457 E1.10521
G1 X46.786 Y122.991 E.02693
G1 X62.341 Y138.545 E1.1052
G1 X62.387 Y139.079 E.02692
G1 X46.832 Y123.525 E1.1052
G1 X46.878 Y124.059 E.02693
G1 X62.432 Y139.613 E1.10519
G1 X62.478 Y140.147 E.02692
G1 X46.923 Y124.593 E1.10518
G1 X46.969 Y125.127 E.02693
G1 X62.523 Y140.681 E1.10518
G1 X62.569 Y141.215 E.02692
G1 X47.015 Y125.661 E1.10517
G1 X47.061 Y126.195 E.02693
G1 X62.615 Y141.749 E1.10516
G1 X62.66 Y142.283 E.02692
G1 X47.106 Y126.729 E1.10516
G1 X47.152 Y127.263 E.02693
G1 X62.706 Y142.817 E1.10515
G1 X62.752 Y143.351 E.02692
G1 X47.198 Y127.797 E1.10514
G1 X47.244 Y128.331 E.02693
G1 X62.797 Y143.885 E1.10514
G1 X62.843 Y144.418 E.02692
G1 X47.289 Y128.865 E1.10513
G1 X47.335 Y129.399 E.02693
G1 X62.885 Y144.949 E1.1049
G1 X62.665 Y145.217 E.01743
G1 X47.381 Y129.933 E1.08597
G1 X47.426 Y130.467 E.02693
G1 X62.444 Y145.484 E1.06704
G1 X62.223 Y145.752 E.01743
G1 X47.472 Y131.001 E1.04812
G1 X47.518 Y131.535 E.02693
G1 X62.003 Y146.02 E1.02919
G1 X61.782 Y146.287 E.01743
G1 X47.564 Y132.069 E1.01026
G1 X47.609 Y132.603 E.02693
G1 X61.561 Y146.555 E.99133
G1 X61.341 Y146.823 E.01743
G1 X47.655 Y133.137 E.97241
G1 X47.701 Y133.671 E.02693
M73 P2 R183
G1 X61.12 Y147.09 E.95348
G1 X60.899 Y147.358 E.01743
G1 X47.746 Y134.205 E.93455
G1 X47.792 Y134.739 E.02693
G1 X60.679 Y147.626 E.91563
G1 X60.458 Y147.893 E.01743
M73 P2 R182
G1 X47.838 Y135.273 E.8967
G1 X47.884 Y135.807 E.02693
G1 X60.237 Y148.161 E.87777
G1 X60.017 Y148.428 E.01743
G1 X47.929 Y136.341 E.85884
G1 X47.975 Y136.875 E.02693
G1 X59.796 Y148.696 E.83992
G1 X59.575 Y148.964 E.01743
