; generated by PrusaSlicer 2.5.0+win64 on 2022-12-07 at 00:20:57 UTC

; 

; external perimeters extrusion width = 1.00mm
; perimeters extrusion width = 1.00mm
; infill extrusion width = 1.00mm
; solid infill extrusion width = 1.00mm
; top infill extrusion width = 1.00mm
; support material extrusion width = 1.00mm
; first layer extrusion width = 0.42mm

M73 P0 R160
M107
;TYPE:Custom
G90 ; use absolute coordinates
M83 ; extruder relative mode
M140 S60 ; set final bed temp
M104 S150 ; set temporary nozzle temp to prevent oozing during homing and auto bed leveling
G4 S10 ; allow partial nozzle warmup
G28 ; home all axisG1 Z50 F240
G1 X7.6 Y10 F3000
M104 S210 ; set final nozzle temp
M190 S60 ; wait for bed temp to stabilize
M109 S210 ; wait for nozzle temp to stabilize
G1 Z0.28 F240
G92 E0
G1 Y140 E10 F1500 ; prime the nozzle
G1 X4 F5000
G92 E0
G1 Y10 E10 F1200 ; prime the nozzle
G92 E0
G21 ; set units to millimeters
G90 ; use absolute coordinates
M83 ; use relative distances for extrusion
; Filament gcode
M107
;LAYER_CHANGE
;Z:0.35
;HEIGHT:0.35
;BEFORE_LAYER_CHANGE
G92 E0
;0.35


G1 E-1 F3600
G1 Z.35 F7800
;AFTER_LAYER_CHANGE
;0.35
G1 X61.16 Y17.184
G1 E1 F2400
;TYPE:Perimeter
;WIDTH:0.42
G1 F1800
G1 X76.27 Y17.184 E.75829
G1 X86.559 Y138.009 E6.08566
G1 X88.477 Y162.82 E1.24888
G1 X73.685 Y162.82 E.74235
G1 X61.173 Y17.333 E7.32833
G1 X60.784 Y16.839 F7800
;TYPE:External perimeter
G1 F1800
G1 X76.586 Y16.839 E.79305
G1 X86.902 Y137.981 E6.10162
G1 X88.85 Y163.165 E1.26765
G1 X73.369 Y163.165 E.77693
M73 P0 R159
G1 X60.797 Y16.988 E7.36308
G1 X61.68 Y17.283 F7800
G1 E-.7 F3600
;WIPE_START
G1 F6240
G1 X61.317 Y16.984 E-.285
;WIPE_END
G1 E-.015 F3600
G1 X76.24 Y18.052 F7800
G1 E1 F2400
;TYPE:Solid infill
;WIDTH:0.420239
G1 F1800
G1 X75.631 Y17.443 E.04325
G1 X75.143 Y17.443 E.02451
G1 X76.115 Y18.415 E.06905
G1 X76.16 Y18.948 E.02689
G1 X74.655 Y17.443 E.10694
G1 X74.166 Y17.443 E.02451
G1 X76.206 Y19.482 E.14484
G1 X76.251 Y20.015 E.02689
G1 X73.678 Y17.443 E.18273
G1 X73.19 Y17.443 E.02451
G1 X76.297 Y20.549 E.22062
G1 X76.342 Y21.082 E.02689
G1 X72.702 Y17.443 E.25851
G1 X72.214 Y17.443 E.02451
G1 X76.387 Y21.616 E.2964
G1 X76.433 Y22.149 E.02689
G1 X71.726 Y17.443 E.33429
G1 X71.238 Y17.443 E.02451
G1 X76.478 Y22.683 E.37219
G1 X76.524 Y23.216 E.02689
G1 X70.75 Y17.443 E.41008
G1 X70.262 Y17.443 E.02451
G1 X76.569 Y23.75 E.44797
G1 X76.615 Y24.283 E.02689
G1 X69.774 Y17.443 E.48586
G1 X69.286 Y17.443 E.02451
G1 X76.66 Y24.817 E.52375
G1 X76.705 Y25.351 E.02689
G1 X68.798 Y17.443 E.56165
G1 X68.309 Y17.443 E.02451
G1 X76.751 Y25.884 E.59954
G1 X76.796 Y26.418 E.02689
G1 X67.821 Y17.443 E.63743
G1 X67.333 Y17.443 E.02451
G1 X76.842 Y26.951 E.67532
G1 X76.887 Y27.485 E.02689
G1 X66.845 Y17.443 E.71321
G1 X66.357 Y17.443 E.02451
G1 X76.933 Y28.018 E.7511
G1 X76.978 Y28.552 E.02689
G1 X65.869 Y17.443 E.789
G1 X65.381 Y17.443 E.02451
G1 X77.024 Y29.085 E.82689
G1 X77.069 Y29.619 E.02689
G1 X64.893 Y17.443 E.86478
G1 X64.405 Y17.443 E.02451
G1 X77.114 Y30.152 E.90267
G1 X77.16 Y30.686 E.02689
G1 X63.917 Y17.443 E.94056
G1 X63.429 Y17.443 E.02451
G1 X77.205 Y31.219 E.97845
G1 X77.251 Y31.753 E.02689
G1 X62.941 Y17.443 E1.01635
G1 X62.452 Y17.443 E.02451
G1 X77.296 Y32.286 E1.05424
G1 X77.342 Y32.82 E.02689
G1 X61.964 Y17.443 E1.09213
G1 X61.476 Y17.443 E.02451
G1 X77.387 Y33.353 E1.13002
G1 X77.432 Y33.887 E.02689
G1 X61.484 Y17.939 E1.13267
G1 X61.53 Y18.473 E.02692
G1 X77.478 Y34.42 E1.13263
G1 X77.523 Y34.954 E.02689
G1 X61.576 Y19.007 E1.1326
G1 X61.622 Y19.541 E.02692
G1 X77.569 Y35.487 E1.13256
G1 X77.614 Y36.021 E.02689
G1 X61.668 Y20.075 E1.13253
G1 X61.714 Y20.609 E.02692
G1 X77.66 Y36.554 E1.13249
G1 X77.705 Y37.088 E.02689
G1 X61.76 Y21.143 E1.13246
G1 X61.806 Y21.677 E.02692
G1 X77.75 Y37.621 E1.13242
G1 X77.796 Y38.155 E.02689
G1 X61.852 Y22.211 E1.13239
G1 X61.898 Y22.745 E.02692
G1 X77.841 Y38.688 E1.13235
G1 X77.887 Y39.222 E.02689
G1 X61.944 Y23.279 E1.13232
G1 X61.99 Y23.813 E.02692
G1 X77.932 Y39.755 E1.13228
G1 X77.978 Y40.289 E.02689
G1 X62.036 Y24.347 E1.13224
G1 X62.081 Y24.881 E.02692
G1 X78.023 Y40.822 E1.13221
G1 X78.068 Y41.356 E.02689
G1 X62.127 Y25.415 E1.13217
G1 X62.173 Y25.949 E.02692
G1 X78.114 Y41.89 E1.13214
G1 X78.159 Y42.423 E.02689
G1 X62.219 Y26.483 E1.1321
G1 X62.265 Y27.017 E.02692
G1 X78.205 Y42.957 E1.13207
G1 X78.25 Y43.49 E.02689
G1 X62.311 Y27.551 E1.13203
G1 X62.357 Y28.085 E.02692
G1 X78.296 Y44.024 E1.132
G1 X78.341 Y44.557 E.02689
G1 X62.403 Y28.619 E1.13196
G1 X62.449 Y29.153 E.02692
G1 X78.386 Y45.091 E1.13193
G1 X78.432 Y45.624 E.02689
G1 X62.495 Y29.687 E1.13189
G1 X62.541 Y30.221 E.02692
G1 X78.477 Y46.158 E1.13186
G1 X78.523 Y46.691 E.02689
G1 X62.587 Y30.755 E1.13182
G1 X62.633 Y31.289 E.02692
G1 X78.568 Y47.225 E1.13179
G1 X78.614 Y47.758 E.02689
G1 X62.679 Y31.823 E1.13175
G1 X62.724 Y32.357 E.02692
G1 X78.659 Y48.292 E1.13172
G1 X78.704 Y48.825 E.02689
G1 X62.77 Y32.891 E1.13168
G1 X62.816 Y33.425 E.02692
G1 X78.75 Y49.359 E1.13165
G1 X78.795 Y49.892 E.02689
G1 X62.862 Y33.959 E1.13161
G1 X62.908 Y34.493 E.02692
G1 X78.841 Y50.426 E1.13158
G1 X78.886 Y50.959 E.02689
G1 X62.954 Y35.027 E1.13154
G1 X63 Y35.561 E.02692
G1 X78.932 Y51.493 E1.13151
G1 X78.977 Y52.026 E.02689
G1 X63.046 Y36.095 E1.13147
G1 X63.092 Y36.629 E.02692
G1 X79.023 Y52.56 E1.13144
G1 X79.068 Y53.093 E.02689
G1 X63.138 Y37.163 E1.1314
G1 X63.184 Y37.697 E.02692
G1 X79.113 Y53.627 E1.13137
G1 X79.159 Y54.16 E.02689
G1 X63.23 Y38.231 E1.13133
G1 X63.276 Y38.765 E.02692
G1 X79.204 Y54.694 E1.1313
G1 X79.25 Y55.227 E.02689
G1 X63.322 Y39.299 E1.13126
G1 X63.367 Y39.833 E.02692
G1 X79.295 Y55.761 E1.13123
G1 X79.341 Y56.294 E.02689
G1 X63.413 Y40.367 E1.13119
G1 X63.459 Y40.901 E.02692
G1 X79.386 Y56.828 E1.13115
G1 X79.431 Y57.362 E.02689
G1 X63.505 Y41.435 E1.13112
G1 X63.551 Y41.969 E.02692
G1 X79.477 Y57.895 E1.13108
G1 X79.522 Y58.429 E.02689
G1 X63.597 Y42.503 E1.13105
G1 X63.643 Y43.037 E.02692
G1 X79.568 Y58.962 E1.13101
G1 X79.613 Y59.496 E.02689
G1 X63.689 Y43.571 E1.13098
G1 X63.735 Y44.105 E.02692
G1 X79.659 Y60.029 E1.13094
G1 X79.704 Y60.563 E.02689
M73 P0 R158
G1 X63.781 Y44.639 E1.13091
G1 X63.827 Y45.173 E.02692
G1 X79.749 Y61.096 E1.13087
G1 X79.795 Y61.63 E.02689
G1 X63.873 Y45.707 E1.13084
G1 X63.919 Y46.241 E.02692
G1 X79.84 Y62.163 E1.1308
G1 X79.886 Y62.697 E.02689
G1 X63.965 Y46.775 E1.13077
G1 X64.01 Y47.309 E.02692
G1 X79.931 Y63.23 E1.13073
G1 X79.977 Y63.764 E.02689
G1 X64.056 Y47.843 E1.1307
G1 X64.102 Y48.377 E.02692
G1 X80.022 Y64.297 E1.13066
G1 X80.067 Y64.831 E.02689
G1 X64.148 Y48.912 E1.13063
G1 X64.194 Y49.446 E.02692
M73 P1 R158
G1 X80.113 Y65.364 E1.13059
G1 X80.158 Y65.898 E.02689
G1 X64.24 Y49.98 E1.13056
G1 X64.286 Y50.514 E.02692
G1 X80.204 Y66.431 E1.13052
G1 X80.249 Y66.965 E.02689
G1 X64.332 Y51.048 E1.13049
G1 X64.378 Y51.582 E.02692
G1 X80.295 Y67.498 E1.13045
G1 X80.34 Y68.032 E.02689
G1 X64.424 Y52.116 E1.13042
G1 X64.47 Y52.65 E.02692
G1 X80.385 Y68.565 E1.13038
G1 X80.431 Y69.099 E.02689
G1 X64.516 Y53.184 E1.13035
G1 X64.562 Y53.718 E.02692
G1 X80.476 Y69.632 E1.13031
G1 X80.522 Y70.166 E.02689
G1 X64.607 Y54.252 E1.13028
G1 X64.653 Y54.786 E.02692
G1 X80.567 Y70.699 E1.13024
G1 X80.613 Y71.233 E.02689
G1 X64.699 Y55.32 E1.13021
G1 X64.745 Y55.854 E.02692
G1 X80.658 Y71.766 E1.13017
G1 X80.704 Y72.3 E.02689
G1 X64.791 Y56.388 E1.13014
G1 X64.837 Y56.922 E.02692
G1 X80.749 Y72.833 E1.1301
G1 X80.794 Y73.367 E.02689
G1 X64.883 Y57.456 E1.13007
G1 X64.929 Y57.99 E.02692
G1 X80.84 Y73.901 E1.13003
G1 X80.885 Y74.434 E.02689
G1 X64.975 Y58.524 E1.12999
G1 X65.021 Y59.058 E.02692
G1 X80.931 Y74.968 E1.12996
G1 X80.976 Y75.501 E.02689
G1 X65.067 Y59.592 E1.12992
G1 X65.113 Y60.126 E.02692
G1 X81.022 Y76.035 E1.12989
G1 X81.067 Y76.568 E.02689
G1 X65.159 Y60.66 E1.12985
G1 X65.205 Y61.194 E.02692
G1 X81.112 Y77.102 E1.12982
G1 X81.158 Y77.635 E.02689
G1 X65.25 Y61.728 E1.12978
G1 X65.296 Y62.262 E.02692
G1 X81.203 Y78.169 E1.12975
G1 X81.249 Y78.702 E.02689
G1 X65.342 Y62.796 E1.12971
G1 X65.388 Y63.33 E.02692
G1 X81.294 Y79.236 E1.12968
G1 X81.34 Y79.769 E.02689
G1 X65.434 Y63.864 E1.12964
G1 X65.48 Y64.398 E.02692
G1 X81.385 Y80.303 E1.12961
G1 X81.43 Y80.836 E.02689
G1 X65.526 Y64.932 E1.12957
G1 X65.572 Y65.466 E.02692
G1 X81.476 Y81.37 E1.12954
G1 X81.521 Y81.903 E.02689
G1 X65.618 Y66 E1.1295
G1 X65.664 Y66.534 E.02692
G1 X81.567 Y82.437 E1.12947
G1 X81.612 Y82.97 E.02689
G1 X65.71 Y67.068 E1.12943
G1 X65.756 Y67.602 E.02692
G1 X81.658 Y83.504 E1.1294
G1 X81.703 Y84.037 E.02689
G1 X65.802 Y68.136 E1.12936
G1 X65.848 Y68.67 E.02692
G1 X81.748 Y84.571 E1.12933
G1 X81.794 Y85.104 E.02689
G1 X65.893 Y69.204 E1.12929
G1 X65.939 Y69.738 E.02692
G1 X81.839 Y85.638 E1.12926
G1 X81.885 Y86.171 E.02689
G1 X65.985 Y70.272 E1.12922
G1 X66.031 Y70.806 E.02692
G1 X81.93 Y86.705 E1.12919
G1 X81.976 Y87.238 E.02689
G1 X66.077 Y71.34 E1.12915
G1 X66.123 Y71.874 E.02692
G1 X82.021 Y87.772 E1.12912
G1 X82.066 Y88.305 E.02689
G1 X66.169 Y72.408 E1.12908
G1 X66.215 Y72.942 E.02692
G1 X82.112 Y88.839 E1.12905
G1 X82.157 Y89.373 E.02689
G1 X66.261 Y73.476 E1.12901
G1 X66.307 Y74.01 E.02692
G1 X82.203 Y89.906 E1.12898
G1 X82.248 Y90.44 E.02689
G1 X66.353 Y74.544 E1.12894
G1 X66.399 Y75.078 E.02692
G1 X82.294 Y90.973 E1.1289
G1 X82.339 Y91.507 E.02689
G1 X66.445 Y75.612 E1.12887
G1 X66.49 Y76.146 E.02692
G1 X82.384 Y92.04 E1.12883
G1 X82.43 Y92.574 E.02689
G1 X66.536 Y76.68 E1.1288
G1 X66.582 Y77.214 E.02692
G1 X82.475 Y93.107 E1.12876
G1 X82.521 Y93.641 E.02689
G1 X66.628 Y77.748 E1.12873
G1 X66.674 Y78.282 E.02692
G1 X82.566 Y94.174 E1.12869
G1 X82.612 Y94.708 E.02689
G1 X66.72 Y78.816 E1.12866
G1 X66.766 Y79.35 E.02692
G1 X82.657 Y95.241 E1.12862
G1 X82.703 Y95.775 E.02689
G1 X66.812 Y79.884 E1.12859
G1 X66.858 Y80.418 E.02692
G1 X82.748 Y96.308 E1.12855
G1 X82.793 Y96.842 E.02689
G1 X66.904 Y80.952 E1.12852
G1 X66.95 Y81.486 E.02692
G1 X82.839 Y97.375 E1.12848
G1 X82.884 Y97.909 E.02689
G1 X66.996 Y82.02 E1.12845
G1 X67.042 Y82.554 E.02692
G1 X82.93 Y98.442 E1.12841
G1 X82.975 Y98.976 E.02689
G1 X67.088 Y83.088 E1.12838
G1 X67.133 Y83.622 E.02692
G1 X83.021 Y99.509 E1.12834
G1 X83.066 Y100.043 E.02689
M73 P1 R157
G1 X67.179 Y84.156 E1.12831
G1 X67.225 Y84.69 E.02692
G1 X83.111 Y100.576 E1.12827
G1 X83.157 Y101.11 E.02689
G1 X67.271 Y85.224 E1.12824
G1 X67.317 Y85.758 E.02692
G1 X83.202 Y101.643 E1.1282
G1 X83.248 Y102.177 E.02689
G1 X67.363 Y86.292 E1.12817
G1 X67.409 Y86.826 E.02692
G1 X83.293 Y102.71 E1.12813
G1 X83.339 Y103.244 E.02689
G1 X67.455 Y87.36 E1.1281
G1 X67.501 Y87.894 E.02692
G1 X83.384 Y103.777 E1.12806
G1 X83.429 Y104.311 E.02689
G1 X67.547 Y88.428 E1.12803
G1 X67.593 Y88.962 E.02692
G1 X83.475 Y104.845 E1.12799
G1 X83.52 Y105.378 E.02689
G1 X67.639 Y89.496 E1.12796
G1 X67.685 Y90.03 E.02692
G1 X83.566 Y105.912 E1.12792
G1 X83.611 Y106.445 E.02689
G1 X67.731 Y90.564 E1.12789
G1 X67.776 Y91.098 E.02692
G1 X83.657 Y106.979 E1.12785
G1 X83.702 Y107.512 E.02689
G1 X67.822 Y91.632 E1.12782
G1 X67.868 Y92.166 E.02692
G1 X83.747 Y108.046 E1.12778
G1 X83.793 Y108.579 E.02689
G1 X67.914 Y92.7 E1.12774
G1 X67.96 Y93.234 E.02692
G1 X83.838 Y109.113 E1.12771
G1 X83.884 Y109.646 E.02689
G1 X68.006 Y93.768 E1.12767
G1 X68.052 Y94.303 E.02692
G1 X83.929 Y110.18 E1.12764
G1 X83.975 Y110.713 E.02689
G1 X68.098 Y94.837 E1.1276
G1 X68.144 Y95.371 E.02692
G1 X84.02 Y111.247 E1.12757
G1 X84.065 Y111.78 E.02689
G1 X68.19 Y95.905 E1.12753
G1 X68.236 Y96.439 E.02692
G1 X84.111 Y112.314 E1.1275
G1 X84.156 Y112.847 E.02689
G1 X68.282 Y96.973 E1.12746
G1 X68.328 Y97.507 E.02692
G1 X84.202 Y113.381 E1.12743
G1 X84.247 Y113.914 E.02689
G1 X68.374 Y98.041 E1.12739
G1 X68.419 Y98.575 E.02692
G1 X84.293 Y114.448 E1.12736
G1 X84.338 Y114.981 E.02689
G1 X68.465 Y99.109 E1.12732
G1 X68.511 Y99.643 E.02692
G1 X84.384 Y115.515 E1.12729
G1 X84.429 Y116.048 E.02689
G1 X68.557 Y100.177 E1.12725
G1 X68.603 Y100.711 E.02692
G1 X84.474 Y116.582 E1.12722
G1 X84.52 Y117.115 E.02689
G1 X68.649 Y101.245 E1.12718
G1 X68.695 Y101.779 E.02692
G1 X84.565 Y117.649 E1.12715
G1 X84.611 Y118.182 E.02689
G1 X68.741 Y102.313 E1.12711
G1 X68.787 Y102.847 E.02692
G1 X84.656 Y118.716 E1.12708
G1 X84.702 Y119.249 E.02689
G1 X68.833 Y103.381 E1.12704
G1 X68.879 Y103.915 E.02692
G1 X84.747 Y119.783 E1.12701
G1 X84.792 Y120.316 E.02689
G1 X68.925 Y104.449 E1.12697
G1 X68.971 Y104.983 E.02692
G1 X84.838 Y120.85 E1.12694
G1 X84.883 Y121.384 E.02689
G1 X69.016 Y105.517 E1.1269
G1 X69.062 Y106.051 E.02692
G1 X84.929 Y121.917 E1.12687
G1 X84.974 Y122.451 E.02689
G1 X69.108 Y106.585 E1.12683
G1 X69.154 Y107.119 E.02692
G1 X85.02 Y122.984 E1.1268
G1 X85.065 Y123.518 E.02689
G1 X69.2 Y107.653 E1.12676
G1 X69.246 Y108.187 E.02692
G1 X85.11 Y124.051 E1.12673
G1 X85.156 Y124.585 E.02689
G1 X69.292 Y108.721 E1.12669
G1 X69.338 Y109.255 E.02692
G1 X85.201 Y125.118 E1.12665
G1 X85.247 Y125.652 E.02689
G1 X69.384 Y109.789 E1.12662
G1 X69.43 Y110.323 E.02692
G1 X85.292 Y126.185 E1.12658
G1 X85.338 Y126.719 E.02689
G1 X69.476 Y110.857 E1.12655
G1 X69.522 Y111.391 E.02692
G1 X85.383 Y127.252 E1.12651
G1 X85.428 Y127.786 E.02689
G1 X69.568 Y111.925 E1.12648
G1 X69.614 Y112.459 E.02692
M73 P2 R157
G1 X85.474 Y128.319 E1.12644
G1 X85.519 Y128.853 E.02689
G1 X69.659 Y112.993 E1.12641
G1 X69.705 Y113.527 E.02692
G1 X85.565 Y129.386 E1.12637
G1 X85.61 Y129.92 E.02689
G1 X69.751 Y114.061 E1.12634
G1 X69.797 Y114.595 E.02692
G1 X85.656 Y130.453 E1.1263
G1 X85.701 Y130.987 E.02689
G1 X69.843 Y115.129 E1.12627
G1 X69.889 Y115.663 E.02692
G1 X85.746 Y131.52 E1.12623
G1 X85.792 Y132.054 E.02689
G1 X69.935 Y116.197 E1.1262
G1 X69.981 Y116.731 E.02692
G1 X85.837 Y132.587 E1.12616
G1 X85.883 Y133.121 E.02689
G1 X70.027 Y117.265 E1.12613
G1 X70.073 Y117.799 E.02692
G1 X85.928 Y133.654 E1.12609
G1 X85.974 Y134.188 E.02689
G1 X70.119 Y118.333 E1.12606
G1 X70.165 Y118.867 E.02692
G1 X86.019 Y134.721 E1.12602
G1 X86.064 Y135.255 E.02689
G1 X70.211 Y119.401 E1.12599
G1 X70.257 Y119.935 E.02692
G1 X86.11 Y135.788 E1.12595
G1 X86.155 Y136.322 E.02689
G1 X70.302 Y120.469 E1.12592
G1 X70.348 Y121.003 E.02692
G1 X86.201 Y136.856 E1.12588
G1 X86.246 Y137.389 E.02689
G1 X70.394 Y121.537 E1.12585
G1 X70.44 Y122.071 E.02692
G1 X86.292 Y137.923 E1.12581
G1 X86.301 Y138.03 E.00542
G1 X86.333 Y138.452 E.02128
G1 X70.486 Y122.605 E1.12552
G1 X70.532 Y123.139 E.02692
G1 X86.374 Y138.981 E1.12516
G1 X86.415 Y139.51 E.02665
M73 P2 R156
G1 X70.578 Y123.673 E1.12481
G1 X70.624 Y124.207 E.02692
G1 X86.456 Y140.039 E1.12445
G1 X86.497 Y140.568 E.02665
G1 X70.67 Y124.741 E1.12409
G1 X70.716 Y125.275 E.02692
G1 X86.538 Y141.097 E1.12374
G1 X86.579 Y141.626 E.02665
G1 X70.762 Y125.809 E1.12338
G1 X70.808 Y126.343 E.02692
G1 X86.62 Y142.155 E1.12302
G1 X86.661 Y142.684 E.02665
G1 X70.854 Y126.877 E1.12267
G1 X70.899 Y127.411 E.02692
G1 X86.702 Y143.213 E1.12231
G1 X86.743 Y143.742 E.02665
G1 X70.945 Y127.945 E1.12195
G1 X70.991 Y128.479 E.02692
G1 X86.783 Y144.271 E1.1216
G1 X86.824 Y144.8 E.02665
G1 X71.037 Y129.013 E1.12124
G1 X71.083 Y129.547 E.02692
G1 X86.865 Y145.329 E1.12088
G1 X86.906 Y145.858 E.02665
G1 X71.129 Y130.081 E1.12053
G1 X71.175 Y130.615 E.02692
G1 X86.947 Y146.387 E1.12017
G1 X86.988 Y146.916 E.02665
G1 X71.221 Y131.149 E1.11981
G1 X71.267 Y131.683 E.02692
G1 X87.029 Y147.445 E1.11946
G1 X87.07 Y147.974 E.02665
G1 X71.313 Y132.217 E1.1191
G1 X71.359 Y132.751 E.02692
G1 X87.111 Y148.503 E1.11874
G1 X87.152 Y149.032 E.02665
G1 X71.405 Y133.285 E1.11839
G1 X71.451 Y133.819 E.02692
G1 X87.192 Y149.561 E1.11803
G1 X87.233 Y150.09 E.02665
G1 X71.497 Y134.353 E1.11767
G1 X71.542 Y134.887 E.02692
G1 X87.274 Y150.619 E1.11732
G1 X87.315 Y151.148 E.02665
G1 X71.588 Y135.421 E1.11696
G1 X71.634 Y135.955 E.02692
G1 X87.356 Y151.677 E1.1166
G1 X87.397 Y152.206 E.02665
G1 X71.68 Y136.489 E1.11625
G1 X71.726 Y137.023 E.02692
G1 X87.438 Y152.735 E1.11589
G1 X87.479 Y153.264 E.02665
G1 X71.772 Y137.557 E1.11553
G1 X71.818 Y138.091 E.02692
G1 X87.52 Y153.793 E1.11518
G1 X87.561 Y154.322 E.02665
G1 X71.864 Y138.625 E1.11482
G1 X71.91 Y139.159 E.02692
