; generated by PrusaSlicer 2.5.0+win64 on 2022-12-07 at 00:21:05 UTC

; 

; external perimeters extrusion width = 1.00mm
; perimeters extrusion width = 1.00mm
; infill extrusion width = 1.00mm
; solid infill extrusion width = 1.00mm
; top infill extrusion width = 1.00mm
; support material extrusion width = 1.00mm
; first layer extrusion width = 0.42mm

M73 P0 R201
M107
;TYPE:Custom
G90 ; use absolute coordinates
M83 ; extruder relative mode
M140 S60 ; set final bed temp
M104 S150 ; set temporary nozzle temp to prevent oozing during homing and auto bed leveling
G4 S10 ; allow partial nozzle warmup
G28 ; home all axisG1 Z50 F240
G1 X7.6 Y10 F3000
M104 S210 ; set final nozzle temp
M190 S60 ; wait for bed temp to stabilize
M109 S210 ; wait for nozzle temp to stabilize
G1 Z0.28 F240
G92 E0
G1 Y140 E10 F1500 ; prime the nozzle
G1 X4 F5000
G92 E0
G1 Y10 E10 F1200 ; prime the nozzle
G92 E0
G21 ; set units to millimeters
G90 ; use absolute coordinates
M83 ; use relative distances for extrusion
; Filament gcode
M107
;LAYER_CHANGE
;Z:0.35
;HEIGHT:0.35
;BEFORE_LAYER_CHANGE
G92 E0
;0.35


G1 E-1 F3600
G1 Z.35 F7800
;AFTER_LAYER_CHANGE
;0.35
G1 X136.59 Y162.818
G1 E1 F2400
;TYPE:Perimeter
;WIDTH:0.42
G1 F1800
G1 X116.849 Y162.818 E.99068
G1 X81.786 Y122.61 E2.67739
G1 X18.398 Y63.591 E4.34658
G1 X18.398 Y41.834 E1.0919
G1 X86.358 Y105.123 E4.66056
G1 X136.491 Y162.705 E3.83157
G1 X137.347 Y163.163 F7800
;TYPE:External perimeter
G1 F1800
G1 X116.693 Y163.163 E1.03657
G1 X81.551 Y122.862 E2.68346
G1 X18.053 Y63.741 E4.35411
G1 X18.053 Y41.042 E1.1392
G1 X86.606 Y104.883 E4.70124
G1 X137.249 Y163.05 E3.8705
G1 X136.382 Y162.9 F7800
G1 E-.7 F3600
;WIPE_START
G1 F6240
G1 X136.729 Y163.053 E-.285
;WIPE_END
G1 E-.015 F3600
G1 X83.072 Y102.205 F7800
G1 E1 F2400
;TYPE:Solid infill
;WIDTH:0.421666
G1 F1800
G1 X86.178 Y105.311 E.2215
G1 X89.477 Y109.1 E.25334
G1 X79.027 Y98.65 E.74524
G1 X71.896 Y92.009 E.49138
G1 X92.776 Y112.889 E1.48904
G1 X96.075 Y116.677 E.25334
G1 X64.766 Y85.369 E2.23283
G1 X57.635 Y78.728 E.49138
G1 X99.373 Y120.466 E2.97663
G1 X102.672 Y124.255 E.25334
G1 X50.504 Y72.087 E3.72043
G1 X43.373 Y65.446 E.49138
G1 X105.971 Y128.044 E4.46423
G1 X109.27 Y131.833 E.25334
M73 P0 R200
G1 X36.242 Y58.806 E5.20803
G1 X29.112 Y52.165 E.49138
G1 X112.568 Y135.622 E5.95182
G1 X115.867 Y139.411 E.25334
G1 X21.981 Y45.524 E6.69562
G1 X18.657 Y42.429 E.22908
G1 X18.657 Y42.69 E.01319
G1 X119.166 Y143.199 E7.16796
G1 X122.465 Y146.988 E.25334
G1 X18.657 Y43.18 E7.40321
G1 X18.657 Y43.67 E.02472
G1 X125.763 Y150.777 E7.63847
G1 X129.062 Y154.566 E.25334
G1 X18.657 Y44.16 E7.87373
G1 X18.657 Y44.651 E.02472
G1 X132.361 Y158.355 E8.10898
G1 X135.66 Y162.144 E.25334
G1 X18.657 Y45.141 E8.34424
G1 X18.657 Y45.631 E.02472
G1 X135.585 Y162.559 E8.33893
G1 X135.095 Y162.559 E.02472
G1 X18.657 Y46.121 E8.30397
G1 X18.657 Y46.611 E.02472
G1 X134.605 Y162.559 E8.26902
G1 X134.115 Y162.559 E.02472
M73 P0 R199
G1 X18.657 Y47.101 E8.23407
G1 X18.657 Y47.591 E.02472
G1 X133.625 Y162.559 E8.19912
G1 X133.135 Y162.559 E.02472
M73 P1 R199
G1 X18.657 Y48.081 E8.16416
G1 X18.657 Y48.571 E.02472
G1 X132.645 Y162.559 E8.12921
G1 X132.154 Y162.559 E.02472
G1 X18.657 Y49.061 E8.09426
G1 X18.657 Y49.552 E.02472
G1 X131.664 Y162.559 E8.05931
G1 X131.174 Y162.559 E.02472
G1 X18.657 Y50.042 E8.02436
G1 X18.657 Y50.532 E.02472
G1 X130.684 Y162.559 E7.9894
G1 X130.194 Y162.559 E.02472
G1 X18.657 Y51.022 E7.95445
G1 X18.657 Y51.512 E.02472
G1 X129.704 Y162.559 E7.9195
G1 X129.214 Y162.559 E.02472
G1 X18.657 Y52.002 E7.88455
G1 X18.657 Y52.492 E.02472
M73 P1 R198
G1 X128.724 Y162.559 E7.84959
G1 X128.234 Y162.559 E.02472
G1 X18.657 Y52.982 E7.81464
G1 X18.657 Y53.472 E.02472
G1 X127.744 Y162.559 E7.77969
G1 X127.253 Y162.559 E.02472
G1 X18.657 Y53.963 E7.74474
G1 X18.657 Y54.453 E.02472
G1 X126.763 Y162.559 E7.70978
G1 X126.273 Y162.559 E.02472
G1 X18.657 Y54.943 E7.67483
G1 X18.657 Y55.433 E.02472
G1 X125.783 Y162.559 E7.63988
G1 X125.293 Y162.559 E.02472
G1 X18.657 Y55.923 E7.60493
G1 X18.657 Y56.413 E.02472
G1 X124.803 Y162.559 E7.56997
G1 X124.313 Y162.559 E.02472
G1 X18.657 Y56.903 E7.53502
G1 X18.657 Y57.393 E.02472
G1 X123.823 Y162.559 E7.50007
G1 X123.333 Y162.559 E.02472
G1 X18.657 Y57.883 E7.46512
G1 X18.657 Y58.373 E.02472
M73 P1 R197
G1 X122.843 Y162.559 E7.43017
G1 X122.352 Y162.559 E.02472
G1 X18.657 Y58.864 E7.39521
G1 X18.657 Y59.354 E.02472
M73 P2 R197
G1 X78.493 Y119.19 E4.26734
G1 X81.966 Y122.423 E.23926
G1 X83.597 Y124.295 E.1252
G1 X121.862 Y162.559 E2.72891
G1 X121.372 Y162.559 E.02472
G1 X86.938 Y128.126 E2.45569
G1 X90.279 Y131.957 E.25634
G1 X120.882 Y162.559 E2.18247
G1 X120.392 Y162.559 E.02472
G1 X93.62 Y135.788 E1.90926
G1 X96.961 Y139.619 E.25634
G1 X119.902 Y162.559 E1.63604
G1 X119.412 Y162.559 E.02472
G1 X100.302 Y143.45 E1.36282
G1 X103.643 Y147.281 E.25634
G1 X118.922 Y162.559 E1.0896
G1 X118.432 Y162.559 E.02472
G1 X106.984 Y151.112 E.81639
G1 X110.325 Y154.943 E.25634
G1 X117.941 Y162.559 E.54317
G1 X117.451 Y162.559 E.02472
G1 X112.056 Y157.164 E.38475
G1 E-.7 F3600
;WIPE_START
G1 F6240
G1 X112.424 Y157.532 E-.285
;WIPE_END
G1 E-.015 F3600
G1 X74.46 Y115.647 F7800
G1 E1 F2400
G1 F1800
G1 X18.657 Y59.844 E3.9797
G1 X18.657 Y60.334 E.02472
G1 X64.275 Y105.952 E3.25333
G1 X57.166 Y99.333 E.48984
G1 X18.657 Y60.824 E2.74632
G1 X18.657 Y61.314 E.02472
G1 X50.056 Y92.714 E2.23932
G1 X42.947 Y86.095 E.48984
G1 X18.657 Y61.804 E1.73231
G1 X18.657 Y62.294 E.02472
G1 X35.838 Y79.476 E1.22531
G1 X28.729 Y72.856 E.48984
G1 X18.657 Y62.784 E.7183
G1 X18.657 Y63.274 E.02472
G1 X24.695 Y69.313 E.43066
M106 S255
;LAYER_CHANGE
;Z:0.85
;HEIGHT:0.5
;BEFORE_LAYER_CHANGE
G92 E0
;0.85


G1 E-.7 F3600
;WIPE_START
G1 F6240
G1 X24.328 Y68.946 E-.285
;WIPE_END
G1 E-.015 F3600
G1 Z.85 F7800
;AFTER_LAYER_CHANGE
;0.85
M104 S205 ; set temperature
G1 X134.964 Y161.98
G1 E1 F2400
;TYPE:Perimeter
;WIDTH:1
G1 F2016.357
G1 X117.457 Y161.98 E3.24893
G1 X81.944 Y121.278 E10.02391
G1 X19.236 Y62.887 E15.90053
G1 X19.236 Y43.421 E3.61241
G1 X85.343 Y104.985 E16.76346
G1 X134.866 Y161.867 E13.99562
G1 E-.7 F3600
;WIPE_START
G1 F6240
G1 X134.346 Y161.871 E-.285
;WIPE_END
G1 E-.015 F3600
G1 X136.925 Y162.873 F7800
G1 E1 F2400
;TYPE:External perimeter
G1 F1800
G1 X117.051 Y162.873 E3.68813
G1 X81.336 Y121.932 E10.08207
G1 X18.343 Y63.276 E15.97263
G1 X18.343 Y41.37 E4.06515
G1 X85.986 Y104.363 E17.15277
G1 X136.827 Y162.76 E14.36817
M73 P2 R196
G1 X135.96 Y162.61 F7800
G1 E-.7 F3600
;WIPE_START
G1 F6240
G1 X136.307 Y162.763 E-.285
;WIPE_END
G1 E-.015 F3600
G1 X132.621 Y161.712 F7800
G1 E1 F2400
;TYPE:Solid infill
;WIDTH:1.00209
G1 F1200
G1 X133.274 Y161.059 E.17197
G1 X132.686 Y160.382 E.16683
G1 X131.757 Y161.311 E.24425
G1 X130.492 Y161.311 E.23538
G1 X132.097 Y159.706 E.4222
G1 X131.508 Y159.029 E.16683
G1 X129.226 Y161.311 E.60014
G1 X127.961 Y161.311 E.23538
G1 X130.919 Y158.353 E.77809
G1 X130.33 Y157.676 E.16683
G1 X126.695 Y161.311 E.95604
G1 X125.43 Y161.311 E.23538
G1 X129.741 Y157 E1.13399
G1 X129.152 Y156.323 E.16683
G1 X124.164 Y161.311 E1.31194
G1 X122.899 Y161.311 E.23538
G1 X128.563 Y155.647 E1.48989
G1 X127.974 Y154.97 E.16683
G1 X121.634 Y161.311 E1.66784
G1 X120.368 Y161.311 E.23538
G1 X127.385 Y154.294 E1.84579
G1 X126.796 Y153.617 E.16683
G1 X119.103 Y161.311 E2.02374
G1 X117.837 Y161.311 E.23538
G1 X126.207 Y152.941 E2.20168
G1 X125.618 Y152.265 E.16683
G1 X117.207 Y160.676 E2.21258
G1 X116.617 Y160 E.16682
G1 X125.029 Y151.588 E2.21276
G1 X124.44 Y150.912 E.16683
G1 X116.028 Y159.324 E2.21295
G1 X115.438 Y158.648 E.16682
G1 X123.851 Y150.235 E2.21314
G1 X123.262 Y149.559 E.16683
G1 X114.848 Y157.973 E2.21333
G1 X114.259 Y157.297 E.16682
G1 X122.673 Y148.882 E2.21351
G1 X122.084 Y148.206 E.16683
G1 X113.669 Y156.621 E2.2137
G1 X113.079 Y155.945 E.16682
G1 X121.495 Y147.529 E2.21389
G1 X120.907 Y146.853 E.16683
G1 X112.49 Y155.27 E2.21408
G1 X111.9 Y154.594 E.16682
G1 X120.318 Y146.176 E2.21426
G1 X119.729 Y145.5 E.16683
G1 X111.31 Y153.918 E2.21445
G1 X110.721 Y153.242 E.16682
G1 X119.14 Y144.823 E2.21464
G1 X118.551 Y144.147 E.16683
G1 X110.131 Y152.567 E2.21482
G1 X109.541 Y151.891 E.16682
G1 X117.962 Y143.47 E2.21501
G1 X117.373 Y142.794 E.16683
G1 X108.952 Y151.215 E2.2152
G1 X108.362 Y150.539 E.16682
G1 X116.784 Y142.117 E2.21539
G1 X116.195 Y141.441 E.16683
G1 X107.772 Y149.863 E2.21557
G1 X107.183 Y149.188 E.16682
G1 X115.606 Y140.764 E2.21576
G1 X115.017 Y140.088 E.16683
G1 X106.593 Y148.512 E2.21595
G1 X106.003 Y147.836 E.16682
G1 X114.428 Y139.411 E2.21614
G1 X113.839 Y138.735 E.16683
G1 X105.414 Y147.16 E2.21632
G1 X104.824 Y146.485 E.16682
G1 X113.25 Y138.058 E2.21651
G1 X112.661 Y137.382 E.16683
G1 X104.234 Y145.809 E2.2167
G1 X103.645 Y145.133 E.16682
G1 X112.072 Y136.706 E2.21688
G1 X111.483 Y136.029 E.16683
G1 X103.055 Y144.457 E2.21707
G1 X102.465 Y143.782 E.16682
G1 X110.894 Y135.353 E2.21726
G1 X110.305 Y134.676 E.16683
G1 X101.876 Y143.106 E2.21745
G1 X101.286 Y142.43 E.16682
G1 X109.716 Y134 E2.21763
G1 X109.127 Y133.323 E.16683
G1 X100.696 Y141.754 E2.21782
G1 X100.107 Y141.078 E.16682
G1 X108.539 Y132.647 E2.21801
G1 X107.95 Y131.97 E.16683
G1 X99.517 Y140.403 E2.21819
G1 X98.927 Y139.727 E.16682
G1 X107.361 Y131.294 E2.21838
G1 X106.772 Y130.617 E.16683
G1 X98.338 Y139.051 E2.21857
G1 X97.748 Y138.375 E.16682
G1 X106.183 Y129.941 E2.21876
G1 X105.594 Y129.264 E.16683
G1 X97.158 Y137.7 E2.21894
G1 X96.569 Y137.024 E.16682
G1 X105.005 Y128.588 E2.21913
G1 X104.416 Y127.911 E.16683
G1 X95.979 Y136.348 E2.21932
G1 X95.389 Y135.672 E.16682
G1 X103.827 Y127.235 E2.21951
G1 X103.238 Y126.558 E.16683
G1 X94.8 Y134.997 E2.21969
G1 X94.21 Y134.321 E.16682
G1 X102.649 Y125.882 E2.21988
G1 X102.06 Y125.205 E.16683
G1 X93.62 Y133.645 E2.22007
G1 X93.031 Y132.969 E.16682
G1 X101.471 Y124.529 E2.22025
G1 X100.882 Y123.852 E.16683
G1 X92.441 Y132.294 E2.22044
G1 X91.851 Y131.618 E.16682
G1 X100.293 Y123.176 E2.22063
G1 X99.704 Y122.5 E.16683
G1 X91.262 Y130.942 E2.22082
G1 X90.672 Y130.266 E.16682
G1 X99.115 Y121.823 E2.221
G1 X98.526 Y121.147 E.16683
G1 X90.082 Y129.59 E2.22119
G1 X89.493 Y128.915 E.16682
G1 X97.937 Y120.47 E2.22138
G1 X97.348 Y119.794 E.16683
G1 X88.903 Y128.239 E2.22157
G1 X88.313 Y127.563 E.16682
G1 X96.76 Y119.117 E2.22175
G1 X96.171 Y118.441 E.16683
G1 X87.724 Y126.887 E2.22194
G1 X87.134 Y126.212 E.16682
G1 X95.582 Y117.764 E2.22213
G1 X94.993 Y117.088 E.16683
G1 X86.544 Y125.536 E2.22231
G1 X85.955 Y124.86 E.16682
G1 X94.404 Y116.411 E2.2225
G1 X93.815 Y115.735 E.16683
G1 X85.365 Y124.184 E2.22269
G1 X84.775 Y123.509 E.16682
G1 X93.226 Y115.058 E2.22288
G1 X92.637 Y114.382 E.16683
G1 X84.186 Y122.833 E2.22306
G1 X83.596 Y122.157 E.16682
G1 X92.048 Y113.705 E2.22325
G1 X91.459 Y113.029 E.16683
G1 X83.006 Y121.481 E2.22344
G1 X82.417 Y120.806 E.16682
G1 X90.87 Y112.352 E2.22363
G1 X90.281 Y111.676 E.16683
G1 X81.762 Y120.194 E2.24083
G1 X81.107 Y119.584 E.16654
G1 X89.692 Y110.999 E2.25828
G1 X89.103 Y110.323 E.16683
G1 X80.452 Y118.974 E2.27572
G1 X79.797 Y118.364 E.16654
G1 X88.514 Y109.646 E2.29317
G1 X87.925 Y108.97 E.16683
G1 X79.141 Y117.754 E2.31061
G1 X78.486 Y117.144 E.16654
G1 X87.336 Y108.293 E2.32806
G1 X86.747 Y107.617 E.16683
G1 X77.831 Y116.534 E2.34551
G1 X77.176 Y115.923 E.16654
G1 X86.158 Y106.941 E2.36295
G1 X85.569 Y106.264 E.16683
G1 X76.52 Y115.313 E2.3804
G1 X75.865 Y114.703 E.16654
G1 X84.98 Y105.588 E2.39784
G1 X84.861 Y105.451 E.03372
G1 X84.339 Y104.964 E.13288
G1 X75.21 Y114.093 E2.40138
G1 X74.554 Y113.483 E.16654
G1 X83.683 Y104.354 E2.40139
G1 X83.028 Y103.744 E.16654
G1 X73.899 Y112.873 E2.4014
G1 X73.244 Y112.262 E.16654
G1 X82.373 Y103.133 E2.40141
G1 X81.718 Y102.523 E.16654
G1 X72.589 Y111.652 E2.40142
G1 X71.933 Y111.042 E.16654
G1 X81.063 Y101.913 E2.40143
G1 X80.407 Y101.303 E.16654
G1 X71.278 Y110.432 E2.40144
G1 X70.623 Y109.822 E.16654
M73 P2 R195
G1 X79.752 Y100.693 E2.40145
G1 X79.097 Y100.082 E.16654
G1 X69.968 Y109.212 E2.40146
G1 X69.312 Y108.601 E.16654
G1 X78.442 Y99.472 E2.40147
G1 X77.786 Y98.862 E.16654
G1 X68.657 Y107.991 E2.40148
G1 X68.002 Y107.381 E.16654
G1 X77.131 Y98.252 E2.40149
G1 X76.476 Y97.642 E.16654
G1 X67.347 Y106.771 E2.4015
G1 X66.691 Y106.161 E.16654
G1 X75.821 Y97.031 E2.40151
G1 X75.165 Y96.421 E.16654
G1 X66.036 Y105.551 E2.40152
G1 X65.381 Y104.941 E.16654
G1 X74.51 Y95.811 E2.40153
G1 X73.855 Y95.201 E.16654
G1 X64.725 Y104.33 E2.40154
G1 X64.07 Y103.72 E.16654
G1 X73.2 Y94.591 E2.40155
G1 X72.544 Y93.98 E.16654
G1 X63.415 Y103.11 E2.40156
G1 X62.76 Y102.5 E.16654
G1 X71.889 Y93.37 E2.40157
G1 X71.234 Y92.76 E.16654
G1 X62.104 Y101.89 E2.40158
G1 X61.449 Y101.28 E.16654
G1 X70.579 Y92.15 E2.40159
G1 X69.924 Y91.54 E.16654
G1 X60.794 Y100.669 E2.4016
G1 X60.139 Y100.059 E.16654
G1 X69.268 Y90.929 E2.40161
G1 X68.613 Y90.319 E.16654
G1 X59.483 Y99.449 E2.40162
G1 X58.828 Y98.839 E.16654
G1 X67.958 Y89.709 E2.40163
G1 X67.303 Y89.099 E.16654
M73 P3 R195
G1 X58.173 Y98.229 E2.40164
G1 X57.517 Y97.619 E.16654
G1 X66.647 Y88.489 E2.40165
G1 X65.992 Y87.878 E.16654
G1 X56.862 Y97.008 E2.40166
G1 X56.207 Y96.398 E.16654
G1 X65.337 Y87.268 E2.40167
G1 X64.682 Y86.658 E.16654
G1 X55.552 Y95.788 E2.40168
G1 X54.896 Y95.178 E.16654
G1 X64.026 Y86.048 E2.40169
G1 X63.371 Y85.438 E.16654
G1 X54.241 Y94.568 E2.40171
G1 X53.586 Y93.958 E.16654
G1 X62.716 Y84.827 E2.40172
G1 X62.061 Y84.217 E.16654
G1 X52.931 Y93.348 E2.40173
G1 X52.275 Y92.737 E.16654
G1 X61.406 Y83.607 E2.40174
G1 X60.75 Y82.997 E.16654
G1 X51.62 Y92.127 E2.40175
G1 X50.965 Y91.517 E.16654
G1 X60.095 Y82.387 E2.40176
G1 X59.44 Y81.777 E.16654
G1 X50.309 Y90.907 E2.40177
G1 X49.654 Y90.297 E.16654
G1 X58.785 Y81.166 E2.40178
G1 X58.129 Y80.556 E.16654
G1 X48.999 Y89.687 E2.40179
G1 X48.344 Y89.076 E.16654
G1 X57.474 Y79.946 E2.4018
G1 X56.819 Y79.336 E.16654
G1 X47.688 Y88.466 E2.40181
G1 X47.033 Y87.856 E.16654
G1 X56.164 Y78.726 E2.40182
G1 X55.508 Y78.115 E.16654
G1 X46.378 Y87.246 E2.40183
G1 X45.723 Y86.636 E.16654
G1 X54.853 Y77.505 E2.40184
G1 X54.198 Y76.895 E.16654
G1 X45.067 Y86.026 E2.40185
G1 X44.412 Y85.415 E.16654
G1 X53.543 Y76.285 E2.40186
G1 X52.888 Y75.675 E.16654
G1 X43.757 Y84.805 E2.40187
G1 X43.101 Y84.195 E.16654
G1 X52.232 Y75.064 E2.40188
G1 X51.577 Y74.454 E.16654
G1 X42.446 Y83.585 E2.40189
G1 X41.791 Y82.975 E.16654
G1 X50.922 Y73.844 E2.4019
G1 X50.267 Y73.234 E.16654
G1 X41.136 Y82.365 E2.40191
G1 X40.48 Y81.755 E.16654
G1 X49.611 Y72.624 E2.40192
G1 X48.956 Y72.013 E.16654
G1 X39.825 Y81.144 E2.40193
G1 X39.17 Y80.534 E.16654
G1 X48.301 Y71.403 E2.40194
G1 X47.646 Y70.793 E.16654
G1 X38.515 Y79.924 E2.40195
G1 X37.859 Y79.314 E.16654
G1 X46.99 Y70.183 E2.40196
G1 X46.335 Y69.573 E.16654
G1 X37.204 Y78.704 E2.40197
G1 X36.549 Y78.094 E.16654
G1 X45.68 Y68.962 E2.40198
G1 X45.025 Y68.352 E.16654
G1 X35.894 Y77.483 E2.40199
G1 X35.238 Y76.873 E.16654
G1 X44.37 Y67.742 E2.402
G1 X43.714 Y67.132 E.16654
G1 X34.583 Y76.263 E2.40201
G1 X33.928 Y75.653 E.16654
G1 X43.059 Y66.522 E2.40202
G1 X42.404 Y65.911 E.16654
G1 X33.272 Y75.043 E2.40203
G1 X32.617 Y74.433 E.16654
G1 X41.749 Y65.301 E2.40204
G1 X41.093 Y64.691 E.16654
G1 X31.962 Y73.822 E2.40205
G1 X31.307 Y73.212 E.16654
G1 X40.438 Y64.081 E2.40206
G1 X39.783 Y63.471 E.16654
G1 X30.651 Y72.602 E2.40207
G1 X29.996 Y71.992 E.16654
G1 X39.128 Y62.86 E2.40208
G1 X38.472 Y62.25 E.16654
G1 X29.341 Y71.382 E2.40209
G1 X28.686 Y70.772 E.16654
G1 X37.817 Y61.64 E2.4021
G1 X37.162 Y61.03 E.16654
G1 X28.03 Y70.162 E2.40211
G1 X27.375 Y69.551 E.16654
G1 X36.507 Y60.42 E2.40213
G1 X35.851 Y59.809 E.16654
G1 X26.72 Y68.941 E2.40214
G1 X26.064 Y68.331 E.16654
G1 X35.196 Y59.199 E2.40215
G1 X34.541 Y58.589 E.16654
G1 X25.409 Y67.721 E2.40216
G1 X24.754 Y67.111 E.16654
G1 X33.886 Y57.979 E2.40217
G1 X33.231 Y57.369 E.16654
G1 X24.099 Y66.501 E2.40218
G1 X23.443 Y65.89 E.16654
G1 X32.575 Y56.758 E2.40219
G1 X31.92 Y56.148 E.16654
G1 X22.788 Y65.28 E2.4022
G1 X22.133 Y64.67 E.16654
G1 X31.265 Y55.538 E2.40221
G1 X30.61 Y54.928 E.16654
G1 X21.478 Y64.06 E2.40222
G1 X20.822 Y63.45 E.16654
