; generated by PrusaSlicer 2.5.0+win64 on 2022-12-07 at 00:21:16 UTC

; 

; external perimeters extrusion width = 1.00mm
; perimeters extrusion width = 1.00mm
; infill extrusion width = 1.00mm
; solid infill extrusion width = 1.00mm
; top infill extrusion width = 1.00mm
; support material extrusion width = 1.00mm
; first layer extrusion width = 0.42mm

M73 P0 R175
M107
;TYPE:Custom
G90 ; use absolute coordinates
M83 ; extruder relative mode
M140 S60 ; set final bed temp
M104 S150 ; set temporary nozzle temp to prevent oozing during homing and auto bed leveling
G4 S10 ; allow partial nozzle warmup
G28 ; home all axisG1 Z50 F240
G1 X7.6 Y10 F3000
M104 S210 ; set final nozzle temp
M190 S60 ; wait for bed temp to stabilize
M109 S210 ; wait for nozzle temp to stabilize
G1 Z0.28 F240
G92 E0
G1 Y140 E10 F1500 ; prime the nozzle
G1 X4 F5000
G92 E0
G1 Y10 E10 F1200 ; prime the nozzle
G92 E0
G21 ; set units to millimeters
G90 ; use absolute coordinates
M83 ; use relative distances for extrusion
; Filament gcode
M107
;LAYER_CHANGE
;Z:0.35
;HEIGHT:0.35
;BEFORE_LAYER_CHANGE
G92 E0
;0.35


G1 E-1 F3600
G1 Z.35 F7800
;AFTER_LAYER_CHANGE
;0.35
G1 X93.011 Y162.82
G1 E1 F2400
;TYPE:Perimeter
;WIDTH:0.42
G1 F1800
G1 X70.609 Y162.82 E1.12424
G1 X66.263 Y157.748 E.3352
G1 X39.112 Y126.564 E2.07504
G1 X22.614 Y107.313 E1.27237
G1 X22.614 Y80.67 E1.33713
G1 X92.913 Y162.706 E5.42188
G1 X93.76 Y163.165 F7800
;TYPE:External perimeter
G1 F1800
G1 X70.45 Y163.165 E1.16982
G1 X66.001 Y157.972 E.34316
G1 X38.851 Y126.79 E2.07497
G1 X22.269 Y107.441 E1.27884
G1 X22.269 Y79.737 E1.39033
G1 X93.663 Y163.051 E5.50631
G1 X92.785 Y162.946 F7800
G1 E-.7 F3600
;WIPE_START
G1 F6240
G1 X93.143 Y163.053 E-.285
;WIPE_END
G1 E-.015 F3600
G1 X26.954 Y85.893 F7800
G1 E1 F2400
;TYPE:Solid infill
;WIDTH:0.422332
G1 F1800
G1 X22.873 Y81.812 E.29159
G1 X22.873 Y82.303 E.02481
G1 X28.466 Y87.896 E.39967
G1 X31.407 Y91.329 E.22837
G1 X22.873 Y82.794 E.60982
G1 X22.873 Y83.285 E.02481
G1 X34.348 Y94.761 E.81997
G1 X37.289 Y98.193 E.22837
G1 X22.873 Y83.776 E1.03012
G1 X22.873 Y84.267 E.02481
G1 X40.231 Y101.625 E1.24027
G1 X43.172 Y105.057 E.22837
G1 X22.873 Y84.758 E1.45042
G1 X22.873 Y85.249 E.02481
G1 X46.113 Y108.489 E1.66057
G1 X49.054 Y111.921 E.22837
G1 X22.873 Y85.74 E1.87072
G1 X22.873 Y86.231 E.02481
G1 X51.995 Y115.353 E2.08087
G1 X54.936 Y118.786 E.22837
G1 X22.873 Y86.722 E2.29102
G1 X22.873 Y87.214 E.02481
G1 X57.877 Y122.218 E2.50117
G1 X60.818 Y125.65 E.22837
G1 X22.873 Y87.705 E2.71132
G1 X22.873 Y88.196 E.02481
G1 X63.759 Y129.082 E2.92147
G1 X66.7 Y132.514 E.22837
G1 X22.873 Y88.687 E3.13162
G1 X22.873 Y89.178 E.02481
G1 X69.641 Y135.946 E3.34176
G1 X72.582 Y139.378 E.22837
G1 X22.873 Y89.669 E3.55191
G1 X22.873 Y90.16 E.02481
G1 X75.523 Y142.81 E3.76206
G1 X78.465 Y146.242 E.22837
M73 P0 R174
G1 X22.873 Y90.651 E3.97221
G1 X22.873 Y91.142 E.02481
G1 X81.406 Y149.675 E4.18236
G1 X84.347 Y153.107 E.22837
G1 X22.873 Y91.633 E4.39251
G1 X22.873 Y92.124 E.02481
G1 X87.288 Y156.539 E4.60266
G1 X90.229 Y159.971 E.22837
G1 X22.873 Y92.615 E4.81281
G1 X22.873 Y93.106 E.02481
G1 X92.328 Y162.561 E4.96279
G1 X91.837 Y162.561 E.02481
G1 X22.873 Y93.597 E4.9277
G1 X22.873 Y94.088 E.02481
G1 X91.346 Y162.561 E4.89262
G1 X90.855 Y162.561 E.02481
G1 X22.873 Y94.579 E4.85753
G1 X22.873 Y95.07 E.02481
G1 X90.364 Y162.561 E4.82244
G1 X89.873 Y162.561 E.02481
G1 X22.873 Y95.561 E4.78736
G1 X22.873 Y96.052 E.02481
G1 X89.381 Y162.561 E4.75227
G1 X88.89 Y162.561 E.02481
G1 X22.873 Y96.543 E4.71718
G1 X22.873 Y97.034 E.02481
G1 X88.399 Y162.561 E4.6821
G1 X87.908 Y162.561 E.02481
G1 X22.873 Y97.525 E4.64701
G1 X22.873 Y98.017 E.02481
G1 X87.417 Y162.561 E4.61192
G1 X86.926 Y162.561 E.02481
M73 P1 R174
G1 X22.873 Y98.508 E4.57684
G1 X22.873 Y98.999 E.02481
G1 X86.435 Y162.561 E4.54175
G1 X85.944 Y162.561 E.02481
G1 X22.873 Y99.49 E4.50666
G1 X22.873 Y99.981 E.02481
M73 P1 R173
G1 X85.453 Y162.561 E4.47158
G1 X84.962 Y162.561 E.02481
G1 X22.873 Y100.472 E4.43649
G1 X22.873 Y100.963 E.02481
G1 X84.471 Y162.561 E4.4014
G1 X83.98 Y162.561 E.02481
G1 X22.873 Y101.454 E4.36631
G1 X22.873 Y101.945 E.02481
G1 X83.489 Y162.561 E4.33123
G1 X82.998 Y162.561 E.02481
G1 X22.873 Y102.436 E4.29614
G1 X22.873 Y102.927 E.02481
G1 X82.507 Y162.561 E4.26105
G1 X82.016 Y162.561 E.02481
G1 X22.873 Y103.418 E4.22597
G1 X22.873 Y103.909 E.02481
G1 X81.525 Y162.561 E4.19088
G1 X81.034 Y162.561 E.02481
G1 X22.873 Y104.4 E4.15579
G1 X22.873 Y104.891 E.02481
G1 X80.543 Y162.561 E4.12071
G1 X80.052 Y162.561 E.02481
G1 X22.873 Y105.382 E4.08562
G1 X22.873 Y105.873 E.02481
G1 X79.561 Y162.561 E4.05053
G1 X79.07 Y162.561 E.02481
G1 X22.873 Y106.364 E4.01545
G1 X22.873 Y106.855 E.02481
G1 X78.579 Y162.561 E3.98036
G1 X78.087 Y162.561 E.02481
G1 X23.644 Y108.117 E3.89018
G1 X26.587 Y111.551 E.22849
G1 X77.596 Y162.561 E3.64483
G1 X77.105 Y162.561 E.02481
G1 X29.529 Y114.985 E3.39947
G1 X32.472 Y118.419 E.22849
G1 X76.614 Y162.561 E3.15412
G1 X76.123 Y162.561 E.02481
G1 X35.415 Y121.852 E2.90876
G1 X38.358 Y125.286 E.22849
G1 X75.632 Y162.561 E2.66341
G1 X75.141 Y162.561 E.02481
G1 X41.546 Y128.966 E2.40047
G1 X44.852 Y132.763 E.25438
G1 X74.65 Y162.561 E2.12916
G1 X74.159 Y162.561 E.02481
M73 P1 R172
G1 X48.158 Y136.56 E1.85784
G1 X51.464 Y140.357 E.25438
G1 X73.668 Y162.561 E1.58653
G1 X73.177 Y162.561 E.02481
G1 X54.77 Y144.154 E1.31521
G1 X58.076 Y147.951 E.25438
G1 X72.686 Y162.561 E1.0439
G1 X72.195 Y162.561 E.02481
G1 X61.383 Y151.749 E.77258
G1 X64.689 Y155.546 E.25438
G1 X71.704 Y162.561 E.50127
G1 X71.213 Y162.561 E.02481
G1 X66.396 Y157.744 E.34417
M106 S255
;LAYER_CHANGE
;Z:0.85
;HEIGHT:0.5
;BEFORE_LAYER_CHANGE
G92 E0
;0.85


G1 E-.7 F3600
;WIPE_START
G1 F6240
G1 X66.764 Y158.112 E-.285
;WIPE_END
G1 E-.015 F3600
G1 Z.85 F7800
;AFTER_LAYER_CHANGE
;0.85
M104 S205 ; set temperature
G1 X91.598 Y161.982
G1 E1 F2400
;TYPE:Perimeter
;WIDTH:1
G1 F2016.357
G1 X71.275 Y161.982 E3.7714
G1 X52.304 Y140.193 E5.36109
G1 X23.452 Y106.529 E8.22761
G1 X23.452 Y82.458 E4.46684
G1 X91.5 Y161.868 E19.40657
G1 E-.7 F3600
;WIPE_START
G1 F6240
G1 X90.98 Y161.871 E-.285
;WIPE_END
G1 E-.015 F3600
G1 X93.538 Y162.875 F7800
G1 E1 F2400
;TYPE:External perimeter
G1 F1800
G1 X70.868 Y162.875 E4.20693
G1 X51.628 Y140.777 E5.43715
G1 X22.559 Y106.859 E8.28953
G1 X22.559 Y80.044 E4.97602
G1 X93.441 Y162.761 E20.2146
G1 X92.563 Y162.654 F7800
G1 E-.7 F3600
;WIPE_START
G1 F6240
G1 X92.921 Y162.763 E-.285
;WIPE_END
G1 E-.015 F3600
G1 X90.201 Y160.764 F7800
G1 E1 F2400
;TYPE:Solid infill
;WIDTH:1.00585
G1 F1200
G1 X89.653 Y161.312 E.1449
G1 X88.382 Y161.312 E.23736
G1 X89.33 Y160.364 E.25041
G1 X88.744 Y159.68 E.16833
G1 X87.111 Y161.312 E.43118
G1 X85.841 Y161.312 E.23736
G1 X88.157 Y158.996 E.61195
G1 X87.571 Y158.311 E.16833
G1 X84.57 Y161.312 E.79271
G1 X83.299 Y161.312 E.23736
G1 X86.984 Y157.627 E.97348
G1 X86.398 Y156.943 E.16833
G1 X82.028 Y161.312 E1.15425
G1 X80.758 Y161.312 E.23736
G1 X85.812 Y156.258 E1.33502
G1 X85.225 Y155.574 E.16833
G1 X79.487 Y161.312 E1.51579
G1 X78.216 Y161.312 E.23736
G1 X84.639 Y154.89 E1.69656
G1 X84.052 Y154.205 E.16833
G1 X76.945 Y161.312 E1.87733
G1 X75.675 Y161.312 E.23736
G1 X83.466 Y153.521 E2.0581
G1 X82.879 Y152.837 E.16833
G1 X74.404 Y161.312 E2.23886
G1 X73.133 Y161.312 E.23736
G1 X82.293 Y152.152 E2.41963
G1 X81.707 Y151.468 E.16833
G1 X71.862 Y161.312 E2.6004
G1 X71.579 Y161.312 E.05289
G1 X71.12 Y160.784 E.13075
G1 X81.12 Y150.784 E2.64172
G1 X80.534 Y150.099 E.16833
G1 X70.528 Y160.105 E2.64305
G1 X69.937 Y159.426 E.16824
G1 X79.947 Y149.415 E2.64437
G1 X79.361 Y148.731 E.16833
G1 X69.345 Y158.746 E2.6457
G1 X68.754 Y158.067 E.16824
G1 X78.775 Y148.046 E2.64703
G1 X78.188 Y147.362 E.16833
G1 X68.162 Y157.388 E2.64836
G1 X67.571 Y156.709 E.16824
G1 X77.602 Y146.678 E2.64969
G1 X77.015 Y145.993 E.16833
G1 X66.98 Y156.029 E2.65102
G1 X66.388 Y155.35 E.16824
G1 X76.429 Y145.309 E2.65235
G1 X75.843 Y144.625 E.16833
G1 X65.797 Y154.671 E2.65368
G1 X65.205 Y153.991 E.16824
M73 P2 R172
G1 X75.256 Y143.941 E2.65501
G1 X74.67 Y143.256 E.16833
G1 X64.614 Y153.312 E2.65634
G1 X64.022 Y152.633 E.16824
G1 X74.083 Y142.572 E2.65767
G1 X73.497 Y141.888 E.16833
G1 X63.431 Y151.954 E2.659
G1 X62.839 Y151.274 E.16824
G1 X72.91 Y141.203 E2.66033
G1 X72.324 Y140.519 E.16833
G1 X62.248 Y150.595 E2.66166
G1 X61.657 Y149.916 E.16824
G1 X71.738 Y139.835 E2.66299
G1 X71.151 Y139.15 E.16833
G1 X61.065 Y149.236 E2.66432
G1 X60.474 Y148.557 E.16824
G1 X70.565 Y138.466 E2.66565
G1 X69.978 Y137.782 E.16833
G1 X59.882 Y147.878 E2.66698
G1 X59.291 Y147.199 E.16824
G1 X69.392 Y137.097 E2.66831
G1 X68.806 Y136.413 E.16833
G1 X58.699 Y146.519 E2.66964
G1 X58.108 Y145.84 E.16824
G1 X68.219 Y135.729 E2.67097
G1 X67.633 Y135.044 E.16833
G1 X57.516 Y145.161 E2.6723
G1 X56.925 Y144.481 E.16824
G1 X67.046 Y134.36 E2.67363
G1 X66.46 Y133.676 E.16833
G1 X56.333 Y143.802 E2.67496
G1 X55.742 Y143.123 E.16824
G1 X65.874 Y132.991 E2.67629
G1 X65.287 Y132.307 E.16833
G1 X55.151 Y142.443 E2.67761
G1 X54.559 Y141.764 E.16824
G1 X64.701 Y131.623 E2.67894
G1 X64.114 Y130.938 E.16833
G1 X53.968 Y141.085 E2.68027
G1 X53.376 Y140.406 E.16824
G1 X63.528 Y130.254 E2.6816
G1 X62.941 Y129.57 E.16833
G1 X52.785 Y139.726 E2.68288
G1 X52.199 Y139.042 E.16833
G1 X62.355 Y128.885 E2.68289
G1 X61.769 Y128.201 E.16833
G1 X51.612 Y138.358 E2.6829
G1 X51.026 Y137.673 E.16833
G1 X61.182 Y127.517 E2.68291
G1 X60.596 Y126.832 E.16833
G1 X50.439 Y136.989 E2.68292
G1 X49.853 Y136.305 E.16833
G1 X60.009 Y126.148 E2.68293
G1 X59.423 Y125.464 E.16833
G1 X49.266 Y135.62 E2.68294
G1 X48.68 Y134.936 E.16833
G1 X58.837 Y124.779 E2.68295
G1 X58.25 Y124.095 E.16833
G1 X48.093 Y134.252 E2.68296
G1 X47.507 Y133.568 E.16833
M73 P2 R171
G1 X57.664 Y123.411 E2.68297
G1 X57.077 Y122.726 E.16833
G1 X46.921 Y132.883 E2.68298
G1 X46.334 Y132.199 E.16833
G1 X56.491 Y122.042 E2.68299
G1 X55.905 Y121.358 E.16833
G1 X45.748 Y131.515 E2.68301
G1 X45.161 Y130.83 E.16833
G1 X55.318 Y120.673 E2.68302
G1 X54.732 Y119.989 E.16833
G1 X44.575 Y130.146 E2.68303
G1 X43.988 Y129.462 E.16833
G1 X54.145 Y119.305 E2.68304
G1 X53.559 Y118.62 E.16833
G1 X43.402 Y128.778 E2.68305
G1 X42.815 Y128.093 E.16833
G1 X52.972 Y117.936 E2.68306
G1 X52.386 Y117.252 E.16833
G1 X42.229 Y127.409 E2.68307
G1 X41.642 Y126.725 E.16833
G1 X51.8 Y116.567 E2.68308
G1 X51.213 Y115.883 E.16833
G1 X41.056 Y126.04 E2.68309
G1 X40.47 Y125.356 E.16833
G1 X50.627 Y115.199 E2.6831
G1 X50.04 Y114.514 E.16833
G1 X39.883 Y124.672 E2.68311
G1 X39.297 Y123.988 E.16833
G1 X49.454 Y113.83 E2.68312
G1 X48.868 Y113.146 E.16833
G1 X38.71 Y123.303 E2.68313
G1 X38.124 Y122.619 E.16833
G1 X48.281 Y112.462 E2.68315
G1 X47.695 Y111.777 E.16833
G1 X37.537 Y121.935 E2.68316
G1 X36.951 Y121.25 E.16833
G1 X47.108 Y111.093 E2.68317
G1 X46.522 Y110.409 E.16833
G1 X36.364 Y120.566 E2.68318
G1 X35.778 Y119.882 E.16833
G1 X45.935 Y109.724 E2.68319
G1 X45.349 Y109.04 E.16833
G1 X35.191 Y119.198 E2.6832
G1 X34.605 Y118.513 E.16833
G1 X44.763 Y108.356 E2.68321
G1 X44.176 Y107.671 E.16833
G1 X34.019 Y117.829 E2.68322
G1 X33.432 Y117.145 E.16833
G1 X43.59 Y106.987 E2.68323
G1 X43.003 Y106.303 E.16833
G1 X32.846 Y116.46 E2.68324
G1 X32.259 Y115.776 E.16833
G1 X42.417 Y105.618 E2.68325
G1 X41.831 Y104.934 E.16833
G1 X31.673 Y115.092 E2.68326
G1 X31.086 Y114.408 E.16833
G1 X41.244 Y104.25 E2.68327
G1 X40.658 Y103.565 E.16833
G1 X30.5 Y113.723 E2.68329
G1 X29.913 Y113.039 E.16833
G1 X40.071 Y102.881 E2.6833
G1 X39.485 Y102.197 E.16833
G1 X29.327 Y112.355 E2.68331
G1 X28.74 Y111.67 E.16833
G1 X38.899 Y101.512 E2.68332
G1 X38.312 Y100.828 E.16833
G1 X28.154 Y110.986 E2.68333
G1 X27.568 Y110.302 E.16833
G1 X37.726 Y100.144 E2.68334
G1 X37.139 Y99.459 E.16833
G1 X26.981 Y109.618 E2.68335
G1 X26.395 Y108.933 E.16833
G1 X36.553 Y98.775 E2.68336
G1 X35.966 Y98.091 E.16833
G1 X25.808 Y108.249 E2.68337
G1 X25.222 Y107.565 E.16833
G1 X35.38 Y97.406 E2.68338
G1 X34.794 Y96.722 E.16833
G1 X24.635 Y106.88 E2.68339
G1 X24.122 Y106.281 E.14747
G1 X24.122 Y106.123 E.02942
G1 X34.207 Y96.038 E2.6642
G1 X33.621 Y95.353 E.16833
G1 X24.122 Y104.853 E2.5093
G1 X24.122 Y103.582 E.23736
G1 X33.034 Y94.669 E2.35439
G1 X32.448 Y93.985 E.16833
G1 X24.122 Y102.311 E2.19949
G1 X24.122 Y101.04 E.23736
G1 X31.862 Y93.3 E2.04458
G1 X31.275 Y92.616 E.16833
G1 X24.122 Y99.77 E1.88968
G1 X24.122 Y98.499 E.23736
G1 X30.689 Y91.932 E1.73478
G1 X30.102 Y91.247 E.16833
G1 X24.122 Y97.228 E1.57987
G1 X24.122 Y95.957 E.23736
G1 X29.516 Y90.563 E1.42497
G1 X28.93 Y89.879 E.16833
G1 X24.122 Y94.687 E1.27006
G1 X24.122 Y93.416 E.23736
G1 X28.343 Y89.194 E1.11516
G1 X27.757 Y88.51 E.16833
G1 X24.122 Y92.145 E.96025
G1 X24.122 Y90.875 E.23736
G1 X27.17 Y87.826 E.80535
G1 X26.584 Y87.141 E.16833
G1 X24.122 Y89.604 E.65045
G1 X24.122 Y88.333 E.23736
G1 X25.997 Y86.457 E.49554
G1 X25.411 Y85.773 E.16833
G1 X24.122 Y87.062 E.34064
G1 X24.122 Y85.792 E.23736
G1 X24.825 Y85.088 E.18573
G1 X24.238 Y84.404 E.16833
G1 X23.72 Y84.923 E.13694
;LAYER_CHANGE
;Z:1.35
;HEIGHT:0.5
;BEFORE_LAYER_CHANGE
G92 E0
;1.35


G1 E-.7 F3600
;WIPE_START
G1 F6240
G1 X24.088 Y84.555 E-.285
;WIPE_END
G1 E-.015 F3600
G1 Z1.35 F7800
;AFTER_LAYER_CHANGE
;1.35
G1 X92.078 Y161.982
G1 E1 F2400
;TYPE:Perimeter
;WIDTH:1
G1 F2016.357
G1 X71.526 Y161.982 E3.81383
G1 X67.077 Y156.872 E1.25729
G1 X23.452 Y105.97 E12.44045
G1 X23.452 Y81.896 E4.46738
G1 X91.981 Y161.868 E19.54376
G1 E-.7 F3600
;WIPE_START
G1 F6240
G1 X91.461 Y161.871 E-.285
;WIPE_END
G1 E-.015 F3600
G1 X94.019 Y162.875 F7800
G1 E1 F2400
;TYPE:External perimeter
G1 F1800
G1 X71.12 Y162.875 E4.24936
G1 X66.402 Y157.456 E1.33335
G1 X22.559 Y106.3 E12.50237
G1 X22.559 Y79.482 E4.97657
G1 X93.921 Y162.761 E20.35178
G1 X93.044 Y162.653 F7800
G1 E-.7 F3600
;WIPE_START
G1 F6240
G1 X93.401 Y162.763 E-.285
;WIPE_END
G1 E-.015 F3600
G1 X34.983 Y95.763 F7800
G1 E1 F2400
;TYPE:Solid infill
;WIDTH:1.02967
G1 F1200
G1 X24.122 Y84.903 E2.94506
G1 X24.122 Y86.207 E.25011
G1 X39.097 Y101.182 E4.06076
G1 X46.909 Y110.299 E2.3019
G1 X24.122 Y87.511 E6.179
G1 X24.122 Y88.816 E.25011
M73 P2 R170
G1 X54.721 Y119.415 E8.29724
G1 X62.532 Y128.531 E2.3019
G1 X24.122 Y90.12 E10.41548
G1 X24.122 Y91.425 E.25011
G1 X70.344 Y137.647 E12.53372
G1 X78.156 Y146.764 E2.3019
G1 X24.122 Y92.729 E14.65196
G1 X24.122 Y94.033 E.25011
G1 X85.968 Y155.88 E16.7702
G1 X90.623 Y161.312 E1.37172
G1 X90.096 Y161.312 E.10107
G1 X24.122 Y95.338 E17.88955
G1 X24.122 Y96.642 E.25011
M73 P3 R170
G1 X88.791 Y161.312 E17.53584
G1 X87.487 Y161.312 E.25011
G1 X24.122 Y97.947 E17.18214
G1 X24.122 Y99.251 E.25011
G1 X86.183 Y161.312 E16.82843
G1 X84.878 Y161.312 E.25011
G1 X24.122 Y100.556 E16.47472
G1 X24.122 Y101.86 E.25011
G1 X83.574 Y161.312 E16.12101
G1 X82.269 Y161.312 E.25011
G1 X24.122 Y103.164 E15.76731
G1 X24.122 Y104.469 E.25011
G1 X80.965 Y161.312 E15.4136
G1 X79.66 Y161.312 E.25011
G1 X24.428 Y106.08 E14.97667
G1 X32.249 Y115.205 E2.3042
G1 X78.356 Y161.312 E12.50241
G1 X77.052 Y161.312 E.25011
M73 P3 R169
G1 X40.069 Y124.33 E10.02815
G1 X47.889 Y133.455 E2.3042
G1 X75.747 Y161.312 E7.55389
G1 X74.443 Y161.312 E.25011
G1 X55.71 Y142.579 E5.07963
G1 X63.53 Y151.704 E2.3042
G1 X73.138 Y161.312 E2.60537
G1 X71.834 Y161.312 E.25011
G1 X67.695 Y157.173 E1.12233
;LAYER_CHANGE
;Z:1.85
;HEIGHT:0.5
;BEFORE_LAYER_CHANGE
G92 E0
;1.85


G1 E-.7 F3600
;WIPE_START
G1 F6240
G1 X68.063 Y157.541 E-.285
;WIPE_END
G1 E-.015 F3600
G1 Z1.85 F7800
;AFTER_LAYER_CHANGE
;1.85
G1 X92.56 Y161.982
G1 E1 F2400
;TYPE:Perimeter
;WIDTH:1
G1 F2016.357
G1 X71.936 Y161.982 E3.82717
G1 X23.452 Y105.411 E13.82587
G1 X23.452 Y81.334 E4.46793
G1 X92.462 Y161.868 E19.68102
G1 E-.7 F3600
;WIPE_START
G1 F6240
G1 X91.942 Y161.871 E-.285
;WIPE_END
G1 E-.015 F3600
G1 X94.5 Y162.875 F7800
G1 E1 F2400
;TYPE:External perimeter
G1 F1800
G1 X71.525 Y162.875 E4.26348
G1 X22.559 Y105.741 E13.96334
G1 X22.559 Y78.921 E4.97712
G1 X94.403 Y162.761 E20.48905
G1 X93.525 Y162.653 F7800
G1 E-.7 F3600
;WIPE_START
G1 F6240
G1 X93.883 Y162.763 E-.285
;WIPE_END
G1 E-.015 F3600
G1 X86.329 Y155.74 F7800
G1 E1 F2400
;TYPE:Internal infill
