; generated by PrusaSlicer 2.5.0+win64 on 2022-12-07 at 00:21:13 UTC

; 

; external perimeters extrusion width = 1.00mm
; perimeters extrusion width = 1.00mm
; infill extrusion width = 1.00mm
; solid infill extrusion width = 1.00mm
; top infill extrusion width = 1.00mm
; support material extrusion width = 1.00mm
; first layer extrusion width = 0.42mm

M73 P0 R171
M107
;TYPE:Custom
G90 ; use absolute coordinates
M83 ; extruder relative mode
M140 S60 ; set final bed temp
M104 S150 ; set temporary nozzle temp to prevent oozing during homing and auto bed leveling
G4 S10 ; allow partial nozzle warmup
G28 ; home all axisG1 Z50 F240
G1 X7.6 Y10 F3000
M104 S210 ; set final nozzle temp
M190 S60 ; wait for bed temp to stabilize
M109 S210 ; wait for nozzle temp to stabilize
G1 Z0.28 F240
G92 E0
G1 Y140 E10 F1500 ; prime the nozzle
G1 X4 F5000
G92 E0
G1 Y10 E10 F1200 ; prime the nozzle
G92 E0
G21 ; set units to millimeters
G90 ; use absolute coordinates
M83 ; use relative distances for extrusion
; Filament gcode
M107
;LAYER_CHANGE
;Z:0.35
;HEIGHT:0.35
;BEFORE_LAYER_CHANGE
G92 E0
;0.35


G1 E-1 F3600
G1 Z.35 F7800
;AFTER_LAYER_CHANGE
;0.35
G1 X70.999 Y155.976
G1 E1 F2400
;TYPE:Perimeter
;WIDTH:0.42
G1 F1800
G1 X70.992 Y156.122 E.00735
G1 X71.105 Y156.351 E.01283
G1 X76.648 Y162.82 E.42749
G1 X57.524 Y162.82 E.95975
G1 X57.522 Y162.735 E.00424
G1 X56.675 Y159.773 E.15463
G1 X56.884 Y158.265 E.07638
G1 X56.82 Y157.703 E.02838
G1 X56.491 Y150.957 E.33895
G1 X49.245 Y17.18 E6.72354
G1 X63.592 Y17.18 E.71998
G1 X71.166 Y154.974 E6.92571
G1 X71.007 Y155.826 E.04352
G1 X71.328 Y155.983 F7800
;TYPE:External perimeter
G1 F1800
G1 X71.367 Y156.127 E.00747
G1 X77.397 Y163.165 E.46511
G1 X57.133 Y163.165 E1.017
G1 X57.19 Y162.83 E.01704
G1 X56.323 Y159.795 E.15839
G1 X56.541 Y158.304 E.07565
G1 X56.476 Y157.731 E.02893
G1 X56.146 Y150.974 E.33951
G1 X48.881 Y16.835 E6.74172
G1 X63.918 Y16.835 E.75464
G1 X71.512 Y154.996 E6.94417
G1 X71.356 Y155.836 E.04287
G1 X71.216 Y156.081 F7800
G1 E-.7 F3600
;WIPE_START
G1 F6240
G1 X71.367 Y156.127 E-.15975
G1 X71.516 Y156.301 E-.12525
;WIPE_END
G1 E-.015 F3600
G1 X62.795 Y17.284 F7800
G1 E1 F2400
;TYPE:Solid infill
;WIDTH:0.420375
G1 F1800
G1 X63.37 Y17.859 E.04086
G1 X63.398 Y18.376 E.026
G1 X62.462 Y17.439 E.06654
G1 X61.974 Y17.439 E.02453
G1 X63.427 Y18.892 E.10325
G1 X63.455 Y19.409 E.026
G1 X61.485 Y17.439 E.13996
G1 X60.997 Y17.439 E.02453
G1 X63.484 Y19.926 E.17667
G1 X63.512 Y20.442 E.026
G1 X60.509 Y17.439 E.21338
G1 X60.021 Y17.439 E.02453
G1 X63.54 Y20.959 E.2501
G1 X63.569 Y21.476 E.026
G1 X59.532 Y17.439 E.28681
G1 X59.044 Y17.439 E.02453
G1 X63.597 Y21.992 E.32352
G1 X63.626 Y22.509 E.026
G1 X58.556 Y17.439 E.36023
G1 X58.067 Y17.439 E.02453
G1 X63.654 Y23.026 E.39694
G1 X63.682 Y23.542 E.026
G1 X57.579 Y17.439 E.43365
G1 X57.091 Y17.439 E.02453
G1 X63.711 Y24.059 E.47036
G1 X63.739 Y24.576 E.026
G1 X56.603 Y17.439 E.50707
G1 X56.114 Y17.439 E.02453
G1 X63.768 Y25.092 E.54378
G1 X63.796 Y25.609 E.026
G1 X55.626 Y17.439 E.58049
G1 X55.138 Y17.439 E.02453
G1 X63.824 Y26.126 E.6172
G1 X63.853 Y26.642 E.026
G1 X54.649 Y17.439 E.65391
G1 X54.161 Y17.439 E.02453
G1 X63.881 Y27.159 E.69062
G1 X63.91 Y27.676 E.026
G1 X53.673 Y17.439 E.72733
G1 X53.185 Y17.439 E.02453
G1 X63.938 Y28.192 E.76404
G1 X63.966 Y28.709 E.026
G1 X52.696 Y17.439 E.80075
G1 X52.208 Y17.439 E.02453
G1 X63.995 Y29.226 E.83746
G1 X64.023 Y29.742 E.026
G1 X51.72 Y17.439 E.87417
G1 X51.232 Y17.439 E.02453
G1 X64.052 Y30.259 E.91088
G1 X64.08 Y30.776 E.026
G1 X50.743 Y17.439 E.94759
G1 X50.255 Y17.439 E.02453
G1 X64.108 Y31.293 E.9843
G1 X64.137 Y31.809 E.026
G1 X49.767 Y17.439 E1.02101
G1 X49.519 Y17.439 E.01247
G1 X49.532 Y17.693 E.01277
G1 X64.165 Y32.326 E1.03968
G1 X64.194 Y32.843 E.026
G1 X49.56 Y18.209 E1.03971
G1 X49.588 Y18.725 E.02597
G1 X64.222 Y33.359 E1.03975
G1 X64.25 Y33.876 E.026
G1 X49.616 Y19.242 E1.03978
G1 X49.644 Y19.758 E.02597
M73 P0 R170
G1 X64.279 Y34.393 E1.03981
G1 X64.307 Y34.909 E.026
G1 X49.672 Y20.274 E1.03984
G1 X49.7 Y20.79 E.02597
G1 X64.336 Y35.426 E1.03987
G1 X64.364 Y35.943 E.026
G1 X49.728 Y21.307 E1.0399
G1 X49.756 Y21.823 E.02597
G1 X64.392 Y36.459 E1.03993
G1 X64.421 Y36.976 E.026
G1 X49.784 Y22.339 E1.03996
G1 X49.812 Y22.855 E.02597
G1 X64.449 Y37.493 E1.04
G1 X64.478 Y38.009 E.026
G1 X49.84 Y23.371 E1.04003
G1 X49.868 Y23.888 E.02597
G1 X64.506 Y38.526 E1.04006
G1 X64.534 Y39.043 E.026
G1 X49.896 Y24.404 E1.04009
G1 X49.924 Y24.92 E.02597
G1 X64.563 Y39.559 E1.04012
G1 X64.591 Y40.076 E.026
G1 X49.952 Y25.436 E1.04015
G1 X49.98 Y25.953 E.02597
G1 X64.62 Y40.593 E1.04018
G1 X64.648 Y41.109 E.026
G1 X50.008 Y26.469 E1.04021
G1 X50.036 Y26.985 E.02597
G1 X64.676 Y41.626 E1.04025
G1 X64.705 Y42.143 E.026
G1 X50.063 Y27.501 E1.04028
G1 X50.091 Y28.018 E.02597
G1 X64.733 Y42.659 E1.04031
G1 X64.762 Y43.176 E.026
G1 X50.119 Y28.534 E1.04034
G1 X50.147 Y29.05 E.02597
G1 X64.79 Y43.693 E1.04037
G1 X64.818 Y44.209 E.026
G1 X50.175 Y29.566 E1.0404
G1 X50.203 Y30.083 E.02597
G1 X64.847 Y44.726 E1.04043
G1 X64.875 Y45.243 E.026
G1 X50.231 Y30.599 E1.04047
G1 X50.259 Y31.115 E.02597
G1 X64.904 Y45.759 E1.0405
G1 X64.932 Y46.276 E.026
G1 X50.287 Y31.631 E1.04053
G1 X50.315 Y32.147 E.02597
G1 X64.96 Y46.793 E1.04056
G1 X64.989 Y47.309 E.026
G1 X50.343 Y32.664 E1.04059
G1 X50.371 Y33.18 E.02597
G1 X65.017 Y47.826 E1.04062
G1 X65.046 Y48.343 E.026
G1 X50.399 Y33.696 E1.04065
G1 X50.427 Y34.212 E.02597
G1 X65.074 Y48.859 E1.04068
G1 X65.102 Y49.376 E.026
G1 X50.455 Y34.729 E1.04072
G1 X50.483 Y35.245 E.02597
G1 X65.131 Y49.893 E1.04075
G1 X65.159 Y50.41 E.026
G1 X50.511 Y35.761 E1.04078
G1 X50.539 Y36.277 E.02597
G1 X65.188 Y50.926 E1.04081
G1 X65.216 Y51.443 E.026
G1 X50.567 Y36.794 E1.04084
G1 X50.595 Y37.31 E.02597
G1 X65.244 Y51.96 E1.04087
G1 X65.273 Y52.476 E.026
G1 X50.623 Y37.826 E1.0409
G1 X50.651 Y38.342 E.02597
G1 X65.301 Y52.993 E1.04093
G1 X65.33 Y53.51 E.026
G1 X50.679 Y38.859 E1.04097
G1 X50.707 Y39.375 E.02597
G1 X65.358 Y54.026 E1.041
G1 X65.386 Y54.543 E.026
G1 X50.734 Y39.891 E1.04103
G1 X50.762 Y40.407 E.02597
G1 X65.415 Y55.06 E1.04106
G1 X65.443 Y55.576 E.026
G1 X50.79 Y40.923 E1.04109
G1 X50.818 Y41.44 E.02597
G1 X65.472 Y56.093 E1.04112
G1 X65.5 Y56.61 E.026
G1 X50.846 Y41.956 E1.04115
G1 X50.874 Y42.472 E.02597
G1 X65.528 Y57.126 E1.04119
G1 X65.557 Y57.643 E.026
G1 X50.902 Y42.988 E1.04122
G1 X50.93 Y43.505 E.02597
G1 X65.585 Y58.16 E1.04125
G1 X65.614 Y58.676 E.026
G1 X50.958 Y44.021 E1.04128
G1 X50.986 Y44.537 E.02597
G1 X65.642 Y59.193 E1.04131
G1 X65.67 Y59.71 E.026
G1 X51.014 Y45.053 E1.04134
G1 X51.042 Y45.57 E.02597
G1 X65.699 Y60.226 E1.04137
G1 X65.727 Y60.743 E.026
G1 X51.07 Y46.086 E1.0414
G1 X51.098 Y46.602 E.02597
G1 X65.756 Y61.26 E1.04144
G1 X65.784 Y61.776 E.026
G1 X51.126 Y47.118 E1.04147
G1 X51.154 Y47.635 E.02597
G1 X65.812 Y62.293 E1.0415
G1 X65.841 Y62.81 E.026
G1 X51.182 Y48.151 E1.04153
G1 X51.21 Y48.667 E.02597
G1 X65.869 Y63.326 E1.04156
G1 X65.898 Y63.843 E.026
G1 X51.238 Y49.183 E1.04159
G1 X51.266 Y49.699 E.02597
G1 X65.926 Y64.36 E1.04162
G1 X65.954 Y64.876 E.026
G1 X51.294 Y50.216 E1.04165
G1 X51.322 Y50.732 E.02597
G1 X65.983 Y65.393 E1.04169
G1 X66.011 Y65.91 E.026
G1 X51.35 Y51.248 E1.04172
G1 X51.378 Y51.764 E.02597
G1 X66.04 Y66.426 E1.04175
G1 X66.068 Y66.943 E.026
G1 X51.406 Y52.281 E1.04178
G1 X51.433 Y52.797 E.02597
G1 X66.096 Y67.46 E1.04181
G1 X66.125 Y67.977 E.026
G1 X51.461 Y53.313 E1.04184
G1 X51.489 Y53.829 E.02597
G1 X66.153 Y68.493 E1.04187
G1 X66.182 Y69.01 E.026
G1 X51.517 Y54.346 E1.04191
G1 X51.545 Y54.862 E.02597
M73 P1 R170
G1 X66.21 Y69.527 E1.04194
G1 X66.238 Y70.043 E.026
G1 X51.573 Y55.378 E1.04197
G1 X51.601 Y55.894 E.02597
G1 X66.267 Y70.56 E1.042
G1 X66.295 Y71.077 E.026
G1 X51.629 Y56.411 E1.04203
G1 X51.657 Y56.927 E.02597
G1 X66.324 Y71.593 E1.04206
G1 X66.352 Y72.11 E.026
G1 X51.685 Y57.443 E1.04209
G1 X51.713 Y57.959 E.02597
G1 X66.38 Y72.627 E1.04212
G1 X66.409 Y73.143 E.026
G1 X51.741 Y58.476 E1.04216
G1 X51.769 Y58.992 E.02597
G1 X66.437 Y73.66 E1.04219
G1 X66.466 Y74.177 E.026
G1 X51.797 Y59.508 E1.04222
G1 X51.825 Y60.024 E.02597
G1 X66.494 Y74.693 E1.04225
G1 X66.522 Y75.21 E.026
M73 P1 R169
G1 X51.853 Y60.54 E1.04228
G1 X51.881 Y61.057 E.02597
G1 X66.551 Y75.727 E1.04231
G1 X66.579 Y76.243 E.026
G1 X51.909 Y61.573 E1.04234
G1 X51.937 Y62.089 E.02597
G1 X66.608 Y76.76 E1.04237
G1 X66.636 Y77.277 E.026
G1 X51.965 Y62.605 E1.04241
G1 X51.993 Y63.122 E.02597
G1 X66.664 Y77.793 E1.04244
G1 X66.693 Y78.31 E.026
G1 X52.021 Y63.638 E1.04247
G1 X52.049 Y64.154 E.02597
G1 X66.721 Y78.827 E1.0425
G1 X66.75 Y79.343 E.026
G1 X52.077 Y64.67 E1.04253
G1 X52.104 Y65.187 E.02597
G1 X66.778 Y79.86 E1.04256
G1 X66.806 Y80.377 E.026
G1 X52.132 Y65.703 E1.04259
G1 X52.16 Y66.219 E.02597
G1 X66.835 Y80.893 E1.04263
G1 X66.863 Y81.41 E.026
G1 X52.188 Y66.735 E1.04266
G1 X52.216 Y67.252 E.02597
G1 X66.892 Y81.927 E1.04269
G1 X66.92 Y82.443 E.026
G1 X52.244 Y67.768 E1.04272
G1 X52.272 Y68.284 E.02597
G1 X66.948 Y82.96 E1.04275
G1 X66.977 Y83.477 E.026
G1 X52.3 Y68.8 E1.04278
G1 X52.328 Y69.316 E.02597
G1 X67.005 Y83.993 E1.04281
G1 X67.034 Y84.51 E.026
G1 X52.356 Y69.833 E1.04284
G1 X52.384 Y70.349 E.02597
G1 X67.062 Y85.027 E1.04288
G1 X67.09 Y85.544 E.026
G1 X52.412 Y70.865 E1.04291
G1 X52.44 Y71.381 E.02597
G1 X67.119 Y86.06 E1.04294
G1 X67.147 Y86.577 E.026
G1 X52.468 Y71.898 E1.04297
G1 X52.496 Y72.414 E.02597
G1 X67.176 Y87.094 E1.043
G1 X67.204 Y87.61 E.026
G1 X52.524 Y72.93 E1.04303
G1 X52.552 Y73.446 E.02597
G1 X67.232 Y88.127 E1.04306
G1 X67.261 Y88.644 E.026
G1 X52.58 Y73.963 E1.04309
G1 X52.608 Y74.479 E.02597
G1 X67.289 Y89.16 E1.04313
G1 X67.318 Y89.677 E.026
G1 X52.636 Y74.995 E1.04316
G1 X52.664 Y75.511 E.02597
G1 X67.346 Y90.194 E1.04319
G1 X67.374 Y90.71 E.026
G1 X52.692 Y76.028 E1.04322
G1 X52.72 Y76.544 E.02597
G1 X67.403 Y91.227 E1.04325
G1 X67.431 Y91.744 E.026
G1 X52.748 Y77.06 E1.04328
G1 X52.775 Y77.576 E.02597
G1 X67.46 Y92.26 E1.04331
G1 X67.488 Y92.777 E.026
G1 X52.803 Y78.092 E1.04334
G1 X52.831 Y78.609 E.02597
G1 X67.516 Y93.294 E1.04338
G1 X67.545 Y93.81 E.026
G1 X52.859 Y79.125 E1.04341
G1 X52.887 Y79.641 E.02597
G1 X67.573 Y94.327 E1.04344
G1 X67.602 Y94.844 E.026
G1 X52.915 Y80.157 E1.04347
G1 X52.943 Y80.674 E.02597
G1 X67.63 Y95.36 E1.0435
G1 X67.658 Y95.877 E.026
G1 X52.971 Y81.19 E1.04353
G1 X52.999 Y81.706 E.02597
G1 X67.687 Y96.394 E1.04356
G1 X67.715 Y96.91 E.026
G1 X53.027 Y82.222 E1.0436
G1 X53.055 Y82.739 E.02597
G1 X67.744 Y97.427 E1.04363
G1 X67.772 Y97.944 E.026
G1 X53.083 Y83.255 E1.04366
G1 X53.111 Y83.771 E.02597
G1 X67.8 Y98.46 E1.04369
G1 X67.829 Y98.977 E.026
G1 X53.139 Y84.287 E1.04372
G1 X53.167 Y84.804 E.02597
G1 X67.857 Y99.494 E1.04375
G1 X67.886 Y100.01 E.026
G1 X53.195 Y85.32 E1.04378
G1 X53.223 Y85.836 E.02597
G1 X67.914 Y100.527 E1.04381
G1 X67.942 Y101.044 E.026
G1 X53.251 Y86.352 E1.04385
G1 X53.279 Y86.868 E.02597
G1 X67.971 Y101.56 E1.04388
G1 X67.999 Y102.077 E.026
G1 X53.307 Y87.385 E1.04391
G1 X53.335 Y87.901 E.02597
G1 X68.028 Y102.594 E1.04394
G1 X68.056 Y103.111 E.026
G1 X53.363 Y88.417 E1.04397
G1 X53.391 Y88.933 E.02597
G1 X68.084 Y103.627 E1.044
G1 X68.113 Y104.144 E.026
G1 X53.419 Y89.45 E1.04403
G1 X53.446 Y89.966 E.02597
G1 X68.141 Y104.661 E1.04406
G1 X68.17 Y105.177 E.026
G1 X53.474 Y90.482 E1.0441
G1 X53.502 Y90.998 E.02597
G1 X68.198 Y105.694 E1.04413
G1 X68.226 Y106.211 E.026
G1 X53.53 Y91.515 E1.04416
G1 X53.558 Y92.031 E.02597
G1 X68.255 Y106.727 E1.04419
G1 X68.283 Y107.244 E.026
G1 X53.586 Y92.547 E1.04422
G1 X53.614 Y93.063 E.02597
G1 X68.312 Y107.761 E1.04425
G1 X68.34 Y108.277 E.026
G1 X53.642 Y93.58 E1.04428
G1 X53.67 Y94.096 E.02597
G1 X68.368 Y108.794 E1.04432
G1 X68.397 Y109.311 E.026
G1 X53.698 Y94.612 E1.04435
G1 X53.726 Y95.128 E.02597
G1 X68.425 Y109.827 E1.04438
G1 X68.454 Y110.344 E.026
G1 X53.754 Y95.644 E1.04441
G1 X53.782 Y96.161 E.02597
G1 X68.482 Y110.861 E1.04444
G1 X68.51 Y111.377 E.026
G1 X53.81 Y96.677 E1.04447
G1 X53.838 Y97.193 E.02597
G1 X68.539 Y111.894 E1.0445
G1 X68.567 Y112.411 E.026
G1 X53.866 Y97.709 E1.04453
G1 X53.894 Y98.226 E.02597
G1 X68.596 Y112.927 E1.04457
G1 X68.624 Y113.444 E.026
G1 X53.922 Y98.742 E1.0446
G1 X53.95 Y99.258 E.02597
G1 X68.652 Y113.961 E1.04463
G1 X68.681 Y114.477 E.026
G1 X53.978 Y99.774 E1.04466
G1 X54.006 Y100.291 E.02597
G1 X68.709 Y114.994 E1.04469
G1 X68.738 Y115.511 E.026
G1 X54.034 Y100.807 E1.04472
G1 X54.062 Y101.323 E.02597
G1 X68.766 Y116.027 E1.04475
G1 X68.794 Y116.544 E.026
M73 P1 R168
G1 X54.09 Y101.839 E1.04478
G1 X54.117 Y102.356 E.02597
G1 X68.823 Y117.061 E1.04482
G1 X68.851 Y117.577 E.026
G1 X54.145 Y102.872 E1.04485
G1 X54.173 Y103.388 E.02597
G1 X68.88 Y118.094 E1.04488
G1 X68.908 Y118.611 E.026
G1 X54.201 Y103.904 E1.04491
G1 X54.229 Y104.42 E.02597
G1 X68.936 Y119.127 E1.04494
G1 X68.965 Y119.644 E.026
G1 X54.257 Y104.937 E1.04497
G1 X54.285 Y105.453 E.02597
G1 X68.993 Y120.161 E1.045
G1 X69.022 Y120.677 E.026
G1 X54.313 Y105.969 E1.04504
G1 X54.341 Y106.485 E.02597
G1 X69.05 Y121.194 E1.04507
G1 X69.078 Y121.711 E.026
G1 X54.369 Y107.002 E1.0451
G1 X54.397 Y107.518 E.02597
G1 X69.107 Y122.228 E1.04513
G1 X69.135 Y122.744 E.026
G1 X54.425 Y108.034 E1.04516
G1 X54.453 Y108.55 E.02597
G1 X69.164 Y123.261 E1.04519
G1 X69.192 Y123.778 E.026
G1 X54.481 Y109.067 E1.04522
G1 X54.509 Y109.583 E.02597
G1 X69.22 Y124.294 E1.04525
G1 X69.249 Y124.811 E.026
G1 X54.537 Y110.099 E1.04529
G1 X54.565 Y110.615 E.02597
G1 X69.277 Y125.328 E1.04532
G1 X69.306 Y125.844 E.026
G1 X54.593 Y111.132 E1.04535
G1 X54.621 Y111.648 E.02597
G1 X69.334 Y126.361 E1.04538
G1 X69.362 Y126.878 E.026
G1 X54.649 Y112.164 E1.04541
G1 X54.677 Y112.68 E.02597
G1 X69.391 Y127.394 E1.04544
G1 X69.419 Y127.911 E.026
G1 X54.705 Y113.196 E1.04547
G1 X54.733 Y113.713 E.02597
G1 X69.447 Y128.428 E1.0455
G1 X69.476 Y128.944 E.026
G1 X54.761 Y114.229 E1.04554
G1 X54.789 Y114.745 E.02597
G1 X69.504 Y129.461 E1.04557
G1 X69.533 Y129.978 E.026
G1 X54.816 Y115.261 E1.0456
G1 X54.844 Y115.778 E.02597
G1 X69.561 Y130.494 E1.04563
G1 X69.589 Y131.011 E.026
G1 X54.872 Y116.294 E1.04566
G1 X54.9 Y116.81 E.02597
G1 X69.618 Y131.528 E1.04569
G1 X69.646 Y132.044 E.026
G1 X54.928 Y117.326 E1.04572
G1 X54.956 Y117.843 E.02597
G1 X69.675 Y132.561 E1.04576
G1 X69.703 Y133.078 E.026
G1 X54.984 Y118.359 E1.04579
G1 X55.012 Y118.875 E.02597
G1 X69.731 Y133.594 E1.04582
G1 X69.76 Y134.111 E.026
G1 X55.04 Y119.391 E1.04585
G1 X55.068 Y119.908 E.02597
G1 X69.788 Y134.628 E1.04588
G1 X69.817 Y135.144 E.026
G1 X55.096 Y120.424 E1.04591
G1 X55.124 Y120.94 E.02597
G1 X69.845 Y135.661 E1.04594
G1 X69.873 Y136.178 E.026
G1 X55.152 Y121.456 E1.04597
G1 X55.18 Y121.972 E.02597
G1 X69.902 Y136.694 E1.04601
G1 X69.93 Y137.211 E.026
G1 X55.208 Y122.489 E1.04604
G1 X55.236 Y123.005 E.02597
G1 X69.959 Y137.728 E1.04607
G1 X69.987 Y138.244 E.026
G1 X55.264 Y123.521 E1.0461
G1 X55.292 Y124.037 E.02597
G1 X70.015 Y138.761 E1.04613
G1 X70.044 Y139.278 E.026
G1 X55.32 Y124.554 E1.04616
G1 X55.348 Y125.07 E.02597
G1 X70.072 Y139.795 E1.04619
G1 X70.101 Y140.311 E.026
M73 P2 R168
G1 X55.376 Y125.586 E1.04622
G1 X55.404 Y126.102 E.02597
G1 X70.129 Y140.828 E1.04626
G1 X70.157 Y141.345 E.026
G1 X55.432 Y126.619 E1.04629
G1 X55.46 Y127.135 E.02597
G1 X70.186 Y141.861 E1.04632
G1 X70.214 Y142.378 E.026
G1 X55.487 Y127.651 E1.04635
G1 X55.515 Y128.167 E.02597
G1 X70.243 Y142.895 E1.04638
G1 X70.271 Y143.411 E.026
G1 X55.543 Y128.684 E1.04641
G1 X55.571 Y129.2 E.02597
G1 X70.299 Y143.928 E1.04644
G1 X70.328 Y144.445 E.026
G1 X55.599 Y129.716 E1.04647
G1 X55.627 Y130.232 E.02597
G1 X70.356 Y144.961 E1.04651
G1 X70.385 Y145.478 E.026
G1 X55.655 Y130.749 E1.04654
G1 X55.683 Y131.265 E.02597
G1 X70.413 Y145.995 E1.04657
G1 X70.441 Y146.511 E.026
G1 X55.711 Y131.781 E1.0466
G1 X55.739 Y132.297 E.02597
G1 X70.47 Y147.028 E1.04663
G1 X70.498 Y147.545 E.026
G1 X55.767 Y132.813 E1.04666
G1 X55.795 Y133.33 E.02597
G1 X70.527 Y148.061 E1.04669
G1 X70.555 Y148.578 E.026
G1 X55.823 Y133.846 E1.04673
G1 X55.851 Y134.362 E.02597
