; generated by PrusaSlicer 2.5.0+win64 on 2022-12-07 at 00:21:20 UTC

; 

; external perimeters extrusion width = 1.00mm
; perimeters extrusion width = 1.00mm
; infill extrusion width = 1.00mm
; solid infill extrusion width = 1.00mm
; top infill extrusion width = 1.00mm
; support material extrusion width = 1.00mm
; first layer extrusion width = 0.42mm

M73 P0 R171
M107
;TYPE:Custom
G90 ; use absolute coordinates
M83 ; extruder relative mode
M140 S60 ; set final bed temp
M104 S150 ; set temporary nozzle temp to prevent oozing during homing and auto bed leveling
G4 S10 ; allow partial nozzle warmup
G28 ; home all axisG1 Z50 F240
G1 X7.6 Y10 F3000
M104 S210 ; set final nozzle temp
M190 S60 ; wait for bed temp to stabilize
M109 S210 ; wait for nozzle temp to stabilize
G1 Z0.28 F240
G92 E0
G1 Y140 E10 F1500 ; prime the nozzle
G1 X4 F5000
G92 E0
G1 Y10 E10 F1200 ; prime the nozzle
G92 E0
G21 ; set units to millimeters
G90 ; use absolute coordinates
M83 ; use relative distances for extrusion
; Filament gcode
M107
;LAYER_CHANGE
;Z:0.35
;HEIGHT:0.35
;BEFORE_LAYER_CHANGE
G92 E0
;0.35


G1 E-1 F3600
G1 Z.35 F7800
;AFTER_LAYER_CHANGE
;0.35
G1 X137.214 Y161.357
G1 E1 F2400
;TYPE:Support material
;WIDTH:0.42
G1 F1800
G1 X117.171 Y161.357 E1.00589
G1 X117.171 Y151.492 E.49509
G1 X137.214 Y151.492 E1.00589
G1 X137.214 Y161.306 E.4925
G1 X136.625 Y161.202 F7800
G1 F1800
G1 X136.625 Y151.803 E.47173
G1 X136.241 Y151.803 E.01923
G1 X136.241 Y161.047 E.46394
G1 X135.858 Y161.047 E.01923
G1 X135.858 Y151.803 E.46394
G1 X135.475 Y151.803 E.01923
G1 X135.475 Y161.047 E.46394
G1 X135.092 Y161.047 E.01923
G1 X135.092 Y151.803 E.46394
G1 X134.709 Y151.803 E.01923
G1 X134.709 Y161.047 E.46394
G1 X134.325 Y161.047 E.01923
G1 X134.325 Y151.803 E.46394
G1 X133.942 Y151.803 E.01923
G1 X133.942 Y161.047 E.46394
G1 X133.559 Y161.047 E.01923
G1 X133.559 Y151.803 E.46394
G1 X133.176 Y151.803 E.01923
G1 X133.176 Y161.047 E.46394
G1 X132.793 Y161.047 E.01923
G1 X132.793 Y151.803 E.46394
G1 X132.409 Y151.803 E.01923
G1 X132.409 Y161.047 E.46394
G1 X132.026 Y161.047 E.01923
G1 X132.026 Y151.803 E.46394
G1 X131.643 Y151.803 E.01923
G1 X131.643 Y161.047 E.46394
G1 X131.26 Y161.047 E.01923
G1 X131.26 Y151.803 E.46394
G1 X130.876 Y151.803 E.01923
G1 X130.876 Y161.047 E.46394
G1 X130.493 Y161.047 E.01923
G1 X130.493 Y151.803 E.46394
G1 X130.11 Y151.803 E.01923
G1 X130.11 Y161.047 E.46394
G1 X129.727 Y161.047 E.01923
G1 X129.727 Y151.803 E.46394
G1 X129.344 Y151.803 E.01923
G1 X129.344 Y161.047 E.46394
G1 X128.96 Y161.047 E.01923
G1 X128.96 Y151.803 E.46394
G1 X128.577 Y151.803 E.01923
G1 X128.577 Y161.047 E.46394
G1 X128.194 Y161.047 E.01923
G1 X128.194 Y151.803 E.46394
G1 X127.811 Y151.803 E.01923
G1 X127.811 Y161.047 E.46394
G1 X127.428 Y161.047 E.01923
G1 X127.428 Y151.803 E.46394
G1 X127.044 Y151.803 E.01923
G1 X127.044 Y161.047 E.46394
G1 X126.661 Y161.047 E.01923
G1 X126.661 Y151.803 E.46394
G1 X126.278 Y151.803 E.01923
G1 X126.278 Y161.047 E.46394
G1 X125.895 Y161.047 E.01923
G1 X125.895 Y151.803 E.46394
G1 X125.512 Y151.803 E.01923
G1 X125.512 Y161.047 E.46394
G1 X125.128 Y161.047 E.01923
G1 X125.128 Y151.803 E.46394
G1 X124.745 Y151.803 E.01923
G1 X124.745 Y161.047 E.46394
G1 X124.362 Y161.047 E.01923
G1 X124.362 Y151.803 E.46394
G1 X123.979 Y151.803 E.01923
G1 X123.979 Y161.047 E.46394
G1 X123.595 Y161.047 E.01923
G1 X123.595 Y151.803 E.46394
G1 X123.212 Y151.803 E.01923
G1 X123.212 Y161.047 E.46394
G1 X122.829 Y161.047 E.01923
G1 X122.829 Y151.803 E.46394
G1 X122.446 Y151.803 E.01923
G1 X122.446 Y161.047 E.46394
G1 X122.063 Y161.047 E.01923
G1 X122.063 Y151.803 E.46394
G1 X121.679 Y151.803 E.01923
G1 X121.679 Y161.047 E.46394
G1 X121.296 Y161.047 E.01923
G1 X121.296 Y151.803 E.46394
G1 X120.913 Y151.803 E.01923
G1 X120.913 Y161.047 E.46394
G1 X120.53 Y161.047 E.01923
G1 X120.53 Y151.803 E.46394
G1 X120.147 Y151.803 E.01923
G1 X120.147 Y161.047 E.46394
G1 X119.763 Y161.047 E.01923
G1 X119.763 Y151.803 E.46394
G1 X119.38 Y151.803 E.01923
G1 X119.38 Y161.047 E.46394
G1 X118.997 Y161.047 E.01923
G1 X118.997 Y151.803 E.46394
G1 X118.614 Y151.803 E.01923
G1 X118.614 Y161.047 E.46394
G1 X118.231 Y161.047 E.01923
G1 X118.231 Y151.803 E.46394
G1 X117.847 Y151.803 E.01923
G1 X117.847 Y161.202 E.47173
G1 E-.7 F3600
;WIPE_START
G1 F6240
G1 X117.847 Y160.682 E-.285
;WIPE_END
G1 E-.015 F3600
G1 X82.376 Y157.366 F7800
G1 E1 F2400
;TYPE:Perimeter
;WIDTH:0.42
G1 F1800
G1 X62.682 Y157.366 E.98833
G1 X31.892 Y121.986 E2.35384
G1 X31.892 Y97.157 E1.24605
G1 X82.279 Y157.251 E3.93575
G1 X83.115 Y157.711 F7800
;TYPE:External perimeter
G1 F1800
G1 X62.525 Y157.711 E1.03332
G1 X31.547 Y122.115 E2.3682
G1 X31.547 Y96.209 E1.30011
G1 X83.019 Y157.596 E4.02043
G1 X82.135 Y157.511 F7800
G1 E-.7 F3600
;WIPE_START
G1 F6240
G1 X82.499 Y157.599 E-.285
;WIPE_END
G1 E-.015 F3600
G1 X35.685 Y101.842 F7800
G1 E1 F2400
;TYPE:Solid infill
;WIDTH:0.424382
G1 F1800
G1 X32.15 Y98.307 E.25405
G1 X32.15 Y98.801 E.0251
G1 X36.995 Y103.646 E.34822
G1 X39.559 Y106.704 E.20282
G1 X32.15 Y99.295 E.5325
G1 X32.15 Y99.789 E.0251
G1 X42.123 Y109.762 E.71679
G1 X44.687 Y112.82 E.20282
G1 X32.15 Y100.283 E.90108
G1 X32.15 Y100.777 E.0251
G1 X47.251 Y115.878 E1.08537
G1 X49.815 Y118.936 E.20282
M73 P0 R170
G1 X32.15 Y101.271 E1.26966
G1 X32.15 Y101.765 E.0251
G1 X52.379 Y121.994 E1.45395
G1 X54.943 Y125.052 E.20282
G1 X32.15 Y102.259 E1.63823
G1 X32.15 Y102.753 E.0251
G1 X57.507 Y128.11 E1.82252
G1 X60.071 Y131.168 E.20282
G1 X32.15 Y103.247 E2.00681
G1 X32.15 Y103.741 E.0251
G1 X62.635 Y134.225 E2.1911
G1 X65.199 Y137.283 E.20282
G1 X32.15 Y104.235 E2.37539
G1 X32.15 Y104.729 E.0251
G1 X67.763 Y140.341 E2.55967
G1 X70.327 Y143.399 E.20282
G1 X32.15 Y105.223 E2.74396
G1 X32.15 Y105.717 E.0251
G1 X72.891 Y146.457 E2.92825
G1 X75.455 Y149.515 E.20282
G1 X32.15 Y106.21 E3.11254
G1 X32.15 Y106.704 E.0251
G1 X78.019 Y152.573 E3.29683
G1 X80.583 Y155.631 E.20282
G1 X32.15 Y107.198 E3.48112
G1 X32.15 Y107.692 E.0251
G1 X81.566 Y157.108 E3.55174
G1 X81.072 Y157.108 E.0251
G1 X32.15 Y108.186 E3.51624
G1 X32.15 Y108.68 E.0251
G1 X80.578 Y157.108 E3.48074
G1 X80.084 Y157.108 E.0251
G1 X32.15 Y109.174 E3.44524
G1 X32.15 Y109.668 E.0251
G1 X79.59 Y157.108 E3.40973
G1 X79.096 Y157.108 E.0251
G1 X32.15 Y110.162 E3.37423
G1 X32.15 Y110.656 E.0251
G1 X78.602 Y157.108 E3.33873
G1 X78.108 Y157.108 E.0251
G1 X32.15 Y111.15 E3.30323
G1 X32.15 Y111.644 E.0251
G1 X77.614 Y157.108 E3.26772
G1 X77.12 Y157.108 E.0251
G1 X32.15 Y112.138 E3.23222
G1 X32.15 Y112.632 E.0251
G1 X76.626 Y157.108 E3.19672
G1 X76.132 Y157.108 E.0251
G1 X32.15 Y113.126 E3.16122
G1 X32.15 Y113.62 E.0251
G1 X75.639 Y157.108 E3.12571
G1 X75.145 Y157.108 E.0251
G1 X32.15 Y114.114 E3.09021
G1 X32.15 Y114.608 E.0251
M73 P1 R170
G1 X74.651 Y157.108 E3.05471
G1 X74.157 Y157.108 E.0251
G1 X32.15 Y115.101 E3.01921
G1 X32.15 Y115.595 E.0251
G1 X73.663 Y157.108 E2.9837
G1 X73.169 Y157.108 E.0251
G1 X32.15 Y116.089 E2.9482
G1 X32.15 Y116.583 E.0251
M73 P1 R169
G1 X72.675 Y157.108 E2.9127
G1 X72.181 Y157.108 E.0251
G1 X32.15 Y117.077 E2.8772
G1 X32.15 Y117.571 E.0251
G1 X71.687 Y157.108 E2.8417
G1 X71.193 Y157.108 E.0251
G1 X32.15 Y118.065 E2.80619
G1 X32.15 Y118.559 E.0251
G1 X70.699 Y157.108 E2.77069
G1 X70.205 Y157.108 E.0251
G1 X32.15 Y119.053 E2.73519
G1 X32.15 Y119.547 E.0251
G1 X69.711 Y157.108 E2.69969
G1 X69.217 Y157.108 E.0251
G1 X32.15 Y120.041 E2.66418
G1 X32.15 Y120.535 E.0251
G1 X68.723 Y157.108 E2.62868
G1 X68.229 Y157.108 E.0251
G1 X32.15 Y121.029 E2.59318
G1 X32.15 Y121.523 E.0251
G1 X67.735 Y157.108 E2.55768
G1 X67.241 Y157.108 E.0251
G1 X33.008 Y122.874 E2.46057
G1 X36.321 Y126.681 E.25651
G1 X66.748 Y157.108 E2.18692
G1 X66.254 Y157.108 E.0251
G1 X39.634 Y130.488 E1.91328
G1 X42.947 Y134.296 E.25651
G1 X65.76 Y157.108 E1.63963
G1 X65.266 Y157.108 E.0251
G1 X46.261 Y138.103 E1.36598
G1 X49.574 Y141.91 E.25651
G1 X64.772 Y157.108 E1.09234
G1 X64.278 Y157.108 E.0251
G1 X52.887 Y145.717 E.81869
G1 X56.201 Y149.524 E.25651
G1 X63.784 Y157.108 E.54504
G1 X63.29 Y157.108 E.0251
G1 X57.928 Y151.746 E.38538
M106 S255
;LAYER_CHANGE
;Z:0.85
;HEIGHT:0.5
;BEFORE_LAYER_CHANGE
G92 E0
;0.85


G1 E-.7 F3600
;WIPE_START
G1 F6240
G1 X58.296 Y152.114 E-.285
;WIPE_END
G1 E-.015 F3600
G1 Z.85 F7800
;AFTER_LAYER_CHANGE
;0.85
M104 S205 ; set temperature
G1 X80.726 Y156.528
G1 E1 F2400
;TYPE:Perimeter
;WIDTH:1
G1 F2016.357
G1 X63.351 Y156.528 E3.2243
G1 X60.043 Y152.675 E.94239
G1 X32.73 Y121.289 E7.72093
G1 X32.73 Y99.286 E4.08308
G1 X80.629 Y156.414 E13.83453
G1 E-.7 F3600
;WIPE_START
G1 F6240
G1 X80.109 Y156.417 E-.285
;WIPE_END
G1 E-.015 F3600
G1 X82.639 Y157.421 F7800
G1 E1 F2400
;TYPE:External perimeter
G1 F1800
G1 X62.94 Y157.421 E3.65551
G1 X59.366 Y153.256 E1.01851
G1 X31.837 Y121.623 E7.78179
G1 X31.837 Y96.832 E4.60047
G1 X82.543 Y157.306 E14.64502
G1 X81.66 Y157.218 F7800
G1 E-.7 F3600
;WIPE_START
G1 F6240
G1 X82.023 Y157.309 E-.285
;WIPE_END
G1 E-.015 F3600
G1 X78.395 Y156.261 F7800
G1 E1 F2400
;TYPE:Solid infill
;WIDTH:1.00153
G1 F1200
G1 X79.065 Y155.59 E.17623
G1 X78.489 Y154.902 E.16687
G1 X77.532 Y155.859 E.25146
G1 X76.267 Y155.859 E.23508
G1 X77.912 Y154.215 E.43229
G1 X77.335 Y153.527 E.16687
G1 X75.003 Y155.859 E.61313
G1 X73.738 Y155.859 E.23508
G1 X76.758 Y152.839 E.79396
G1 X76.182 Y152.151 E.16687
G1 X72.473 Y155.859 E.97479
G1 X71.209 Y155.859 E.23508
G1 X75.605 Y151.463 E1.15562
G1 X75.028 Y150.775 E.16687
G1 X69.944 Y155.859 E1.33646
G1 X68.68 Y155.859 E.23508
G1 X74.451 Y150.087 E1.51729
G1 X73.874 Y149.399 E.16687
G1 X67.415 Y155.859 E1.69812
G1 X66.15 Y155.859 E.23508
G1 X73.298 Y148.712 E1.87895
G1 X72.721 Y148.024 E.16687
G1 X64.886 Y155.859 E2.05979
G1 X63.658 Y155.859 E.22816
G1 X63.641 Y155.839 E.00491
G1 X72.144 Y147.336 E2.23535
G1 X71.567 Y146.648 E.16687
G1 X63.057 Y155.158 E2.23729
G1 X62.473 Y154.478 E.16671
G1 X70.991 Y145.96 E2.23922
G1 X70.414 Y145.272 E.16687
G1 X61.889 Y153.797 E2.24115
G1 X61.305 Y153.117 E.16671
G1 X69.837 Y144.584 E2.24308
G1 X69.26 Y143.896 E.16687
G1 X60.721 Y152.436 E2.24501
G1 X60.133 Y151.759 E.16665
G1 X68.684 Y143.209 E2.24774
G1 X68.107 Y142.521 E.16687
G1 X59.545 Y151.083 E2.25081
G1 X58.956 Y150.406 E.16663
G1 X67.53 Y141.833 E2.25388
G1 X66.953 Y141.145 E.16687
G1 X58.368 Y149.73 E2.25696
G1 X57.78 Y149.054 E.16663
G1 X66.377 Y140.457 E2.26003
G1 X65.8 Y139.769 E.16687
G1 X57.191 Y148.378 E2.2631
G1 X56.603 Y147.702 E.16663
G1 X65.223 Y139.081 E2.26617
G1 X64.646 Y138.394 E.16687
G1 X56.014 Y147.026 E2.26925
G1 X55.426 Y146.349 E.16663
G1 X64.07 Y137.706 E2.27232
G1 X63.493 Y137.018 E.16687
G1 X54.837 Y145.673 E2.27539
G1 X54.249 Y144.997 E.16663
G1 X62.916 Y136.33 E2.27846
G1 X62.339 Y135.642 E.16687
G1 X53.66 Y144.321 E2.28153
G1 X53.072 Y143.645 E.16663
G1 X61.762 Y134.954 E2.28461
G1 X61.186 Y134.266 E.16687
M73 P1 R168
G1 X52.484 Y142.968 E2.28768
G1 X51.895 Y142.292 E.16663
G1 X60.609 Y133.578 E2.29075
G1 X60.032 Y132.891 E.16687
G1 X51.307 Y141.616 E2.29382
G1 X50.718 Y140.94 E.16663
G1 X59.455 Y132.203 E2.2969
G1 X58.879 Y131.515 E.16687
G1 X50.13 Y140.264 E2.29997
G1 X49.541 Y139.588 E.16663
G1 X58.302 Y130.827 E2.30304
G1 X57.725 Y130.139 E.16687
G1 X48.953 Y138.911 E2.30611
G1 X48.364 Y138.235 E.16663
G1 X57.148 Y129.451 E2.30919
G1 X56.572 Y128.763 E.16687
G1 X47.776 Y137.559 E2.31226
G1 X47.188 Y136.883 E.16663
G1 X55.995 Y128.075 E2.31533
G1 X55.418 Y127.388 E.16687
G1 X46.599 Y136.207 E2.3184
G1 X46.011 Y135.53 E.16663
G1 X54.841 Y126.7 E2.32147
G1 X54.265 Y126.012 E.16687
G1 X45.422 Y134.854 E2.32455
G1 X44.834 Y134.178 E.16663
G1 X53.688 Y125.324 E2.32762
G1 X53.111 Y124.636 E.16687
G1 X44.245 Y133.502 E2.33069
G1 X43.657 Y132.826 E.16663
G1 X52.534 Y123.948 E2.33376
G1 X51.958 Y123.26 E.16687
G1 X43.068 Y132.149 E2.33684
G1 X42.48 Y131.473 E.16663
G1 X51.381 Y122.572 E2.33991
G1 X50.804 Y121.885 E.16687
G1 X41.891 Y130.797 E2.34298
G1 X41.303 Y130.121 E.16663
G1 X50.227 Y121.197 E2.34605
G1 X49.65 Y120.509 E.16687
G1 X40.715 Y129.445 E2.34912
G1 X40.126 Y128.769 E.16663
G1 X49.074 Y119.821 E2.3522
G1 X48.497 Y119.133 E.16687
G1 X39.538 Y128.092 E2.35527
G1 X38.949 Y127.416 E.16663
G1 X47.92 Y118.445 E2.35834
G1 X47.343 Y117.757 E.16687
G1 X38.361 Y126.74 E2.36141
G1 X37.772 Y126.064 E.16663
G1 X46.767 Y117.069 E2.36449
G1 X46.19 Y116.382 E.16687
G1 X37.184 Y125.388 E2.36756
G1 X36.595 Y124.711 E.16663
G1 X45.613 Y115.694 E2.37063
G1 X45.036 Y115.006 E.16687
G1 X36.007 Y124.035 E2.3737
G1 X35.419 Y123.359 E.16663
G1 X44.46 Y114.318 E2.37678
G1 X43.883 Y113.63 E.16687
G1 X34.83 Y122.683 E2.37985
G1 X34.242 Y122.007 E.16663
G1 X43.306 Y112.942 E2.38292
G1 X42.729 Y112.254 E.16687
G1 X33.653 Y121.331 E2.38599
G1 X33.399 Y121.039 E.07194
G1 X33.399 Y120.32 E.13359
G1 X42.153 Y111.567 E2.30115
G1 X41.576 Y110.879 E.16687
G1 X33.399 Y119.055 E2.14953
G1 X33.399 Y117.791 E.23508
G1 X40.999 Y110.191 E1.99791
G1 X40.422 Y109.503 E.16687
G1 X33.399 Y116.526 E1.84629
G1 X33.399 Y115.261 E.23508
G1 X39.846 Y108.815 E1.69466
G1 X39.269 Y108.127 E.16687
G1 X33.399 Y113.997 E1.54304
G1 X33.399 Y112.732 E.23508
G1 X38.692 Y107.439 E1.39142
G1 X38.115 Y106.751 E.16687
G1 X33.399 Y111.467 E1.23979
G1 X33.399 Y110.203 E.23508
G1 X37.538 Y106.064 E1.08817
G1 X36.962 Y105.376 E.16687
G1 X33.399 Y108.938 E.93655
G1 X33.399 Y107.674 E.23508
G1 X36.385 Y104.688 E.78492
G1 X35.808 Y104 E.16687
G1 X33.399 Y106.409 E.6333
G1 X33.399 Y105.144 E.23508
G1 X35.231 Y103.312 E.48168
G1 X34.655 Y102.624 E.16687
G1 X33.399 Y103.88 E.33006
G1 X33.399 Y102.615 E.23508
G1 X34.078 Y101.936 E.17843
G1 X33.501 Y101.248 E.16687
G1 X32.997 Y101.752 E.13241
;LAYER_CHANGE
;Z:1.08409
;HEIGHT:0.234091
;BEFORE_LAYER_CHANGE
G92 E0
;1.08409


G1 E-.7 F3600
;WIPE_START
G1 F6240
G1 X33.365 Y101.384 E-.285
;WIPE_END
G1 E-.015 F3600
G1 Z1.084 F7800
;AFTER_LAYER_CHANGE
;1.08409
G1 X133.924 Y157.941
G1 E1 F2400
;TYPE:Support material
;WIDTH:1
;HEIGHT:0.734091
G1 F1455.265
G1 X133.924 Y154.782 E.81225
G1 X120.461 Y154.782 E3.46173
G1 X120.461 Y158.067 E.84474
G1 X133.924 Y158.067 E3.46173
;LAYER_CHANGE
;Z:1.35
;HEIGHT:0.265909
;BEFORE_LAYER_CHANGE
G92 E0
;1.35


G1 E-.7 F3600
;WIPE_START
G1 F6240
G1 X133.404 Y158.067 E-.285
;WIPE_END
G1 E-.015 F3600
G1 Z1.35 F7800
;AFTER_LAYER_CHANGE
;1.35
G1 X80.897 Y156.528
G1 E1 F2400
;TYPE:Perimeter
;WIDTH:1
;HEIGHT:0.5
G1 F2016.357
G1 X63.648 Y156.528 E3.201
G1 X53.494 Y144.699 E2.8929
G1 X32.73 Y120.838 E5.86974
G1 X32.73 Y99.082 E4.0374
G1 X80.801 Y156.414 E13.88407
M73 P2 R168
G1 E-.7 F3600
;WIPE_START
G1 F6240
G1 X80.281 Y156.417 E-.285
;WIPE_END
G1 E-.015 F3600
G1 X82.811 Y157.421 F7800
G1 E1 F2400
;TYPE:External perimeter
G1 F1800
G1 X63.238 Y157.421 E3.63221
G1 X52.817 Y145.281 E2.96903
G1 X31.837 Y121.172 E5.9306
G1 X31.837 Y96.628 E4.55479
G1 X82.714 Y157.306 E14.69456
G1 X81.832 Y157.217 F7800
G1 E-.7 F3600
;WIPE_START
G1 F6240
G1 X82.194 Y157.309 E-.285
;WIPE_END
G1 E-.015 F3600
G1 X32.997 Y101.676 F7800
G1 E1 F2400
;TYPE:Solid infill
;WIDTH:1.01991
G1 F1200
G1 X39.396 Y108.075 E1.71678
G1 X46.096 Y116.065 E1.97816
G1 X33.399 Y103.368 E3.40644
G1 X33.399 Y104.659 E.24485
G1 X52.796 Y124.055 E5.20388
G1 X59.495 Y132.046 E1.97816
G1 X33.399 Y105.95 E7.00131
G1 X33.399 Y107.24 E.24485
G1 X66.195 Y140.036 E8.79874
G1 X72.894 Y148.026 E1.97816
G1 X33.399 Y108.531 E10.59618
G1 X33.399 Y109.821 E.24485
G1 X79.437 Y155.859 E12.35144
G1 X78.146 Y155.859 E.24485
G1 X33.399 Y111.112 E12.00518
G1 X33.399 Y112.403 E.24485
M73 P2 R167
G1 X76.855 Y155.859 E11.65892
G1 X75.565 Y155.859 E.24485
G1 X33.399 Y113.693 E11.31265
G1 X33.399 Y114.984 E.24485
G1 X74.274 Y155.859 E10.96639
G1 X72.984 Y155.859 E.24485
G1 X33.399 Y116.275 E10.62013
G1 X33.399 Y117.565 E.24485
G1 X71.693 Y155.859 E10.27386
G1 X70.402 Y155.859 E.24485
G1 X33.399 Y118.856 E9.9276
G1 X33.399 Y120.146 E.24485
G1 X69.112 Y155.859 E9.58134
G1 X67.821 Y155.859 E.24485
G1 X39.095 Y127.132 E7.70705
G1 X47.751 Y137.08 E2.50161
G1 X66.53 Y155.859 E5.03831
G1 X65.24 Y155.859 E.24485
G1 X52.303 Y142.923 E3.47073
;LAYER_CHANGE
;Z:1.81818
;HEIGHT:0.468182
;BEFORE_LAYER_CHANGE
G92 E0
;1.81818


G1 E-.7 F3600
