; generated by PrusaSlicer 2.5.0+win64 on 2022-12-07 at 00:21:33 UTC

; 

; external perimeters extrusion width = 1.00mm
; perimeters extrusion width = 1.00mm
; infill extrusion width = 1.00mm
; solid infill extrusion width = 1.00mm
; top infill extrusion width = 1.00mm
; support material extrusion width = 1.00mm
; first layer extrusion width = 0.42mm

M73 P0 R148
M107
;TYPE:Custom
G90 ; use absolute coordinates
M83 ; extruder relative mode
M140 S60 ; set final bed temp
M104 S150 ; set temporary nozzle temp to prevent oozing during homing and auto bed leveling
G4 S10 ; allow partial nozzle warmup
G28 ; home all axisG1 Z50 F240
G1 X7.6 Y10 F3000
M104 S210 ; set final nozzle temp
M190 S60 ; wait for bed temp to stabilize
M109 S210 ; wait for nozzle temp to stabilize
G1 Z0.28 F240
G92 E0
G1 Y140 E10 F1500 ; prime the nozzle
G1 X4 F5000
G92 E0
G1 Y10 E10 F1200 ; prime the nozzle
G92 E0
G21 ; set units to millimeters
G90 ; use absolute coordinates
M83 ; use relative distances for extrusion
; Filament gcode
M107
;LAYER_CHANGE
;Z:0.35
;HEIGHT:0.35
;BEFORE_LAYER_CHANGE
G92 E0
;0.35


G1 E-1 F3600
G1 Z.35 F7800
;AFTER_LAYER_CHANGE
;0.35
G1 X94.552 Y17.18
G1 E1 F2400
;TYPE:Perimeter
;WIDTH:0.42
G1 F1800
G1 X99.358 Y102.151 E4.27116
G1 X99.369 Y162.82 E3.04469
M73 P0 R147
G1 X88.978 Y162.82 E.52148
G1 X80.739 Y17.18 E7.32072
G1 X94.402 Y17.18 E.68568
G1 X94.878 Y16.835 F7800
;TYPE:External perimeter
G1 F1800
G1 X99.703 Y102.132 E4.28752
G1 X99.714 Y163.165 E3.06297
G1 X88.652 Y163.165 E.55514
G1 X80.374 Y16.835 E7.35539
G1 X94.728 Y16.835 E.72035
G1 X94.901 Y17.835 F7800
G1 X94.496 Y18.025
;TYPE:Solid infill
;WIDTH:0.420374
G1 F1800
G1 X93.91 Y17.439 E.04161
G1 X93.422 Y17.439 E.02453
G1 X94.361 Y18.377 E.06668
G1 X94.39 Y18.895 E.02604
G1 X92.934 Y17.439 E.10345
G1 X92.446 Y17.439 E.02453
G1 X94.419 Y19.413 E.14022
G1 X94.448 Y19.93 E.02604
G1 X91.957 Y17.439 E.17699
G1 X91.469 Y17.439 E.02453
G1 X94.478 Y20.448 E.21377
G1 X94.507 Y20.965 E.02604
G1 X90.981 Y17.439 E.25054
G1 X90.492 Y17.439 E.02453
G1 X94.536 Y21.483 E.28731
G1 X94.565 Y22 E.02604
G1 X90.004 Y17.439 E.32408
G1 X89.516 Y17.439 E.02453
G1 X94.595 Y22.518 E.36085
G1 X94.624 Y23.035 E.02604
G1 X89.028 Y17.439 E.39763
G1 X88.539 Y17.439 E.02453
G1 X94.653 Y23.553 E.4344
G1 X94.683 Y24.071 E.02604
G1 X88.051 Y17.439 E.47117
G1 X87.563 Y17.439 E.02453
G1 X94.712 Y24.588 E.50794
G1 X94.741 Y25.106 E.02604
G1 X87.075 Y17.439 E.54472
G1 X86.586 Y17.439 E.02453
G1 X94.77 Y25.623 E.58149
G1 X94.8 Y26.141 E.02604
G1 X86.098 Y17.439 E.61826
G1 X85.61 Y17.439 E.02453
G1 X94.829 Y26.658 E.65503
G1 X94.858 Y27.176 E.02604
G1 X85.121 Y17.439 E.6918
G1 X84.633 Y17.439 E.02453
G1 X94.888 Y27.693 E.72858
G1 X94.917 Y28.211 E.02604
G1 X84.145 Y17.439 E.76535
G1 X83.657 Y17.439 E.02453
G1 X94.946 Y28.728 E.80212
G1 X94.975 Y29.246 E.02604
G1 X83.168 Y17.439 E.83889
G1 X82.68 Y17.439 E.02453
G1 X95.005 Y29.764 E.87567
G1 X95.034 Y30.281 E.02604
G1 X82.192 Y17.439 E.91244
G1 X81.704 Y17.439 E.02453
G1 X95.063 Y30.799 E.94921
G1 X95.092 Y31.316 E.02604
G1 X81.215 Y17.439 E.98598
G1 X81.013 Y17.439 E.01017
G1 X81.03 Y17.742 E.01525
G1 X95.122 Y31.834 E1.00123
G1 X95.151 Y32.351 E.02604
G1 X81.059 Y18.26 E1.00123
G1 X81.089 Y18.777 E.02604
G1 X95.18 Y32.869 E1.00123
G1 X95.21 Y33.386 E.02604
G1 X81.118 Y19.295 E1.00123
G1 X81.147 Y19.812 E.02604
G1 X95.239 Y33.904 E1.00123
G1 X95.268 Y34.422 E.02604
G1 X81.176 Y20.33 E1.00122
G1 X81.206 Y20.847 E.02604
G1 X95.297 Y34.939 E1.00122
G1 X95.327 Y35.457 E.02604
G1 X81.235 Y21.365 E1.00122
G1 X81.264 Y21.882 E.02604
G1 X95.356 Y35.974 E1.00122
G1 X95.385 Y36.492 E.02604
G1 X81.293 Y22.4 E1.00122
G1 X81.323 Y22.918 E.02604
G1 X95.414 Y37.009 E1.00122
G1 X95.444 Y37.527 E.02604
G1 X81.352 Y23.435 E1.00122
G1 X81.381 Y23.953 E.02604
G1 X95.473 Y38.044 E1.00122
G1 X95.502 Y38.562 E.02604
G1 X81.411 Y24.47 E1.00122
G1 X81.44 Y24.988 E.02604
G1 X95.532 Y39.079 E1.00122
G1 X95.561 Y39.597 E.02604
G1 X81.469 Y25.505 E1.00122
G1 X81.498 Y26.023 E.02604
G1 X95.59 Y40.115 E1.00122
G1 X95.619 Y40.632 E.02604
G1 X81.528 Y26.54 E1.00122
G1 X81.557 Y27.058 E.02604
G1 X95.649 Y41.15 E1.00122
G1 X95.678 Y41.667 E.02604
G1 X81.586 Y27.576 E1.00122
G1 X81.616 Y28.093 E.02604
G1 X95.707 Y42.185 E1.00122
G1 X95.736 Y42.702 E.02604
G1 X81.645 Y28.611 E1.00122
G1 X81.674 Y29.128 E.02604
G1 X95.766 Y43.22 E1.00122
G1 X95.795 Y43.737 E.02604
G1 X81.703 Y29.646 E1.00122
G1 X81.733 Y30.163 E.02604
G1 X95.824 Y44.255 E1.00122
G1 X95.854 Y44.773 E.02604
G1 X81.762 Y30.681 E1.00122
G1 X81.791 Y31.198 E.02604
G1 X95.883 Y45.29 E1.00122
G1 X95.912 Y45.808 E.02604
G1 X81.82 Y31.716 E1.00122
G1 X81.85 Y32.234 E.02604
G1 X95.941 Y46.325 E1.00122
G1 X95.971 Y46.843 E.02604
G1 X81.879 Y32.751 E1.00122
G1 X81.908 Y33.269 E.02604
G1 X96 Y47.36 E1.00122
G1 X96.029 Y47.878 E.02604
G1 X81.938 Y33.786 E1.00122
G1 X81.967 Y34.304 E.02604
G1 X96.059 Y48.395 E1.00122
G1 X96.088 Y48.913 E.02604
G1 X81.996 Y34.821 E1.00122
G1 X82.025 Y35.339 E.02604
G1 X96.117 Y49.431 E1.00122
G1 X96.146 Y49.948 E.02604
G1 X82.055 Y35.856 E1.00122
G1 X82.084 Y36.374 E.02604
G1 X96.176 Y50.466 E1.00121
G1 X96.205 Y50.983 E.02604
G1 X82.113 Y36.892 E1.00121
G1 X82.143 Y37.409 E.02604
G1 X96.234 Y51.501 E1.00121
G1 X96.263 Y52.018 E.02604
M73 P0 R146
G1 X82.172 Y37.927 E1.00121
G1 X82.201 Y38.444 E.02604
G1 X96.293 Y52.536 E1.00121
G1 X96.322 Y53.053 E.02604
G1 X82.23 Y38.962 E1.00121
G1 X82.26 Y39.479 E.02604
G1 X96.351 Y53.571 E1.00121
G1 X96.381 Y54.088 E.02604
G1 X82.289 Y39.997 E1.00121
G1 X82.318 Y40.514 E.02604
G1 X96.41 Y54.606 E1.00121
G1 X96.439 Y55.124 E.02604
G1 X82.348 Y41.032 E1.00121
G1 X82.377 Y41.55 E.02604
G1 X96.468 Y55.641 E1.00121
G1 X96.498 Y56.159 E.02604
G1 X82.406 Y42.067 E1.00121
G1 X82.435 Y42.585 E.02604
G1 X96.527 Y56.676 E1.00121
G1 X96.556 Y57.194 E.02604
G1 X82.465 Y43.102 E1.00121
G1 X82.494 Y43.62 E.02604
G1 X96.585 Y57.711 E1.00121
G1 X96.615 Y58.229 E.02604
G1 X82.523 Y44.137 E1.00121
G1 X82.552 Y44.655 E.02604
G1 X96.644 Y58.746 E1.00121
G1 X96.673 Y59.264 E.02604
G1 X82.582 Y45.172 E1.00121
G1 X82.611 Y45.69 E.02604
G1 X96.703 Y59.782 E1.00121
G1 X96.732 Y60.299 E.02604
G1 X82.64 Y46.208 E1.00121
G1 X82.67 Y46.725 E.02604
G1 X96.761 Y60.817 E1.00121
G1 X96.79 Y61.334 E.02604
G1 X82.699 Y47.243 E1.00121
G1 X82.728 Y47.76 E.02604
G1 X96.82 Y61.852 E1.00121
G1 X96.849 Y62.369 E.02604
G1 X82.757 Y48.278 E1.00121
G1 X82.787 Y48.795 E.02604
M73 P1 R146
G1 X96.878 Y62.887 E1.00121
G1 X96.907 Y63.404 E.02604
G1 X82.816 Y49.313 E1.00121
G1 X82.845 Y49.83 E.02604
G1 X96.937 Y63.922 E1.00121
G1 X96.966 Y64.439 E.02604
G1 X82.875 Y50.348 E1.00121
G1 X82.904 Y50.866 E.02604
G1 X96.995 Y64.957 E1.00121
G1 X97.025 Y65.475 E.02604
G1 X82.933 Y51.383 E1.00121
G1 X82.962 Y51.901 E.02604
G1 X97.054 Y65.992 E1.00121
G1 X97.083 Y66.51 E.02604
G1 X82.992 Y52.418 E1.0012
G1 X83.021 Y52.936 E.02604
G1 X97.112 Y67.027 E1.0012
G1 X97.142 Y67.545 E.02604
G1 X83.05 Y53.453 E1.0012
G1 X83.08 Y53.971 E.02604
G1 X97.171 Y68.062 E1.0012
G1 X97.2 Y68.58 E.02604
G1 X83.109 Y54.488 E1.0012
G1 X83.138 Y55.006 E.02604
G1 X97.23 Y69.097 E1.0012
G1 X97.259 Y69.615 E.02604
G1 X83.167 Y55.524 E1.0012
G1 X83.197 Y56.041 E.02604
G1 X97.288 Y70.133 E1.0012
G1 X97.317 Y70.65 E.02604
G1 X83.226 Y56.559 E1.0012
G1 X83.255 Y57.076 E.02604
G1 X97.347 Y71.168 E1.0012
G1 X97.376 Y71.685 E.02604
G1 X83.284 Y57.594 E1.0012
G1 X83.314 Y58.111 E.02604
G1 X97.405 Y72.203 E1.0012
G1 X97.434 Y72.72 E.02604
G1 X83.343 Y58.629 E1.0012
G1 X83.372 Y59.146 E.02604
G1 X97.464 Y73.238 E1.0012
G1 X97.493 Y73.755 E.02604
G1 X83.402 Y59.664 E1.0012
G1 X83.431 Y60.182 E.02604
G1 X97.522 Y74.273 E1.0012
G1 X97.552 Y74.79 E.02604
G1 X83.46 Y60.699 E1.0012
G1 X83.489 Y61.217 E.02604
G1 X97.581 Y75.308 E1.0012
G1 X97.61 Y75.826 E.02604
G1 X83.519 Y61.734 E1.0012
G1 X83.548 Y62.252 E.02604
G1 X97.639 Y76.343 E1.0012
G1 X97.669 Y76.861 E.02604
G1 X83.577 Y62.769 E1.0012
G1 X83.607 Y63.287 E.02604
G1 X97.698 Y77.378 E1.0012
G1 X97.727 Y77.896 E.02604
G1 X83.636 Y63.804 E1.0012
G1 X83.665 Y64.322 E.02604
G1 X97.756 Y78.413 E1.0012
G1 X97.786 Y78.931 E.02604
G1 X83.694 Y64.84 E1.0012
G1 X83.724 Y65.357 E.02604
G1 X97.815 Y79.448 E1.0012
G1 X97.844 Y79.966 E.02604
G1 X83.753 Y65.875 E1.0012
G1 X83.782 Y66.392 E.02604
G1 X97.874 Y80.484 E1.0012
G1 X97.903 Y81.001 E.02604
G1 X83.812 Y66.91 E1.0012
G1 X83.841 Y67.427 E.02604
G1 X97.932 Y81.519 E1.0012
G1 X97.961 Y82.036 E.02604
G1 X83.87 Y67.945 E1.00119
G1 X83.899 Y68.462 E.02604
G1 X97.991 Y82.554 E1.00119
G1 X98.02 Y83.071 E.02604
G1 X83.929 Y68.98 E1.00119
G1 X83.958 Y69.498 E.02604
G1 X98.049 Y83.589 E1.00119
G1 X98.078 Y84.106 E.02604
G1 X83.987 Y70.015 E1.00119
G1 X84.016 Y70.533 E.02604
G1 X98.108 Y84.624 E1.00119
G1 X98.137 Y85.141 E.02604
G1 X84.046 Y71.05 E1.00119
G1 X84.075 Y71.568 E.02604
G1 X98.166 Y85.659 E1.00119
G1 X98.196 Y86.177 E.02604
G1 X84.104 Y72.085 E1.00119
G1 X84.134 Y72.603 E.02604
G1 X98.225 Y86.694 E1.00119
G1 X98.254 Y87.212 E.02604
G1 X84.163 Y73.12 E1.00119
G1 X84.192 Y73.638 E.02604
G1 X98.283 Y87.729 E1.00119
G1 X98.313 Y88.247 E.02604
G1 X84.221 Y74.156 E1.00119
G1 X84.251 Y74.673 E.02604
G1 X98.342 Y88.764 E1.00119
G1 X98.371 Y89.282 E.02604
G1 X84.28 Y75.191 E1.00119
G1 X84.309 Y75.708 E.02604
G1 X98.401 Y89.799 E1.00119
G1 X98.43 Y90.317 E.02604
G1 X84.339 Y76.226 E1.00119
G1 X84.368 Y76.743 E.02604
G1 X98.459 Y90.835 E1.00119
G1 X98.488 Y91.352 E.02604
G1 X84.397 Y77.261 E1.00119
G1 X84.426 Y77.778 E.02604
G1 X98.518 Y91.87 E1.00119
G1 X98.547 Y92.387 E.02604
G1 X84.456 Y78.296 E1.00119
G1 X84.485 Y78.814 E.02604
G1 X98.576 Y92.905 E1.00119
G1 X98.605 Y93.422 E.02604
G1 X84.514 Y79.331 E1.00119
G1 X84.543 Y79.849 E.02604
G1 X98.635 Y93.94 E1.00119
G1 X98.664 Y94.457 E.02604
G1 X84.573 Y80.366 E1.00119
G1 X84.602 Y80.884 E.02604
M73 P1 R145
G1 X98.693 Y94.975 E1.00119
G1 X98.723 Y95.493 E.02604
G1 X84.631 Y81.401 E1.00119
G1 X84.661 Y81.919 E.02604
G1 X98.752 Y96.01 E1.00119
G1 X98.781 Y96.528 E.02604
G1 X84.69 Y82.436 E1.00119
G1 X84.719 Y82.954 E.02604
G1 X98.81 Y97.045 E1.00119
G1 X98.84 Y97.563 E.02604
G1 X84.748 Y83.472 E1.00119
G1 X84.778 Y83.989 E.02604
G1 X98.869 Y98.08 E1.00118
G1 X98.898 Y98.598 E.02604
G1 X84.807 Y84.507 E1.00118
G1 X84.836 Y85.024 E.02604
G1 X98.927 Y99.115 E1.00118
G1 X98.957 Y99.633 E.02604
G1 X84.866 Y85.542 E1.00118
G1 X84.895 Y86.059 E.02604
G1 X98.986 Y100.15 E1.00118
G1 X99.015 Y100.668 E.02604
G1 X84.924 Y86.577 E1.00118
G1 X84.953 Y87.094 E.02604
G1 X99.045 Y101.186 E1.00118
G1 X99.074 Y101.703 E.02604
G1 X84.983 Y87.612 E1.00118
G1 X85.012 Y88.13 E.02604
G1 X99.103 Y102.221 E1.00118
G1 X99.111 Y102.353 E.00667
G1 X99.111 Y102.716 E.01825
G1 X85.041 Y88.647 E.99963
G1 X85.071 Y89.165 E.02604
G1 X99.111 Y103.205 E.99755
G1 X99.111 Y103.693 E.02453
G1 X85.1 Y89.682 E.99547
G1 X85.129 Y90.2 E.02604
G1 X99.111 Y104.181 E.99339
G1 X99.111 Y104.67 E.02453
G1 X85.158 Y90.717 E.99131
G1 X85.188 Y91.235 E.02604
G1 X99.111 Y105.158 E.98923
G1 X99.111 Y105.646 E.02453
G1 X85.217 Y91.752 E.98715
G1 X85.246 Y92.27 E.02604
G1 X99.111 Y106.134 E.98507
G1 X99.111 Y106.623 E.02453
G1 X85.275 Y92.788 E.98299
G1 X85.305 Y93.305 E.02604
G1 X99.111 Y107.111 E.98091
G1 X99.111 Y107.599 E.02453
G1 X85.334 Y93.823 E.97883
G1 X85.363 Y94.34 E.02604
G1 X99.111 Y108.087 E.97675
G1 X99.111 Y108.576 E.02453
G1 X85.393 Y94.858 E.97467
G1 X85.422 Y95.375 E.02604
G1 X99.111 Y109.064 E.97259
G1 X99.111 Y109.552 E.02453
G1 X85.451 Y95.893 E.97051
G1 X85.48 Y96.41 E.02604
G1 X99.111 Y110.041 E.96843
G1 X99.111 Y110.529 E.02453
G1 X85.51 Y96.928 E.96635
G1 X85.539 Y97.446 E.02604
G1 X99.111 Y111.017 E.96427
G1 X99.111 Y111.505 E.02453
G1 X85.568 Y97.963 E.96219
G1 X85.598 Y98.481 E.02604
G1 X99.111 Y111.994 E.96011
G1 X99.111 Y112.482 E.02453
G1 X85.627 Y98.998 E.95803
G1 X85.656 Y99.516 E.02604
G1 X99.111 Y112.97 E.95595
G1 X99.111 Y113.459 E.02453
G1 X85.685 Y100.033 E.95387
G1 X85.715 Y100.551 E.02604
G1 X99.111 Y113.947 E.95179
G1 X99.111 Y114.435 E.02453
G1 X85.744 Y101.068 E.94971
G1 X85.773 Y101.586 E.02604
G1 X99.111 Y114.923 E.94763
G1 X99.111 Y115.412 E.02453
G1 X85.803 Y102.104 E.94555
G1 X85.832 Y102.621 E.02604
G1 X99.111 Y115.9 E.94347
G1 X99.111 Y116.388 E.02453
G1 X85.861 Y103.139 E.94139
G1 X85.89 Y103.656 E.02604
G1 X99.111 Y116.876 E.93931
G1 X99.111 Y117.365 E.02453
G1 X85.92 Y104.174 E.93722
G1 X85.949 Y104.691 E.02604
G1 X99.111 Y117.853 E.93514
G1 X99.111 Y118.341 E.02453
G1 X85.978 Y105.209 E.93306
G1 X86.007 Y105.726 E.02604
G1 X99.111 Y118.83 E.93098
G1 X99.111 Y119.318 E.02453
G1 X86.037 Y106.244 E.9289
G1 X86.066 Y106.762 E.02604
G1 X99.111 Y119.806 E.92682
G1 X99.111 Y120.294 E.02453
G1 X86.095 Y107.279 E.92474
G1 X86.125 Y107.797 E.02604
G1 X99.111 Y120.783 E.92266
G1 X99.111 Y121.271 E.02453
G1 X86.154 Y108.314 E.92058
G1 X86.183 Y108.832 E.02604
G1 X99.111 Y121.759 E.9185
G1 X99.111 Y122.247 E.02453
G1 X86.212 Y109.349 E.91642
G1 X86.242 Y109.867 E.02604
G1 X99.111 Y122.736 E.91434
G1 X99.111 Y123.224 E.02453
G1 X86.271 Y110.384 E.91226
G1 X86.3 Y110.902 E.02604
G1 X99.111 Y123.712 E.91018
G1 X99.111 Y124.201 E.02453
G1 X86.33 Y111.42 E.9081
G1 X86.359 Y111.937 E.02604
G1 X99.111 Y124.689 E.90602
G1 X99.111 Y125.177 E.02453
G1 X86.388 Y112.455 E.90394
G1 X86.417 Y112.972 E.02604
M73 P2 R145
G1 X99.111 Y125.665 E.90186
G1 X99.111 Y126.154 E.02453
G1 X86.447 Y113.49 E.89978
G1 X86.476 Y114.007 E.02604
G1 X99.111 Y126.642 E.8977
G1 X99.111 Y127.13 E.02453
G1 X86.505 Y114.525 E.89562
G1 X86.535 Y115.042 E.02604
G1 X99.111 Y127.618 E.89354
G1 X99.111 Y128.107 E.02453
G1 X86.564 Y115.56 E.89146
G1 X86.593 Y116.078 E.02604
G1 X99.111 Y128.595 E.88938
G1 X99.111 Y129.083 E.02453
G1 X86.622 Y116.595 E.8873
G1 X86.652 Y117.113 E.02604
G1 X99.111 Y129.572 E.88522
G1 X99.111 Y130.06 E.02453
G1 X86.681 Y117.63 E.88314
G1 X86.71 Y118.148 E.02604
G1 X99.111 Y130.548 E.88106
G1 X99.111 Y131.036 E.02453
G1 X86.739 Y118.665 E.87898
G1 X86.769 Y119.183 E.02604
G1 X99.111 Y131.525 E.8769
G1 X99.111 Y132.013 E.02453
G1 X86.798 Y119.7 E.87481
G1 X86.827 Y120.218 E.02604
G1 X99.111 Y132.501 E.87273
G1 X99.111 Y132.99 E.02453
G1 X86.857 Y120.736 E.87065
G1 X86.886 Y121.253 E.02604
G1 X99.111 Y133.478 E.86857
G1 X99.111 Y133.966 E.02453
G1 X86.915 Y121.771 E.86649
G1 X86.944 Y122.288 E.02604
G1 X99.111 Y134.454 E.86441
G1 X99.111 Y134.943 E.02453
G1 X86.974 Y122.806 E.86233
G1 X87.003 Y123.323 E.02604
G1 X99.111 Y135.431 E.86025
G1 X99.111 Y135.919 E.02453
G1 X87.032 Y123.841 E.85817
G1 X87.062 Y124.358 E.02604
G1 X99.111 Y136.407 E.85609
G1 X99.111 Y136.896 E.02453
G1 X87.091 Y124.876 E.85401
G1 X87.12 Y125.394 E.02604
G1 X99.111 Y137.384 E.85193
G1 X99.111 Y137.872 E.02453
M73 P2 R144
G1 X87.149 Y125.911 E.84985
G1 X87.179 Y126.429 E.02604
G1 X99.111 Y138.361 E.84777
G1 X99.111 Y138.849 E.02453
G1 X87.208 Y126.946 E.84569
G1 X87.237 Y127.464 E.02604
G1 X99.111 Y139.337 E.84361
G1 X99.111 Y139.825 E.02453
G1 X87.267 Y127.981 E.84153
G1 X87.296 Y128.499 E.02604
G1 X99.111 Y140.314 E.83945
G1 X99.111 Y140.802 E.02453
G1 X87.325 Y129.016 E.83737
G1 X87.354 Y129.534 E.02604
G1 X99.111 Y141.29 E.83529
G1 X99.111 Y141.778 E.02453
G1 X87.384 Y130.052 E.83321
G1 X87.413 Y130.569 E.02604
G1 X99.111 Y142.267 E.83113
G1 X99.111 Y142.755 E.02453
G1 X87.442 Y131.087 E.82905
G1 X87.471 Y131.604 E.02604
G1 X99.111 Y143.243 E.82697
G1 X99.111 Y143.732 E.02453
G1 X87.501 Y132.122 E.82489
G1 X87.53 Y132.639 E.02604
G1 X99.111 Y144.22 E.82281
G1 X99.111 Y144.708 E.02453
G1 X87.559 Y133.157 E.82073
G1 X87.589 Y133.674 E.02604
G1 X99.111 Y145.196 E.81865
G1 X99.111 Y145.685 E.02453
G1 X87.618 Y134.192 E.81657
G1 X87.647 Y134.71 E.02604
G1 X99.111 Y146.173 E.81449
G1 X99.111 Y146.661 E.02453
G1 X87.676 Y135.227 E.8124
G1 X87.706 Y135.745 E.02604
G1 X99.111 Y147.15 E.81032
G1 X99.111 Y147.638 E.02453
G1 X87.735 Y136.262 E.80824
G1 X87.764 Y136.78 E.02604
G1 X99.111 Y148.126 E.80616
G1 X99.111 Y148.614 E.02453
G1 X87.794 Y137.297 E.80408
G1 X87.823 Y137.815 E.02604
G1 X99.111 Y149.103 E.802
G1 X99.111 Y149.591 E.02453
G1 X87.852 Y138.332 E.79992
