; generated by PrusaSlicer 2.5.0+win64 on 2022-12-07 at 00:21:29 UTC

; 

; external perimeters extrusion width = 1.00mm
; perimeters extrusion width = 1.00mm
; infill extrusion width = 1.00mm
; solid infill extrusion width = 1.00mm
; top infill extrusion width = 1.00mm
; support material extrusion width = 1.00mm
; first layer extrusion width = 0.42mm

M73 P0 R159
M107
;TYPE:Custom
G90 ; use absolute coordinates
M83 ; extruder relative mode
M140 S60 ; set final bed temp
M104 S150 ; set temporary nozzle temp to prevent oozing during homing and auto bed leveling
G4 S10 ; allow partial nozzle warmup
G28 ; home all axisG1 Z50 F240
G1 X7.6 Y10 F3000
M104 S210 ; set final nozzle temp
M190 S60 ; wait for bed temp to stabilize
M109 S210 ; wait for nozzle temp to stabilize
G1 Z0.28 F240
G92 E0
G1 Y140 E10 F1500 ; prime the nozzle
G1 X4 F5000
G92 E0
G1 Y10 E10 F1200 ; prime the nozzle
G92 E0
G21 ; set units to millimeters
G90 ; use absolute coordinates
M83 ; use relative distances for extrusion
; Filament gcode
M107
;LAYER_CHANGE
;Z:0.35
;HEIGHT:0.35
;BEFORE_LAYER_CHANGE
G92 E0
;0.35


G1 E-1 F3600
G1 Z.35 F7800
;AFTER_LAYER_CHANGE
;0.35
G1 X90.42 Y17.18
G1 E1 F2400
;TYPE:Perimeter
;WIDTH:0.42
G1 F1800
G1 X98.638 Y162.82 E7.32066
G1 X84.825 Y162.82 E.69321
G1 X76.59 Y17.18 E7.32071
G1 X90.27 Y17.18 E.68655
G1 X90.746 Y16.835 F7800
;TYPE:External perimeter
G1 F1800
G1 X99.003 Y163.165 E7.35533
G1 X84.499 Y163.165 E.72788
G1 X76.225 Y16.835 E7.35538
G1 X90.596 Y16.835 E.72123
G1 X90.77 Y17.835 F7800
G1 X90.364 Y18.025
;TYPE:Solid infill
;WIDTH:0.420424
G1 F1800
G1 X89.779 Y17.439 E.04162
G1 X89.29 Y17.439 E.02454
G1 X90.229 Y18.377 E.06669
G1 X90.258 Y18.895 E.02605
G1 X88.802 Y17.439 E.10346
G1 X88.314 Y17.439 E.02454
G1 X90.287 Y19.413 E.14024
G1 X90.317 Y19.93 E.02605
G1 X87.825 Y17.439 E.17702
G1 X87.337 Y17.439 E.02454
G1 X90.346 Y20.448 E.2138
G1 X90.375 Y20.965 E.02605
G1 X86.849 Y17.439 E.25057
G1 X86.36 Y17.439 E.02454
G1 X90.404 Y21.483 E.28735
G1 X90.433 Y22 E.02605
G1 X85.872 Y17.439 E.32413
G1 X85.384 Y17.439 E.02454
G1 X90.463 Y22.518 E.36091
G1 X90.492 Y23.035 E.02605
G1 X84.895 Y17.439 E.39768
G1 X84.407 Y17.439 E.02454
G1 X90.521 Y23.553 E.43446
G1 X90.55 Y24.071 E.02605
G1 X83.919 Y17.439 E.47124
G1 X83.43 Y17.439 E.02454
G1 X90.579 Y24.588 E.50802
G1 X90.609 Y25.106 E.02605
G1 X82.942 Y17.439 E.54479
G1 X82.454 Y17.439 E.02454
G1 X90.638 Y25.623 E.58157
G1 X90.667 Y26.141 E.02605
G1 X81.965 Y17.439 E.61835
G1 X81.477 Y17.439 E.02454
G1 X90.696 Y26.658 E.65513
G1 X90.725 Y27.176 E.02605
G1 X80.989 Y17.439 E.6919
G1 X80.5 Y17.439 E.02454
G1 X90.755 Y27.693 E.72868
G1 X90.784 Y28.211 E.02605
G1 X80.012 Y17.439 E.76546
G1 X79.524 Y17.439 E.02454
G1 X90.813 Y28.728 E.80224
G1 X90.842 Y29.246 E.02605
G1 X79.035 Y17.439 E.83901
G1 X78.547 Y17.439 E.02454
G1 X90.871 Y29.764 E.87579
G1 X90.901 Y30.281 E.02605
G1 X78.058 Y17.439 E.91257
G1 X77.57 Y17.439 E.02454
G1 X90.93 Y30.799 E.94935
G1 X90.959 Y31.316 E.02605
G1 X77.082 Y17.439 E.98612
G1 X76.864 Y17.439 E.01095
G1 X76.88 Y17.726 E.01443
G1 X90.988 Y31.834 E1.00253
G1 X91.017 Y32.351 E.02605
G1 X76.909 Y18.243 E1.00253
G1 X76.939 Y18.761 E.02605
G1 X91.047 Y32.869 E1.00252
G1 X91.076 Y33.386 E.02605
G1 X76.968 Y19.279 E1.00252
G1 X76.997 Y19.796 E.02605
G1 X91.105 Y33.904 E1.00251
G1 X91.134 Y34.422 E.02605
G1 X77.026 Y20.314 E1.00251
G1 X77.056 Y20.831 E.02605
M73 P0 R158
G1 X91.163 Y34.939 E1.0025
G1 X91.193 Y35.457 E.02605
G1 X77.085 Y21.349 E1.0025
G1 X77.114 Y21.867 E.02605
G1 X91.222 Y35.974 E1.00249
G1 X91.251 Y36.492 E.02605
G1 X77.143 Y22.384 E1.00249
G1 X77.173 Y22.902 E.02605
G1 X91.28 Y37.009 E1.00249
G1 X91.309 Y37.527 E.02605
G1 X77.202 Y23.419 E1.00248
G1 X77.231 Y23.937 E.02605
G1 X91.339 Y38.044 E1.00248
G1 X91.368 Y38.562 E.02605
G1 X77.261 Y24.455 E1.00247
G1 X77.29 Y24.972 E.02605
G1 X91.397 Y39.079 E1.00247
G1 X91.426 Y39.597 E.02605
G1 X77.319 Y25.49 E1.00246
G1 X77.348 Y26.008 E.02605
G1 X91.455 Y40.115 E1.00246
G1 X91.485 Y40.632 E.02605
G1 X77.378 Y26.525 E1.00245
G1 X77.407 Y27.043 E.02605
G1 X91.514 Y41.15 E1.00245
G1 X91.543 Y41.667 E.02605
G1 X77.436 Y27.56 E1.00244
G1 X77.465 Y28.078 E.02605
G1 X91.572 Y42.185 E1.00244
G1 X91.601 Y42.702 E.02605
G1 X77.495 Y28.596 E1.00243
G1 X77.524 Y29.113 E.02605
G1 X91.631 Y43.22 E1.00243
G1 X91.66 Y43.737 E.02605
G1 X77.553 Y29.631 E1.00243
G1 X77.583 Y30.148 E.02605
G1 X91.689 Y44.255 E1.00242
G1 X91.718 Y44.772 E.02605
G1 X77.612 Y30.666 E1.00242
G1 X77.641 Y31.184 E.02605
G1 X91.747 Y45.29 E1.00241
G1 X91.777 Y45.808 E.02605
G1 X77.67 Y31.701 E1.00241
G1 X77.7 Y32.219 E.02605
G1 X91.806 Y46.325 E1.0024
G1 X91.835 Y46.843 E.02605
G1 X77.729 Y32.736 E1.0024
G1 X77.758 Y33.254 E.02605
G1 X91.864 Y47.36 E1.00239
G1 X91.893 Y47.878 E.02605
G1 X77.787 Y33.772 E1.00239
G1 X77.817 Y34.289 E.02605
G1 X91.923 Y48.395 E1.00238
G1 X91.952 Y48.913 E.02605
G1 X77.846 Y34.807 E1.00238
G1 X77.875 Y35.325 E.02605
G1 X91.981 Y49.43 E1.00237
G1 X92.01 Y49.948 E.02605
G1 X77.904 Y35.842 E1.00237
G1 X77.934 Y36.36 E.02605
G1 X92.039 Y50.466 E1.00236
G1 X92.069 Y50.983 E.02605
G1 X77.963 Y36.877 E1.00236
G1 X77.992 Y37.395 E.02605
G1 X92.098 Y51.501 E1.00236
G1 X92.127 Y52.018 E.02605
G1 X78.022 Y37.913 E1.00235
G1 X78.051 Y38.43 E.02605
G1 X92.156 Y52.536 E1.00235
G1 X92.185 Y53.053 E.02605
G1 X78.08 Y38.948 E1.00234
G1 X78.109 Y39.465 E.02605
G1 X92.215 Y53.571 E1.00234
G1 X92.244 Y54.088 E.02605
G1 X78.139 Y39.983 E1.00233
G1 X78.168 Y40.501 E.02605
G1 X92.273 Y54.606 E1.00233
G1 X92.302 Y55.123 E.02605
G1 X78.197 Y41.018 E1.00232
G1 X78.226 Y41.536 E.02605
G1 X92.331 Y55.641 E1.00232
G1 X92.361 Y56.159 E.02605
G1 X78.256 Y42.054 E1.00231
G1 X78.285 Y42.571 E.02605
G1 X92.39 Y56.676 E1.00231
G1 X92.419 Y57.194 E.02605
G1 X78.314 Y43.089 E1.0023
G1 X78.343 Y43.606 E.02605
G1 X92.448 Y57.711 E1.0023
G1 X92.478 Y58.229 E.02605
G1 X78.373 Y44.124 E1.00229
G1 X78.402 Y44.642 E.02605
G1 X92.507 Y58.746 E1.00229
G1 X92.536 Y59.264 E.02605
G1 X78.431 Y45.159 E1.00229
G1 X78.461 Y45.677 E.02605
G1 X92.565 Y59.781 E1.00228
G1 X92.594 Y60.299 E.02605
G1 X78.49 Y46.194 E1.00228
G1 X78.519 Y46.712 E.02605
G1 X92.624 Y60.817 E1.00227
G1 X92.653 Y61.334 E.02605
G1 X78.548 Y47.23 E1.00227
G1 X78.578 Y47.747 E.02605
G1 X92.682 Y61.852 E1.00226
G1 X92.711 Y62.369 E.02605
G1 X78.607 Y48.265 E1.00226
G1 X78.636 Y48.783 E.02605
G1 X92.74 Y62.887 E1.00225
G1 X92.77 Y63.404 E.02605
G1 X78.665 Y49.3 E1.00225
G1 X78.695 Y49.818 E.02605
G1 X92.799 Y63.922 E1.00224
G1 X92.828 Y64.439 E.02605
G1 X78.724 Y50.335 E1.00224
G1 X78.753 Y50.853 E.02605
G1 X92.857 Y64.957 E1.00223
G1 X92.886 Y65.474 E.02605
G1 X78.783 Y51.371 E1.00223
G1 X78.812 Y51.888 E.02605
G1 X92.916 Y65.992 E1.00223
G1 X92.945 Y66.51 E.02605
G1 X78.841 Y52.406 E1.00222
G1 X78.87 Y52.923 E.02605
G1 X92.974 Y67.027 E1.00222
G1 X93.003 Y67.545 E.02605
M73 P1 R158
G1 X78.9 Y53.441 E1.00221
G1 X78.929 Y53.959 E.02605
G1 X93.032 Y68.062 E1.00221
G1 X93.062 Y68.58 E.02605
G1 X78.958 Y54.476 E1.0022
G1 X78.987 Y54.994 E.02605
G1 X93.091 Y69.097 E1.0022
G1 X93.12 Y69.615 E.02605
G1 X79.017 Y55.512 E1.00219
G1 X79.046 Y56.029 E.02605
G1 X93.149 Y70.132 E1.00219
G1 X93.178 Y70.65 E.02605
G1 X79.075 Y56.547 E1.00218
G1 X79.104 Y57.064 E.02605
G1 X93.208 Y71.167 E1.00218
G1 X93.237 Y71.685 E.02605
G1 X79.134 Y57.582 E1.00217
G1 X79.163 Y58.1 E.02605
G1 X93.266 Y72.203 E1.00217
G1 X93.295 Y72.72 E.02605
G1 X79.192 Y58.617 E1.00216
G1 X79.222 Y59.135 E.02605
G1 X93.324 Y73.238 E1.00216
G1 X93.354 Y73.755 E.02605
G1 X79.251 Y59.652 E1.00216
G1 X79.28 Y60.17 E.02605
G1 X93.383 Y74.273 E1.00215
G1 X93.412 Y74.79 E.02605
G1 X79.309 Y60.688 E1.00215
G1 X79.339 Y61.205 E.02605
G1 X93.441 Y75.308 E1.00214
G1 X93.47 Y75.825 E.02605
G1 X79.368 Y61.723 E1.00214
G1 X79.397 Y62.241 E.02605
G1 X93.5 Y76.343 E1.00213
G1 X93.529 Y76.861 E.02605
G1 X79.426 Y62.758 E1.00213
G1 X79.456 Y63.276 E.02605
G1 X93.558 Y77.378 E1.00212
G1 X93.587 Y77.896 E.02605
M73 P1 R157
G1 X79.485 Y63.793 E1.00212
G1 X79.514 Y64.311 E.02605
G1 X93.616 Y78.413 E1.00211
G1 X93.646 Y78.931 E.02605
G1 X79.543 Y64.829 E1.00211
G1 X79.573 Y65.346 E.02605
G1 X93.675 Y79.448 E1.0021
G1 X93.704 Y79.966 E.02605
G1 X79.602 Y65.864 E1.0021
G1 X79.631 Y66.381 E.02605
G1 X93.733 Y80.483 E1.0021
G1 X93.762 Y81.001 E.02605
G1 X79.661 Y66.899 E1.00209
G1 X79.69 Y67.417 E.02605
G1 X93.792 Y81.518 E1.00209
G1 X93.821 Y82.036 E.02605
G1 X79.719 Y67.934 E1.00208
G1 X79.748 Y68.452 E.02605
G1 X93.85 Y82.554 E1.00208
G1 X93.879 Y83.071 E.02605
G1 X79.778 Y68.97 E1.00207
G1 X79.807 Y69.487 E.02605
G1 X93.908 Y83.589 E1.00207
G1 X93.938 Y84.106 E.02605
G1 X79.836 Y70.005 E1.00206
G1 X79.865 Y70.522 E.02605
G1 X93.967 Y84.624 E1.00206
G1 X93.996 Y85.141 E.02605
G1 X79.895 Y71.04 E1.00205
G1 X79.924 Y71.558 E.02605
G1 X94.025 Y85.659 E1.00205
G1 X94.054 Y86.176 E.02605
G1 X79.953 Y72.075 E1.00204
G1 X79.983 Y72.593 E.02605
G1 X94.084 Y86.694 E1.00204
G1 X94.113 Y87.212 E.02605
G1 X80.012 Y73.11 E1.00203
G1 X80.041 Y73.628 E.02605
G1 X94.142 Y87.729 E1.00203
G1 X94.171 Y88.247 E.02605
G1 X80.07 Y74.146 E1.00203
G1 X80.1 Y74.663 E.02605
G1 X94.2 Y88.764 E1.00202
G1 X94.23 Y89.282 E.02605
G1 X80.129 Y75.181 E1.00202
G1 X80.158 Y75.698 E.02605
G1 X94.259 Y89.799 E1.00201
G1 X94.288 Y90.317 E.02605
G1 X80.187 Y76.216 E1.00201
G1 X80.217 Y76.734 E.02605
G1 X94.317 Y90.834 E1.002
G1 X94.346 Y91.352 E.02605
G1 X80.246 Y77.251 E1.002
G1 X80.275 Y77.769 E.02605
G1 X94.376 Y91.869 E1.00199
G1 X94.405 Y92.387 E.02605
G1 X80.304 Y78.287 E1.00199
G1 X80.334 Y78.804 E.02605
G1 X94.434 Y92.905 E1.00198
G1 X94.463 Y93.422 E.02605
G1 X80.363 Y79.322 E1.00198
G1 X80.392 Y79.839 E.02605
G1 X94.493 Y93.94 E1.00197
G1 X94.522 Y94.457 E.02605
G1 X80.422 Y80.357 E1.00197
G1 X80.451 Y80.875 E.02605
G1 X94.551 Y94.975 E1.00197
G1 X94.58 Y95.492 E.02605
G1 X80.48 Y81.392 E1.00196
G1 X80.509 Y81.91 E.02605
G1 X94.609 Y96.01 E1.00196
G1 X94.639 Y96.527 E.02605
G1 X80.539 Y82.427 E1.00195
G1 X80.568 Y82.945 E.02605
G1 X94.668 Y97.045 E1.00195
G1 X94.697 Y97.562 E.02605
G1 X80.597 Y83.463 E1.00194
G1 X80.626 Y83.98 E.02605
G1 X94.726 Y98.08 E1.00194
G1 X94.755 Y98.598 E.02605
G1 X80.656 Y84.498 E1.00193
G1 X80.685 Y85.016 E.02605
G1 X94.785 Y99.115 E1.00193
G1 X94.814 Y99.633 E.02605
G1 X80.714 Y85.533 E1.00192
G1 X80.743 Y86.051 E.02605
G1 X94.843 Y100.15 E1.00192
G1 X94.872 Y100.668 E.02605
G1 X80.773 Y86.568 E1.00191
G1 X80.802 Y87.086 E.02605
G1 X94.901 Y101.185 E1.00191
G1 X94.931 Y101.703 E.02605
G1 X80.831 Y87.604 E1.0019
G1 X80.861 Y88.121 E.02605
G1 X94.96 Y102.22 E1.0019
G1 X94.989 Y102.738 E.02605
G1 X80.89 Y88.639 E1.0019
G1 X80.919 Y89.156 E.02605
G1 X95.018 Y103.256 E1.00189
G1 X95.047 Y103.773 E.02605
G1 X80.948 Y89.674 E1.00189
G1 X80.978 Y90.192 E.02605
G1 X95.077 Y104.291 E1.00188
G1 X95.106 Y104.808 E.02605
G1 X81.007 Y90.709 E1.00188
G1 X81.036 Y91.227 E.02605
G1 X95.135 Y105.326 E1.00187
G1 X95.164 Y105.843 E.02605
G1 X81.065 Y91.745 E1.00187
G1 X81.095 Y92.262 E.02605
G1 X95.193 Y106.361 E1.00186
G1 X95.223 Y106.878 E.02605
G1 X81.124 Y92.78 E1.00186
G1 X81.153 Y93.297 E.02605
G1 X95.252 Y107.396 E1.00185
G1 X95.281 Y107.913 E.02605
G1 X81.182 Y93.815 E1.00185
G1 X81.212 Y94.333 E.02605
G1 X95.31 Y108.431 E1.00184
G1 X95.339 Y108.949 E.02605
G1 X81.241 Y94.85 E1.00184
G1 X81.27 Y95.368 E.02605
G1 X95.369 Y109.466 E1.00184
G1 X95.398 Y109.984 E.02605
G1 X81.3 Y95.885 E1.00183
G1 X81.329 Y96.403 E.02605
G1 X95.427 Y110.501 E1.00183
G1 X95.456 Y111.019 E.02605
G1 X81.358 Y96.921 E1.00182
G1 X81.387 Y97.438 E.02605
G1 X95.485 Y111.536 E1.00182
G1 X95.515 Y112.054 E.02605
G1 X81.417 Y97.956 E1.00181
G1 X81.446 Y98.474 E.02605
G1 X95.544 Y112.571 E1.00181
G1 X95.573 Y113.089 E.02605
G1 X81.475 Y98.991 E1.0018
G1 X81.504 Y99.509 E.02605
G1 X95.602 Y113.607 E1.0018
G1 X95.631 Y114.124 E.02605
G1 X81.534 Y100.026 E1.00179
G1 X81.563 Y100.544 E.02605
G1 X95.661 Y114.642 E1.00179
G1 X95.69 Y115.159 E.02605
G1 X81.592 Y101.062 E1.00178
G1 X81.622 Y101.579 E.02605
G1 X95.719 Y115.677 E1.00178
G1 X95.748 Y116.194 E.02605
G1 X81.651 Y102.097 E1.00177
G1 X81.68 Y102.614 E.02605
G1 X95.777 Y116.712 E1.00177
G1 X95.807 Y117.229 E.02605
G1 X81.709 Y103.132 E1.00177
G1 X81.739 Y103.65 E.02605
G1 X95.836 Y117.747 E1.00176
G1 X95.865 Y118.264 E.02605
G1 X81.768 Y104.167 E1.00176
G1 X81.797 Y104.685 E.02605
G1 X95.894 Y118.782 E1.00175
G1 X95.923 Y119.3 E.02605
G1 X81.826 Y105.203 E1.00175
G1 X81.856 Y105.72 E.02605
G1 X95.953 Y119.817 E1.00174
G1 X95.982 Y120.335 E.02605
M73 P1 R156
G1 X81.885 Y106.238 E1.00174
G1 X81.914 Y106.755 E.02605
G1 X96.011 Y120.852 E1.00173
G1 X96.04 Y121.37 E.02605
G1 X81.943 Y107.273 E1.00173
G1 X81.973 Y107.791 E.02605
G1 X96.069 Y121.887 E1.00172
G1 X96.099 Y122.405 E.02605
G1 X82.002 Y108.308 E1.00172
G1 X82.031 Y108.826 E.02605
G1 X96.128 Y122.922 E1.00171
G1 X96.157 Y123.44 E.02605
G1 X82.061 Y109.343 E1.00171
G1 X82.09 Y109.861 E.02605
G1 X96.186 Y123.957 E1.0017
G1 X96.215 Y124.475 E.02605
G1 X82.119 Y110.379 E1.0017
G1 X82.148 Y110.896 E.02605
G1 X96.245 Y124.993 E1.0017
G1 X96.274 Y125.51 E.02605
G1 X82.178 Y111.414 E1.00169
G1 X82.207 Y111.932 E.02605
G1 X96.303 Y126.028 E1.00169
G1 X96.332 Y126.545 E.02605
G1 X82.236 Y112.449 E1.00168
G1 X82.265 Y112.967 E.02605
G1 X96.361 Y127.063 E1.00168
G1 X96.391 Y127.58 E.02605
G1 X82.295 Y113.484 E1.00167
G1 X82.324 Y114.002 E.02605
G1 X96.42 Y128.098 E1.00167
G1 X96.449 Y128.615 E.02605
G1 X82.353 Y114.52 E1.00166
G1 X82.382 Y115.037 E.02605
G1 X96.478 Y129.133 E1.00166
G1 X96.507 Y129.651 E.02605
G1 X82.412 Y115.555 E1.00165
G1 X82.441 Y116.072 E.02605
G1 X96.537 Y130.168 E1.00165
G1 X96.566 Y130.686 E.02605
G1 X82.47 Y116.59 E1.00164
G1 X82.5 Y117.108 E.02605
G1 X96.595 Y131.203 E1.00164
G1 X96.624 Y131.721 E.02605
G1 X82.529 Y117.625 E1.00164
G1 X82.558 Y118.143 E.02605
G1 X96.654 Y132.238 E1.00163
G1 X96.683 Y132.756 E.02605
G1 X82.587 Y118.66 E1.00163
G1 X82.617 Y119.178 E.02605
G1 X96.712 Y133.273 E1.00162
G1 X96.741 Y133.791 E.02605
G1 X82.646 Y119.696 E1.00162
G1 X82.675 Y120.213 E.02605
G1 X96.77 Y134.308 E1.00161
G1 X96.8 Y134.826 E.02605
G1 X82.704 Y120.731 E1.00161
G1 X82.734 Y121.249 E.02605
G1 X96.829 Y135.344 E1.0016
G1 X96.858 Y135.861 E.02605
M73 P2 R156
G1 X82.763 Y121.766 E1.0016
G1 X82.792 Y122.284 E.02605
G1 X96.887 Y136.379 E1.00159
G1 X96.916 Y136.896 E.02605
G1 X82.822 Y122.801 E1.00159
G1 X82.851 Y123.319 E.02605
G1 X96.946 Y137.414 E1.00158
G1 X96.975 Y137.931 E.02605
G1 X82.88 Y123.837 E1.00158
G1 X82.909 Y124.354 E.02605
G1 X97.004 Y138.449 E1.00157
G1 X97.033 Y138.966 E.02605
G1 X82.939 Y124.872 E1.00157
G1 X82.968 Y125.389 E.02605
G1 X97.062 Y139.484 E1.00157
G1 X97.092 Y140.002 E.02605
G1 X82.997 Y125.907 E1.00156
G1 X83.026 Y126.425 E.02605
G1 X97.121 Y140.519 E1.00156
G1 X97.15 Y141.037 E.02605
G1 X83.056 Y126.942 E1.00155
G1 X83.085 Y127.46 E.02605
G1 X97.179 Y141.554 E1.00155
G1 X97.208 Y142.072 E.02605
G1 X83.114 Y127.978 E1.00154
G1 X83.143 Y128.495 E.02605
G1 X97.238 Y142.589 E1.00154
G1 X97.267 Y143.107 E.02605
G1 X83.173 Y129.013 E1.00153
G1 X83.202 Y129.53 E.02605
G1 X97.296 Y143.624 E1.00153
G1 X97.325 Y144.142 E.02605
G1 X83.231 Y130.048 E1.00152
G1 X83.261 Y130.566 E.02605
G1 X97.354 Y144.659 E1.00152
G1 X97.384 Y145.177 E.02605
G1 X83.29 Y131.083 E1.00151
G1 X83.319 Y131.601 E.02605
G1 X97.413 Y145.695 E1.00151
G1 X97.442 Y146.212 E.02605
G1 X83.348 Y132.118 E1.00151
G1 X83.378 Y132.636 E.02605
G1 X97.471 Y146.73 E1.0015
G1 X97.5 Y147.247 E.02605
G1 X83.407 Y133.154 E1.0015
G1 X83.436 Y133.671 E.02605
G1 X97.53 Y147.765 E1.00149
G1 X97.559 Y148.282 E.02605
G1 X83.465 Y134.189 E1.00149
G1 X83.495 Y134.707 E.02605
G1 X97.588 Y148.8 E1.00148
G1 X97.617 Y149.317 E.02605
G1 X83.524 Y135.224 E1.00148
G1 X83.553 Y135.742 E.02605
G1 X97.646 Y149.835 E1.00147
G1 X97.676 Y150.352 E.02605
G1 X83.582 Y136.259 E1.00147
G1 X83.612 Y136.777 E.02605
G1 X97.705 Y150.87 E1.00146
G1 X97.734 Y151.388 E.02605
G1 X83.641 Y137.295 E1.00146
G1 X83.67 Y137.812 E.02605
G1 X97.763 Y151.905 E1.00145
G1 X97.792 Y152.423 E.02605
G1 X83.7 Y138.33 E1.00145
