; generated by PrusaSlicer 2.5.0+win64 on 2022-12-07 at 00:21:34 UTC

; 

; external perimeters extrusion width = 1.00mm
; perimeters extrusion width = 1.00mm
; infill extrusion width = 1.00mm
; solid infill extrusion width = 1.00mm
; top infill extrusion width = 1.00mm
; support material extrusion width = 1.00mm
; first layer extrusion width = 0.42mm

M73 P0 R100
M107
;TYPE:Custom
G90 ; use absolute coordinates
M83 ; extruder relative mode
M140 S60 ; set final bed temp
M104 S150 ; set temporary nozzle temp to prevent oozing during homing and auto bed leveling
G4 S10 ; allow partial nozzle warmup
G28 ; home all axisG1 Z50 F240
G1 X7.6 Y10 F3000
M104 S210 ; set final nozzle temp
M190 S60 ; wait for bed temp to stabilize
M109 S210 ; wait for nozzle temp to stabilize
G1 Z0.28 F240
G92 E0
G1 Y140 E10 F1500 ; prime the nozzle
G1 X4 F5000
G92 E0
G1 Y10 E10 F1200 ; prime the nozzle
G92 E0
G21 ; set units to millimeters
G90 ; use absolute coordinates
M83 ; use relative distances for extrusion
; Filament gcode
M107
;LAYER_CHANGE
;Z:0.35
;HEIGHT:0.35
;BEFORE_LAYER_CHANGE
G92 E0
;0.35


G1 E-1 F3600
G1 Z.35 F7800
;AFTER_LAYER_CHANGE
;0.35
G1 X87.749 Y162.819
G1 E1 F2400
;TYPE:Perimeter
;WIDTH:0.42
G1 F1053
G1 X85.438 Y162.819 E.11597
G1 X85.438 Y134.982 E1.39701
;WIDTH:0.461791
G1 X85.459 Y134.732 E.01411
;WIDTH:0.503582
G1 X85.48 Y134.483 E.01564
;WIDTH:0.545373
G1 X85.501 Y134.233 E.01716
;WIDTH:0.587164
G1 X85.521 Y133.983 E.01869
G1 X85.498 Y132.321 E.12386
;WIDTH:0.54019
G1 X85.474 Y130.658 E.1125
;WIDTH:0.493217
G1 X85.451 Y128.996 E.10114
;WIDTH:0.491191
G1 X85.473 Y128.853 E.00875
;WIDTH:0.536139
G1 X85.496 Y128.711 E.0097
;WIDTH:0.581087
G1 X85.518 Y128.568 E.01064
;WIDTH:0.626035
G1 X85.541 Y128.425 E.01159
;WIDTH:0.670983
G1 X85.563 Y128.282 E.01253
;WIDTH:0.715931
G1 X85.586 Y128.139 E.01348
;WIDTH:0.760879
G1 X85.608 Y127.997 E.01443
G1 X85.639 Y128.138 E.01443
;WIDTH:0.715931
G1 X85.669 Y128.279 E.01348
;WIDTH:0.670983
G1 X85.7 Y128.42 E.01253
;WIDTH:0.626035
G1 X85.73 Y128.562 E.01159
;WIDTH:0.581087
G1 X85.761 Y128.703 E.01064
;WIDTH:0.536139
G1 X85.791 Y128.844 E.0097
;WIDTH:0.491191
G1 X85.822 Y128.986 E.00875
;WIDTH:0.493217
G1 X85.892 Y130.647 E.10114
;WIDTH:0.54019
G1 X85.963 Y132.307 E.1125
;WIDTH:0.587164
G1 X86.033 Y133.968 E.12386
G1 X86.068 Y134.217 E.01869
;WIDTH:0.545373
G1 X86.103 Y134.465 E.01716
;WIDTH:0.503582
G1 X86.138 Y134.713 E.01564
;WIDTH:0.461791
G1 X86.173 Y134.962 E.01411
;WIDTH:0.42
G1 X87.74 Y162.669 E1.39276
G1 E-.7 F3600
;WIPE_START
G1 F6240
G1 X87.221 Y162.703 E-.285
;WIPE_END
G1 E-.015 F3600
G1 X85.263 Y115.792 F7800
G1 E1 F2400
;TYPE:External perimeter
;WIDTH:0.801937
G1 F1053
G1 X85.209 Y113.867 E.20368
;WIDTH:0.842995
G1 X85.155 Y111.942 E.21518
;WIDTH:0.884053
G1 X85.1 Y110.017 E.22669
;WIDTH:0.925111
G1 X85.046 Y108.092 E.23819
G1 E-.7 F3600
;WIPE_START
G1 F6240
G1 X85.06 Y108.612 E-.285
;WIPE_END
G1 E-.015 F3600
G1 X88.114 Y163.164 F7800
G1 E1 F2400
;WIDTH:0.42
G1 F1053
G1 X85.093 Y163.164 E.1516
G1 X85.093 Y122.894 E2.02099
;WIDTH:0.46261
G1 X85.114 Y122.644 E.01414
;WIDTH:0.50522
G1 X85.136 Y122.394 E.0157
;WIDTH:0.54783
G1 X85.157 Y122.144 E.01725
;WIDTH:0.59044
G1 X85.178 Y121.894 E.01881
G1 X85.154 Y120.194 E.12755
;WIDTH:0.542374
G1 X85.13 Y118.493 E.11566
;WIDTH:0.494309
G1 X85.106 Y116.792 E.10376
;WIDTH:0.491191
G1 X85.129 Y116.649 E.00875
;WIDTH:0.536139
G1 X85.151 Y116.506 E.0097
;WIDTH:0.581087
G1 X85.173 Y116.363 E.01064
;WIDTH:0.626035
G1 X85.196 Y116.221 E.01159
;WIDTH:0.670983
G1 X85.218 Y116.078 E.01253
;WIDTH:0.715931
G1 X85.241 Y115.935 E.01348
;WIDTH:0.760879
G1 X85.263 Y115.792 E.01443
G1 X85.294 Y115.934 E.01443
;WIDTH:0.715931
G1 X85.324 Y116.075 E.01348
;WIDTH:0.670983
G1 X85.355 Y116.216 E.01253
;WIDTH:0.626035
G1 X85.385 Y116.357 E.01159
;WIDTH:0.581087
G1 X85.416 Y116.499 E.01064
;WIDTH:0.536139
G1 X85.446 Y116.64 E.0097
;WIDTH:0.491191
G1 X85.477 Y116.781 E.00875
;WIDTH:0.494309
G1 X85.549 Y118.481 E.10376
;WIDTH:0.542374
G1 X85.621 Y120.18 E.11566
;WIDTH:0.59044
G1 X85.693 Y121.88 E.12755
G1 X85.728 Y122.128 E.01881
;WIDTH:0.54783
G1 X85.764 Y122.376 E.01725
;WIDTH:0.50522
G1 X85.799 Y122.625 E.0157
;WIDTH:0.46261
G1 X85.835 Y122.873 E.01414
;WIDTH:0.42
G1 X88.105 Y163.014 E2.01774
G1 E-.7 F3600
;WIPE_START
G1 F6240
G1 X87.586 Y163.04 E-.285
;WIPE_END
G1 E-.015 F3600
G1 X85.608 Y127.997 F7800
G1 E1 F2400
;TYPE:Perimeter
;WIDTH:0.760879
G1 F1053
G1 X85.584 Y127.146 E.0849
;WIDTH:0.712814
G1 X85.56 Y126.296 E.07895
;WIDTH:0.664749
G1 X85.536 Y125.445 E.073
;WIDTH:0.616684
G1 X85.512 Y124.595 E.06704
;WIDTH:0.568619
G1 X85.488 Y123.744 E.06109
;WIDTH:0.520554
G1 X85.464 Y122.894 E.05514
G1 E-.7 F3600
;WIPE_START
G1 F6240
G1 X85.479 Y123.414 E-.285
;WIPE_END
G1 E-.015 F3600
G1 X86.083 Y135.198 F7800
G1 E1 F2400
;TYPE:Solid infill
;WIDTH:0.420595
G1 F1053
G1 X85.722 Y134.837 E.02564
G1 X85.696 Y134.99 E.00777
G1 X85.696 Y135.3 E.01561
G1 X85.947 Y135.551 E.01783
G1 X85.977 Y136.069 E.02608
G1 X85.696 Y135.789 E.01991
G1 X85.696 Y136.277 E.02456
G1 X86.006 Y136.587 E.02199
G1 X86.035 Y137.105 E.02608
G1 X85.696 Y136.766 E.02407
G1 X85.696 Y137.254 E.02456
G1 X86.064 Y137.622 E.02616
G1 X86.094 Y138.14 E.02608
G1 X85.696 Y137.743 E.02824
G1 X85.696 Y138.232 E.02456
G1 X86.123 Y138.658 E.03032
G1 X86.152 Y139.176 E.02608
G1 X85.696 Y138.72 E.0324
G1 X85.696 Y139.209 E.02456
G1 X86.182 Y139.694 E.03449
G1 X86.211 Y140.212 E.02608
G1 X85.696 Y139.697 E.03657
G1 X85.696 Y140.186 E.02456
G1 X86.24 Y140.73 E.03865
G1 X86.269 Y141.248 E.02608
G1 X85.696 Y140.675 E.04074
G1 X85.696 Y141.163 E.02456
G1 X86.299 Y141.765 E.04282
G1 X86.328 Y142.283 E.02608
G1 X85.696 Y141.652 E.0449
G1 X85.696 Y142.14 E.02456
G1 X86.357 Y142.801 E.04698
G1 X86.387 Y143.319 E.02608
G1 X85.696 Y142.629 E.04907
G1 X85.696 Y143.118 E.02456
G1 X86.416 Y143.837 E.05115
G1 X86.445 Y144.355 E.02608
G1 X85.696 Y143.606 E.05323
G1 X85.696 Y144.095 E.02456
G1 X86.475 Y144.873 E.05531
G1 X86.504 Y145.391 E.02608
G1 X85.696 Y144.583 E.0574
G1 X85.696 Y145.072 E.02456
G1 X86.533 Y145.909 E.05948
G1 X86.562 Y146.426 E.02608
G1 X85.696 Y145.56 E.06156
G1 X85.696 Y146.049 E.02456
G1 X86.592 Y146.944 E.06364
G1 X86.621 Y147.462 E.02608
G1 X85.696 Y146.538 E.06573
G1 X85.696 Y147.026 E.02456
G1 X86.65 Y147.98 E.06781
G1 X86.68 Y148.498 E.02608
G1 X85.696 Y147.515 E.06989
G1 X85.696 Y148.003 E.02456
G1 X86.709 Y149.016 E.07198
G1 X86.738 Y149.534 E.02608
G1 X85.696 Y148.492 E.07406
G1 X85.696 Y148.981 E.02456
G1 X86.767 Y150.052 E.07614
G1 X86.797 Y150.569 E.02608
G1 X85.696 Y149.469 E.07822
G1 X85.696 Y149.958 E.02456
G1 X86.826 Y151.087 E.08031
G1 X86.855 Y151.605 E.02608
G1 X85.696 Y150.446 E.08239
G1 X85.696 Y150.935 E.02456
G1 X86.885 Y152.123 E.08447
G1 X86.914 Y152.641 E.02608
G1 X85.696 Y151.424 E.08655
G1 X85.696 Y151.912 E.02456
G1 X86.943 Y153.159 E.08864
G1 X86.973 Y153.677 E.02608
G1 X85.696 Y152.401 E.09072
G1 X85.696 Y152.889 E.02456
G1 X87.002 Y154.195 E.0928
G1 X87.031 Y154.713 E.02608
G1 X85.696 Y153.378 E.09488
G1 X85.696 Y153.866 E.02456
G1 X87.06 Y155.23 E.09697
G1 X87.09 Y155.748 E.02608
G1 X85.696 Y154.355 E.09905
G1 X85.696 Y154.844 E.02456
G1 X87.119 Y156.266 E.10113
G1 X87.148 Y156.784 E.02608
G1 X85.696 Y155.332 E.10322
G1 X85.696 Y155.821 E.02456
G1 X87.178 Y157.302 E.1053
G1 X87.207 Y157.82 E.02608
G1 X85.696 Y156.309 E.10738
G1 X85.696 Y156.798 E.02456
G1 X87.236 Y158.338 E.10946
G1 X87.265 Y158.856 E.02608
G1 X85.696 Y157.287 E.11155
G1 X85.696 Y157.775 E.02456
G1 X87.295 Y159.373 E.11363
G1 X87.324 Y159.891 E.02608
G1 X85.696 Y158.264 E.11571
G1 X85.696 Y158.752 E.02456
G1 X87.353 Y160.409 E.11779
G1 X87.383 Y160.927 E.02608
G1 X85.696 Y159.241 E.11988
G1 X85.696 Y159.73 E.02456
G1 X87.412 Y161.445 E.12196
G1 X87.441 Y161.963 E.02608
G1 X85.696 Y160.218 E.12404
G1 X85.696 Y160.707 E.02456
G1 X87.471 Y162.481 E.12612
G1 X87.475 Y162.56 E.00402
G1 X87.062 Y162.56 E.02078
G1 X85.696 Y161.195 E.09706
G1 X85.696 Y161.684 E.02456
G1 X86.573 Y162.56 E.06232
G1 X86.085 Y162.56 E.02456
G1 X85.541 Y162.017 E.03862
M106 S255
;LAYER_CHANGE
;Z:0.85
;HEIGHT:0.5
;BEFORE_LAYER_CHANGE
G92 E0
;0.85


G1 E-.7 F3600
;WIPE_START
G1 F6240
G1 X85.909 Y162.385 E-.285
;WIPE_END
G1 E-.015 F3600
G1 Z.85 F7800
;AFTER_LAYER_CHANGE
;0.85
M104 S205 ; set temperature
G1 X85.687 Y130.479
G1 E1 F2400
;TYPE:External perimeter
;WIDTH:1.60794
G1 F900
G1 X85.642 Y128.899 E.4931
;WIDTH:1.56147
G1 X85.598 Y127.319 E.47783
;WIDTH:1.515
G1 X85.553 Y125.739 E.46256
;WIDTH:1.46852
G1 X85.508 Y124.159 E.44728
;WIDTH:1.42205
G1 X85.464 Y122.579 E.43201
;WIDTH:1.37557
G1 X85.419 Y120.999 E.41674
;WIDTH:1.3291
G1 X85.374 Y119.419 E.40147
;WIDTH:1.28262
G1 X85.33 Y117.839 E.3862
;WIDTH:1.23615
G1 X85.285 Y116.259 E.37093
;WIDTH:1.18967
G1 X85.24 Y114.679 E.35566
;WIDTH:1.1432
G1 X85.196 Y113.099 E.34039
;WIDTH:1.09672
G1 X85.151 Y111.519 E.32512
;WIDTH:1.05025
G1 X85.106 Y109.938 E.30984
;WIDTH:1.00378
G1 X85.062 Y108.358 E.29457
G1 E-.7 F3600
;WIPE_START
G1 F6240
G1 X85.077 Y108.878 E-.285
;WIPE_END
G1 E-.015 F3600
G1 X87.824 Y162.874 F7800
G1 E1 F2400
;WIDTH:1
G1 F900
G1 X85.383 Y162.874 E.45291
G1 X85.383 Y149.794 E2.42721
;WIDTH:1.0469
G1 X85.406 Y149.669 E.02483
;WIDTH:1.09379
M73 P0 R99
G1 X85.43 Y149.544 E.02607
;WIDTH:1.14069
G1 X85.453 Y149.419 E.02731
;WIDTH:1.18758
G1 X85.477 Y149.294 E.02855
;WIDTH:1.23448
G1 X85.5 Y149.17 E.02979
;WIDTH:1.28137
G1 X85.524 Y149.045 E.03103
;WIDTH:1.32827
G1 X85.547 Y148.92 E.03227
;WIDTH:1.37516
G1 X85.571 Y148.795 E.03351
G1 X85.546 Y147.063 E.45641
;WIDTH:1.32623
G1 X85.522 Y145.332 E.4388
;WIDTH:1.2773
G1 X85.497 Y143.6 E.42119
;WIDTH:1.22837
G1 X85.473 Y141.868 E.40357
;WIDTH:1.17944
G1 X85.448 Y140.137 E.38596
;WIDTH:1.13052
G1 X85.424 Y138.405 E.36834
;WIDTH:1.08159
G1 X85.399 Y136.674 E.35073
;WIDTH:1.03266
G1 X85.375 Y134.942 E.33312
;WIDTH:0.983728
G1 X85.35 Y133.211 E.3155
;WIDTH:0.934798
G1 X85.326 Y131.479 E.29789
;WIDTH:0.934007
G1 X85.35 Y131.412 E.01218
;WIDTH:0.982146
G1 X85.374 Y131.346 E.01289
;WIDTH:1.03028
G1 X85.398 Y131.279 E.01359
;WIDTH:1.07842
G1 X85.422 Y131.212 E.0143
;WIDTH:1.12656
G1 X85.446 Y131.146 E.01501
;WIDTH:1.1747
G1 X85.47 Y131.079 E.01572
;WIDTH:1.22284
G1 X85.494 Y131.013 E.01643
;WIDTH:1.27098
G1 X85.518 Y130.946 E.01714
;WIDTH:1.31911
G1 X85.543 Y130.879 E.01785
;WIDTH:1.36725
G1 X85.567 Y130.813 E.01856
;WIDTH:1.41539
G1 X85.591 Y130.746 E.01927
;WIDTH:1.46353
G1 X85.615 Y130.679 E.01998
;WIDTH:1.51167
G1 X85.639 Y130.613 E.02068
;WIDTH:1.55981
G1 X85.663 Y130.546 E.02139
;WIDTH:1.60794
G1 X85.687 Y130.479 E.0221
G1 X85.715 Y130.545 E.0221
;WIDTH:1.55981
G1 X85.743 Y130.61 E.02139
;WIDTH:1.51167
G1 X85.77 Y130.675 E.02068
;WIDTH:1.46353
G1 X85.798 Y130.74 E.01998
;WIDTH:1.41539
G1 X85.826 Y130.805 E.01927
;WIDTH:1.36725
G1 X85.854 Y130.87 E.01856
;WIDTH:1.31911
G1 X85.881 Y130.936 E.01785
;WIDTH:1.27098
G1 X85.909 Y131.001 E.01714
;WIDTH:1.22284
G1 X85.937 Y131.066 E.01643
;WIDTH:1.1747
G1 X85.965 Y131.131 E.01572
;WIDTH:1.12656
G1 X85.993 Y131.196 E.01501
;WIDTH:1.07842
G1 X86.02 Y131.262 E.0143
;WIDTH:1.03028
G1 X86.048 Y131.327 E.01359
;WIDTH:0.982146
G1 X86.076 Y131.392 E.01289
;WIDTH:0.934007
G1 X86.104 Y131.457 E.01218
;WIDTH:0.934798
G1 X86.177 Y133.187 E.29789
;WIDTH:0.983728
G1 X86.251 Y134.917 E.3155
;WIDTH:1.03266
G1 X86.324 Y136.648 E.33312
;WIDTH:1.08159
G1 X86.397 Y138.378 E.35073
;WIDTH:1.13052
G1 X86.471 Y140.108 E.36834
;WIDTH:1.17944
G1 X86.544 Y141.838 E.38596
;WIDTH:1.22837
G1 X86.617 Y143.568 E.40357
;WIDTH:1.2773
G1 X86.691 Y145.299 E.42118
;WIDTH:1.32623
G1 X86.764 Y147.029 E.4388
;WIDTH:1.37516
G1 X86.837 Y148.759 E.45641
G1 X86.868 Y148.882 E.03351
;WIDTH:1.32827
G1 X86.898 Y149.006 E.03227
;WIDTH:1.28137
G1 X86.929 Y149.129 E.03103
;WIDTH:1.23448
G1 X86.959 Y149.253 E.02979
;WIDTH:1.18758
G1 X86.99 Y149.376 E.02855
;WIDTH:1.14069
G1 X87.02 Y149.499 E.02731
;WIDTH:1.09379
G1 X87.051 Y149.623 E.02607
;WIDTH:1.0469
G1 X87.081 Y149.746 E.02483
;WIDTH:1
G1 X87.815 Y162.724 E2.41218
G1 X86.569 Y161.688 F7800
;TYPE:Perimeter
;WIDTH:1.58629
G1 F900
G1 X86.545 Y160.839 E.2613
;WIDTH:1.53828
G1 X86.521 Y159.989 E.25282
;WIDTH:1.49027
G1 X86.497 Y159.14 E.24433
;WIDTH:1.44225
G1 X86.473 Y158.29 E.23585
;WIDTH:1.39424
G1 X86.449 Y157.44 E.22737
;WIDTH:1.34623
G1 X86.425 Y156.591 E.21889
;WIDTH:1.29822
G1 X86.401 Y155.741 E.2104
;WIDTH:1.2502
G1 X86.377 Y154.892 E.20192
;WIDTH:1.20219
G1 X86.353 Y154.042 E.19344
;WIDTH:1.15418
G1 X86.329 Y153.193 E.18496
;WIDTH:1.10617
G1 X86.305 Y152.343 E.17647
;WIDTH:1.05815
G1 X86.281 Y151.493 E.16799
;WIDTH:1.01014
G1 X86.257 Y150.644 E.15951
;WIDTH:0.962129
G1 X86.233 Y149.794 E.15103
;LAYER_CHANGE
;Z:1.35
;HEIGHT:0.5
;BEFORE_LAYER_CHANGE
G92 E0
;1.35


G1 E-.7 F3600
;WIPE_START
G1 F6240
G1 X86.247 Y150.314 E-.285
;WIPE_END
G1 E-.015 F3600
G1 Z1.35 F7800
;AFTER_LAYER_CHANGE
;1.35
G1 X85.687 Y130.122
G1 E1 F2400
;TYPE:External perimeter
;WIDTH:1.60795
G1 F900
G1 X85.642 Y128.541 E.49322
;WIDTH:1.56147
G1 X85.598 Y126.961 E.47795
;WIDTH:1.515
G1 X85.553 Y125.38 E.46267
;WIDTH:1.46852
G1 X85.508 Y123.8 E.4474
;WIDTH:1.42205
G1 X85.464 Y122.219 E.43212
;WIDTH:1.37557
G1 X85.419 Y120.639 E.41685
;WIDTH:1.3291
G1 X85.374 Y119.058 E.40157
;WIDTH:1.28262
G1 X85.33 Y117.478 E.3863
;WIDTH:1.23615
G1 X85.285 Y115.897 E.37102
;WIDTH:1.18968
G1 X85.24 Y114.317 E.35575
;WIDTH:1.1432
G1 X85.196 Y112.736 E.34047
;WIDTH:1.09673
G1 X85.151 Y111.156 E.3252
;WIDTH:1.05025
G1 X85.106 Y109.575 E.30992
;WIDTH:1.00378
G1 X85.062 Y107.995 E.29465
G1 E-.7 F3600
;WIPE_START
G1 F6240
G1 X85.077 Y108.515 E-.285
;WIPE_END
G1 E-.015 F3600
G1 X87.843 Y162.874 F7800
G1 E1 F2400
;WIDTH:1
G1 F900
G1 X85.383 Y162.874 E.45659
G1 X85.383 Y149.441 E2.4928
;WIDTH:1.0469
G1 X85.406 Y149.316 E.02483
;WIDTH:1.09379
G1 X85.43 Y149.191 E.02607
;WIDTH:1.14069
G1 X85.453 Y149.066 E.02731
;WIDTH:1.18758
G1 X85.477 Y148.941 E.02855
;WIDTH:1.23448
G1 X85.5 Y148.816 E.02979
;WIDTH:1.28137
G1 X85.524 Y148.691 E.03103
;WIDTH:1.32827
G1 X85.547 Y148.566 E.03227
;WIDTH:1.37516
G1 X85.571 Y148.441 E.03351
G1 X85.546 Y146.709 E.45653
;WIDTH:1.32623
G1 X85.522 Y144.977 E.43891
;WIDTH:1.2773
G1 X85.497 Y143.245 E.42129
;WIDTH:1.22837
G1 X85.473 Y141.513 E.40368
;WIDTH:1.17944
G1 X85.448 Y139.781 E.38606
;WIDTH:1.13051
G1 X85.424 Y138.049 E.36844
;WIDTH:1.08158
G1 X85.399 Y136.317 E.35082
;WIDTH:1.03265
G1 X85.375 Y134.585 E.3332
;WIDTH:0.983724
G1 X85.35 Y132.853 E.31558
;WIDTH:0.934794
G1 X85.326 Y131.121 E.29796
;WIDTH:0.934003
G1 X85.35 Y131.055 E.01218
;WIDTH:0.982142
G1 X85.374 Y130.988 E.01289
;WIDTH:1.03028
G1 X85.398 Y130.921 E.01359
;WIDTH:1.07842
G1 X85.422 Y130.855 E.0143
;WIDTH:1.12656
G1 X85.446 Y130.788 E.01501
;WIDTH:1.1747
G1 X85.47 Y130.721 E.01572
;WIDTH:1.22284
G1 X85.494 Y130.655 E.01643
;WIDTH:1.27098
G1 X85.518 Y130.588 E.01714
;WIDTH:1.31911
G1 X85.543 Y130.521 E.01785
;WIDTH:1.36725
G1 X85.567 Y130.455 E.01856
;WIDTH:1.41539
G1 X85.591 Y130.388 E.01927
;WIDTH:1.46353
G1 X85.615 Y130.321 E.01998
;WIDTH:1.51167
G1 X85.639 Y130.255 E.02068
;WIDTH:1.55981
G1 X85.663 Y130.188 E.02139
;WIDTH:1.60795
G1 X85.687 Y130.122 E.0221
G1 X85.715 Y130.187 E.0221
;WIDTH:1.55981
G1 X85.743 Y130.252 E.02139
;WIDTH:1.51167
G1 X85.77 Y130.317 E.02068
;WIDTH:1.46353
G1 X85.798 Y130.382 E.01998
;WIDTH:1.41539
G1 X85.826 Y130.447 E.01927
;WIDTH:1.36725
G1 X85.854 Y130.513 E.01856
;WIDTH:1.31911
G1 X85.881 Y130.578 E.01785
;WIDTH:1.27098
G1 X85.909 Y130.643 E.01714
;WIDTH:1.22284
G1 X85.937 Y130.708 E.01643
;WIDTH:1.1747
G1 X85.965 Y130.773 E.01572
;WIDTH:1.12656
G1 X85.993 Y130.838 E.01501
;WIDTH:1.07842
G1 X86.02 Y130.904 E.0143
;WIDTH:1.03028
G1 X86.048 Y130.969 E.01359
;WIDTH:0.982142
G1 X86.076 Y131.034 E.01289
;WIDTH:0.934003
G1 X86.104 Y131.099 E.01218
;WIDTH:0.934794
G1 X86.177 Y132.83 E.29796
;WIDTH:0.983724
G1 X86.251 Y134.56 E.31558
;WIDTH:1.03265
G1 X86.324 Y136.291 E.3332
;WIDTH:1.08158
G1 X86.397 Y138.022 E.35082
;WIDTH:1.13051
G1 X86.471 Y139.752 E.36844
;WIDTH:1.17944
G1 X86.544 Y141.483 E.38606
;WIDTH:1.22837
G1 X86.617 Y143.214 E.40368
;WIDTH:1.2773
G1 X86.691 Y144.944 E.42129
;WIDTH:1.32623
