; generated by PrusaSlicer 2.5.0+win64 on 2022-12-07 at 00:21:35 UTC

; 

; external perimeters extrusion width = 1.00mm
; perimeters extrusion width = 1.00mm
; infill extrusion width = 1.00mm
; solid infill extrusion width = 1.00mm
; top infill extrusion width = 1.00mm
; support material extrusion width = 1.00mm
; first layer extrusion width = 0.42mm

M73 P0 R266
M107
;TYPE:Custom
G90 ; use absolute coordinates
M83 ; extruder relative mode
M140 S60 ; set final bed temp
M104 S150 ; set temporary nozzle temp to prevent oozing during homing and auto bed leveling
G4 S10 ; allow partial nozzle warmup
G28 ; home all axisG1 Z50 F240
G1 X7.6 Y10 F3000
M104 S210 ; set final nozzle temp
M190 S60 ; wait for bed temp to stabilize
M109 S210 ; wait for nozzle temp to stabilize
G1 Z0.28 F240
G92 E0
G1 Y140 E10 F1500 ; prime the nozzle
G1 X4 F5000
G92 E0
G1 Y10 E10 F1200 ; prime the nozzle
G92 E0
G21 ; set units to millimeters
G90 ; use absolute coordinates
M83 ; use relative distances for extrusion
; Filament gcode
M107
;LAYER_CHANGE
;Z:0.35
;HEIGHT:0.35
;BEFORE_LAYER_CHANGE
G92 E0
;0.35


G1 E-1 F3600
G1 Z.35 F7800
;AFTER_LAYER_CHANGE
;0.35
G1 X154.553 Y18.91
G1 E1 F2400
;TYPE:Support material
;WIDTH:0.42
G1 F1800
G1 X157.946 Y18.91 E.17027
G1 X157.946 Y25.695 E.34053
G1 X161.339 Y25.695 E.17027
G1 X161.339 Y72.88 E2.36802
G1 X148.081 Y72.88 E.66536
G1 X148.081 Y69.487 E.17027
G1 X144.688 Y69.487 E.17027
G1 X144.688 Y66.095 E.17027
G1 X141.296 Y66.095 E.17027
G1 X141.296 Y59.309 E.34053
G1 X137.903 Y59.309 E.17027
G1 X137.903 Y55.917 E.17027
G1 X134.51 Y55.917 E.17027
G1 X134.51 Y49.131 E.34053
G1 X131.117 Y49.131 E.17027
G1 X131.117 Y45.738 E.17027
G1 X127.725 Y45.738 E.17027
G1 X127.725 Y42.346 E.17027
G1 X124.332 Y42.346 E.17027
G1 X124.332 Y35.56 E.34053
G1 X120.939 Y35.56 E.17027
G1 X120.939 Y32.168 E.17027
G1 X117.547 Y32.168 E.17027
G1 X117.547 Y28.775 E.17027
G1 X114.154 Y28.775 E.17027
G1 X114.154 Y21.99 E.34053
G1 X110.761 Y21.99 E.17027
G1 X110.761 Y12.124 E.49509
G1 X154.553 Y12.124 E2.19775
G1 X154.553 Y18.858 E.33794
G1 X160.759 Y72.725 F7800
G1 F1800
G1 X160.759 Y26.006 E2.34465
G1 X160.376 Y26.006 E.01923
G1 X160.376 Y72.57 E2.33686
G1 X159.993 Y72.57 E.01923
G1 X159.993 Y26.006 E2.33686
G1 X159.61 Y26.006 E.01923
G1 X159.61 Y72.57 E2.33686
G1 X159.226 Y72.57 E.01923
G1 X159.226 Y26.006 E2.33686
G1 X158.843 Y26.006 E.01923
G1 X158.843 Y72.57 E2.33686
G1 X158.46 Y72.57 E.01923
G1 X158.46 Y26.006 E2.33686
G1 X158.077 Y26.006 E.01923
G1 X158.077 Y72.57 E2.33686
G1 X157.694 Y72.57 E.01923
G1 X157.694 Y26.006 E2.33686
G1 X157.636 Y26.006 E.0029
G1 X157.636 Y19.22 E.34053
G1 X157.31 Y19.22 E.01633
G1 X157.31 Y72.57 E2.67739
G1 X156.927 Y72.57 E.01923
M73 P0 R265
G1 X156.927 Y19.22 E2.67739
G1 X156.544 Y19.22 E.01923
G1 X156.544 Y72.57 E2.67739
G1 X156.161 Y72.57 E.01923
G1 X156.161 Y19.22 E2.67739
G1 X155.778 Y19.22 E.01923
G1 X155.778 Y72.57 E2.67739
G1 X155.394 Y72.57 E.01923
G1 X155.394 Y19.22 E2.67739
G1 X155.011 Y19.22 E.01923
G1 X155.011 Y72.57 E2.67739
G1 X154.628 Y72.57 E.01923
G1 X154.628 Y19.22 E2.67739
G1 X154.245 Y19.22 E.01923
G1 X154.245 Y72.57 E2.67739
G1 X153.861 Y72.57 E.01923
G1 X153.861 Y12.435 E3.01792
G1 X153.478 Y12.435 E.01923
G1 X153.478 Y72.57 E3.01792
G1 X153.095 Y72.57 E.01923
G1 X153.095 Y12.435 E3.01792
G1 X152.712 Y12.435 E.01923
G1 X152.712 Y72.57 E3.01792
G1 X152.329 Y72.57 E.01923
G1 X152.329 Y12.435 E3.01792
G1 X151.945 Y12.435 E.01923
G1 X151.945 Y72.57 E3.01792
G1 X151.562 Y72.57 E.01923
G1 X151.562 Y12.435 E3.01792
G1 X151.179 Y12.435 E.01923
G1 X151.179 Y72.57 E3.01792
G1 X150.796 Y72.57 E.01923
G1 X150.796 Y12.435 E3.01792
G1 X150.413 Y12.435 E.01923
G1 X150.413 Y72.57 E3.01792
G1 X150.029 Y72.57 E.01923
G1 X150.029 Y12.435 E3.01792
G1 X149.646 Y12.435 E.01923
G1 X149.646 Y72.57 E3.01792
G1 X149.263 Y72.57 E.01923
G1 X149.263 Y12.435 E3.01792
G1 X148.88 Y12.435 E.01923
G1 X148.88 Y72.57 E3.01792
G1 X148.497 Y72.57 E.01923
G1 X148.497 Y12.435 E3.01792
G1 X148.113 Y12.435 E.01923
G1 X148.113 Y69.177 E2.84766
G1 X147.73 Y69.177 E.01923
G1 X147.73 Y12.435 E2.84766
G1 X147.347 Y12.435 E.01923
G1 X147.347 Y69.177 E2.84766
G1 X146.964 Y69.177 E.01923
G1 X146.964 Y12.435 E2.84766
G1 X146.58 Y12.435 E.01923
G1 X146.58 Y69.177 E2.84766
G1 X146.197 Y69.177 E.01923
G1 X146.197 Y12.435 E2.84766
G1 X145.814 Y12.435 E.01923
G1 X145.814 Y69.177 E2.84766
G1 X145.431 Y69.177 E.01923
M73 P0 R264
G1 X145.431 Y12.435 E2.84766
G1 X145.048 Y12.435 E.01923
G1 X145.048 Y69.177 E2.84766
G1 X144.999 Y69.177 E.00246
G1 X144.999 Y65.784 E.17027
G1 X144.664 Y65.784 E.01677
G1 X144.664 Y12.435 E2.67739
G1 X144.281 Y12.435 E.01923
G1 X144.281 Y65.784 E2.67739
G1 X143.898 Y65.784 E.01923
G1 X143.898 Y12.435 E2.67739
G1 X143.515 Y12.435 E.01923
G1 X143.515 Y65.784 E2.67739
G1 X143.132 Y65.784 E.01923
G1 X143.132 Y12.435 E2.67739
G1 X142.748 Y12.435 E.01923
G1 X142.748 Y65.784 E2.67739
G1 X142.365 Y65.784 E.01923
G1 X142.365 Y12.435 E2.67739
G1 X141.982 Y12.435 E.01923
G1 X141.982 Y65.784 E2.67739
G1 X141.606 Y65.784 E.01887
G1 X141.599 Y12.435 E2.67739
G1 X141.216 Y12.435 E.01923
G1 X141.216 Y58.999 E2.33686
G1 X140.832 Y58.999 E.01923
G1 X140.832 Y12.435 E2.33686
G1 X140.449 Y12.435 E.01923
G1 X140.449 Y58.999 E2.33686
G1 X140.066 Y58.999 E.01923
G1 X140.066 Y12.435 E2.33686
G1 X139.683 Y12.435 E.01923
G1 X139.683 Y58.999 E2.33686
G1 X139.3 Y58.999 E.01923
G1 X139.3 Y12.435 E2.33686
G1 X138.916 Y12.435 E.01923
G1 X138.916 Y58.999 E2.33686
G1 X138.533 Y58.999 E.01923
G1 X138.533 Y12.435 E2.33686
G1 X138.15 Y12.435 E.01923
G1 X138.15 Y55.606 E2.1666
G1 X137.767 Y55.606 E.01923
G1 X137.767 Y12.435 E2.1666
G1 X137.383 Y12.435 E.01923
G1 X137.383 Y55.606 E2.1666
G1 X137 Y55.606 E.01923
G1 X137 Y12.435 E2.1666
G1 X136.617 Y12.435 E.01923
G1 X136.617 Y55.606 E2.1666
G1 X136.234 Y55.606 E.01923
G1 X136.234 Y12.435 E2.1666
G1 X135.851 Y12.435 E.01923
G1 X135.851 Y55.606 E2.1666
G1 X135.467 Y55.606 E.01923
G1 X135.467 Y12.435 E2.1666
G1 X135.084 Y12.435 E.01923
G1 X135.084 Y55.606 E2.1666
G1 X134.821 Y55.606 E.01323
G1 X134.821 Y48.821 E.34053
G1 X134.701 Y48.821 E.006
G1 X134.701 Y12.435 E1.82606
G1 X134.318 Y12.435 E.01923
G1 X134.318 Y48.821 E1.82606
G1 X133.935 Y48.821 E.01923
G1 X133.935 Y12.435 E1.82606
G1 X133.551 Y12.435 E.01923
G1 X133.551 Y48.821 E1.82606
G1 X133.168 Y48.821 E.01923
G1 X133.168 Y12.435 E1.82606
G1 X132.785 Y12.435 E.01923
G1 X132.785 Y48.821 E1.82606
G1 X132.402 Y48.821 E.01923
G1 X132.402 Y12.435 E1.82606
G1 X132.019 Y12.435 E.01923
G1 X132.019 Y48.821 E1.82606
G1 X131.635 Y48.821 E.01923
G1 X131.635 Y12.435 E1.82606
G1 X131.252 Y12.435 E.01923
G1 X131.252 Y45.428 E1.6558
G1 X130.869 Y45.428 E.01923
M73 P0 R263
G1 X130.869 Y12.435 E1.6558
G1 X130.486 Y12.435 E.01923
M73 P1 R263
G1 X130.486 Y45.428 E1.6558
G1 X130.102 Y45.428 E.01923
G1 X130.102 Y12.435 E1.6558
G1 X129.719 Y12.435 E.01923
G1 X129.719 Y45.428 E1.6558
G1 X129.336 Y45.428 E.01923
G1 X129.336 Y12.435 E1.6558
G1 X128.953 Y12.435 E.01923
G1 X128.953 Y45.428 E1.6558
G1 X128.57 Y45.428 E.01923
G1 X128.57 Y12.435 E1.6558
G1 X128.186 Y12.435 E.01923
G1 X128.186 Y45.428 E1.6558
G1 X128.035 Y45.428 E.00759
G1 X128.035 Y42.035 E.17027
G1 X127.803 Y42.035 E.01164
G1 X127.803 Y12.435 E1.48553
G1 X127.42 Y12.435 E.01923
G1 X127.42 Y42.035 E1.48553
G1 X127.037 Y42.035 E.01923
G1 X127.037 Y12.435 E1.48553
G1 X126.654 Y12.435 E.01923
G1 X126.654 Y42.035 E1.48553
G1 X126.27 Y42.035 E.01923
G1 X126.27 Y12.435 E1.48553
G1 X125.887 Y12.435 E.01923
G1 X125.887 Y42.035 E1.48553
G1 X125.504 Y42.035 E.01923
G1 X125.504 Y12.435 E1.48553
G1 X125.121 Y12.435 E.01923
G1 X125.121 Y42.035 E1.48553
G1 X124.738 Y42.035 E.01923
G1 X124.738 Y12.435 E1.48553
G1 X124.354 Y12.435 E.01923
G1 X124.354 Y35.25 E1.145
G1 X123.971 Y35.25 E.01923
G1 X123.971 Y12.435 E1.145
G1 X123.588 Y12.435 E.01923
G1 X123.588 Y35.25 E1.145
G1 X123.205 Y35.25 E.01923
G1 X123.205 Y12.435 E1.145
G1 X122.821 Y12.435 E.01923
G1 X122.821 Y35.25 E1.145
G1 X122.438 Y35.25 E.01923
G1 X122.438 Y12.435 E1.145
G1 X122.055 Y12.435 E.01923
G1 X122.055 Y35.25 E1.145
G1 X121.672 Y35.25 E.01923
G1 X121.672 Y12.435 E1.145
G1 X121.289 Y12.435 E.01923
G1 X121.289 Y35.25 E1.145
G1 X121.25 Y35.25 E.00195
G1 X121.25 Y31.857 E.17027
G1 X120.905 Y31.857 E.01728
G1 X120.905 Y12.435 E.97474
G1 X120.522 Y12.435 E.01923
G1 X120.522 Y31.857 E.97474
G1 X120.139 Y31.857 E.01923
G1 X120.139 Y12.435 E.97474
G1 X119.756 Y12.435 E.01923
G1 X119.756 Y31.857 E.97474
G1 X119.373 Y31.857 E.01923
G1 X119.373 Y12.435 E.97474
G1 X118.989 Y12.435 E.01923
G1 X118.989 Y31.857 E.97474
G1 X118.606 Y31.857 E.01923
G1 X118.606 Y12.435 E.97474
G1 X118.223 Y12.435 E.01923
G1 X118.223 Y31.857 E.97474
G1 X117.857 Y31.857 E.01836
G1 X117.857 Y28.465 E.17027
G1 X117.84 Y28.465 E.00087
G1 X117.84 Y12.435 E.80447
G1 X117.457 Y12.435 E.01923
G1 X117.457 Y28.465 E.80447
G1 X117.073 Y28.465 E.01923
G1 X117.073 Y12.435 E.80447
G1 X116.69 Y12.435 E.01923
G1 X116.69 Y28.465 E.80447
G1 X116.307 Y28.465 E.01923
G1 X116.307 Y12.435 E.80447
G1 X115.924 Y12.435 E.01923
G1 X115.924 Y28.465 E.80447
G1 X115.54 Y28.465 E.01923
G1 X115.54 Y12.435 E.80447
G1 X115.157 Y12.435 E.01923
G1 X115.157 Y28.465 E.80447
G1 X114.774 Y28.465 E.01923
G1 X114.774 Y12.435 E.80447
G1 X114.391 Y12.435 E.01923
G1 X114.391 Y21.679 E.46394
G1 X114.008 Y21.679 E.01923
G1 X114.008 Y12.435 E.46394
G1 X113.624 Y12.435 E.01923
G1 X113.624 Y21.679 E.46394
G1 X113.241 Y21.679 E.01923
G1 X113.241 Y12.435 E.46394
G1 X112.858 Y12.435 E.01923
G1 X112.858 Y21.679 E.46394
G1 X112.475 Y21.679 E.01923
G1 X112.475 Y12.435 E.46394
G1 X112.092 Y12.435 E.01923
G1 X112.092 Y21.679 E.46394
G1 X111.708 Y21.679 E.01923
G1 X111.708 Y12.435 E.46394
G1 X111.325 Y12.435 E.01923
G1 X111.325 Y21.834 E.47173
G1 E-.7 F3600
;WIPE_START
G1 F6240
G1 X111.325 Y21.314 E-.285
;WIPE_END
G1 E-.015 F3600
G1 X144.856 Y162.82 F7800
G1 E1 F2400
;TYPE:Perimeter
;WIDTH:0.42
G1 F1800
G1 X126.275 Y162.82 E.93255
G1 X26.792 Y17.182 E8.85141
G1 X45.286 Y17.182 E.92816
G1 X144.052 Y161.789 E8.78837
G1 X144.764 Y162.702 E.05812
G1 X145.564 Y163.165 F7800
;TYPE:External perimeter
G1 F1800
G1 X126.103 Y163.165 E.97665
G1 X26.139 Y16.837 E8.89364
G1 X45.468 Y16.837 E.97008
M73 P1 R262
G1 X144.337 Y161.594 E8.79751
G1 X145.471 Y163.047 E.0925
G1 X144.616 Y162.847 F7800
G1 E-.7 F3600
;WIPE_START
G1 F6240
G1 X144.951 Y163.05 E-.285
;WIPE_END
G1 E-.015 F3600
G1 X44.526 Y17.285 F7800
G1 E1 F2400
;TYPE:Solid infill
;WIDTH:0.420021
G1 F1800
G1 X46.159 Y18.918 E.11586
G1 X47.209 Y20.456 E.09352
G1 X44.194 Y17.441 E.21405
G1 X43.706 Y17.441 E.02448
G1 X48.26 Y21.995 E.32327
G1 X49.311 Y23.534 E.09352
G1 X43.218 Y17.441 E.43248
G1 X42.73 Y17.441 E.02448
G1 X50.362 Y25.072 E.54169
G1 X51.413 Y26.611 E.09352
G1 X42.243 Y17.441 E.6509
G1 X41.755 Y17.441 E.02448
G1 X52.464 Y28.15 E.76012
G1 X53.515 Y29.688 E.09352
G1 X41.267 Y17.441 E.86933
G1 X40.779 Y17.441 E.02448
G1 X54.566 Y31.227 E.97854
G1 X55.617 Y32.766 E.09352
G1 X40.291 Y17.441 E1.08776
G1 X39.804 Y17.441 E.02448
G1 X56.668 Y34.305 E1.19697
G1 X57.719 Y35.843 E.09352
G1 X39.316 Y17.441 E1.30618
G1 X38.828 Y17.441 E.02448
G1 X58.769 Y37.382 E1.41539
G1 X59.82 Y38.921 E.09352
G1 X38.34 Y17.441 E1.52461
G1 X37.853 Y17.441 E.02448
G1 X60.871 Y40.459 E1.63382
G1 X61.922 Y41.998 E.09352
G1 X37.365 Y17.441 E1.74303
G1 X36.877 Y17.441 E.02448
G1 X62.973 Y43.537 E1.85225
G1 X64.024 Y45.075 E.09352
G1 X36.389 Y17.441 E1.96146
G1 X35.901 Y17.441 E.02448
G1 X65.075 Y46.614 E2.07067
G1 X66.126 Y48.153 E.09352
G1 X35.414 Y17.441 E2.17989
G1 X34.926 Y17.441 E.02448
G1 X67.177 Y49.691 E2.2891
G1 X68.228 Y51.23 E.09352
G1 X34.438 Y17.441 E2.39831
G1 X33.95 Y17.441 E.02448
G1 X69.279 Y52.769 E2.50752
G1 X70.33 Y54.307 E.09352
G1 X33.463 Y17.441 E2.61674
G1 X32.975 Y17.441 E.02448
G1 X71.38 Y55.846 E2.72595
G1 X72.431 Y57.385 E.09352
G1 X32.487 Y17.441 E2.83516
G1 X31.999 Y17.441 E.02448
G1 X73.482 Y58.924 E2.94438
G1 X74.533 Y60.462 E.09352
G1 X31.511 Y17.441 E3.05359
G1 X31.024 Y17.441 E.02448
G1 X75.584 Y62.001 E3.1628
G1 X76.635 Y63.54 E.09352
G1 X30.536 Y17.441 E3.27201
G1 X30.048 Y17.441 E.02448
G1 X77.686 Y65.078 E3.38123
G1 X78.737 Y66.617 E.09352
G1 X29.56 Y17.441 E3.49044
G1 X29.073 Y17.441 E.02448
G1 X79.788 Y68.156 E3.59965
G1 X80.839 Y69.694 E.09352
G1 X28.585 Y17.441 E3.70887
G1 X28.097 Y17.441 E.02448
G1 X81.89 Y71.233 E3.81808
G1 X82.941 Y72.772 E.09352
G1 X27.609 Y17.441 E3.92729
M73 P1 R261
G1 X27.282 Y17.441 E.01644
G1 X27.627 Y17.946 E.03074
G1 X83.991 Y74.31 E4.00061
G1 X85.042 Y75.849 E.09352
G1 X28.679 Y19.485 E4.00058
G1 X29.73 Y21.024 E.09355
G1 X86.093 Y77.388 E4.00055
G1 X87.144 Y78.927 E.09352
G1 X30.781 Y22.564 E4.00052
G1 X31.833 Y24.103 E.09355
G1 X88.195 Y80.465 E4.00049
G1 X89.246 Y82.004 E.09352
G1 X32.884 Y25.642 E4.00046
G1 X33.935 Y27.181 E.09355
G1 X90.297 Y83.543 E4.00043
G1 X91.348 Y85.081 E.09352
G1 X34.987 Y28.72 E4.0004
G1 X36.038 Y30.259 E.09355
G1 X92.399 Y86.62 E4.00037
G1 X93.45 Y88.159 E.09352
G1 X37.089 Y31.798 E4.00034
G1 X38.141 Y33.337 E.09355
G1 X94.501 Y89.697 E4.00031
G1 X95.552 Y91.236 E.09352
G1 X39.192 Y34.877 E4.00028
G1 X40.243 Y36.416 E.09355
G1 X96.602 Y92.775 E4.00025
G1 X97.653 Y94.313 E.09352
G1 X41.295 Y37.955 E4.00022
G1 X42.346 Y39.494 E.09355
G1 X98.704 Y95.852 E4.00019
G1 X99.755 Y97.391 E.09352
M73 P2 R261
G1 X43.397 Y41.033 E4.00016
G1 X44.449 Y42.572 E.09355
G1 X100.806 Y98.93 E4.00013
G1 X101.857 Y100.468 E.09352
G1 X45.5 Y44.111 E4.00009
G1 X46.551 Y45.65 E.09355
G1 X102.908 Y102.007 E4.00006
G1 X103.959 Y103.546 E.09352
G1 X47.603 Y47.19 E4.00003
G1 X48.654 Y48.729 E.09355
G1 X105.01 Y105.084 E4
G1 X106.061 Y106.623 E.09352
M73 P2 R260
G1 X49.705 Y50.268 E3.99997
G1 X50.757 Y51.807 E.09355
G1 X107.112 Y108.162 E3.99994
G1 X108.162 Y109.7 E.09352
G1 X51.808 Y53.346 E3.99991
G1 X52.859 Y54.885 E.09355
G1 X109.213 Y111.239 E3.99988
G1 X110.264 Y112.778 E.09352
G1 X53.911 Y56.424 E3.99985
G1 X54.962 Y57.963 E.09355
G1 X111.315 Y114.316 E3.99982
G1 X112.366 Y115.855 E.09352
G1 X56.013 Y59.502 E3.99979
G1 X57.065 Y61.042 E.09355
G1 X113.417 Y117.394 E3.99976
G1 X114.468 Y118.933 E.09352
G1 X58.116 Y62.581 E3.99973
G1 X59.167 Y64.12 E.09355
G1 X115.519 Y120.471 E3.9997
G1 X116.57 Y122.01 E.09352
G1 X60.219 Y65.659 E3.99967
G1 X61.27 Y67.198 E.09355
G1 X117.621 Y123.549 E3.99964
G1 X118.672 Y125.087 E.09352
G1 X62.322 Y68.737 E3.99961
G1 X63.373 Y70.276 E.09355
G1 X119.723 Y126.626 E3.99958
G1 X120.773 Y128.165 E.09352
G1 X64.424 Y71.815 E3.99955
G1 X65.476 Y73.355 E.09355
G1 X121.824 Y129.703 E3.99952
G1 X122.875 Y131.242 E.09352
G1 X66.527 Y74.894 E3.99949
G1 X67.578 Y76.433 E.09355
G1 X123.926 Y132.781 E3.99946
G1 X124.977 Y134.319 E.09352
G1 X68.63 Y77.972 E3.99943
G1 X69.681 Y79.511 E.09355
G1 X126.028 Y135.858 E3.9994
G1 X127.079 Y137.397 E.09352
G1 X70.732 Y81.05 E3.99936
G1 X71.784 Y82.589 E.09355
G1 X128.13 Y138.935 E3.99933
G1 X129.181 Y140.474 E.09352
M73 P2 R259
G1 X72.835 Y84.128 E3.9993
G1 X73.886 Y85.667 E.09355
G1 X130.232 Y142.013 E3.99927
G1 X131.283 Y143.552 E.09352
G1 X74.938 Y87.207 E3.99924
G1 X75.989 Y88.746 E.09355
G1 X132.334 Y145.09 E3.99921
G1 X133.384 Y146.629 E.09352
G1 X77.04 Y90.285 E3.99918
G1 X78.092 Y91.824 E.09355
G1 X134.435 Y148.168 E3.99915
G1 X135.486 Y149.706 E.09352
G1 X79.143 Y93.363 E3.99912
G1 X80.194 Y94.902 E.09355
G1 X136.537 Y151.245 E3.99909
G1 X137.588 Y152.784 E.09352
G1 X81.246 Y96.441 E3.99906
G1 X82.297 Y97.98 E.09355
G1 X138.639 Y154.322 E3.99903
G1 X139.69 Y155.861 E.09352
G1 X83.348 Y99.52 E3.999
G1 X84.4 Y101.059 E.09355
G1 X140.741 Y157.4 E3.99897
G1 X141.792 Y158.938 E.09352
G1 X85.451 Y102.598 E3.99894
G1 X86.502 Y104.137 E.09355
G1 X142.843 Y160.477 E3.99891
G1 X143.928 Y162.05 E.09592
G1 X87.554 Y105.676 E4.00132
G1 X88.605 Y107.215 E.09355
G1 X143.951 Y162.561 E3.92836
G1 X143.464 Y162.561 E.02448
G1 X89.656 Y108.754 E3.81912
G1 X90.708 Y110.293 E.09355
G1 X142.976 Y162.561 E3.70987
G1 X142.488 Y162.561 E.02448
G1 X91.759 Y111.833 E3.60063
G1 X92.81 Y113.372 E.09355
G1 X142 Y162.561 E3.49139
G1 X141.512 Y162.561 E.02448
G1 X93.862 Y114.911 E3.38214
