; generated by PrusaSlicer 2.5.0+win64 on 2022-12-07 at 00:21:45 UTC

; 

; external perimeters extrusion width = 1.00mm
; perimeters extrusion width = 1.00mm
; infill extrusion width = 1.00mm
; solid infill extrusion width = 1.00mm
; top infill extrusion width = 1.00mm
; support material extrusion width = 1.00mm
; first layer extrusion width = 0.42mm

M73 P0 R418
M107
;TYPE:Custom
G90 ; use absolute coordinates
M83 ; extruder relative mode
M140 S60 ; set final bed temp
M104 S150 ; set temporary nozzle temp to prevent oozing during homing and auto bed leveling
G4 S10 ; allow partial nozzle warmup
G28 ; home all axisG1 Z50 F240
G1 X7.6 Y10 F3000
M104 S210 ; set final nozzle temp
M190 S60 ; wait for bed temp to stabilize
M109 S210 ; wait for nozzle temp to stabilize
G1 Z0.28 F240
G92 E0
G1 Y140 E10 F1500 ; prime the nozzle
G1 X4 F5000
G92 E0
G1 Y10 E10 F1200 ; prime the nozzle
G92 E0
G21 ; set units to millimeters
G90 ; use absolute coordinates
M83 ; use relative distances for extrusion
; Filament gcode
M107
;LAYER_CHANGE
;Z:0.35
;HEIGHT:0.35
;BEFORE_LAYER_CHANGE
G92 E0
;0.35


G1 E-1 F3600
G1 Z.35 F7800
;AFTER_LAYER_CHANGE
;0.35
G1 X127.163 Y22.302
G1 E1 F2400
;TYPE:Support material
;WIDTH:0.42
G1 F1800
G1 X130.556 Y22.302 E.17027
G1 X130.556 Y46.051 E1.19186
G1 X133.949 Y46.051 E.17027
G1 X133.949 Y69.8 E1.19186
G1 X137.341 Y69.8 E.17027
G1 X137.341 Y90.156 E1.02159
G1 X140.734 Y90.156 E.17027
G1 X140.734 Y107.12 E.85133
G1 X144.127 Y107.12 E.17027
G1 X144.127 Y130.869 E1.19186
G1 X147.519 Y130.869 E.17027
G1 X147.519 Y144.44 E.68106
G1 X150.912 Y144.44 E.17027
G1 X150.912 Y158.01 E.68106
M73 P0 R417
G1 X154.305 Y158.01 E.17027
G1 X154.305 Y167.876 E.49509
G1 X12.124 Y167.876 E7.13546
G1 X12.124 Y12.124 E7.81652
G1 X127.163 Y12.124 E5.77333
G1 X127.163 Y22.251 E.5082
G1 X59.309 Y25.382 F7800
G1 F1800
G1 X59.309 Y35.56 E.5108
G1 X55.917 Y35.56 E.17027
G1 X55.917 Y59.309 E1.19186
G1 X52.524 Y59.309 E.17027
G1 X52.524 Y63.015 E.18597
G1 X55.917 Y63.015 E.17027
G1 X55.917 Y66.408 E.17027
G1 X62.702 Y66.408 E.34053
G1 X62.702 Y69.8 E.17027
G1 X66.095 Y69.8 E.17027
G1 X66.095 Y73.193 E.17027
G1 X69.487 Y73.193 E.17027
G1 X69.487 Y76.586 E.17027
G1 X72.88 Y76.586 E.17027
G1 X72.88 Y79.978 E.17027
G1 X76.273 Y79.978 E.17027
G1 X76.273 Y83.371 E.17027
G1 X79.978 Y83.371 E.18597
G1 X79.978 Y79.665 E.18597
G1 X76.586 Y79.665 E.17027
G1 X76.586 Y69.487 E.5108
G1 X73.193 Y69.487 E.17027
G1 X73.193 Y59.309 E.5108
G1 X69.8 Y59.309 E.17027
G1 X69.8 Y45.738 E.68106
G1 X66.408 Y45.738 E.17027
G1 X66.408 Y35.56 E.5108
G1 X63.015 Y35.56 E.17027
G1 X63.015 Y25.382 E.5108
G1 X59.361 Y25.382 E.18337
G1 E-.7 F3600
;WIPE_START
G1 F6240
G1 X59.881 Y25.382 E-.285
;WIPE_END
G1 E-.015 F3600
G1 X153.613 Y167.72 F7800
G1 E1 F2400
G1 F1800
G1 X153.613 Y158.321 E.47173
G1 X153.23 Y158.321 E.01923
G1 X153.23 Y167.565 E.46394
G1 X152.846 Y167.565 E.01923
G1 X152.846 Y158.321 E.46394
G1 X152.463 Y158.321 E.01923
G1 X152.463 Y167.565 E.46394
G1 X152.08 Y167.565 E.01923
G1 X152.08 Y158.321 E.46394
G1 X151.697 Y158.321 E.01923
G1 X151.697 Y167.565 E.46394
G1 X151.314 Y167.565 E.01923
G1 X151.314 Y158.321 E.46394
G1 X150.93 Y158.321 E.01923
G1 X150.93 Y167.565 E.46394
G1 X150.547 Y167.565 E.01923
G1 X150.547 Y144.75 E1.145
G1 X150.164 Y144.75 E.01923
G1 X150.164 Y167.565 E1.145
G1 X149.781 Y167.565 E.01923
G1 X149.781 Y144.75 E1.145
G1 X149.398 Y144.75 E.01923
G1 X149.398 Y167.565 E1.145
G1 X149.014 Y167.565 E.01923
G1 X149.014 Y144.75 E1.145
G1 X148.631 Y144.75 E.01923
G1 X148.631 Y167.565 E1.145
G1 X148.248 Y167.565 E.01923
G1 X148.248 Y144.75 E1.145
G1 X147.865 Y144.75 E.01923
G1 X147.865 Y167.565 E1.145
G1 X147.481 Y167.565 E.01923
G1 X147.481 Y144.75 E1.145
G1 X147.209 Y144.75 E.01367
G1 X147.209 Y131.179 E.68106
G1 X147.098 Y131.179 E.00556
G1 X147.098 Y167.565 E1.82606
G1 X146.715 Y167.565 E.01923
G1 X146.715 Y131.179 E1.82606
G1 X146.332 Y131.179 E.01923
G1 X146.332 Y167.565 E1.82606
G1 X145.949 Y167.565 E.01923
G1 X145.949 Y131.179 E1.82606
G1 X145.565 Y131.179 E.01923
G1 X145.565 Y167.565 E1.82606
G1 X145.182 Y167.565 E.01923
G1 X145.182 Y131.179 E1.82606
G1 X144.799 Y131.179 E.01923
G1 X144.799 Y167.565 E1.82606
G1 X144.416 Y167.565 E.01923
G1 X144.416 Y131.179 E1.82606
G1 X144.033 Y131.179 E.01923
G1 X144.033 Y167.565 E1.82606
G1 X143.649 Y167.565 E.01923
G1 X143.649 Y107.43 E3.01792
G1 X143.266 Y107.43 E.01923
G1 X143.266 Y167.565 E3.01792
G1 X142.883 Y167.565 E.01923
G1 X142.883 Y107.43 E3.01792
G1 X142.5 Y107.43 E.01923
G1 X142.5 Y167.565 E3.01792
G1 X142.117 Y167.565 E.01923
G1 X142.117 Y107.43 E3.01792
G1 X141.733 Y107.43 E.01923
G1 X141.733 Y167.565 E3.01792
G1 X141.35 Y167.565 E.01923
G1 X141.35 Y107.43 E3.01792
G1 X140.967 Y107.43 E.01923
M73 P0 R416
G1 X140.967 Y167.565 E3.01792
G1 X140.584 Y167.565 E.01923
G1 X140.584 Y107.43 E3.01792
G1 X140.424 Y107.43 E.00803
G1 X140.424 Y90.467 E.85133
G1 X140.2 Y90.467 E.0112
G1 X140.2 Y167.565 E3.86925
G1 X139.817 Y167.565 E.01923
G1 X139.817 Y90.467 E3.86925
G1 X139.434 Y90.467 E.01923
G1 X139.434 Y167.565 E3.86925
G1 X139.051 Y167.565 E.01923
G1 X139.051 Y90.467 E3.86925
G1 X138.668 Y90.467 E.01923
G1 X138.668 Y167.565 E3.86925
G1 X138.284 Y167.565 E.01923
G1 X138.284 Y90.467 E3.86925
G1 X137.901 Y90.467 E.01923
G1 X137.901 Y167.565 E3.86925
G1 X137.518 Y167.565 E.01923
G1 X137.518 Y90.467 E3.86925
G1 X137.135 Y90.467 E.01923
G1 X137.135 Y167.565 E3.86925
G1 X136.752 Y167.565 E.01923
G1 X136.752 Y70.111 E4.89085
G1 X136.368 Y70.111 E.01923
G1 X136.368 Y167.565 E4.89085
G1 X135.985 Y167.565 E.01923
G1 X135.985 Y70.111 E4.89085
G1 X135.602 Y70.111 E.01923
G1 X135.602 Y167.565 E4.89085
G1 X135.219 Y167.565 E.01923
G1 X135.219 Y70.111 E4.89085
G1 X134.836 Y70.111 E.01923
G1 X134.836 Y167.565 E4.89085
G1 X134.452 Y167.565 E.01923
G1 X134.452 Y70.111 E4.89085
G1 X134.069 Y70.111 E.01923
G1 X134.069 Y167.565 E4.89085
G1 X133.686 Y167.565 E.01923
G1 X133.686 Y70.111 E4.89085
G1 X133.638 Y70.111 E.00239
G1 X133.638 Y46.362 E1.19186
G1 X133.303 Y46.362 E.01684
M73 P0 R415
G1 X133.303 Y167.565 E6.08271
G1 X132.92 Y167.565 E.01923
G1 X132.92 Y46.362 E6.08271
G1 X132.536 Y46.362 E.01923
G1 X132.536 Y167.565 E6.08271
G1 X132.153 Y167.565 E.01923
G1 X132.153 Y46.362 E6.08271
G1 X131.77 Y46.362 E.01923
G1 X131.77 Y167.565 E6.08271
G1 X131.387 Y167.565 E.01923
G1 X131.387 Y46.362 E6.08271
G1 X131.003 Y46.362 E.01923
G1 X131.003 Y167.565 E6.08271
G1 X130.62 Y167.565 E.01923
G1 X130.62 Y46.362 E6.08271
G1 X130.246 Y46.362 E.01881
G1 X130.246 Y22.613 E1.19186
G1 X130.237 Y167.565 E7.27457
G1 X129.854 Y167.565 E.01923
G1 X129.854 Y22.613 E7.27457
G1 X129.471 Y22.613 E.01923
G1 X129.471 Y167.565 E7.27457
G1 X129.087 Y167.565 E.01923
G1 X129.087 Y22.613 E7.27457
G1 X128.704 Y22.613 E.01923
G1 X128.704 Y167.565 E7.27457
G1 X128.321 Y167.565 E.01923
G1 X128.321 Y22.613 E7.27457
G1 X127.938 Y22.613 E.01923
M73 P0 R414
G1 X127.938 Y167.565 E7.27457
G1 X127.555 Y167.565 E.01923
G1 X127.555 Y22.613 E7.27457
G1 X127.171 Y22.613 E.01923
G1 X127.171 Y167.565 E7.27457
G1 X126.788 Y167.565 E.01923
G1 X126.788 Y12.435 E7.78536
G1 X126.405 Y12.435 E.01923
G1 X126.405 Y167.565 E7.78536
G1 X126.022 Y167.565 E.01923
G1 X126.022 Y12.435 E7.78536
G1 X125.639 Y12.435 E.01923
G1 X125.639 Y167.565 E7.78536
G1 X125.255 Y167.565 E.01923
G1 X125.255 Y12.435 E7.78536
G1 X124.872 Y12.435 E.01923
G1 X124.872 Y167.565 E7.78536
G1 X124.489 Y167.565 E.01923
G1 X124.489 Y12.435 E7.78536
G1 X124.106 Y12.435 E.01923
M73 P1 R414
G1 X124.106 Y167.565 E7.78536
G1 X123.722 Y167.565 E.01923
M73 P1 R413
G1 X123.722 Y12.435 E7.78536
G1 X123.339 Y12.435 E.01923
G1 X123.339 Y167.565 E7.78536
G1 X122.956 Y167.565 E.01923
G1 X122.956 Y12.435 E7.78536
G1 X122.573 Y12.435 E.01923
G1 X122.573 Y167.565 E7.78536
G1 X122.19 Y167.565 E.01923
G1 X122.19 Y12.435 E7.78536
G1 X121.806 Y12.435 E.01923
G1 X121.806 Y167.565 E7.78536
G1 X121.423 Y167.565 E.01923
G1 X121.423 Y12.435 E7.78536
G1 X121.04 Y12.435 E.01923
G1 X121.04 Y167.565 E7.78536
G1 X120.657 Y167.565 E.01923
G1 X120.657 Y12.435 E7.78536
G1 X120.274 Y12.435 E.01923
G1 X120.274 Y167.565 E7.78536
G1 X119.89 Y167.565 E.01923
G1 X119.89 Y12.435 E7.78536
G1 X119.507 Y12.435 E.01923
G1 X119.507 Y167.565 E7.78536
G1 X119.124 Y167.565 E.01923
M73 P1 R412
G1 X119.124 Y12.435 E7.78536
G1 X118.741 Y12.435 E.01923
G1 X118.741 Y167.565 E7.78536
G1 X118.358 Y167.565 E.01923
G1 X118.358 Y12.435 E7.78536
G1 X117.974 Y12.435 E.01923
G1 X117.974 Y167.565 E7.78536
G1 X117.591 Y167.565 E.01923
G1 X117.591 Y12.435 E7.78536
G1 X117.208 Y12.435 E.01923
G1 X117.208 Y167.565 E7.78536
G1 X116.825 Y167.565 E.01923
G1 X116.825 Y12.435 E7.78536
G1 X116.441 Y12.435 E.01923
G1 X116.441 Y167.565 E7.78536
G1 X116.058 Y167.565 E.01923
G1 X116.058 Y12.435 E7.78536
G1 X115.675 Y12.435 E.01923
G1 X115.675 Y167.565 E7.78536
G1 X115.292 Y167.565 E.01923
G1 X115.292 Y12.435 E7.78536
G1 X114.909 Y12.435 E.01923
M73 P1 R411
G1 X114.909 Y167.565 E7.78536
G1 X114.525 Y167.565 E.01923
G1 X114.525 Y12.435 E7.78536
G1 X114.142 Y12.435 E.01923
G1 X114.142 Y167.565 E7.78536
G1 X113.759 Y167.565 E.01923
G1 X113.759 Y12.435 E7.78536
G1 X113.376 Y12.435 E.01923
G1 X113.376 Y167.565 E7.78536
G1 X112.993 Y167.565 E.01923
G1 X112.993 Y12.435 E7.78536
G1 X112.609 Y12.435 E.01923
G1 X112.609 Y167.565 E7.78536
G1 X112.226 Y167.565 E.01923
G1 X112.226 Y12.435 E7.78536
G1 X111.843 Y12.435 E.01923
G1 X111.843 Y167.565 E7.78536
G1 X111.46 Y167.565 E.01923
G1 X111.46 Y12.435 E7.78536
G1 X111.077 Y12.435 E.01923
G1 X111.077 Y167.565 E7.78536
G1 X110.693 Y167.565 E.01923
G1 X110.693 Y12.435 E7.78536
G1 X110.31 Y12.435 E.01923
M73 P1 R410
G1 X110.31 Y167.565 E7.78536
G1 X109.927 Y167.565 E.01923
G1 X109.927 Y12.435 E7.78536
G1 X109.544 Y12.435 E.01923
G1 X109.544 Y167.565 E7.78536
G1 X109.16 Y167.565 E.01923
G1 X109.16 Y12.435 E7.78536
G1 X108.777 Y12.435 E.01923
G1 X108.777 Y167.565 E7.78536
G1 X108.394 Y167.565 E.01923
G1 X108.394 Y12.435 E7.78536
G1 X108.011 Y12.435 E.01923
G1 X108.011 Y167.565 E7.78536
G1 X107.628 Y167.565 E.01923
G1 X107.628 Y12.435 E7.78536
G1 X107.244 Y12.435 E.01923
G1 X107.244 Y167.565 E7.78536
G1 X106.861 Y167.565 E.01923
G1 X106.861 Y12.435 E7.78536
G1 X106.478 Y12.435 E.01923
G1 X106.478 Y167.565 E7.78536
G1 X106.095 Y167.565 E.01923
M73 P1 R409
G1 X106.095 Y12.435 E7.78536
G1 X105.712 Y12.435 E.01923
M73 P2 R409
G1 X105.712 Y167.565 E7.78536
G1 X105.328 Y167.565 E.01923
G1 X105.328 Y12.435 E7.78536
G1 X104.945 Y12.435 E.01923
G1 X104.945 Y167.565 E7.78536
G1 X104.562 Y167.565 E.01923
G1 X104.562 Y12.435 E7.78536
G1 X104.179 Y12.435 E.01923
G1 X104.179 Y167.565 E7.78536
G1 X103.796 Y167.565 E.01923
G1 X103.796 Y12.435 E7.78536
G1 X103.412 Y12.435 E.01923
G1 X103.412 Y167.565 E7.78536
G1 X103.029 Y167.565 E.01923
G1 X103.029 Y12.435 E7.78536
G1 X102.646 Y12.435 E.01923
G1 X102.646 Y167.565 E7.78536
G1 X102.263 Y167.565 E.01923
G1 X102.263 Y12.435 E7.78536
G1 X101.88 Y12.435 E.01923
G1 X101.879 Y167.565 E7.78536
G1 X101.496 Y167.565 E.01923
M73 P2 R408
G1 X101.496 Y12.435 E7.78536
G1 X101.113 Y12.435 E.01923
G1 X101.113 Y167.565 E7.78536
G1 X100.73 Y167.565 E.01923
G1 X100.73 Y12.435 E7.78536
G1 X100.347 Y12.435 E.01923
G1 X100.347 Y167.565 E7.78536
G1 X99.963 Y167.565 E.01923
G1 X99.963 Y12.435 E7.78536
G1 X99.58 Y12.435 E.01923
G1 X99.58 Y167.565 E7.78536
G1 X99.197 Y167.565 E.01923
G1 X99.197 Y12.435 E7.78536
G1 X98.814 Y12.435 E.01923
G1 X98.814 Y167.565 E7.78536
G1 X98.431 Y167.565 E.01923
G1 X98.431 Y12.435 E7.78536
G1 X98.047 Y12.435 E.01923
G1 X98.047 Y167.565 E7.78536
G1 X97.664 Y167.565 E.01923
G1 X97.664 Y12.435 E7.78536
G1 X97.281 Y12.435 E.01923
M73 P2 R407
G1 X97.281 Y167.565 E7.78536
G1 X96.898 Y167.565 E.01923
G1 X96.898 Y12.435 E7.78536
G1 X96.515 Y12.435 E.01923
G1 X96.515 Y167.565 E7.78536
G1 X96.131 Y167.565 E.01923
G1 X96.131 Y12.435 E7.78536
G1 X95.748 Y12.435 E.01923
G1 X95.748 Y167.565 E7.78536
G1 X95.365 Y167.565 E.01923
G1 X95.365 Y12.435 E7.78536
G1 X94.982 Y12.435 E.01923
G1 X94.982 Y167.565 E7.78536
G1 X94.599 Y167.565 E.01923
G1 X94.599 Y12.435 E7.78536
G1 X94.215 Y12.435 E.01923
G1 X94.215 Y167.565 E7.78536
G1 X93.832 Y167.565 E.01923
G1 X93.832 Y12.435 E7.78536
G1 X93.449 Y12.435 E.01923
G1 X93.449 Y167.565 E7.78536
G1 X93.066 Y167.565 E.01923
G1 X93.066 Y12.435 E7.78536
G1 X92.682 Y12.435 E.01923
M73 P2 R406
G1 X92.682 Y167.565 E7.78536
G1 X92.299 Y167.565 E.01923
G1 X92.299 Y12.435 E7.78536
G1 X91.916 Y12.435 E.01923
G1 X91.916 Y167.565 E7.78536
G1 X91.533 Y167.565 E.01923
G1 X91.533 Y12.435 E7.78536
G1 X91.15 Y12.435 E.01923
G1 X91.15 Y167.565 E7.78536
G1 X90.766 Y167.565 E.01923
G1 X90.766 Y12.435 E7.78536
G1 X90.383 Y12.435 E.01923
G1 X90.383 Y167.565 E7.78536
G1 X90 Y167.565 E.01923
G1 X90 Y12.435 E7.78536
G1 X89.617 Y12.435 E.01923
G1 X89.617 Y167.565 E7.78536
G1 X89.234 Y167.565 E.01923
G1 X89.234 Y12.435 E7.78536
G1 X88.85 Y12.435 E.01923
G1 X88.85 Y167.565 E7.78536
G1 X88.467 Y167.565 E.01923
M73 P2 R405
G1 X88.467 Y12.435 E7.78536
G1 X88.084 Y12.435 E.01923
G1 X88.084 Y167.565 E7.78536
G1 X87.701 Y167.565 E.01923
G1 X87.701 Y12.435 E7.78536
G1 X87.318 Y12.435 E.01923
M73 P3 R405
G1 X87.318 Y167.565 E7.78536
G1 X86.934 Y167.565 E.01923
G1 X86.934 Y12.435 E7.78536
G1 X86.551 Y12.435 E.01923
G1 X86.551 Y167.565 E7.78536
G1 X86.168 Y167.565 E.01923
G1 X86.168 Y12.435 E7.78536
G1 X85.785 Y12.435 E.01923
G1 X85.785 Y167.565 E7.78536
G1 X85.401 Y167.565 E.01923
G1 X85.401 Y12.435 E7.78536
G1 X85.018 Y12.435 E.01923
G1 X85.018 Y167.565 E7.78536
G1 X84.635 Y167.565 E.01923
G1 X84.635 Y12.435 E7.78536
G1 X84.252 Y12.435 E.01923
G1 X84.252 Y167.565 E7.78536
G1 X83.869 Y167.565 E.01923
M73 P3 R404
G1 X83.869 Y12.435 E7.78536
G1 X83.485 Y12.435 E.01923
G1 X83.485 Y167.565 E7.78536
G1 X83.102 Y167.565 E.01923
G1 X83.102 Y12.435 E7.78536
G1 X82.719 Y12.435 E.01923
G1 X82.719 Y167.565 E7.78536
G1 X82.336 Y167.565 E.01923
G1 X82.336 Y12.435 E7.78536
G1 X81.953 Y12.435 E.01923
G1 X81.953 Y167.565 E7.78536
G1 X81.569 Y167.565 E.01923
G1 X81.569 Y12.435 E7.78536
G1 X81.186 Y12.435 E.01923
G1 X81.186 Y167.565 E7.78536
G1 X80.803 Y167.565 E.01923
G1 X80.803 Y12.435 E7.78536
G1 X80.42 Y12.435 E.01923
G1 X80.42 Y167.565 E7.78536
G1 X80.037 Y167.565 E.01923
G1 X80.037 Y83.681 E4.20978
G1 X79.653 Y83.681 E.01923
G1 X79.653 Y167.565 E4.20978
G1 X79.27 Y167.565 E.01923
M73 P3 R403
G1 X79.27 Y83.681 E4.20978
G1 X78.887 Y83.681 E.01923
G1 X78.887 Y167.565 E4.20978
G1 X78.504 Y167.565 E.01923
G1 X78.504 Y83.681 E4.20978
G1 X78.12 Y83.681 E.01923
G1 X78.12 Y167.565 E4.20978
G1 X77.737 Y167.565 E.01923
G1 X77.737 Y83.681 E4.20978
G1 X77.354 Y83.681 E.01923
G1 X77.354 Y167.565 E4.20978
G1 X76.971 Y167.565 E.01923
G1 X76.971 Y83.681 E4.20978
G1 X76.588 Y83.681 E.01923
G1 X76.588 Y167.565 E4.20978
G1 X76.204 Y167.565 E.01923
G1 X76.204 Y83.681 E4.20978
G1 X75.962 Y83.681 E.01215
G1 X75.962 Y80.289 E.17027
G1 X75.821 Y80.289 E.00708
G1 X75.821 Y167.565 E4.38005
G1 X75.438 Y167.565 E.01923
G1 X75.438 Y80.289 E4.38005
G1 X75.055 Y80.289 E.01923
G1 X75.055 Y167.565 E4.38005
G1 X74.672 Y167.565 E.01923
G1 X74.672 Y80.289 E4.38005
G1 X74.288 Y80.289 E.01923
G1 X74.288 Y167.565 E4.38005
G1 X73.905 Y167.565 E.01923
G1 X73.905 Y80.289 E4.38005
G1 X73.522 Y80.289 E.01923
G1 X73.522 Y167.565 E4.38005
G1 X73.139 Y167.565 E.01923
G1 X73.139 Y80.289 E4.38005
G1 X72.756 Y80.289 E.01923
G1 X72.756 Y167.565 E4.38005
G1 X72.372 Y167.565 E.01923
G1 X72.372 Y76.896 E4.55032
G1 X71.989 Y76.896 E.01923
G1 X71.989 Y167.565 E4.55032
G1 X71.606 Y167.565 E.01923
M73 P3 R402
G1 X71.606 Y76.896 E4.55032
G1 X71.223 Y76.896 E.01923
G1 X71.223 Y167.565 E4.55032
G1 X70.839 Y167.565 E.01923
G1 X70.839 Y76.896 E4.55032
G1 X70.456 Y76.896 E.01923
G1 X70.456 Y167.565 E4.55032
G1 X70.073 Y167.565 E.01923
G1 X70.073 Y76.896 E4.55032
G1 X69.69 Y76.896 E.01923
G1 X69.69 Y167.565 E4.55032
G1 X69.307 Y167.565 E.01923
G1 X69.307 Y76.896 E4.55032
G1 X69.177 Y76.896 E.00651
G1 X69.177 Y73.503 E.17027
G1 X68.923 Y73.503 E.01272
G1 X68.923 Y167.565 E4.72058
G1 X68.54 Y167.565 E.01923
G1 X68.54 Y73.503 E4.72058
G1 X68.157 Y73.503 E.01923
