; generated by PrusaSlicer 2.5.0+win64 on 2022-12-07 at 00:21:44 UTC

; 

; external perimeters extrusion width = 1.00mm
; perimeters extrusion width = 1.00mm
; infill extrusion width = 1.00mm
; solid infill extrusion width = 1.00mm
; top infill extrusion width = 1.00mm
; support material extrusion width = 1.00mm
; first layer extrusion width = 0.42mm

M73 P0 R78
M107
;TYPE:Custom
G90 ; use absolute coordinates
M83 ; extruder relative mode
M140 S60 ; set final bed temp
M104 S150 ; set temporary nozzle temp to prevent oozing during homing and auto bed leveling
G4 S10 ; allow partial nozzle warmup
G28 ; home all axisG1 Z50 F240
G1 X7.6 Y10 F3000
M104 S210 ; set final nozzle temp
M190 S60 ; wait for bed temp to stabilize
M109 S210 ; wait for nozzle temp to stabilize
G1 Z0.28 F240
G92 E0
G1 Y140 E10 F1500 ; prime the nozzle
G1 X4 F5000
G92 E0
G1 Y10 E10 F1200 ; prime the nozzle
G92 E0
G21 ; set units to millimeters
G90 ; use absolute coordinates
M83 ; use relative distances for extrusion
; Filament gcode
M107
;LAYER_CHANGE
;Z:0.35
;HEIGHT:0.35
;BEFORE_LAYER_CHANGE
G92 E0
;0.35


G1 E-1 F3600
G1 Z.35 F7800
;AFTER_LAYER_CHANGE
;0.35
G1 X106.819 Y167.876
G1 E1 F2400
;TYPE:Support material
;WIDTH:0.42
G1 F1800
G1 X93.562 Y167.876 E.66536
G1 X93.562 Y164.085 E.19026
G1 X96.444 Y164.085 E.14465
G1 X96.861 Y163.658 E.02994
G1 X93.876 Y16.325 E7.39556
G1 X93.462 Y15.92 E.0291
G1 X90.169 Y15.92 E.16527
G1 X90.169 Y12.124 E.19047
G1 X106.819 Y12.124 E.83563
G1 X106.819 Y167.824 E7.81392
G1 X106.49 Y167.72 F7800
G1 F1800
G1 X106.49 Y12.435 E7.79315
G1 X106.107 Y12.435 E.01923
G1 X106.107 Y167.565 E7.78536
G1 X105.724 Y167.565 E.01923
G1 X105.724 Y12.435 E7.78536
G1 X105.341 Y12.435 E.01923
G1 X105.341 Y167.565 E7.78536
G1 X104.958 Y167.565 E.01923
G1 X104.958 Y12.435 E7.78536
G1 X104.574 Y12.435 E.01923
M73 P1 R78
G1 X104.574 Y167.565 E7.78536
G1 X104.191 Y167.565 E.01923
M73 P1 R77
G1 X104.191 Y12.435 E7.78536
G1 X103.808 Y12.435 E.01923
G1 X103.808 Y167.565 E7.78536
G1 X103.425 Y167.565 E.01923
G1 X103.425 Y12.435 E7.78536
G1 X103.042 Y12.435 E.01923
G1 X103.041 Y167.565 E7.78536
G1 X102.658 Y167.565 E.01923
G1 X102.658 Y12.435 E7.78536
G1 X102.275 Y12.435 E.01923
G1 X102.275 Y167.565 E7.78536
G1 X101.892 Y167.565 E.01923
G1 X101.892 Y12.435 E7.78536
G1 X101.509 Y12.435 E.01923
G1 X101.509 Y167.565 E7.78536
G1 X101.125 Y167.565 E.01923
M73 P2 R77
G1 X101.125 Y12.435 E7.78536
G1 X100.742 Y12.435 E.01923
G1 X100.742 Y167.565 E7.78536
G1 X100.359 Y167.565 E.01923
G1 X100.359 Y12.435 E7.78536
G1 X99.976 Y12.435 E.01923
M73 P2 R76
G1 X99.976 Y167.565 E7.78536
G1 X99.593 Y167.565 E.01923
G1 X99.593 Y12.435 E7.78536
G1 X99.209 Y12.435 E.01923
G1 X99.209 Y167.565 E7.78536
G1 X98.826 Y167.565 E.01923
G1 X98.826 Y12.435 E7.78536
G1 X98.443 Y12.435 E.01923
G1 X98.443 Y167.565 E7.78536
G1 X98.06 Y167.565 E.01923
G1 X98.06 Y12.435 E7.78536
G1 X97.677 Y12.435 E.01923
M73 P3 R76
G1 X97.677 Y167.565 E7.78536
G1 X97.293 Y167.565 E.01923
G1 X97.293 Y12.435 E7.78536
G1 X96.91 Y12.435 E.01923
G1 X96.91 Y150.739 E6.94094
G1 X96.527 Y131.818 E.94977
G1 X96.527 Y12.435 E5.99136
G1 X96.144 Y12.435 E.01923
G1 X96.144 Y112.902 E5.04204
G1 X95.761 Y94.019 E.94785
G1 X95.761 Y12.435 E4.09438
G1 X95.377 Y12.435 E.01923
G1 X95.377 Y75.104 E3.14512
G1 X94.994 Y56.189 E.94946
M73 P3 R75
G1 X94.994 Y12.435 E2.19585
G1 X94.611 Y12.435 E.01923
G1 X94.611 Y37.274 E1.24659
G1 X94.228 Y18.359 E.94946
G1 X94.228 Y12.435 E.29732
G1 X93.844 Y12.435 E.01923
G1 X93.844 Y15.86 E.1719
G1 X93.589 Y15.609 E.01798
G1 X93.461 Y15.609 E.00639
G1 X93.461 Y12.435 E.15931
G1 X93.078 Y12.435 E.01923
G1 X93.078 Y15.609 E.15931
G1 X92.695 Y15.609 E.01923
G1 X92.695 Y12.435 E.15931
G1 X92.312 Y12.435 E.01923
G1 X92.312 Y15.609 E.15931
G1 X91.928 Y15.609 E.01923
G1 X91.928 Y12.435 E.15931
G1 X91.545 Y12.435 E.01923
G1 X91.545 Y15.609 E.15931
G1 X91.162 Y15.609 E.01923
G1 X91.162 Y12.435 E.15931
G1 X90.779 Y12.435 E.01923
G1 X90.779 Y15.764 E.1671
G1 E-.7 F3600
;WIPE_START
G1 F6240
G1 X90.779 Y15.244 E-.285
;WIPE_END
G1 E-.015 F3600
G1 X96.91 Y167.72 F7800
G1 E1 F2400
G1 F1800
G1 X96.91 Y164.052 E.1841
G1 X96.574 Y164.395 E.02409
G1 X96.527 Y164.395 E.00237
G1 X96.527 Y167.565 E.15911
G1 X96.144 Y167.565 E.01923
G1 X96.144 Y164.395 E.15911
G1 X95.76 Y164.395 E.01923
G1 X95.76 Y167.565 E.15911
G1 X95.377 Y167.565 E.01923
G1 X95.377 Y164.395 E.15911
G1 X94.994 Y164.395 E.01923
G1 X94.994 Y167.565 E.15911
G1 X94.611 Y167.565 E.01923
G1 X94.611 Y164.395 E.15911
G1 X94.228 Y164.395 E.01923
G1 X94.228 Y167.72 E.16689
G1 E-.7 F3600
;WIPE_START
G1 F6240
G1 X94.228 Y167.2 E-.285
;WIPE_END
G1 E-.015 F3600
G1 X95.579 Y162.82 F7800
G1 E1 F2400
;TYPE:Perimeter
;WIDTH:0.42
G1 F1800
G1 X81.764 Y162.82 E.69335
G1 X78.812 Y17.184 E7.31034
G1 X92.628 Y17.185 E.69341
G1 X95.576 Y162.67 E7.3028
M73 P4 R75
G1 X95.931 Y163.165 F7800
;TYPE:External perimeter
G1 F1800
G1 X81.426 Y163.165 E.72797
G1 X78.46 Y16.839 E7.34496
G1 X92.966 Y16.84 E.72803
G1 X95.928 Y163.015 E7.33742
G1 X95.046 Y162.699 F7800
G1 E-.7 F3600
;WIPE_START
G1 F6240
G1 X95.408 Y163.02 E-.285
;WIPE_END
G1 E-.015 F3600
G1 X92.541 Y18 F7800
G1 E1 F2400
;TYPE:Solid infill
;WIDTH:0.420175
G1 F1800
G1 X91.984 Y17.443 E.03956
G1 X91.496 Y17.443 E.0245
G1 X92.393 Y18.34 E.06368
G1 X92.403 Y18.838 E.02501
G1 X91.008 Y17.443 E.09905
G1 X90.52 Y17.443 E.0245
G1 X92.413 Y19.336 E.13442
G1 X92.423 Y19.834 E.02501
G1 X90.032 Y17.443 E.16979
G1 X89.544 Y17.443 E.0245
G1 X92.433 Y20.332 E.20516
G1 X92.443 Y20.83 E.02501
G1 X89.056 Y17.443 E.24053
G1 X88.568 Y17.443 E.0245
G1 X92.454 Y21.328 E.2759
G1 X92.464 Y21.827 E.02501
G1 X88.08 Y17.443 E.31127
G1 X87.592 Y17.443 E.0245
G1 X92.474 Y22.325 E.34664
G1 X92.484 Y22.823 E.02501
G1 X87.104 Y17.443 E.38201
G1 X86.616 Y17.443 E.0245
G1 X92.494 Y23.321 E.41738
G1 X92.504 Y23.819 E.02501
G1 X86.128 Y17.443 E.45275
G1 X85.64 Y17.443 E.0245
G1 X92.514 Y24.317 E.48812
G1 X92.524 Y24.815 E.02501
G1 X85.152 Y17.443 E.52349
G1 X84.664 Y17.443 E.0245
G1 X92.534 Y25.313 E.55886
G1 X92.544 Y25.811 E.02501
G1 X84.176 Y17.443 E.59422
G1 X83.688 Y17.443 E.0245
G1 X92.554 Y26.309 E.62959
G1 X92.565 Y26.807 E.02501
G1 X83.2 Y17.443 E.66496
G1 X82.712 Y17.443 E.0245
G1 X92.575 Y27.306 E.70033
G1 X92.585 Y27.804 E.02501
G1 X82.224 Y17.443 E.7357
G1 X81.736 Y17.443 E.0245
G1 X92.595 Y28.302 E.77107
G1 X92.605 Y28.8 E.02501
G1 X81.248 Y17.443 E.80644
G1 X80.76 Y17.443 E.0245
G1 X92.615 Y29.298 E.84181
G1 X92.625 Y29.796 E.02501
G1 X80.272 Y17.443 E.87718
G1 X79.784 Y17.443 E.0245
G1 X92.635 Y30.294 E.91255
G1 X92.645 Y30.792 E.02501
G1 X79.296 Y17.443 E.94792
G1 X79.075 Y17.443 E.01108
G1 X79.081 Y17.716 E.01371
G1 X92.655 Y31.29 E.96391
G1 X92.665 Y31.788 E.02501
G1 X79.091 Y18.214 E.96391
G1 X79.101 Y18.712 E.02501
G1 X92.676 Y32.286 E.96391
G1 X92.686 Y32.784 E.02501
G1 X79.111 Y19.21 E.96391
G1 X79.121 Y19.708 E.02501
G1 X92.696 Y33.283 E.96391
G1 X92.706 Y33.781 E.02501
G1 X79.131 Y20.206 E.96391
G1 X79.142 Y20.704 E.02501
G1 X92.716 Y34.279 E.96391
G1 X92.726 Y34.777 E.02501
G1 X79.152 Y21.202 E.96391
G1 X79.162 Y21.701 E.02501
G1 X92.736 Y35.275 E.96391
G1 X92.746 Y35.773 E.02501
G1 X79.172 Y22.199 E.96391
G1 X79.182 Y22.697 E.02501
G1 X92.756 Y36.271 E.96391
G1 X92.766 Y36.769 E.02501
G1 X79.192 Y23.195 E.96391
G1 X79.202 Y23.693 E.02501
G1 X92.776 Y37.267 E.96391
G1 X92.787 Y37.765 E.02501
G1 X79.212 Y24.191 E.96391
G1 X79.222 Y24.689 E.02501
G1 X92.797 Y38.263 E.96391
G1 X92.807 Y38.762 E.02501
G1 X79.232 Y25.187 E.96391
G1 X79.243 Y25.685 E.02501
G1 X92.817 Y39.26 E.96391
G1 X92.827 Y39.758 E.02501
G1 X79.253 Y26.183 E.9639
G1 X79.263 Y26.681 E.02501
G1 X92.837 Y40.256 E.9639
G1 X92.847 Y40.754 E.02501
G1 X79.273 Y27.18 E.9639
G1 X79.283 Y27.678 E.02501
G1 X92.857 Y41.252 E.9639
G1 X92.867 Y41.75 E.02501
G1 X79.293 Y28.176 E.9639
G1 X79.303 Y28.674 E.02501
G1 X92.877 Y42.248 E.9639
G1 X92.887 Y42.746 E.02501
G1 X79.313 Y29.172 E.9639
G1 X79.323 Y29.67 E.02501
G1 X92.898 Y43.244 E.9639
G1 X92.908 Y43.742 E.02501
M73 P4 R74
G1 X79.333 Y30.168 E.9639
G1 X79.344 Y30.666 E.02501
G1 X92.918 Y44.24 E.9639
G1 X92.928 Y44.739 E.02501
G1 X79.354 Y31.164 E.9639
G1 X79.364 Y31.662 E.02501
M73 P5 R74
G1 X92.938 Y45.237 E.9639
G1 X92.948 Y45.735 E.02501
G1 X79.374 Y32.16 E.9639
G1 X79.384 Y32.659 E.02501
G1 X92.958 Y46.233 E.9639
G1 X92.968 Y46.731 E.02501
G1 X79.394 Y33.157 E.9639
G1 X79.404 Y33.655 E.02501
G1 X92.978 Y47.229 E.9639
G1 X92.988 Y47.727 E.02501
G1 X79.414 Y34.153 E.9639
G1 X79.424 Y34.651 E.02501
G1 X92.999 Y48.225 E.9639
G1 X93.009 Y48.723 E.02501
G1 X79.434 Y35.149 E.9639
G1 X79.444 Y35.647 E.02501
G1 X93.019 Y49.221 E.9639
G1 X93.029 Y49.719 E.02501
G1 X79.455 Y36.145 E.9639
G1 X79.465 Y36.643 E.02501
G1 X93.039 Y50.218 E.9639
G1 X93.049 Y50.716 E.02501
G1 X79.475 Y37.141 E.9639
G1 X79.485 Y37.639 E.02501
G1 X93.059 Y51.214 E.9639
G1 X93.069 Y51.712 E.02501
G1 X79.495 Y38.138 E.9639
G1 X79.505 Y38.636 E.02501
G1 X93.079 Y52.21 E.9639
G1 X93.089 Y52.708 E.02501
G1 X79.515 Y39.134 E.9639
G1 X79.525 Y39.632 E.02501
G1 X93.099 Y53.206 E.9639
G1 X93.11 Y53.704 E.02501
G1 X79.535 Y40.13 E.9639
G1 X79.545 Y40.628 E.02501
G1 X93.12 Y54.202 E.9639
G1 X93.13 Y54.7 E.02501
G1 X79.556 Y41.126 E.9639
G1 X79.566 Y41.624 E.02501
G1 X93.14 Y55.198 E.9639
G1 X93.15 Y55.696 E.02501
G1 X79.576 Y42.122 E.9639
G1 X79.586 Y42.62 E.02501
G1 X93.16 Y56.195 E.9639
G1 X93.17 Y56.693 E.02501
G1 X79.596 Y43.118 E.96389
G1 X79.606 Y43.617 E.02501
G1 X93.18 Y57.191 E.96389
G1 X93.19 Y57.689 E.02501
G1 X79.616 Y44.115 E.96389
G1 X79.626 Y44.613 E.02501
G1 X93.2 Y58.187 E.96389
G1 X93.21 Y58.685 E.02501
G1 X79.636 Y45.111 E.96389
G1 X79.646 Y45.609 E.02501
G1 X93.221 Y59.183 E.96389
G1 X93.231 Y59.681 E.02501
G1 X79.657 Y46.107 E.96389
G1 X79.667 Y46.605 E.02501
G1 X93.241 Y60.179 E.96389
G1 X93.251 Y60.677 E.02501
G1 X79.677 Y47.103 E.96389
G1 X79.687 Y47.601 E.02501
G1 X93.261 Y61.175 E.96389
G1 X93.271 Y61.674 E.02501
G1 X79.697 Y48.099 E.96389
G1 X79.707 Y48.597 E.02501
G1 X93.281 Y62.172 E.96389
G1 X93.291 Y62.67 E.02501
G1 X79.717 Y49.096 E.96389
G1 X79.727 Y49.594 E.02501
G1 X93.301 Y63.168 E.96389
G1 X93.311 Y63.666 E.02501
G1 X79.737 Y50.092 E.96389
G1 X79.747 Y50.59 E.02501
G1 X93.321 Y64.164 E.96389
G1 X93.332 Y64.662 E.02501
G1 X79.757 Y51.088 E.96389
G1 X79.768 Y51.586 E.02501
G1 X93.342 Y65.16 E.96389
G1 X93.352 Y65.658 E.02501
G1 X79.778 Y52.084 E.96389
G1 X79.788 Y52.582 E.02501
G1 X93.362 Y66.156 E.96389
G1 X93.372 Y66.654 E.02501
G1 X79.798 Y53.08 E.96389
G1 X79.808 Y53.578 E.02501
G1 X93.382 Y67.152 E.96389
G1 X93.392 Y67.651 E.02501
G1 X79.818 Y54.076 E.96389
G1 X79.828 Y54.575 E.02501
G1 X93.402 Y68.149 E.96389
G1 X93.412 Y68.647 E.02501
G1 X79.838 Y55.073 E.96389
G1 X79.848 Y55.571 E.02501
G1 X93.422 Y69.145 E.96389
G1 X93.432 Y69.643 E.02501
G1 X79.858 Y56.069 E.96389
G1 X79.869 Y56.567 E.02501
G1 X93.443 Y70.141 E.96389
G1 X93.453 Y70.639 E.02501
G1 X79.879 Y57.065 E.96389
G1 X79.889 Y57.563 E.02501
G1 X93.463 Y71.137 E.96389
G1 X93.473 Y71.635 E.02501
G1 X79.899 Y58.061 E.96389
G1 X79.909 Y58.559 E.02501
G1 X93.483 Y72.133 E.96389
G1 X93.493 Y72.631 E.02501
G1 X79.919 Y59.057 E.96389
G1 X79.929 Y59.555 E.02501
G1 X93.503 Y73.129 E.96389
G1 X93.513 Y73.628 E.02501
G1 X79.939 Y60.054 E.96388
G1 X79.949 Y60.552 E.02501
G1 X93.523 Y74.126 E.96388
G1 X93.533 Y74.624 E.02501
G1 X79.959 Y61.05 E.96388
G1 X79.97 Y61.548 E.02501
G1 X93.544 Y75.122 E.96388
G1 X93.554 Y75.62 E.02501
G1 X79.98 Y62.046 E.96388
G1 X79.99 Y62.544 E.02501
G1 X93.564 Y76.118 E.96388
G1 X93.574 Y76.616 E.02501
G1 X80 Y63.042 E.96388
G1 X80.01 Y63.54 E.02501
G1 X93.584 Y77.114 E.96388
G1 X93.594 Y77.612 E.02501
G1 X80.02 Y64.038 E.96388
G1 X80.03 Y64.536 E.02501
G1 X93.604 Y78.11 E.96388
G1 X93.614 Y78.608 E.02501
M73 P6 R74
G1 X80.04 Y65.034 E.96388
G1 X80.05 Y65.533 E.02501
G1 X93.624 Y79.107 E.96388
G1 X93.634 Y79.605 E.02501
G1 X80.06 Y66.031 E.96388
G1 X80.07 Y66.529 E.02501
G1 X93.644 Y80.103 E.96388
G1 X93.655 Y80.601 E.02501
G1 X80.081 Y67.027 E.96388
G1 X80.091 Y67.525 E.02501
G1 X93.665 Y81.099 E.96388
G1 X93.675 Y81.597 E.02501
G1 X80.101 Y68.023 E.96388
G1 X80.111 Y68.521 E.02501
G1 X93.685 Y82.095 E.96388
G1 X93.695 Y82.593 E.02501
G1 X80.121 Y69.019 E.96388
G1 X80.131 Y69.517 E.02501
G1 X93.705 Y83.091 E.96388
G1 X93.715 Y83.589 E.02501
G1 X80.141 Y70.015 E.96388
G1 X80.151 Y70.513 E.02501
G1 X93.725 Y84.087 E.96388
G1 X93.735 Y84.585 E.02501
G1 X80.161 Y71.012 E.96388
G1 X80.171 Y71.51 E.02501
G1 X93.745 Y85.084 E.96388
G1 X93.755 Y85.582 E.02501
G1 X80.182 Y72.008 E.96388
G1 X80.192 Y72.506 E.02501
G1 X93.766 Y86.08 E.96388
G1 X93.776 Y86.578 E.02501
M73 P6 R73
G1 X80.202 Y73.004 E.96388
G1 X80.212 Y73.502 E.02501
G1 X93.786 Y87.076 E.96388
G1 X93.796 Y87.574 E.02501
G1 X80.222 Y74 E.96388
G1 X80.232 Y74.498 E.02501
G1 X93.806 Y88.072 E.96388
G1 X93.816 Y88.57 E.02501
G1 X80.242 Y74.996 E.96388
G1 X80.252 Y75.494 E.02501
G1 X93.826 Y89.068 E.96388
G1 X93.836 Y89.566 E.02501
G1 X80.262 Y75.992 E.96388
G1 X80.272 Y76.491 E.02501
G1 X93.846 Y90.064 E.96388
G1 X93.856 Y90.563 E.02501
G1 X80.282 Y76.989 E.96387
G1 X80.293 Y77.487 E.02501
G1 X93.866 Y91.061 E.96387
G1 X93.877 Y91.559 E.02501
G1 X80.303 Y77.985 E.96387
G1 X80.313 Y78.483 E.02501
G1 X93.887 Y92.057 E.96387
G1 X93.897 Y92.555 E.02501
G1 X80.323 Y78.981 E.96387
G1 X80.333 Y79.479 E.02501
G1 X93.907 Y93.053 E.96387
G1 X93.917 Y93.551 E.02501
G1 X80.343 Y79.977 E.96387
G1 X80.353 Y80.475 E.02501
G1 X93.927 Y94.049 E.96387
G1 X93.937 Y94.547 E.02501
G1 X80.363 Y80.973 E.96387
G1 X80.373 Y81.471 E.02501
G1 X93.947 Y95.045 E.96387
G1 X93.957 Y95.543 E.02501
G1 X80.383 Y81.97 E.96387
G1 X80.394 Y82.468 E.02501
G1 X93.967 Y96.041 E.96387
G1 X93.977 Y96.54 E.02501
G1 X80.404 Y82.966 E.96387
G1 X80.414 Y83.464 E.02501
G1 X93.988 Y97.038 E.96387
G1 X93.998 Y97.536 E.02501
G1 X80.424 Y83.962 E.96387
G1 X80.434 Y84.46 E.02501
G1 X94.008 Y98.034 E.96387
G1 X94.018 Y98.532 E.02501
G1 X80.444 Y84.958 E.96387
G1 X80.454 Y85.456 E.02501
G1 X94.028 Y99.03 E.96387
G1 X94.038 Y99.528 E.02501
G1 X80.464 Y85.954 E.96387
G1 X80.474 Y86.452 E.02501
G1 X94.048 Y100.026 E.96387
G1 X94.058 Y100.524 E.02501
G1 X80.484 Y86.95 E.96387
G1 X80.495 Y87.449 E.02501
G1 X94.068 Y101.022 E.96387
G1 X94.078 Y101.52 E.02501
G1 X80.505 Y87.947 E.96387
G1 X80.515 Y88.445 E.02501
G1 X94.088 Y102.019 E.96387
G1 X94.099 Y102.517 E.02501
G1 X80.525 Y88.943 E.96387
G1 X80.535 Y89.441 E.02501
G1 X94.109 Y103.015 E.96387
G1 X94.119 Y103.513 E.02501
G1 X80.545 Y89.939 E.96387
G1 X80.555 Y90.437 E.02501
G1 X94.129 Y104.011 E.96387
G1 X94.139 Y104.509 E.02501
G1 X80.565 Y90.935 E.96387
G1 X80.575 Y91.433 E.02501
G1 X94.149 Y105.007 E.96387
G1 X94.159 Y105.505 E.02501
G1 X80.585 Y91.931 E.96387
G1 X80.595 Y92.429 E.02501
G1 X94.169 Y106.003 E.96387
G1 X94.179 Y106.501 E.02501
G1 X80.606 Y92.928 E.96387
G1 X80.616 Y93.426 E.02501
G1 X94.189 Y106.999 E.96387
G1 X94.2 Y107.497 E.02501
G1 X80.626 Y93.924 E.96386
G1 X80.636 Y94.422 E.02501
G1 X94.21 Y107.996 E.96386
G1 X94.22 Y108.494 E.02501
G1 X80.646 Y94.92 E.96386
G1 X80.656 Y95.418 E.02501
G1 X94.23 Y108.992 E.96386
G1 X94.24 Y109.49 E.02501
G1 X80.666 Y95.916 E.96386
G1 X80.676 Y96.414 E.02501
G1 X94.25 Y109.988 E.96386
G1 X94.26 Y110.486 E.02501
G1 X80.686 Y96.912 E.96386
G1 X80.696 Y97.41 E.02501
G1 X94.27 Y110.984 E.96386
G1 X94.28 Y111.482 E.02501
G1 X80.707 Y97.908 E.96386
G1 X80.717 Y98.407 E.02501
G1 X94.29 Y111.98 E.96386
G1 X94.3 Y112.478 E.02501
M73 P7 R73
G1 X80.727 Y98.905 E.96386
G1 X80.737 Y99.403 E.02501
G1 X94.311 Y112.976 E.96386
G1 X94.321 Y113.475 E.02501
G1 X80.747 Y99.901 E.96386
G1 X80.757 Y100.399 E.02501
G1 X94.331 Y113.973 E.96386
G1 X94.341 Y114.471 E.02501
G1 X80.767 Y100.897 E.96386
G1 X80.777 Y101.395 E.02501
G1 X94.351 Y114.969 E.96386
G1 X94.361 Y115.467 E.02501
G1 X80.787 Y101.893 E.96386
G1 X80.797 Y102.391 E.02501
G1 X94.371 Y115.965 E.96386
G1 X94.381 Y116.463 E.02501
G1 X80.808 Y102.889 E.96386
G1 X80.818 Y103.387 E.02501
G1 X94.391 Y116.961 E.96386
G1 X94.401 Y117.459 E.02501
G1 X80.828 Y103.886 E.96386
