; generated by PrusaSlicer 2.5.0+win64 on 2022-12-07 at 00:19:55 UTC

; 

; external perimeters extrusion width = 1.00mm
; perimeters extrusion width = 1.00mm
; infill extrusion width = 1.00mm
; solid infill extrusion width = 1.00mm
; top infill extrusion width = 1.00mm
; support material extrusion width = 1.00mm
; first layer extrusion width = 0.42mm

M73 P0 R351
M107
;TYPE:Custom
G90 ; use absolute coordinates
M83 ; extruder relative mode
M140 S60 ; set final bed temp
M104 S150 ; set temporary nozzle temp to prevent oozing during homing and auto bed leveling
G4 S10 ; allow partial nozzle warmup
G28 ; home all axisG1 Z50 F240
G1 X7.6 Y10 F3000
M104 S210 ; set final nozzle temp
M190 S60 ; wait for bed temp to stabilize
M109 S210 ; wait for nozzle temp to stabilize
G1 Z0.28 F240
G92 E0
G1 Y140 E10 F1500 ; prime the nozzle
G1 X4 F5000
G92 E0
G1 Y10 E10 F1200 ; prime the nozzle
G92 E0
G21 ; set units to millimeters
G90 ; use absolute coordinates
M83 ; use relative distances for extrusion
; Filament gcode
M107
;LAYER_CHANGE
;Z:0.35
;HEIGHT:0.35
;BEFORE_LAYER_CHANGE
G92 E0
;0.35


G1 E-1 F3600
G1 Z.35 F7800
;AFTER_LAYER_CHANGE
;0.35
G1 X12.782 Y14.959
G1 E1 F2400
;TYPE:Support material interface
;WIDTH:1
G1 F1800
G1 X12.782 Y164.639 E20.14453
G1 X13.674 Y164.639 E.12014
G1 X13.674 Y15.361 E20.09046
G1 X14.567 Y15.361 E.12014
G1 X14.567 Y164.639 E20.09046
G1 X15.46 Y164.639 E.12014
G1 X15.46 Y15.361 E20.09046
G1 X16.352 Y15.361 E.12014
M73 P0 R350
G1 X16.352 Y164.639 E20.09046
G1 X17.245 Y164.639 E.12014
G1 X17.245 Y15.361 E20.09046
G1 X18.138 Y15.361 E.12014
G1 X18.138 Y164.639 E20.09046
G1 X19.03 Y164.639 E.12014
G1 X19.03 Y15.361 E20.09046
G1 X19.923 Y15.361 E.12014
G1 X19.923 Y22.146 E.91321
G1 X20.816 Y22.146 E.12014
G1 X20.816 Y15.361 E.91321
G1 X21.709 Y15.361 E.12014
G1 X21.709 Y22.146 E.91321
G1 X22.601 Y22.146 E.12014
G1 X22.601 Y15.361 E.91321
G1 X23.494 Y15.361 E.12014
G1 X23.494 Y22.146 E.91321
G1 X24.387 Y22.146 E.12014
G1 X24.387 Y15.361 E.91321
G1 X25.279 Y15.361 E.12014
G1 X25.279 Y22.146 E.91321
G1 X26.172 Y22.146 E.12014
G1 X26.172 Y15.361 E.91321
G1 X27.065 Y15.361 E.12014
G1 X27.065 Y22.146 E.91321
G1 X27.957 Y22.146 E.12014
G1 X27.957 Y15.361 E.91321
G1 X28.85 Y15.361 E.12014
G1 X28.85 Y22.146 E.91321
G1 X29.743 Y22.146 E.12014
G1 X29.743 Y15.361 E.91321
G1 X30.636 Y15.361 E.12014
G1 X30.636 Y22.146 E.91321
G1 X31.528 Y22.146 E.12014
G1 X31.528 Y15.361 E.91321
G1 X32.421 Y15.361 E.12014
G1 X32.421 Y39.11 E3.19621
G1 X33.314 Y39.11 E.12014
G1 X33.314 Y15.361 E3.19621
G1 X34.206 Y15.361 E.12014
G1 X34.206 Y39.11 E3.19621
G1 X35.099 Y39.11 E.12014
G1 X35.099 Y15.361 E3.19621
G1 X35.992 Y15.361 E.12014
G1 X35.992 Y62.858 E6.39242
G1 X36.884 Y62.858 E.12014
G1 X36.884 Y15.361 E6.39242
G1 X37.777 Y15.361 E.12014
G1 X37.777 Y62.858 E6.39242
G1 X38.67 Y62.858 E.12014
G1 X38.67 Y15.361 E6.39242
G1 X39.562 Y15.361 E.12014
G1 X39.562 Y22.146 E.91321
G1 X40.455 Y22.146 E.12014
G1 X40.455 Y15.361 E.91321
G1 X41.348 Y15.361 E.12014
G1 X41.348 Y22.146 E.91321
G1 X42.241 Y22.146 E.12014
G1 X42.241 Y15.361 E.91321
G1 X43.133 Y15.361 E.12014
G1 X43.133 Y22.146 E.91321
G1 X44.026 Y22.146 E.12014
G1 X44.026 Y15.361 E.91321
G1 X44.919 Y15.361 E.12014
G1 X44.919 Y22.146 E.91321
G1 X45.811 Y22.146 E.12014
G1 X45.811 Y15.361 E.91321
G1 X46.704 Y15.361 E.12014
G1 X46.704 Y22.146 E.91321
G1 X47.597 Y22.146 E.12014
G1 X47.597 Y15.361 E.91321
G1 X48.489 Y15.361 E.12014
G1 X48.489 Y22.146 E.91321
G1 X49.382 Y22.146 E.12014
G1 X49.382 Y15.361 E.91321
G1 X50.275 Y15.361 E.12014
G1 X50.275 Y22.146 E.91321
G1 X51.168 Y22.146 E.12014
G1 X51.168 Y15.361 E.91321
G1 X52.06 Y15.361 E.12014
G1 X52.06 Y22.146 E.91321
G1 X52.953 Y22.146 E.12014
G1 X52.953 Y15.361 E.91321
G1 X53.846 Y15.361 E.12014
G1 X53.846 Y22.146 E.91321
G1 X54.738 Y22.146 E.12014
G1 X54.738 Y15.361 E.91321
G1 X55.631 Y15.361 E.12014
G1 X55.631 Y22.146 E.91321
G1 X56.524 Y22.146 E.12014
G1 X56.524 Y15.361 E.91321
G1 X57.416 Y15.361 E.12014
G1 X57.416 Y22.146 E.91321
G1 X58.309 Y22.146 E.12014
G1 X58.309 Y15.361 E.91321
G1 X59.202 Y15.361 E.12014
G1 X59.202 Y22.146 E.91321
G1 X60.095 Y22.146 E.12014
G1 X60.095 Y15.361 E.91321
G1 X60.987 Y15.361 E.12014
G1 X60.987 Y22.146 E.91321
G1 X61.88 Y22.146 E.12014
G1 X61.88 Y15.361 E.91321
G1 X62.773 Y15.361 E.12014
G1 X62.773 Y22.146 E.91321
G1 X63.665 Y22.146 E.12014
G1 X63.665 Y15.361 E.91321
G1 X64.558 Y15.361 E.12014
G1 X64.558 Y22.146 E.91321
G1 X65.451 Y22.146 E.12014
G1 X65.451 Y15.361 E.91321
G1 X66.343 Y15.361 E.12014
G1 X66.343 Y32.726 E2.33708
G1 E-.7 F3600
;WIPE_START
G1 F6240
G1 X66.343 Y32.206 E-.285
;WIPE_END
G1 E-.015 F3600
G1 X68.129 Y25.277 F7800
G1 E1 F2400
G1 F1800
G1 X68.129 Y32.324 E.94836
G1 X67.236 Y32.324 E.12014
G1 X67.236 Y22.208 E1.36144
G1 X66.363 Y16.693 E.75155
G1 X67.236 Y15.679 E.1801
G1 X67.236 Y15.361 E.0428
G1 X68.129 Y15.361 E.12014
G1 X68.129 Y15.679 E.0428
G1 X69.022 Y15.679 E.12014
G1 X69.022 Y15.361 E.0428
G1 X69.914 Y15.361 E.12014
G1 X69.914 Y15.679 E.0428
G1 X70.807 Y15.679 E.12014
G1 X70.807 Y15.361 E.0428
G1 X71.7 Y15.361 E.12014
G1 X71.7 Y15.679 E.0428
G1 X72.592 Y15.679 E.12014
G1 X72.592 Y15.361 E.0428
G1 X73.485 Y15.361 E.12014
G1 X73.485 Y15.679 E.0428
G1 X74.378 Y15.679 E.12014
G1 X74.378 Y15.361 E.0428
G1 X75.27 Y15.361 E.12014
G1 X75.27 Y15.679 E.0428
G1 X76.163 Y15.679 E.12014
G1 X76.163 Y15.361 E.0428
G1 X77.056 Y15.361 E.12014
G1 X77.056 Y15.679 E.0428
G1 X77.949 Y15.679 E.12014
G1 X77.949 Y15.361 E.0428
G1 X78.841 Y15.361 E.12014
G1 X78.841 Y15.679 E.0428
G1 X79.734 Y15.679 E.12014
G1 X79.734 Y15.361 E.0428
G1 X80.627 Y15.361 E.12014
G1 X80.627 Y15.679 E.0428
G1 X81.519 Y15.679 E.12014
G1 X81.519 Y15.361 E.0428
G1 X82.412 Y15.361 E.12014
G1 X82.412 Y15.679 E.0428
G1 X83.305 Y15.679 E.12014
G1 X83.305 Y15.361 E.0428
G1 X84.197 Y15.361 E.12014
G1 X84.197 Y15.679 E.0428
G1 X85.09 Y15.679 E.12014
G1 X85.09 Y15.361 E.0428
G1 X85.983 Y15.361 E.12014
G1 X85.983 Y15.679 E.0428
G1 X86.876 Y15.679 E.12014
G1 X86.876 Y15.361 E.0428
G1 X87.768 Y15.361 E.12014
G1 X87.768 Y15.679 E.0428
G1 X88.661 Y15.679 E.12014
G1 X88.661 Y15.361 E.0428
G1 X89.554 Y15.361 E.12014
G1 X89.554 Y15.679 E.0428
G1 X90.446 Y15.679 E.12014
G1 X90.446 Y15.361 E.0428
G1 X91.339 Y15.361 E.12014
G1 X91.339 Y15.679 E.0428
G1 X92.232 Y15.679 E.12014
G1 X92.232 Y15.361 E.0428
G1 X93.124 Y15.361 E.12014
G1 X93.124 Y15.679 E.0428
G1 X94.017 Y15.679 E.12014
G1 X94.017 Y15.361 E.0428
G1 X94.91 Y15.361 E.12014
G1 X94.91 Y15.679 E.0428
G1 X95.803 Y15.679 E.12014
G1 X95.803 Y15.361 E.0428
G1 X96.695 Y15.361 E.12014
G1 X96.695 Y15.679 E.0428
G1 X97.588 Y15.679 E.12014
G1 X97.588 Y15.361 E.0428
G1 X98.481 Y15.361 E.12014
G1 X98.481 Y15.679 E.0428
G1 X99.373 Y15.679 E.12014
G1 X99.373 Y15.361 E.0428
G1 X100.266 Y15.361 E.12014
G1 X100.266 Y15.679 E.0428
G1 X101.159 Y15.679 E.12014
G1 X101.159 Y15.361 E.0428
G1 X102.051 Y15.361 E.12014
G1 X102.051 Y15.679 E.0428
G1 X102.944 Y15.679 E.12014
G1 X102.944 Y15.361 E.0428
G1 X103.837 Y15.361 E.12014
G1 X103.837 Y15.679 E.0428
G1 X104.73 Y15.679 E.12014
G1 X104.73 Y15.361 E.0428
G1 X105.622 Y15.361 E.12014
G1 X105.622 Y15.679 E.0428
G1 X106.515 Y15.679 E.12014
G1 X106.515 Y15.361 E.0428
G1 X107.408 Y15.361 E.12014
G1 X107.408 Y15.679 E.0428
G1 X108.3 Y15.679 E.12014
G1 X108.3 Y15.361 E.0428
G1 X109.193 Y15.361 E.12014
G1 X109.193 Y15.679 E.0428
G1 X110.086 Y15.679 E.12014
G1 X110.086 Y15.361 E.0428
G1 X110.978 Y15.361 E.12014
G1 X110.978 Y15.679 E.0428
G1 X111.871 Y15.679 E.12014
G1 X111.871 Y15.361 E.0428
G1 X112.764 Y15.361 E.12014
G1 X112.764 Y15.679 E.0428
G1 X113.657 Y15.679 E.12014
G1 X113.657 Y15.361 E.0428
G1 X114.549 Y15.361 E.12014
G1 X114.549 Y15.679 E.0428
G1 X115.442 Y15.679 E.12014
G1 X115.442 Y15.361 E.0428
G1 X116.335 Y15.361 E.12014
G1 X116.335 Y15.679 E.0428
G1 X117.227 Y15.679 E.12014
G1 X117.227 Y15.361 E.0428
G1 X118.12 Y15.361 E.12014
G1 X118.12 Y15.679 E.0428
G1 X119.013 Y15.679 E.12014
G1 X119.013 Y15.361 E.0428
G1 X119.905 Y15.361 E.12014
G1 X119.905 Y15.679 E.0428
G1 X120.798 Y15.679 E.12014
G1 X120.798 Y15.361 E.0428
G1 X121.691 Y15.361 E.12014
G1 X121.691 Y15.679 E.0428
G1 X122.583 Y15.679 E.12014
G1 X122.583 Y15.361 E.0428
G1 X123.476 Y15.361 E.12014
G1 X123.476 Y15.679 E.0428
G1 X124.369 Y15.679 E.12014
G1 X124.369 Y15.361 E.0428
G1 X125.262 Y15.361 E.12014
G1 X125.262 Y15.679 E.0428
G1 X126.154 Y15.679 E.12014
G1 X126.154 Y15.361 E.0428
G1 X127.047 Y15.361 E.12014
G1 X127.047 Y16.08 E.09687
G1 E-.7 F3600
;WIPE_START
G1 F6240
G1 X127.047 Y15.56 E-.285
;WIPE_END
G1 E-.015 F3600
G1 X167.876 Y15.517 F7800
G1 E1 F2400
;TYPE:Support material
;WIDTH:0.42
G1 F1800
G1 X171.268 Y15.517 E.17027
G1 X171.268 Y167.876 E7.64625
G1 X124.976 Y167.876 E2.32322
M73 P0 R349
G1 X124.976 Y165.296 E.12947
G1 X127.976 Y165.296 E.15056
G1 X127.976 Y163.665 E.08185
G1 X124.976 Y163.665 E.15056
G1 X124.976 Y161.085 E.12947
G1 X165.147 Y161.085 E2.01601
G1 X165.374 Y164.033 E.1484
G1 X166.74 Y163.981 E.06858
G1 X166.74 Y16.331 E7.40995
G1 X166.324 Y15.915 E.02952
G1 X153.588 Y15.915 E.63915
G1 X153.166 Y16.374 E.03127
G1 X153.38 Y18.915 E.12799
G1 X124.976 Y18.915 E1.42547
G1 X124.976 Y16.335 E.12947
G1 X125.783 Y16.335 E.04049
G1 X125.783 Y16.925 E.02961
G1 X126.318 Y16.335 E.03997
G1 X127.976 Y16.335 E.08321
G1 X127.976 Y14.704 E.08185
G1 X124.976 Y14.704 E.15056
G1 X124.976 Y12.124 E.12947
G1 X167.876 Y12.124 E2.15295
G1 X167.876 Y15.465 E.16767
G1 X170.857 Y167.72 F7800
G1 F1800
G1 X170.857 Y15.827 E7.62289
G1 X170.474 Y15.827 E.01923
G1 X170.474 Y167.565 E7.6151
G1 X170.091 Y167.565 E.01923
G1 X170.091 Y15.827 E7.6151
G1 X169.708 Y15.827 E.01923
G1 X169.708 Y167.565 E7.6151
G1 X169.324 Y167.565 E.01923
G1 X169.325 Y15.827 E7.6151
G1 X168.941 Y15.827 E.01923
G1 X168.941 Y167.565 E7.6151
G1 X168.558 Y167.565 E.01923
G1 X168.558 Y15.827 E7.6151
G1 X168.175 Y15.827 E.01923
G1 X168.175 Y167.565 E7.6151
G1 X167.792 Y167.565 E.01923
G1 X167.792 Y15.827 E7.6151
G1 X167.565 Y15.827 E.01136
M73 P0 R348
G1 X167.565 Y12.435 E.17027
G1 X167.408 Y12.435 E.00787
G1 X167.408 Y167.565 E7.78536
G1 X167.025 Y167.565 E.01923
G1 X167.025 Y12.435 E7.78536
G1 X166.642 Y12.435 E.01923
G1 X166.642 Y15.794 E.16861
G1 X166.452 Y15.605 E.01347
G1 X166.259 Y15.605 E.0097
G1 X166.259 Y12.435 E.15908
G1 X165.876 Y12.435 E.01923
G1 X165.876 Y15.605 E.15908
G1 X165.492 Y15.605 E.01923
G1 X165.492 Y12.435 E.15908
G1 X165.109 Y12.435 E.01923
G1 X165.109 Y15.605 E.15908
G1 X164.726 Y15.605 E.01923
G1 X164.726 Y12.435 E.15908
G1 X164.343 Y12.435 E.01923
G1 X164.343 Y15.605 E.15908
G1 X163.96 Y15.605 E.01923
G1 X163.96 Y12.435 E.15908
G1 X163.576 Y12.435 E.01923
G1 X163.576 Y15.605 E.15908
G1 X163.193 Y15.605 E.01923
G1 X163.193 Y12.435 E.15908
G1 X162.81 Y12.435 E.01923
G1 X162.81 Y15.605 E.15908
G1 X162.427 Y15.605 E.01923
G1 X162.427 Y12.435 E.15908
G1 X162.044 Y12.435 E.01923
G1 X162.044 Y15.605 E.15908
G1 X161.66 Y15.605 E.01923
G1 X161.66 Y12.435 E.15908
G1 X161.277 Y12.435 E.01923
G1 X161.277 Y15.605 E.15908
G1 X160.894 Y15.605 E.01923
G1 X160.894 Y12.435 E.15908
G1 X160.511 Y12.435 E.01923
G1 X160.511 Y15.605 E.15908
G1 X160.127 Y15.605 E.01923
G1 X160.127 Y12.435 E.15908
G1 X159.744 Y12.435 E.01923
G1 X159.744 Y15.605 E.15908
G1 X159.361 Y15.605 E.01923
G1 X159.361 Y12.435 E.15908
G1 X158.978 Y12.435 E.01923
G1 X158.978 Y15.605 E.15908
G1 X158.595 Y15.605 E.01923
G1 X158.595 Y12.435 E.15908
G1 X158.211 Y12.435 E.01923
G1 X158.211 Y15.605 E.15908
G1 X157.828 Y15.605 E.01923
G1 X157.828 Y12.435 E.15908
G1 X157.445 Y12.435 E.01923
G1 X157.445 Y15.605 E.15908
G1 X157.062 Y15.605 E.01923
G1 X157.062 Y12.435 E.15908
G1 X156.679 Y12.435 E.01923
G1 X156.679 Y15.605 E.15908
G1 X156.295 Y15.605 E.01923
G1 X156.295 Y12.435 E.15908
G1 X155.912 Y12.435 E.01923
G1 X155.912 Y15.605 E.15908
G1 X155.529 Y15.605 E.01923
G1 X155.529 Y12.435 E.15908
G1 X155.146 Y12.435 E.01923
G1 X155.146 Y15.605 E.15908
G1 X154.763 Y15.605 E.01923
G1 X154.763 Y12.435 E.15908
G1 X154.379 Y12.435 E.01923
G1 X154.379 Y15.605 E.15908
G1 X153.996 Y15.605 E.01923
G1 X153.996 Y12.435 E.15908
G1 X153.613 Y12.435 E.01923
G1 X153.613 Y15.605 E.15908
G1 X153.452 Y15.605 E.00808
G1 X153.23 Y15.846 E.01647
G1 X153.23 Y12.435 E.1712
G1 X152.846 Y12.435 E.01923
G1 X152.846 Y18.604 E.30963
G1 X152.463 Y18.604 E.01923
G1 X152.463 Y12.435 E.30963
G1 X152.08 Y12.435 E.01923
G1 X152.08 Y18.604 E.30963
G1 X151.697 Y18.604 E.01923
G1 X151.697 Y12.435 E.30963
G1 X151.314 Y12.435 E.01923
G1 X151.314 Y18.604 E.30963
G1 X150.93 Y18.604 E.01923
G1 X150.93 Y12.435 E.30963
G1 X150.547 Y12.435 E.01923
G1 X150.547 Y18.604 E.30963
G1 X150.164 Y18.604 E.01923
G1 X150.164 Y12.435 E.30963
G1 X149.781 Y12.435 E.01923
G1 X149.781 Y18.604 E.30963
G1 X149.398 Y18.604 E.01923
G1 X149.398 Y12.435 E.30963
G1 X149.014 Y12.435 E.01923
G1 X149.014 Y18.604 E.30963
G1 X148.631 Y18.604 E.01923
G1 X148.631 Y12.435 E.30963
G1 X148.248 Y12.435 E.01923
G1 X148.248 Y18.604 E.30963
G1 X147.865 Y18.604 E.01923
G1 X147.865 Y12.435 E.30963
G1 X147.482 Y12.435 E.01923
G1 X147.482 Y18.604 E.30963
G1 X147.098 Y18.604 E.01923
G1 X147.098 Y12.435 E.30963
G1 X146.715 Y12.435 E.01923
G1 X146.715 Y18.604 E.30963
G1 X146.332 Y18.604 E.01923
G1 X146.332 Y12.435 E.30963
G1 X145.949 Y12.435 E.01923
G1 X145.949 Y18.604 E.30963
G1 X145.565 Y18.604 E.01923
G1 X145.565 Y12.435 E.30963
G1 X145.182 Y12.435 E.01923
G1 X145.182 Y18.604 E.30963
G1 X144.799 Y18.604 E.01923
G1 X144.799 Y12.435 E.30963
G1 X144.416 Y12.435 E.01923
G1 X144.416 Y18.604 E.30963
G1 X144.033 Y18.604 E.01923
G1 X144.033 Y12.435 E.30963
G1 X143.649 Y12.435 E.01923
G1 X143.649 Y18.604 E.30963
G1 X143.266 Y18.604 E.01923
G1 X143.266 Y12.435 E.30963
G1 X142.883 Y12.435 E.01923
G1 X142.883 Y18.604 E.30963
G1 X142.5 Y18.604 E.01923
G1 X142.5 Y12.435 E.30963
G1 X142.117 Y12.435 E.01923
G1 X142.117 Y18.604 E.30963
G1 X141.733 Y18.604 E.01923
G1 X141.733 Y12.435 E.30963
G1 X141.35 Y12.435 E.01923
G1 X141.35 Y18.604 E.30963
G1 X140.967 Y18.604 E.01923
G1 X140.967 Y12.435 E.30963
G1 X140.584 Y12.435 E.01923
G1 X140.584 Y18.604 E.30963
G1 X140.201 Y18.604 E.01923
G1 X140.201 Y12.435 E.30963
G1 X139.817 Y12.435 E.01923
G1 X139.817 Y18.604 E.30963
G1 X139.434 Y18.604 E.01923
G1 X139.434 Y12.435 E.30963
G1 X139.051 Y12.435 E.01923
G1 X139.051 Y18.604 E.30963
G1 X138.668 Y18.604 E.01923
G1 X138.668 Y12.435 E.30963
G1 X138.284 Y12.435 E.01923
G1 X138.284 Y18.604 E.30963
G1 X137.901 Y18.604 E.01923
G1 X137.901 Y12.435 E.30963
G1 X137.518 Y12.435 E.01923
G1 X137.518 Y18.604 E.30963
G1 X137.135 Y18.604 E.01923
G1 X137.135 Y12.435 E.30963
G1 X136.752 Y12.435 E.01923
G1 X136.752 Y18.604 E.30963
G1 X136.368 Y18.604 E.01923
G1 X136.368 Y12.435 E.30963
G1 X135.985 Y12.435 E.01923
G1 X135.985 Y18.604 E.30963
G1 X135.602 Y18.604 E.01923
G1 X135.602 Y12.435 E.30963
G1 X135.219 Y12.435 E.01923
G1 X135.219 Y18.604 E.30963
G1 X134.836 Y18.604 E.01923
G1 X134.836 Y12.435 E.30963
G1 X134.452 Y12.435 E.01923
G1 X134.452 Y18.604 E.30963
G1 X134.069 Y18.604 E.01923
G1 X134.069 Y12.435 E.30963
G1 X133.686 Y12.435 E.01923
G1 X133.686 Y18.604 E.30963
G1 X133.303 Y18.604 E.01923
G1 X133.303 Y12.435 E.30963
G1 X132.92 Y12.435 E.01923
G1 X132.92 Y18.604 E.30963
G1 X132.536 Y18.604 E.01923
G1 X132.536 Y12.435 E.30963
G1 X132.153 Y12.435 E.01923
G1 X132.153 Y18.604 E.30963
G1 X131.77 Y18.604 E.01923
G1 X131.77 Y12.435 E.30963
G1 X131.387 Y12.435 E.01923
G1 X131.387 Y18.604 E.30963
G1 X131.004 Y18.604 E.01923
G1 X131.004 Y12.435 E.30963
G1 X130.62 Y12.435 E.01923
G1 X130.62 Y18.604 E.30963
G1 X130.237 Y18.604 E.01923
G1 X130.237 Y12.435 E.30963
G1 X129.854 Y12.435 E.01923
G1 X129.854 Y18.604 E.30963
G1 X129.471 Y18.604 E.01923
G1 X129.471 Y12.435 E.30963
G1 X129.087 Y12.435 E.01923
G1 X129.087 Y18.604 E.30963
G1 X128.704 Y18.604 E.01923
G1 X128.704 Y12.435 E.30963
G1 X128.321 Y12.435 E.01923
G1 X128.321 Y18.604 E.30963
G1 X127.938 Y18.604 E.01923
G1 X127.938 Y16.645 E.09831
G1 X127.555 Y16.645 E.01923
G1 X127.555 Y18.604 E.09831
G1 X127.171 Y18.604 E.01923
G1 X127.171 Y16.645 E.09831
G1 X126.788 Y16.645 E.01923
G1 X126.788 Y18.604 E.09831
