; generated by PrusaSlicer 2.5.0+win64 on 2022-12-07 at 00:19:44 UTC

; 

; external perimeters extrusion width = 1.00mm
; perimeters extrusion width = 1.00mm
; infill extrusion width = 1.00mm
; solid infill extrusion width = 1.00mm
; top infill extrusion width = 1.00mm
; support material extrusion width = 1.00mm
; first layer extrusion width = 0.42mm

M73 P0 R881
M107
;TYPE:Custom
G90 ; use absolute coordinates
M83 ; extruder relative mode
M140 S60 ; set final bed temp
M104 S150 ; set temporary nozzle temp to prevent oozing during homing and auto bed leveling
G4 S10 ; allow partial nozzle warmup
G28 ; home all axisG1 Z50 F240
G1 X7.6 Y10 F3000
M104 S210 ; set final nozzle temp
M190 S60 ; wait for bed temp to stabilize
M109 S210 ; wait for nozzle temp to stabilize
G1 Z0.28 F240
G92 E0
G1 Y140 E10 F1500 ; prime the nozzle
G1 X4 F5000
G92 E0
G1 Y10 E10 F1200 ; prime the nozzle
G92 E0
G21 ; set units to millimeters
G90 ; use absolute coordinates
M83 ; use relative distances for extrusion
; Filament gcode
M107
;LAYER_CHANGE
;Z:0.35
;HEIGHT:0.35
;BEFORE_LAYER_CHANGE
G92 E0
;0.35


G1 E-1 F3600
G1 Z.35 F7800
;AFTER_LAYER_CHANGE
;0.35
G1 X12.781 Y14.959
G1 E1 F2400
;TYPE:Support material interface
;WIDTH:1
G1 F1800
G1 X12.781 Y164.639 E20.14453
G1 X13.674 Y164.639 E.12014
G1 X13.674 Y15.361 E20.09046
G1 X14.567 Y15.361 E.12014
G1 X14.567 Y164.639 E20.09046
G1 X15.46 Y164.639 E.12014
G1 X15.46 Y15.361 E20.09046
G1 X16.352 Y15.361 E.12014
G1 X16.352 Y164.639 E20.09046
G1 X17.245 Y164.639 E.12014
M73 P0 R880
G1 X17.245 Y15.361 E20.09046
G1 X18.138 Y15.361 E.12014
G1 X18.138 Y164.639 E20.09046
G1 X19.03 Y164.639 E.12014
G1 X19.03 Y15.361 E20.09046
G1 X19.923 Y15.361 E.12014
G1 X19.923 Y52.68 E5.02262
G1 X20.816 Y52.68 E.12014
G1 X20.816 Y15.361 E5.02262
G1 X21.708 Y15.361 E.12014
G1 X21.708 Y53.082 E5.07668
G1 E-.7 F3600
;WIPE_START
G1 F6240
G1 X21.708 Y52.562 E-.285
;WIPE_END
G1 E-.015 F3600
G1 X49.382 Y39.511 F7800
G1 E1 F2400
G1 F1800
G1 X49.382 Y24.987 E1.95469
G1 X50.275 Y29.295 E.59206
G1 X50.275 Y39.11 E1.32088
G1 X51.168 Y39.11 E.12014
G1 X51.168 Y33.603 E.74114
G1 X52.06 Y37.91 E.59206
G1 X52.06 Y39.511 E.21546
G1 X52.953 Y40.238 F7800
G1 F1800
G1 X52.953 Y52.68 E1.67449
G1 X53.846 Y52.68 E.12014
G1 X53.846 Y46.526 E.82832
G1 X54.738 Y50.833 E.59206
G1 X54.738 Y53.082 E.30264
G1 E-.7 F3600
;WIPE_START
G1 F6240
G1 X54.738 Y52.562 E-.285
;WIPE_END
G1 E-.015 F3600
G1 X56.524 Y57.469 F7800
G1 E1 F2400
G1 F1800
G1 X56.524 Y69.644 E1.63852
G1 X57.416 Y69.644 E.12014
G1 X57.416 Y63.756 E.79235
G1 X58.309 Y68.064 E.59206
G1 X58.309 Y70.046 E.26667
G1 E-.7 F3600
;WIPE_START
G1 F6240
G1 X58.309 Y69.526 E-.285
;WIPE_END
G1 E-.015 F3600
G1 X60.095 Y74.7 F7800
G1 E1 F2400
G1 F1800
G1 X60.095 Y86.607 E1.60256
G1 X60.987 Y86.607 E.12014
G1 X60.987 Y80.987 E.75639
G1 X61.88 Y85.295 E.59206
G1 X61.88 Y87.009 E.23071
G1 E-.7 F3600
;WIPE_START
G1 F6240
G1 X61.88 Y86.489 E-.285
;WIPE_END
G1 E-.015 F3600
G1 X63.665 Y91.93 F7800
G1 E1 F2400
G1 F1800
G1 X63.665 Y103.571 E1.5666
G1 X64.558 Y103.571 E.12014
G1 X64.558 Y98.218 E.72043
G1 X65.451 Y102.525 E.59206
G1 X65.451 Y103.973 E.19475
G1 E-.7 F3600
;WIPE_START
G1 F6240
G1 X65.451 Y103.453 E-.285
;WIPE_END
G1 E-.015 F3600
G1 X66.343 Y120.936 F7800
G1 E1 F2400
G1 F1800
G1 X66.343 Y106.833 E1.89801
G1 X67.236 Y111.141 E.59206
G1 X67.236 Y120.534 E1.2642
G1 X68.129 Y120.534 E.12014
G1 X68.129 Y115.449 E.68446
G1 X69.022 Y119.756 E.59206
G1 X69.022 Y120.936 E.15878
G1 X69.914 Y122.084 F7800
G1 F1800
G1 X69.914 Y134.105 E1.61781
G1 X70.807 Y134.105 E.12014
G1 X70.807 Y128.372 E.77164
G1 X71.7 Y132.679 E.59206
G1 X71.7 Y134.507 E.24596
G1 E-.7 F3600
;WIPE_START
G1 F6240
G1 X71.7 Y133.987 E-.285
;WIPE_END
G1 E-.015 F3600
G1 X73.485 Y139.315 F7800
G1 E1 F2400
G1 F1800
G1 X73.485 Y151.069 E1.58184
G1 X74.378 Y151.069 E.12014
G1 X74.378 Y145.602 E.73567
G1 X75.27 Y149.91 E.59206
G1 X75.27 Y151.47 E.20999
G1 E-.7 F3600
;WIPE_START
G1 F6240
G1 X75.27 Y150.95 E-.285
;WIPE_END
G1 E-.015 F3600
G1 X41.348 Y165.041 F7800
G1 E1 F2400
G1 F1800
G1 X41.348 Y157.854 E.96727
G1 X40.455 Y157.854 E.12014
G1 X40.455 Y164.639 E.91321
G1 X39.562 Y164.639 E.12014
G1 X39.562 Y157.854 E.91321
G1 X38.67 Y157.854 E.12014
G1 X38.67 Y164.639 E.91321
G1 X37.777 Y164.639 E.12014
G1 X37.777 Y157.854 E.91321
G1 X36.884 Y157.854 E.12014
G1 X36.884 Y164.639 E.91321
G1 X35.992 Y164.639 E.12014
G1 X35.992 Y157.854 E.91321
G1 X35.099 Y157.854 E.12014
G1 X35.099 Y164.639 E.91321
G1 X34.206 Y164.639 E.12014
G1 X34.206 Y157.854 E.91321
G1 X33.314 Y157.854 E.12014
G1 X33.314 Y164.639 E.91321
G1 X32.421 Y164.639 E.12014
G1 X32.421 Y157.854 E.91321
G1 X31.528 Y157.854 E.12014
G1 X31.528 Y164.639 E.91321
G1 X30.635 Y164.639 E.12014
G1 X30.635 Y157.854 E.91321
G1 X29.743 Y157.854 E.12014
G1 X29.743 Y164.639 E.91321
G1 X28.85 Y164.639 E.12014
G1 X28.85 Y157.854 E.91321
G1 X27.957 Y157.854 E.12014
G1 X27.957 Y164.639 E.91321
G1 X27.065 Y164.639 E.12014
G1 X27.065 Y157.854 E.91321
G1 X26.172 Y157.854 E.12014
G1 X26.172 Y164.639 E.91321
G1 X25.279 Y164.639 E.12014
G1 X25.279 Y157.854 E.91321
G1 X24.387 Y157.854 E.12014
G1 X24.387 Y164.639 E.91321
G1 X23.494 Y164.639 E.12014
G1 X23.494 Y157.854 E.91321
G1 X22.601 Y157.854 E.12014
G1 X22.601 Y164.639 E.91321
G1 X21.708 Y164.639 E.12014
G1 X21.708 Y157.854 E.91321
G1 X20.816 Y157.854 E.12014
G1 X20.816 Y164.639 E.91321
G1 X19.923 Y164.639 E.12014
G1 X19.923 Y157.452 E.96727
G1 E-.7 F3600
;WIPE_START
G1 F6240
G1 X19.923 Y157.972 E-.285
;WIPE_END
G1 E-.015 F3600
G1 X136.867 Y165.041 F7800
G1 E1 F2400
G1 F1800
G1 X136.867 Y164.321 E.09687
G1 X135.974 Y164.321 E.12014
G1 X135.974 Y164.639 E.0428
G1 X135.081 Y164.639 E.12014
G1 X135.081 Y164.321 E.0428
G1 X134.189 Y164.321 E.12014
G1 X134.189 Y164.639 E.0428
G1 X133.296 Y164.639 E.12014
G1 X133.296 Y164.321 E.0428
G1 X132.403 Y164.321 E.12014
G1 X132.403 Y164.639 E.0428
G1 X131.51 Y164.639 E.12014
G1 X131.51 Y164.321 E.04281
G1 X130.618 Y164.321 E.12014
G1 X130.618 Y164.639 E.04281
G1 X129.725 Y164.639 E.12014
G1 X129.725 Y164.321 E.0428
G1 X128.832 Y164.321 E.12014
G1 X128.832 Y164.639 E.0428
G1 X127.94 Y164.639 E.12014
G1 X127.94 Y164.321 E.0428
G1 X127.047 Y164.321 E.12014
G1 X127.047 Y164.639 E.0428
G1 X126.154 Y164.639 E.12014
G1 X126.154 Y164.321 E.0428
G1 X125.262 Y164.321 E.12014
G1 X125.262 Y164.639 E.0428
G1 X124.369 Y164.639 E.12014
G1 X124.369 Y164.321 E.0428
G1 X123.476 Y164.321 E.12014
G1 X123.476 Y164.639 E.0428
G1 X122.583 Y164.639 E.12014
G1 X122.583 Y164.321 E.0428
G1 X121.691 Y164.321 E.12014
G1 X121.691 Y164.639 E.0428
G1 X120.798 Y164.639 E.12014
G1 X120.798 Y164.321 E.0428
G1 X119.905 Y164.321 E.12014
G1 X119.905 Y164.639 E.04281
G1 X119.013 Y164.639 E.12014
G1 X119.013 Y164.321 E.0428
G1 X118.12 Y164.321 E.12014
G1 X118.12 Y164.639 E.0428
G1 X117.227 Y164.639 E.12014
G1 X117.227 Y164.321 E.0428
G1 X116.335 Y164.321 E.12014
G1 X116.335 Y164.639 E.0428
G1 X115.442 Y164.639 E.12014
G1 X115.442 Y164.321 E.0428
G1 X114.549 Y164.321 E.12014
G1 X114.549 Y164.639 E.0428
G1 X113.656 Y164.639 E.12014
G1 X113.656 Y164.321 E.0428
G1 X112.764 Y164.321 E.12014
G1 X112.764 Y164.639 E.0428
G1 X111.871 Y164.639 E.12014
G1 X111.871 Y164.321 E.0428
G1 X110.978 Y164.321 E.12014
G1 X110.978 Y164.639 E.0428
G1 X110.086 Y164.639 E.12014
G1 X110.086 Y164.321 E.0428
G1 X109.193 Y164.321 E.12014
G1 X109.193 Y164.639 E.0428
G1 X108.3 Y164.639 E.12014
G1 X108.3 Y164.321 E.04281
G1 X107.408 Y164.321 E.12014
G1 X107.408 Y164.639 E.0428
G1 X106.515 Y164.639 E.12014
G1 X106.515 Y164.321 E.0428
G1 X105.622 Y164.321 E.12014
G1 X105.622 Y164.639 E.0428
G1 X104.729 Y164.639 E.12014
G1 X104.729 Y164.321 E.0428
G1 X103.837 Y164.321 E.12014
G1 X103.837 Y164.639 E.0428
G1 X102.944 Y164.639 E.12014
G1 X102.944 Y164.321 E.0428
G1 X102.051 Y164.321 E.12014
G1 X102.051 Y164.639 E.0428
G1 X101.159 Y164.639 E.12014
G1 X101.159 Y164.321 E.0428
G1 X100.266 Y164.321 E.12014
G1 X100.266 Y164.639 E.0428
G1 X99.373 Y164.639 E.12014
G1 X99.373 Y164.321 E.0428
G1 X98.481 Y164.321 E.12014
G1 X98.481 Y164.639 E.0428
G1 X97.588 Y164.639 E.12014
G1 X97.588 Y164.321 E.0428
G1 X96.695 Y164.321 E.12014
G1 X96.695 Y164.639 E.04281
G1 X95.802 Y164.639 E.12014
G1 X95.802 Y164.321 E.0428
G1 X94.91 Y164.321 E.12014
G1 X94.91 Y164.639 E.0428
G1 X94.017 Y164.639 E.12014
G1 X94.017 Y164.321 E.0428
G1 X93.124 Y164.321 E.12014
G1 X93.124 Y164.639 E.0428
G1 X92.232 Y164.639 E.12014
G1 X92.232 Y164.321 E.0428
G1 X91.339 Y164.321 E.12014
G1 X91.339 Y164.639 E.0428
G1 X90.446 Y164.639 E.12014
G1 X90.446 Y164.321 E.0428
G1 X89.554 Y164.321 E.12014
G1 X89.554 Y164.639 E.0428
G1 X88.661 Y164.639 E.12014
G1 X88.661 Y164.321 E.0428
G1 X87.768 Y164.321 E.12014
G1 X87.768 Y164.639 E.0428
G1 X86.875 Y164.639 E.12014
G1 X86.875 Y164.321 E.0428
G1 X85.983 Y164.321 E.12014
G1 X85.983 Y164.639 E.04281
G1 X85.09 Y164.639 E.12014
G1 X85.09 Y164.321 E.04281
G1 X84.197 Y164.321 E.12014
G1 X84.197 Y164.639 E.0428
G1 X83.305 Y164.639 E.12014
G1 X83.305 Y164.321 E.0428
G1 X82.412 Y164.321 E.12014
G1 X82.412 Y164.639 E.0428
G1 X81.519 Y164.639 E.12014
G1 X81.519 Y164.321 E.0428
G1 X80.627 Y164.321 E.12014
G1 X80.627 Y164.639 E.0428
G1 X79.734 Y164.639 E.12014
G1 X79.734 Y164.321 E.0428
G1 X78.92 Y164.321 E.10953
G1 X78.841 Y164.257 E.01368
G1 X78.841 Y164.639 E.05144
G1 X77.949 Y164.639 E.12014
G1 X77.949 Y162.833 E.24311
G1 X77.056 Y158.525 E.59206
G1 X77.056 Y164.639 E.82285
G1 X76.163 Y164.639 E.12014
G1 X76.163 Y157.854 E.91321
G1 X75.27 Y157.854 E.12014
G1 X75.27 Y164.639 E.91321
G1 X74.378 Y164.639 E.12014
G1 X74.378 Y157.854 E.91321
G1 X73.485 Y157.854 E.12014
G1 X73.485 Y164.639 E.91321
G1 X72.592 Y164.639 E.12014
G1 X72.592 Y157.854 E.91321
G1 X71.7 Y157.854 E.12014
G1 X71.7 Y164.639 E.91321
G1 X70.807 Y164.639 E.12014
G1 X70.807 Y157.854 E.91321
G1 X69.914 Y157.854 E.12014
G1 X69.914 Y164.639 E.91321
G1 X69.022 Y164.639 E.12014
G1 X69.022 Y157.854 E.91321
G1 X68.129 Y157.854 E.12014
G1 X68.129 Y164.639 E.91321
G1 X67.236 Y164.639 E.12014
G1 X67.236 Y157.854 E.91321
G1 X66.343 Y157.854 E.12014
G1 X66.343 Y164.639 E.91321
G1 X65.451 Y164.639 E.12014
G1 X65.451 Y157.854 E.91321
G1 X64.558 Y157.854 E.12014
G1 X64.558 Y164.639 E.91321
G1 X63.665 Y164.639 E.12014
G1 X63.665 Y157.854 E.91321
G1 X62.773 Y157.854 E.12014
G1 X62.773 Y164.639 E.91321
G1 X61.88 Y164.639 E.12014
G1 X61.88 Y157.854 E.91321
G1 X60.987 Y157.854 E.12014
G1 X60.987 Y164.639 E.91321
G1 X60.095 Y164.639 E.12014
G1 X60.095 Y157.854 E.91321
G1 X59.202 Y157.854 E.12014
G1 X59.202 Y164.639 E.91321
G1 X58.309 Y164.639 E.12014
G1 X58.309 Y157.854 E.91321
G1 X57.416 Y157.854 E.12014
G1 X57.416 Y164.639 E.91321
G1 X56.524 Y164.639 E.12014
G1 X56.524 Y157.854 E.91321
G1 X55.631 Y157.854 E.12014
G1 X55.631 Y164.639 E.91321
G1 X54.738 Y164.639 E.12014
G1 X54.738 Y157.854 E.91321
G1 X53.846 Y157.854 E.12014
G1 X53.846 Y164.639 E.91321
G1 X52.953 Y164.639 E.12014
G1 X52.953 Y157.854 E.91321
G1 X52.06 Y157.854 E.12014
G1 X52.06 Y164.639 E.91321
G1 X51.168 Y164.639 E.12014
G1 X51.168 Y157.854 E.91321
G1 X50.275 Y157.854 E.12014
G1 X50.275 Y164.639 E.91321
G1 X49.382 Y164.639 E.12014
G1 X49.382 Y157.854 E.91321
G1 X49.288 Y157.854 E.01272
M73 P0 R879
G1 X49.288 Y147.676 E1.3698
G1 X48.489 Y147.676 E.10742
G1 X48.489 Y164.639 E2.28301
G1 X47.597 Y164.639 E.12014
G1 X47.597 Y147.676 E2.28301
G1 X46.704 Y147.676 E.12014
G1 X46.704 Y164.639 E2.28301
G1 X45.811 Y164.639 E.12014
G1 X45.811 Y130.712 E4.56602
G1 X44.919 Y130.712 E.12014
G1 X44.919 Y164.639 E4.56602
G1 X44.026 Y164.639 E.12014
G1 X44.026 Y130.712 E4.56602
G1 X43.133 Y130.712 E.12014
G1 X43.133 Y164.639 E4.56602
G1 X42.241 Y164.639 E.12014
G1 X42.241 Y117.142 E6.39242
G1 X41.348 Y117.142 E.12014
G1 X41.348 Y151.069 E4.56602
G1 X40.455 Y151.069 E.12014
G1 X40.455 Y117.142 E4.56602
G1 X39.562 Y117.142 E.12014
G1 X39.562 Y151.069 E4.56602
G1 X39.11 Y151.069 E.06096
G1 X39.11 Y134.105 E2.28301
G1 X38.67 Y134.105 E.05918
G1 X38.67 Y100.178 E4.56602
G1 X37.777 Y100.178 E.12014
G1 X37.777 Y134.105 E4.56602
G1 X36.884 Y134.105 E.12014
G1 X36.884 Y100.178 E4.56602
G1 X35.992 Y100.178 E.12014
G1 X35.992 Y134.105 E4.56602
G1 X35.717 Y134.105 E.03699
G1 X35.717 Y117.142 E2.28301
G1 X35.099 Y117.142 E.08315
G1 X35.099 Y83.215 E4.56602
G1 X34.206 Y83.215 E.12014
G1 X34.206 Y117.142 E4.56602
G1 X33.314 Y117.142 E.12014
G1 X33.314 Y83.215 E4.56602
G1 X32.421 Y83.215 E.12014
G1 X32.421 Y117.142 E4.56602
G1 X32.324 Y117.142 E.01302
G1 X32.324 Y103.571 E1.82641
G1 X31.528 Y103.571 E.10712
G1 X31.528 Y66.251 E5.02262
G1 X30.635 Y66.251 E.12014
G1 X30.635 Y103.571 E5.02262
G1 X29.743 Y103.571 E.12014
G1 X29.743 Y66.251 E5.02262
G1 X28.931 Y66.251 E.10919
G1 X28.931 Y52.68 E1.82641
G1 X28.85 Y52.68 E.01095
G1 X28.85 Y86.607 E4.56602
G1 X27.957 Y86.607 E.12014
G1 X27.957 Y52.68 E4.56602
G1 X27.065 Y52.68 E.12014
G1 X27.065 Y86.607 E4.56602
G1 X26.172 Y86.607 E.12014
G1 X26.172 Y52.68 E4.56602
G1 X25.539 Y52.68 E.08522
G1 X25.539 Y35.717 E2.28301
G1 X25.279 Y35.717 E.03492
G1 X25.279 Y69.644 E4.56602
G1 X24.387 Y69.644 E.12014
G1 X24.387 Y35.717 E4.56602
G1 X23.494 Y35.717 E.12014
G1 X23.494 Y69.644 E4.56602
G1 X22.601 Y69.644 E.12014
G1 X22.601 Y35.717 E4.56602
G1 X22.146 Y35.717 E.06126
G1 X22.146 Y22.146 E1.8264
G1 X22.601 Y22.146 E.06126
G1 X22.601 Y15.361 E.91321
G1 X23.494 Y15.361 E.12014
G1 X23.494 Y22.146 E.91321
G1 X24.387 Y22.146 E.12014
G1 X24.387 Y15.361 E.91321
G1 X25.279 Y15.361 E.12014
G1 X25.279 Y22.146 E.91321
G1 X26.172 Y22.146 E.12014
G1 X26.172 Y15.361 E.91321
G1 X27.065 Y15.361 E.12014
G1 X27.065 Y22.146 E.91321
G1 X27.957 Y22.146 E.12014
G1 X27.957 Y15.361 E.91321
G1 X28.85 Y15.361 E.12014
G1 X28.85 Y22.146 E.91321
G1 X29.743 Y22.146 E.12014
G1 X29.743 Y15.361 E.91321
G1 X30.635 Y15.361 E.12014
G1 X30.635 Y22.146 E.91321
G1 X31.528 Y22.146 E.12014
G1 X31.528 Y15.361 E.91321
G1 X32.421 Y15.361 E.12014
G1 X32.421 Y22.146 E.91321
G1 X33.314 Y22.146 E.12014
G1 X33.314 Y15.361 E.91321
G1 X34.206 Y15.361 E.12014
G1 X34.206 Y22.146 E.91321
G1 X35.099 Y22.146 E.12014
G1 X35.099 Y15.361 E.91321
G1 X35.992 Y15.361 E.12014
G1 X35.992 Y22.146 E.91321
G1 X36.884 Y22.146 E.12014
G1 X36.884 Y15.361 E.91321
G1 X37.777 Y15.361 E.12014
G1 X37.777 Y22.146 E.91321
G1 X38.67 Y22.146 E.12014
G1 X38.67 Y15.361 E.91321
G1 X39.562 Y15.361 E.12014
G1 X39.562 Y22.146 E.91321
G1 X40.455 Y22.146 E.12014
G1 X40.455 Y15.361 E.91321
G1 X41.348 Y15.361 E.12014
G1 X41.348 Y22.146 E.91321
G1 X42.241 Y22.146 E.12014
G1 X42.241 Y15.361 E.91321
G1 X43.133 Y15.361 E.12014
G1 X43.133 Y22.146 E.91321
G1 X44.026 Y22.146 E.12014
G1 X44.026 Y15.361 E.91321
G1 X44.919 Y15.361 E.12014
G1 X44.919 Y22.146 E.91321
G1 X45.811 Y22.146 E.12014
G1 X45.811 Y15.361 E.91321
G1 X46.704 Y15.361 E.12014
G1 X46.704 Y22.146 E.91321
G1 X47.597 Y22.146 E.12014
G1 X47.597 Y15.361 E.91321
G1 X48.489 Y15.361 E.12014
G1 X48.489 Y15.714 E.04755
G1 X48.518 Y15.679 E.00603
G1 X49.382 Y15.679 E.11635
G1 X49.382 Y15.361 E.04287
G1 X50.275 Y15.361 E.12014
G1 X50.275 Y15.679 E.04287
G1 X51.168 Y15.679 E.12014
G1 X51.168 Y15.361 E.04287
G1 X52.06 Y15.361 E.12014
G1 X52.06 Y15.679 E.04288
G1 X52.953 Y15.679 E.12014
G1 X52.953 Y15.361 E.04288
G1 X53.846 Y15.361 E.12014
G1 X53.846 Y15.679 E.04288
G1 X54.738 Y15.679 E.12014
G1 X54.738 Y15.361 E.04288
G1 X55.631 Y15.361 E.12014
G1 X55.631 Y15.679 E.04288
G1 X56.524 Y15.679 E.12014
G1 X56.524 Y15.361 E.04288
G1 X57.416 Y15.361 E.12014
G1 X57.416 Y15.679 E.04289
G1 X58.309 Y15.679 E.12014
G1 X58.309 Y15.361 E.04289
G1 X59.202 Y15.361 E.12014
G1 X59.202 Y15.679 E.04289
G1 X60.095 Y15.679 E.12014
G1 X60.095 Y15.361 E.04289
G1 X60.987 Y15.361 E.12014
G1 X60.987 Y15.679 E.04289
G1 X61.88 Y15.679 E.12014
G1 X61.88 Y15.361 E.04289
G1 X62.773 Y15.361 E.12014
G1 X62.773 Y15.679 E.04289
G1 X63.665 Y15.679 E.12014
G1 X63.665 Y15.361 E.0429
G1 X64.558 Y15.361 E.12014
G1 X64.558 Y15.679 E.0429
G1 X65.451 Y15.679 E.12014
G1 X65.451 Y15.361 E.0429
G1 X66.343 Y15.361 E.12014
G1 X66.343 Y15.679 E.0429
G1 X67.236 Y15.679 E.12014
G1 X67.236 Y15.361 E.0429
G1 X68.129 Y15.361 E.12014
G1 X68.129 Y15.679 E.0429
