; generated by PrusaSlicer 2.5.0+win64 on 2022-12-07 at 00:19:40 UTC

; 

; external perimeters extrusion width = 1.00mm
; perimeters extrusion width = 1.00mm
; infill extrusion width = 1.00mm
; solid infill extrusion width = 1.00mm
; top infill extrusion width = 1.00mm
; support material extrusion width = 1.00mm
; first layer extrusion width = 0.42mm

M73 P0 R749
M107
;TYPE:Custom
G90 ; use absolute coordinates
M83 ; extruder relative mode
M140 S60 ; set final bed temp
M104 S150 ; set temporary nozzle temp to prevent oozing during homing and auto bed leveling
G4 S10 ; allow partial nozzle warmup
G28 ; home all axisG1 Z50 F240
G1 X7.6 Y10 F3000
M104 S210 ; set final nozzle temp
M190 S60 ; wait for bed temp to stabilize
M109 S210 ; wait for nozzle temp to stabilize
G1 Z0.28 F240
G92 E0
G1 Y140 E10 F1500 ; prime the nozzle
G1 X4 F5000
G92 E0
G1 Y10 E10 F1200 ; prime the nozzle
G92 E0
G21 ; set units to millimeters
G90 ; use absolute coordinates
M83 ; use relative distances for extrusion
; Filament gcode
M107
;LAYER_CHANGE
;Z:0.35
;HEIGHT:0.35
;BEFORE_LAYER_CHANGE
G92 E0
;0.35


G1 E-1 F3600
G1 Z.35 F7800
;AFTER_LAYER_CHANGE
;0.35
G1 X12.781 Y14.959
G1 E1 F2400
;TYPE:Support material interface
;WIDTH:1
G1 F1800
G1 X12.781 Y164.639 E20.14453
G1 X13.674 Y164.639 E.12014
G1 X13.674 Y15.361 E20.09046
G1 X14.567 Y15.361 E.12014
G1 X14.567 Y164.639 E20.09046
G1 X15.46 Y164.639 E.12014
G1 X15.46 Y15.361 E20.09046
G1 X16.352 Y15.361 E.12014
M73 P0 R748
G1 X16.352 Y164.639 E20.09046
G1 X17.245 Y164.639 E.12014
G1 X17.245 Y15.361 E20.09046
G1 X18.138 Y15.361 E.12014
G1 X18.138 Y165.041 E20.14453
G1 E-.7 F3600
;WIPE_START
G1 F6240
G1 X18.138 Y164.521 E-.285
;WIPE_END
G1 E-.015 F3600
G1 X34.206 Y141.292 F7800
G1 E1 F2400
G1 F1800
G1 X34.206 Y136.786 E.60651
G1 X33.314 Y132.449 E.59581
G1 X33.314 Y140.89 E1.13602
G1 X32.421 Y140.89 E.12014
G1 X32.421 Y126.121 E1.98771
G1 E-.7 F3600
;WIPE_START
G1 F6240
G1 X32.421 Y126.641 E-.285
;WIPE_END
G1 E-.015 F3600
G1 X31.528 Y124.329 F7800
G1 E1 F2400
G1 F1800
G1 X31.528 Y123.777 E.07423
G1 X30.635 Y119.441 E.59581
G1 X30.635 Y123.927 E.60374
G1 X29.743 Y123.927 E.12014
G1 X29.743 Y113.113 E1.45543
G1 E-.7 F3600
;WIPE_START
G1 F6240
G1 X29.743 Y113.633 E-.285
;WIPE_END
G1 E-.015 F3600
G1 X27.957 Y107.365 F7800
G1 E1 F2400
G1 F1800
G1 X27.957 Y106.433 E.12552
G1 X27.065 Y102.096 E.59581
G1 X27.065 Y106.963 E.65504
G1 X26.172 Y106.963 E.12014
G1 X26.172 Y95.768 E1.50673
G1 E-.7 F3600
;WIPE_START
G1 F6240
G1 X26.172 Y96.288 E-.285
;WIPE_END
G1 E-.015 F3600
G1 X24.387 Y90.402 F7800
G1 E1 F2400
G1 F1800
G1 X24.387 Y89.088 E.17682
G1 X23.494 Y84.752 E.59581
G1 X23.494 Y90 E.70633
G1 X22.601 Y90 E.12014
G1 X22.601 Y78.423 E1.55802
G1 X21.708 Y76.831 F7800
G1 F1800
G1 X21.708 Y76.079 E.10114
G1 X21.227 Y73.738 E.32167
G1 X21.439 Y73.036 E.09871
G1 X20.816 Y73.036 E.08391
G1 X20.816 Y76.429 E.45661
G1 X19.923 Y76.429 E.12014
G1 X19.923 Y72.635 E.51067
G1 E-.7 F3600
;WIPE_START
G1 F6240
G1 X19.923 Y73.155 E-.285
;WIPE_END
G1 E-.015 F3600
G1 X27.065 Y73.551 F7800
G1 E1 F2400
G1 F1800
G1 X27.065 Y73.036 E.06923
G1 X27.957 Y73.036 E.12014
G1 X27.957 Y73.313 E.03723
G1 X28.708 Y73.457 E.10291
G1 X28.85 Y73.455 E.01908
G1 X28.85 Y73.036 E.0563
G1 X29.743 Y73.036 E.12014
G1 X29.743 Y73.44 E.05434
G1 X30.635 Y73.359 E.12064
G1 X30.635 Y73.036 E.04342
G1 X31.528 Y73.036 E.12014
G1 X31.528 Y73.677 E.08627
G1 E-.7 F3600
;WIPE_START
G1 F6240
G1 X31.528 Y73.157 E-.285
;WIPE_END
G1 E-.015 F3600
G1 X39.562 Y73.506 F7800
G1 E1 F2400
G1 F1800
G1 X39.562 Y73.036 E.06317
G1 X40.455 Y73.036 E.12014
G1 X40.455 Y73.172 E.0182
G1 X41.348 Y73.24 E.1205
G1 X41.348 Y73.036 E.02746
G1 X42.241 Y73.036 E.12014
G1 X42.241 Y73.309 E.03672
G1 X43.133 Y73.378 E.1205
G1 X43.133 Y73.036 E.04597
G1 X44.026 Y73.036 E.12014
G1 X44.026 Y73.447 E.05523
G1 X44.919 Y73.516 E.1205
G1 X44.919 Y73.036 E.06449
G1 X45.811 Y73.036 E.12014
G1 X45.811 Y73.577 E.07277
G1 X46.704 Y73.545 E.12022
G1 X46.704 Y73.036 E.06846
G1 X47.597 Y73.036 E.12014
G1 X47.597 Y73.513 E.06416
G1 X48.007 Y73.499 E.05526
G1 X48.489 Y73.432 E.06552
G1 X48.489 Y73.036 E.05329
G1 X49.382 Y73.036 E.12014
G1 X49.382 Y73.31 E.03683
G1 X50.275 Y73.188 E.12127
G1 X50.275 Y73.036 E.02036
G1 X51.168 Y73.036 E.12014
G1 X51.168 Y73.471 E.05847
G1 E-.7 F3600
;WIPE_START
G1 F6240
G1 X51.168 Y73.036 E-.2381
G1 X51.082 Y73.036 E-.0469
;WIPE_END
G1 E-.015 F3600
G1 X54.738 Y70.046 F7800
G1 E1 F2400
G1 F1800
G1 X54.738 Y66.803 E.43638
G1 X53.846 Y61.165 E.76824
G1 X53.846 Y69.644 E1.14111
G1 X52.953 Y69.644 E.12014
G1 X52.953 Y52.958 E2.2456
G1 E-.7 F3600
;WIPE_START
G1 F6240
G1 X52.953 Y53.478 E-.285
;WIPE_END
G1 E-.015 F3600
G1 X51.168 Y49.689 F7800
G1 E1 F2400
G1 F1800
G1 X51.168 Y44.251 E.73192
G1 X50.275 Y38.613 E.76824
G1 X50.275 Y49.288 E1.43664
G1 X49.382 Y49.288 E.12014
G1 X49.382 Y30.486 E2.53038
G1 X48.489 Y29.333 F7800
G1 F1800
G1 X48.489 Y27.524 E.24345
G1 X47.597 Y22.08 E.74254
G1 X47.597 Y28.931 E.92215
G1 X46.704 Y28.931 E.12014
G1 X46.704 Y15.361 E1.82641
G1 X45.811 Y15.361 E.12014
G1 X45.811 Y22.146 E.91321
G1 X44.919 Y22.146 E.12014
G1 X44.919 Y15.361 E.91321
G1 X44.026 Y15.361 E.12014
G1 X44.026 Y22.146 E.91321
G1 X43.133 Y22.146 E.12014
G1 X43.133 Y15.361 E.91321
G1 X42.241 Y15.361 E.12014
G1 X42.241 Y22.146 E.91321
G1 X41.348 Y22.146 E.12014
G1 X41.348 Y15.361 E.91321
G1 X40.455 Y15.361 E.12014
G1 X40.455 Y22.146 E.91321
G1 X39.562 Y22.146 E.12014
G1 X39.562 Y15.361 E.91321
G1 X38.67 Y15.361 E.12014
G1 X38.67 Y22.146 E.91321
G1 X37.777 Y22.146 E.12014
G1 X37.777 Y15.361 E.91321
G1 X36.884 Y15.361 E.12014
G1 X36.884 Y22.146 E.91321
G1 X35.992 Y22.146 E.12014
G1 X35.992 Y15.361 E.91321
G1 X35.099 Y15.361 E.12014
G1 X35.099 Y22.146 E.91321
G1 X34.206 Y22.146 E.12014
G1 X34.206 Y15.361 E.91321
G1 X33.314 Y15.361 E.12014
G1 X33.314 Y22.146 E.91321
G1 X32.421 Y22.146 E.12014
G1 X32.421 Y15.361 E.91321
G1 X31.528 Y15.361 E.12014
G1 X31.528 Y22.146 E.91321
G1 X30.635 Y22.146 E.12014
G1 X30.635 Y15.361 E.91321
G1 X29.743 Y15.361 E.12014
G1 X29.743 Y22.146 E.91321
G1 X28.85 Y22.146 E.12014
G1 X28.85 Y15.361 E.91321
G1 X27.957 Y15.361 E.12014
G1 X27.957 Y22.146 E.91321
G1 X27.065 Y22.146 E.12014
G1 X27.065 Y15.361 E.91321
G1 X26.172 Y15.361 E.12014
G1 X26.172 Y22.146 E.91321
G1 X25.279 Y22.146 E.12014
G1 X25.279 Y15.361 E.91321
G1 X24.387 Y15.361 E.12014
G1 X24.387 Y22.146 E.91321
G1 X23.494 Y22.146 E.12014
G1 X23.494 Y15.361 E.91321
G1 X22.601 Y15.361 E.12014
G1 X22.601 Y22.146 E.91321
G1 X21.708 Y22.146 E.12014
G1 X21.708 Y15.361 E.91321
G1 X20.816 Y15.361 E.12014
G1 X20.816 Y22.146 E.91321
G1 X19.923 Y22.146 E.12014
G1 X19.923 Y15.361 E.91321
G1 X19.03 Y15.361 E.12014
G1 X19.03 Y164.639 E20.09046
G1 X19.923 Y164.639 E.12014
G1 X19.923 Y157.854 E.91321
G1 X20.816 Y157.854 E.12014
G1 X20.816 Y164.639 E.91321
G1 X21.708 Y164.639 E.12014
G1 X21.708 Y157.854 E.91321
G1 X22.601 Y157.854 E.12014
G1 X22.601 Y164.639 E.91321
G1 X23.494 Y164.639 E.12014
G1 X23.494 Y157.854 E.91321
G1 X24.387 Y157.854 E.12014
G1 X24.387 Y164.639 E.91321
G1 X25.279 Y164.639 E.12014
G1 X25.279 Y157.854 E.91321
G1 X26.172 Y157.854 E.12014
G1 X26.172 Y164.639 E.91321
G1 X27.065 Y164.639 E.12014
G1 X27.065 Y157.854 E.91321
G1 X27.957 Y157.854 E.12014
G1 X27.957 Y164.639 E.91321
G1 X28.85 Y164.639 E.12014
G1 X28.85 Y157.854 E.91321
G1 X29.743 Y157.854 E.12014
G1 X29.743 Y164.639 E.91321
G1 X30.635 Y164.639 E.12014
G1 X30.635 Y157.854 E.91321
G1 X31.528 Y157.854 E.12014
G1 X31.528 Y164.639 E.91321
G1 X32.421 Y164.639 E.12014
G1 X32.421 Y157.854 E.91321
G1 X33.314 Y157.854 E.12014
G1 X33.314 Y164.639 E.91321
G1 X34.206 Y164.639 E.12014
G1 X34.206 Y157.854 E.91321
G1 X35.099 Y157.854 E.12014
G1 X35.099 Y164.639 E.91321
G1 X35.992 Y164.639 E.12014
G1 X35.992 Y145.458 E2.5815
G1 X36.458 Y147.723 E.31117
G1 X36.884 Y149.633 E.26346
G1 X36.884 Y164.639 E2.01959
G1 X37.777 Y164.639 E.12014
G1 X37.777 Y153.959 E1.43745
G1 X38.67 Y158.288 E.59491
G1 X38.67 Y164.639 E.8548
G1 X39.562 Y164.639 E.12014
G1 X39.562 Y162.617 E.27215
G1 X39.78 Y163.672 E.14496
G1 X40.455 Y164.222 E.11722
G1 X40.455 Y164.639 E.05613
G1 X41.348 Y164.639 E.12014
G1 X41.348 Y164.322 E.04267
G1 X42.241 Y164.322 E.12014
G1 X42.241 Y164.639 E.04267
G1 X43.133 Y164.639 E.12014
G1 X43.133 Y164.322 E.04267
G1 X44.026 Y164.322 E.12014
G1 X44.026 Y164.639 E.04267
G1 X44.919 Y164.639 E.12014
G1 X44.919 Y164.322 E.04267
G1 X45.811 Y164.322 E.12014
G1 X45.811 Y164.639 E.04267
G1 X46.704 Y164.639 E.12014
G1 X46.704 Y164.322 E.04267
G1 X47.597 Y164.322 E.12014
G1 X47.597 Y164.639 E.04267
G1 X48.489 Y164.639 E.12014
G1 X48.489 Y164.322 E.04267
G1 X49.382 Y164.322 E.12014
G1 X49.382 Y164.639 E.04267
G1 X50.275 Y164.639 E.12014
G1 X50.275 Y164.322 E.04267
G1 X51.168 Y164.322 E.12014
G1 X51.168 Y164.639 E.04267
G1 X52.06 Y164.639 E.12014
G1 X52.06 Y164.322 E.04267
G1 X52.953 Y164.322 E.12014
G1 X52.953 Y164.639 E.04267
G1 X53.846 Y164.639 E.12014
G1 X53.846 Y164.322 E.04267
G1 X54.738 Y164.322 E.12014
G1 X54.738 Y164.639 E.04267
G1 X55.631 Y164.639 E.12014
G1 X55.631 Y164.322 E.04267
G1 X56.524 Y164.322 E.12014
G1 X56.524 Y164.639 E.04267
G1 X57.416 Y164.639 E.12014
G1 X57.416 Y164.322 E.04267
G1 X58.309 Y164.322 E.12014
G1 X58.309 Y164.639 E.04267
G1 X59.202 Y164.639 E.12014
G1 X59.202 Y164.322 E.04267
G1 X60.095 Y164.322 E.12014
G1 X60.095 Y164.639 E.04267
G1 X60.987 Y164.639 E.12014
G1 X60.987 Y164.322 E.04267
G1 X61.88 Y164.322 E.12014
G1 X61.88 Y164.639 E.04267
G1 X62.773 Y164.639 E.12014
G1 X62.773 Y164.322 E.04267
G1 X63.665 Y164.322 E.12014
G1 X63.665 Y164.639 E.04267
G1 X64.558 Y164.639 E.12014
G1 X64.558 Y164.322 E.04267
G1 X65.451 Y164.322 E.12014
G1 X65.451 Y164.639 E.04267
G1 X66.343 Y164.639 E.12014
G1 X66.343 Y164.322 E.04267
G1 X67.236 Y164.322 E.12014
G1 X67.236 Y164.639 E.04267
G1 X68.129 Y164.639 E.12014
G1 X68.129 Y164.322 E.04267
G1 X69.022 Y164.322 E.12014
G1 X69.022 Y164.639 E.04267
G1 X69.914 Y164.639 E.12014
G1 X69.914 Y164.322 E.04267
G1 X70.807 Y164.322 E.12014
G1 X70.807 Y164.639 E.04267
G1 X71.7 Y164.639 E.12014
G1 X71.7 Y164.322 E.04267
G1 X72.592 Y164.322 E.12014
G1 X72.592 Y164.639 E.04267
G1 X73.485 Y164.639 E.12014
G1 X73.485 Y164.322 E.04267
G1 X74.378 Y164.322 E.12014
G1 X74.378 Y164.639 E.04267
G1 X75.27 Y164.639 E.12014
G1 X75.27 Y164.322 E.04267
G1 X76.163 Y164.322 E.12014
G1 X76.163 Y164.639 E.04267
G1 X77.056 Y164.639 E.12014
G1 X77.056 Y164.322 E.04267
G1 X77.949 Y164.322 E.12014
G1 X77.949 Y164.639 E.04267
G1 X78.841 Y164.639 E.12014
G1 X78.841 Y164.322 E.04267
G1 X79.734 Y164.322 E.12014
G1 X79.734 Y164.639 E.04267
G1 X80.627 Y164.639 E.12014
G1 X80.627 Y164.322 E.04267
G1 X81.519 Y164.322 E.12014
G1 X81.519 Y164.639 E.04267
G1 X82.412 Y164.639 E.12014
G1 X82.412 Y164.322 E.04267
G1 X83.305 Y164.322 E.12014
G1 X83.305 Y164.639 E.04267
G1 X84.197 Y164.639 E.12014
G1 X84.197 Y164.322 E.04267
G1 X85.09 Y164.322 E.12014
G1 X85.09 Y164.639 E.04267
G1 X85.983 Y164.639 E.12014
G1 X85.983 Y164.322 E.04267
G1 X86.875 Y164.322 E.12014
G1 X86.875 Y164.639 E.04267
G1 X87.768 Y164.639 E.12014
G1 X87.768 Y164.322 E.04267
G1 X88.661 Y164.322 E.12014
G1 X88.661 Y164.639 E.04267
G1 X89.554 Y164.639 E.12014
G1 X89.554 Y164.322 E.04267
G1 X90.446 Y164.322 E.12014
G1 X90.446 Y164.639 E.04267
G1 X91.339 Y164.639 E.12014
G1 X91.339 Y164.322 E.04267
G1 X92.232 Y164.322 E.12014
G1 X92.232 Y164.639 E.04267
G1 X93.124 Y164.639 E.12014
G1 X93.124 Y164.322 E.04267
G1 X94.017 Y164.322 E.12014
G1 X94.017 Y164.639 E.04267
G1 X94.91 Y164.639 E.12014
G1 X94.91 Y164.322 E.04267
G1 X95.802 Y164.322 E.12014
G1 X95.802 Y164.639 E.04267
G1 X96.695 Y164.639 E.12014
G1 X96.695 Y164.322 E.04267
G1 X97.588 Y164.322 E.12014
G1 X97.588 Y164.639 E.04267
G1 X98.481 Y164.639 E.12014
G1 X98.481 Y164.322 E.04267
G1 X99.373 Y164.322 E.12014
G1 X99.373 Y164.639 E.04267
G1 X100.266 Y164.639 E.12014
G1 X100.266 Y164.322 E.04267
G1 X101.159 Y164.322 E.12014
G1 X101.159 Y164.639 E.04267
G1 X102.051 Y164.639 E.12014
M73 P0 R747
G1 X102.051 Y164.322 E.04267
G1 X102.944 Y164.322 E.12014
G1 X102.944 Y164.639 E.04267
G1 X103.837 Y164.639 E.12014
G1 X103.837 Y164.322 E.04267
G1 X104.729 Y164.322 E.12014
G1 X104.729 Y164.639 E.04267
G1 X105.622 Y164.639 E.12014
G1 X105.622 Y164.322 E.04267
G1 X106.515 Y164.322 E.12014
G1 X106.515 Y165.041 E.09674
G1 E-.7 F3600
;WIPE_START
G1 F6240
G1 X106.515 Y164.521 E-.285
;WIPE_END
G1 E-.015 F3600
G1 X171.268 Y167.876 F7800
G1 E1 F2400
;TYPE:Support material
;WIDTH:0.42
G1 F1800
G1 X104.62 Y167.876 E3.34481
G1 X104.62 Y165.296 E.12947
G1 X107.62 Y165.296 E.15056
G1 X107.62 Y163.666 E.0818
G1 X105.04 Y163.666 E.12947
G1 X104.877 Y163.524 E.01088
G1 X104.754 Y162.653 E.04413
G1 X104.62 Y162.662 E.00676
G1 X104.62 Y161.086 E.0791
G1 X134.052 Y161.086 E1.47709
G1 X134.15 Y161.809 E.03661
G1 X134.355 Y163.722 E.09657
G1 X134.76 Y164.086 E.02731
G1 X166.323 Y164.086 E1.58401
G1 X166.739 Y163.67 E.02952
G1 X166.739 Y59.01 E5.25247
G1 X165.839 Y58.656 E.04856
G1 X163.739 Y60.913 E.15471
G1 X163.739 Y18.916 E2.10767
G1 X80.871 Y18.916 E4.15881
G1 X80.871 Y16.336 E.12947
G1 X81.165 Y16.336 E.01474
G1 X81.165 Y16.926 E.02958
G1 X81.666 Y16.336 E.03884
G1 X83.871 Y16.336 E.11064
G1 X83.871 Y14.704 E.0819
G1 X80.871 Y14.704 E.15056
G1 X80.871 Y12.124 E.12947
G1 X171.268 Y12.124 E4.53667
G1 X171.268 Y167.824 E7.81392
G1 X170.857 Y167.72 F7800
G1 F1800
G1 X170.857 Y12.435 E7.79315
G1 X170.474 Y12.435 E.01923
G1 X170.474 Y167.565 E7.78536
G1 X170.091 Y167.565 E.01923
G1 X170.091 Y12.435 E7.78536
G1 X169.708 Y12.435 E.01923
G1 X169.708 Y167.565 E7.78536
G1 X169.324 Y167.565 E.01923
G1 X169.324 Y12.435 E7.78536
G1 X168.941 Y12.435 E.01923
G1 X168.941 Y167.565 E7.78536
G1 X168.558 Y167.565 E.01923
G1 X168.558 Y12.435 E7.78536
G1 X168.175 Y12.435 E.01923
M73 P0 R746
G1 X168.175 Y167.565 E7.78536
G1 X167.792 Y167.565 E.01923
G1 X167.792 Y12.435 E7.78536
G1 X167.408 Y12.435 E.01923
G1 X167.408 Y167.565 E7.78536
G1 X167.025 Y167.565 E.01923
G1 X167.025 Y12.435 E7.78536
G1 X166.642 Y12.435 E.01923
G1 X166.642 Y58.638 E2.31876
G1 X166.259 Y58.487 E.02066
G1 X166.259 Y12.435 E2.3112
G1 X165.876 Y12.435 E.01923
G1 X165.876 Y58.337 E2.30363
G1 X165.755 Y58.289 E.00649
G1 X165.492 Y58.572 E.01938
G1 X165.492 Y12.435 E2.31545
G1 X165.109 Y12.435 E.01923
G1 X165.109 Y58.984 E2.33613
G1 X164.726 Y59.396 E.02824
G1 X164.726 Y12.435 E2.35681
G1 X164.343 Y12.435 E.01923
G1 X164.343 Y59.808 E2.37749
G1 X164.05 Y60.124 E.02161
G1 X164.05 Y18.605 E2.08362
G1 X163.96 Y18.605 E.00452
G1 X163.96 Y12.435 E.30969
G1 X163.576 Y12.435 E.01923
G1 X163.576 Y18.605 E.30969
G1 X163.193 Y18.605 E.01923
G1 X163.193 Y12.435 E.30969
G1 X162.81 Y12.435 E.01923
G1 X162.81 Y18.605 E.30969
G1 X162.427 Y18.605 E.01923
G1 X162.427 Y12.435 E.30969
G1 X162.043 Y12.435 E.01923
G1 X162.043 Y18.605 E.30969
G1 X161.66 Y18.605 E.01923
G1 X161.66 Y12.435 E.30969
G1 X161.277 Y12.435 E.01923
G1 X161.277 Y18.605 E.30969
G1 X160.894 Y18.605 E.01923
G1 X160.894 Y12.435 E.30969
G1 X160.511 Y12.435 E.01923
G1 X160.511 Y18.605 E.30969
G1 X160.127 Y18.605 E.01923
G1 X160.127 Y12.435 E.30969
G1 X159.744 Y12.435 E.01923
G1 X159.744 Y18.605 E.30969
G1 X159.361 Y18.605 E.01923
G1 X159.361 Y12.435 E.30969
G1 X158.978 Y12.435 E.01923
G1 X158.978 Y18.605 E.30969
G1 X158.595 Y18.605 E.01923
G1 X158.595 Y12.435 E.30969
G1 X158.211 Y12.435 E.01923
G1 X158.211 Y18.605 E.30969
G1 X157.828 Y18.605 E.01923
G1 X157.828 Y12.435 E.30969
G1 X157.445 Y12.435 E.01923
G1 X157.445 Y18.605 E.30969
G1 X157.062 Y18.605 E.01923
G1 X157.062 Y12.435 E.30969
G1 X156.679 Y12.435 E.01923
G1 X156.679 Y18.605 E.30969
G1 X156.295 Y18.605 E.01923
G1 X156.295 Y12.435 E.30969
G1 X155.912 Y12.435 E.01923
G1 X155.912 Y18.605 E.30969
G1 X155.529 Y18.605 E.01923
G1 X155.529 Y12.435 E.30969
G1 X155.146 Y12.435 E.01923
G1 X155.146 Y18.605 E.30969
G1 X154.762 Y18.605 E.01923
G1 X154.762 Y12.435 E.30969
G1 X154.379 Y12.435 E.01923
G1 X154.379 Y18.605 E.30969
G1 X153.996 Y18.605 E.01923
G1 X153.996 Y12.435 E.30969
G1 X153.613 Y12.435 E.01923
G1 X153.613 Y18.605 E.30969
G1 X153.23 Y18.605 E.01923
G1 X153.23 Y12.435 E.30969
