; generated by PrusaSlicer 2.5.0+win64 on 2022-12-07 at 00:19:34 UTC

; 

; external perimeters extrusion width = 1.00mm
; perimeters extrusion width = 1.00mm
; infill extrusion width = 1.00mm
; solid infill extrusion width = 1.00mm
; top infill extrusion width = 1.00mm
; support material extrusion width = 1.00mm
; first layer extrusion width = 0.42mm

M73 P0 R618
M107
;TYPE:Custom
G90 ; use absolute coordinates
M83 ; extruder relative mode
M140 S60 ; set final bed temp
M104 S150 ; set temporary nozzle temp to prevent oozing during homing and auto bed leveling
G4 S10 ; allow partial nozzle warmup
G28 ; home all axisG1 Z50 F240
G1 X7.6 Y10 F3000
M104 S210 ; set final nozzle temp
M190 S60 ; wait for bed temp to stabilize
M109 S210 ; wait for nozzle temp to stabilize
G1 Z0.28 F240
G92 E0
G1 Y140 E10 F1500 ; prime the nozzle
G1 X4 F5000
G92 E0
G1 Y10 E10 F1200 ; prime the nozzle
G92 E0
G21 ; set units to millimeters
G90 ; use absolute coordinates
M83 ; use relative distances for extrusion
; Filament gcode
M107
;LAYER_CHANGE
;Z:0.35
;HEIGHT:0.35
;BEFORE_LAYER_CHANGE
G92 E0
;0.35


G1 E-1 F3600
M73 P0 R617
G1 Z.35 F7800
;AFTER_LAYER_CHANGE
;0.35
G1 X117.227 Y14.959
G1 E1 F2400
;TYPE:Support material interface
;WIDTH:1
G1 F1800
G1 X117.227 Y35.717 E2.79368
G1 X118.12 Y35.717 E.12014
G1 X118.12 Y15.361 E2.73961
G1 X119.013 Y15.361 E.12014
G1 X119.013 Y35.717 E2.73961
G1 X119.905 Y35.717 E.12014
G1 X119.905 Y15.361 E2.73961
G1 X120.798 Y15.361 E.12014
G1 X120.798 Y56.073 E5.47922
G1 X121.691 Y56.073 E.12014
G1 X121.691 Y15.361 E5.47922
G1 X122.583 Y15.361 E.12014
G1 X122.583 Y56.073 E5.47922
G1 X123.476 Y56.073 E.12014
G1 X123.476 Y15.361 E5.47922
G1 X124.369 Y15.361 E.12014
G1 X124.369 Y76.429 E8.21883
G1 X125.262 Y76.429 E.12014
G1 X125.262 Y15.361 E8.21883
G1 X126.154 Y15.361 E.12014
G1 X126.154 Y76.831 E8.27289
G1 E-.7 F3600
;WIPE_START
G1 F6240
G1 X126.154 Y76.311 E-.285
;WIPE_END
G1 E-.015 F3600
G1 X127.047 Y21.22 F7800
G1 E1 F2400
G1 F1800
G1 X127.047 Y76.429 E7.43022
G1 X127.32 Y76.429 E.0367
G1 X127.32 Y96.785 E2.73961
G1 X127.94 Y96.785 E.08344
G1 X127.94 Y29.03 E9.11872
G1 X128.832 Y34.394 E.73175
G1 X128.832 Y96.785 E8.39691
G1 X129.725 Y96.785 E.12014
G1 X129.725 Y39.757 E7.67509
G1 X130.618 Y45.12 E.73175
G1 X130.618 Y96.785 E6.95327
G1 X130.712 Y96.785 E.01273
G1 X130.712 Y117.142 E2.73961
G1 X131.51 Y117.142 E.10741
G1 X131.51 Y50.484 E8.97107
G1 X132.403 Y55.847 E.73175
G1 X132.403 Y117.142 E8.24925
G1 X133.296 Y117.142 E.12014
G1 X133.296 Y61.21 E7.52743
G1 X134.189 Y66.574 E.73175
G1 X134.189 Y137.498 E9.54523
G1 X135.081 Y137.498 E.12014
G1 X135.081 Y71.937 E8.82341
G1 X135.974 Y77.3 E.73175
G1 X135.974 Y137.498 E8.10159
G1 X136.867 Y137.498 E.12014
G1 X136.867 Y82.664 E7.37978
G1 X137.759 Y88.027 E.73175
G1 X137.759 Y157.854 E9.39757
G1 X138.652 Y157.854 E.12014
G1 X138.652 Y93.39 E8.67576
G1 X139.545 Y98.754 E.73175
G1 X139.545 Y157.854 E7.95394
G1 X140.437 Y157.854 E.12014
G1 X140.437 Y104.117 E7.23212
G1 X141.33 Y109.48 E.73175
G1 X141.33 Y164.639 E7.42351
G1 X142.223 Y164.639 E.12014
G1 X142.223 Y114.844 E6.70169
G1 X143.116 Y120.207 E.73175
M73 P0 R616
G1 X143.116 Y164.639 E5.97988
G1 X144.008 Y164.639 E.12014
G1 X144.008 Y125.57 E5.25806
G1 X144.901 Y130.934 E.73175
G1 X144.901 Y164.639 E4.53624
G1 X145.794 Y164.639 E.12014
G1 X145.794 Y136.297 E3.81443
G1 X146.686 Y141.66 E.73175
G1 X146.686 Y164.639 E3.09261
G1 X147.579 Y164.639 E.12014
G1 X147.579 Y147.024 E2.3708
G1 X148.472 Y152.387 E.73175
G1 X148.472 Y164.639 E1.64898
G1 X149.364 Y164.639 E.12014
G1 X149.364 Y157.75 E.92716
G1 X150.257 Y163.114 E.73175
G1 X150.257 Y164.639 E.20535
G1 X151.15 Y164.639 E.12014
G1 X151.15 Y164.318 E.0432
G1 X152.043 Y164.321 E.12014
G1 X152.043 Y164.639 E.0428
G1 X152.935 Y164.639 E.12014
G1 X152.935 Y164.321 E.0428
G1 X153.828 Y164.321 E.12014
G1 X153.828 Y164.639 E.0428
G1 X154.721 Y164.639 E.12014
G1 X154.721 Y164.321 E.0428
G1 X155.613 Y164.321 E.12014
G1 X155.613 Y164.639 E.0428
G1 X156.506 Y164.639 E.12014
G1 X156.506 Y164.321 E.04281
G1 X157.399 Y164.321 E.12014
G1 X157.399 Y165.041 E.09687
G1 E-.7 F3600
;WIPE_START
G1 F6240
G1 X157.399 Y164.521 E-.285
;WIPE_END
G1 E-.015 F3600
G1 X171.268 Y167.876 F7800
G1 E1 F2400
;TYPE:Support material
;WIDTH:0.42
G1 F1800
G1 X155.51 Y167.876 E.79082
G1 X155.51 Y165.296 E.12947
G1 X158.51 Y165.296 E.15056
G1 X158.51 Y163.665 E.08185
G1 X156.208 Y163.665 E.11555
G1 X156.048 Y163.535 E.01032
G1 X155.861 Y162.646 E.0456
G1 X155.51 Y162.683 E.01767
G1 X155.51 Y161.085 E.08019
G1 X163.738 Y161.085 E.41289
G1 X163.738 Y70.943 E4.52388
G1 X164.998 Y70.811 E.0636
G1 X165.465 Y73.025 E.11353
G1 X166.737 Y72.892 E.06422
G1 X166.737 Y16.331 E2.83857
G1 X166.322 Y15.915 E.02952
G1 X153.738 Y15.915 E.63152
G1 X153.312 Y16.443 E.03405
G1 X153.844 Y18.915 E.12691
G1 X131.762 Y18.915 E1.10825
G1 X131.762 Y16.335 E.12947
G1 X134.762 Y16.335 E.15056
G1 X134.762 Y14.704 E.08185
G1 X131.762 Y14.704 E.15056
G1 X131.762 Y12.124 E.12947
G1 X171.268 Y12.124 E1.98268
G1 X171.268 Y167.824 E7.81392
G1 X170.857 Y167.72 F7800
G1 F1800
G1 X170.857 Y12.435 E7.79315
G1 X170.474 Y12.435 E.01923
G1 X170.474 Y167.565 E7.78536
G1 X170.091 Y167.565 E.01923
G1 X170.091 Y12.435 E7.78536
G1 X169.708 Y12.435 E.01923
G1 X169.708 Y167.565 E7.78536
G1 X169.324 Y167.565 E.01923
G1 X169.324 Y12.435 E7.78536
G1 X168.941 Y12.435 E.01923
G1 X168.941 Y167.565 E7.78536
G1 X168.558 Y167.565 E.01923
G1 X168.558 Y12.435 E7.78536
G1 X168.175 Y12.435 E.01923
M73 P0 R615
G1 X168.175 Y167.565 E7.78536
G1 X167.792 Y167.565 E.01923
G1 X167.792 Y12.435 E7.78536
G1 X167.408 Y12.435 E.01923
G1 X167.408 Y167.565 E7.78536
G1 X167.025 Y167.565 E.01923
G1 X167.025 Y12.435 E7.78536
G1 X166.642 Y12.435 E.01923
G1 X166.642 Y15.796 E.16871
G1 X166.45 Y15.605 E.01362
G1 X166.259 Y15.605 E.0096
G1 X166.259 Y12.435 E.15908
G1 X165.876 Y12.435 E.01923
G1 X165.876 Y15.605 E.15908
G1 X165.492 Y15.605 E.01923
G1 X165.492 Y12.435 E.15908
G1 X165.109 Y12.435 E.01923
G1 X165.109 Y15.605 E.15908
G1 X164.726 Y15.605 E.01923
G1 X164.726 Y12.435 E.15908
G1 X164.343 Y12.435 E.01923
G1 X164.343 Y15.605 E.15908
G1 X163.96 Y15.605 E.01923
G1 X163.96 Y12.435 E.15908
G1 X163.576 Y12.435 E.01923
G1 X163.576 Y15.605 E.15908
G1 X163.193 Y15.605 E.01923
G1 X163.193 Y12.435 E.15908
G1 X162.81 Y12.435 E.01923
G1 X162.81 Y15.605 E.15908
G1 X162.427 Y15.605 E.01923
G1 X162.427 Y12.435 E.15908
G1 X162.043 Y12.435 E.01923
G1 X162.043 Y15.605 E.15908
G1 X161.66 Y15.605 E.01923
G1 X161.66 Y12.435 E.15908
G1 X161.277 Y12.435 E.01923
G1 X161.277 Y15.605 E.15908
G1 X160.894 Y15.605 E.01923
G1 X160.894 Y12.435 E.15908
G1 X160.511 Y12.435 E.01923
G1 X160.511 Y15.605 E.15908
G1 X160.127 Y15.605 E.01923
G1 X160.127 Y12.435 E.15908
G1 X159.744 Y12.435 E.01923
G1 X159.744 Y15.605 E.15908
G1 X159.361 Y15.605 E.01923
G1 X159.361 Y12.435 E.15908
G1 X158.978 Y12.435 E.01923
G1 X158.978 Y15.605 E.15908
G1 X158.595 Y15.605 E.01923
G1 X158.595 Y12.435 E.15908
G1 X158.211 Y12.435 E.01923
G1 X158.211 Y15.605 E.15908
G1 X157.828 Y15.605 E.01923
G1 X157.828 Y12.435 E.15908
G1 X157.445 Y12.435 E.01923
G1 X157.445 Y15.605 E.15908
G1 X157.062 Y15.605 E.01923
G1 X157.062 Y12.435 E.15908
G1 X156.679 Y12.435 E.01923
G1 X156.679 Y15.605 E.15908
G1 X156.295 Y15.605 E.01923
G1 X156.295 Y12.435 E.15908
G1 X155.912 Y12.435 E.01923
G1 X155.912 Y15.605 E.15908
G1 X155.529 Y15.605 E.01923
G1 X155.529 Y12.435 E.15908
G1 X155.146 Y12.435 E.01923
G1 X155.146 Y15.605 E.15908
G1 X154.762 Y15.605 E.01923
G1 X154.762 Y12.435 E.15908
G1 X154.379 Y12.435 E.01923
G1 X154.379 Y15.605 E.15908
G1 X153.996 Y15.605 E.01923
G1 X153.996 Y12.435 E.15908
G1 X153.613 Y12.435 E.01923
G1 X153.613 Y15.605 E.15908
G1 X153.59 Y15.605 E.00116
G1 X153.23 Y16.05 E.02876
G1 X153.23 Y12.435 E.18146
G1 X152.846 Y12.435 E.01923
G1 X152.846 Y18.604 E.30963
G1 X153.23 Y18.604 E.01923
G1 X153.23 Y16.799 E.09062
G1 E-.7 F3600
;WIPE_START
G1 F6240
G1 X153.23 Y17.319 E-.285
;WIPE_END
G1 E-.015 F3600
G1 X166.642 Y167.72 F7800
G1 E1 F2400
G1 F1800
G1 X166.642 Y73.214 E4.74289
G1 X166.259 Y73.254 E.01934
G1 X166.259 Y167.565 E4.73309
G1 X165.876 Y167.565 E.01923
G1 X165.876 Y73.294 E4.73109
G1 X165.492 Y73.334 E.01934
G1 X165.492 Y167.565 E4.72908
G1 X165.109 Y167.565 E.01923
G1 X165.109 Y72.843 E4.75374
G1 X164.752 Y71.149 E.08687
G1 X164.726 Y71.152 E.00132
G1 X164.726 Y167.565 E4.8386
G1 X164.343 Y167.565 E.01923
G1 X164.343 Y71.192 E4.83659
G1 X164.048 Y71.222 E.01487
G1 X164.048 Y161.396 E4.52542
G1 X163.96 Y161.396 E.00444
G1 X163.96 Y167.565 E.30963
G1 X163.576 Y167.565 E.01923
G1 X163.576 Y161.396 E.30963
G1 X163.193 Y161.396 E.01923
G1 X163.193 Y167.565 E.30963
G1 X162.81 Y167.565 E.01923
G1 X162.81 Y161.396 E.30963
G1 X162.427 Y161.396 E.01923
G1 X162.427 Y167.565 E.30963
G1 X162.043 Y167.565 E.01923
G1 X162.043 Y161.396 E.30963
G1 X161.66 Y161.396 E.01923
G1 X161.66 Y167.565 E.30963
G1 X161.277 Y167.565 E.01923
G1 X161.277 Y161.396 E.30963
G1 X160.894 Y161.396 E.01923
G1 X160.894 Y167.565 E.30963
G1 X160.511 Y167.565 E.01923
G1 X160.511 Y161.396 E.30963
G1 X160.127 Y161.396 E.01923
G1 X160.127 Y167.565 E.30963
G1 X159.744 Y167.565 E.01923
M73 P0 R614
G1 X159.744 Y161.396 E.30963
G1 X159.361 Y161.396 E.01923
G1 X159.361 Y167.565 E.30963
G1 X158.978 Y167.565 E.01923
G1 X158.978 Y161.396 E.30963
G1 X158.595 Y161.396 E.01923
G1 X158.595 Y163.355 E.09831
G1 X158.211 Y163.355 E.01923
G1 X158.211 Y161.396 E.09831
G1 X157.828 Y161.396 E.01923
G1 X157.828 Y163.355 E.09831
G1 X157.445 Y163.355 E.01923
G1 X157.445 Y161.396 E.09831
G1 X157.062 Y161.396 E.01923
G1 X157.062 Y163.355 E.09831
G1 X156.679 Y163.355 E.01923
G1 X156.679 Y161.396 E.09831
G1 X156.295 Y161.396 E.01923
G1 X156.295 Y163.202 E.09068
G1 X156.107 Y162.309 E.04584
G1 X155.912 Y162.329 E.00981
G1 X155.912 Y161.24 E.05463
G1 E-.7 F3600
;WIPE_START
G1 F6240
G1 X155.912 Y161.76 E-.285
;WIPE_END
G1 E-.015 F3600
G1 X158.595 Y167.72 F7800
G1 E1 F2400
G1 F1800
G1 X158.595 Y165.606 E.1061
G1 X158.211 Y165.606 E.01923
G1 X158.211 Y167.565 E.09831
G1 X157.828 Y167.565 E.01923
G1 X157.828 Y165.606 E.09831
G1 X157.445 Y165.606 E.01923
G1 X157.445 Y167.565 E.09831
G1 X157.062 Y167.565 E.01923
G1 X157.062 Y165.606 E.09831
G1 X156.679 Y165.606 E.01923
G1 X156.679 Y167.565 E.09831
G1 X156.295 Y167.565 E.01923
G1 X156.295 Y165.606 E.09831
G1 X155.912 Y165.606 E.01923
G1 X155.912 Y167.72 E.1061
G1 E-.7 F3600
;WIPE_START
G1 F6240
G1 X155.912 Y167.2 E-.285
;WIPE_END
G1 E-.015 F3600
G1 X152.463 Y18.76 F7800
G1 E1 F2400
G1 F1800
G1 X152.463 Y12.435 E.31742
G1 X152.08 Y12.435 E.01923
G1 X152.08 Y18.604 E.30963
G1 X151.697 Y18.604 E.01923
G1 X151.697 Y12.435 E.30963
G1 X151.314 Y12.435 E.01923
G1 X151.314 Y18.604 E.30963
G1 X150.93 Y18.604 E.01923
G1 X150.93 Y12.435 E.30963
G1 X150.547 Y12.435 E.01923
G1 X150.547 Y18.604 E.30963
G1 X150.164 Y18.604 E.01923
G1 X150.164 Y12.435 E.30963
G1 X149.781 Y12.435 E.01923
G1 X149.781 Y18.604 E.30963
G1 X149.398 Y18.604 E.01923
G1 X149.398 Y12.435 E.30963
G1 X149.014 Y12.435 E.01923
G1 X149.014 Y18.604 E.30963
G1 X148.631 Y18.604 E.01923
G1 X148.631 Y12.435 E.30963
G1 X148.248 Y12.435 E.01923
G1 X148.248 Y18.604 E.30963
G1 X147.865 Y18.604 E.01923
G1 X147.865 Y12.435 E.30963
G1 X147.482 Y12.435 E.01923
G1 X147.482 Y18.604 E.30963
G1 X147.098 Y18.604 E.01923
G1 X147.098 Y12.435 E.30963
G1 X146.715 Y12.435 E.01923
G1 X146.715 Y18.604 E.30963
G1 X146.332 Y18.604 E.01923
G1 X146.332 Y12.435 E.30963
G1 X145.949 Y12.435 E.01923
G1 X145.949 Y18.604 E.30963
G1 X145.565 Y18.604 E.01923
G1 X145.565 Y12.435 E.30963
G1 X145.182 Y12.435 E.01923
G1 X145.182 Y18.604 E.30963
G1 X144.799 Y18.604 E.01923
G1 X144.799 Y12.435 E.30963
G1 X144.416 Y12.435 E.01923
G1 X144.416 Y18.604 E.30963
G1 X144.033 Y18.604 E.01923
G1 X144.033 Y12.435 E.30963
G1 X143.649 Y12.435 E.01923
G1 X143.649 Y18.604 E.30963
G1 X143.266 Y18.604 E.01923
G1 X143.266 Y12.435 E.30963
G1 X142.883 Y12.435 E.01923
G1 X142.883 Y18.604 E.30963
G1 X142.5 Y18.604 E.01923
G1 X142.5 Y12.435 E.30963
G1 X142.117 Y12.435 E.01923
G1 X142.117 Y18.604 E.30963
G1 X141.733 Y18.604 E.01923
G1 X141.733 Y12.435 E.30963
G1 X141.35 Y12.435 E.01923
G1 X141.35 Y18.604 E.30963
G1 X140.967 Y18.604 E.01923
G1 X140.967 Y12.435 E.30963
G1 X140.584 Y12.435 E.01923
G1 X140.584 Y18.604 E.30963
G1 X140.201 Y18.604 E.01923
G1 X140.201 Y12.435 E.30963
G1 X139.817 Y12.435 E.01923
G1 X139.817 Y18.604 E.30963
G1 X139.434 Y18.604 E.01923
G1 X139.434 Y12.435 E.30963
G1 X139.051 Y12.435 E.01923
G1 X139.051 Y18.604 E.30963
G1 X138.668 Y18.604 E.01923
G1 X138.668 Y12.435 E.30963
G1 X138.284 Y12.435 E.01923
G1 X138.284 Y18.604 E.30963
G1 X137.901 Y18.604 E.01923
G1 X137.901 Y12.435 E.30963
G1 X137.518 Y12.435 E.01923
G1 X137.518 Y18.604 E.30963
G1 X137.135 Y18.604 E.01923
G1 X137.135 Y12.435 E.30963
G1 X136.752 Y12.435 E.01923
G1 X136.752 Y18.604 E.30963
G1 X136.368 Y18.604 E.01923
G1 X136.368 Y12.435 E.30963
G1 X135.985 Y12.435 E.01923
G1 X135.985 Y18.604 E.30963
G1 X135.602 Y18.604 E.01923
G1 X135.602 Y12.435 E.30963
G1 X135.219 Y12.435 E.01923
G1 X135.219 Y18.604 E.30963
G1 X134.836 Y18.604 E.01923
G1 X134.836 Y16.645 E.09831
G1 X134.452 Y16.645 E.01923
G1 X134.452 Y18.604 E.09831
G1 X134.069 Y18.604 E.01923
G1 X134.069 Y16.645 E.09831
G1 X133.686 Y16.645 E.01923
G1 X133.686 Y18.604 E.09831
G1 X133.303 Y18.604 E.01923
G1 X133.303 Y16.645 E.09831
G1 X132.92 Y16.645 E.01923
G1 X132.92 Y18.604 E.09831
G1 X132.536 Y18.604 E.01923
G1 X132.536 Y16.645 E.09831
G1 X132.153 Y16.645 E.01923
G1 X132.153 Y18.76 E.1061
G1 E-.7 F3600
;WIPE_START
G1 F6240
G1 X132.153 Y18.24 E-.285
;WIPE_END
G1 E-.015 F3600
G1 X134.836 Y14.549 F7800
G1 E1 F2400
G1 F1800
G1 X134.836 Y12.435 E.1061
G1 X134.452 Y12.435 E.01923
G1 X134.452 Y14.394 E.09831
G1 X134.069 Y14.394 E.01923
G1 X134.069 Y12.435 E.09831
G1 X133.686 Y12.435 E.01923
G1 X133.686 Y14.394 E.09831
G1 X133.303 Y14.394 E.01923
G1 X133.303 Y12.435 E.09831
G1 X132.92 Y12.435 E.01923
G1 X132.92 Y14.394 E.09831
G1 X132.536 Y14.394 E.01923
G1 X132.536 Y12.435 E.09831
G1 X132.153 Y12.435 E.01923
G1 X132.153 Y14.549 E.1061
G1 X133.296 Y16.08 F7800
;TYPE:Support material interface
;WIDTH:1
G1 F1800
G1 X133.296 Y15.361 E.09687
G1 X132.403 Y15.361 E.12014
G1 X132.403 Y15.679 E.0428
G1 X131.51 Y15.679 E.12014
G1 X131.51 Y15.361 E.0428
G1 X130.618 Y15.361 E.12014
G1 X130.618 Y15.679 E.0428
G1 X129.725 Y15.679 E.12014
G1 X129.725 Y15.361 E.0428
G1 X128.832 Y15.361 E.12014
G1 X128.832 Y15.679 E.0428
G1 X127.94 Y15.679 E.12014
G1 X127.94 Y15.361 E.0428
G1 X127.047 Y15.361 E.12014
G1 X127.047 Y16.08 E.09687
G1 E-.7 F3600
;WIPE_START
G1 F6240
G1 X127.047 Y15.56 E-.285
;WIPE_END
G1 E-.015 F3600
G1 X119.485 Y14.704 F7800
G1 E1 F2400
;TYPE:Support material
;WIDTH:0.42
G1 F1800
G1 X116.485 Y14.704 E.15056
G1 X116.485 Y36.373 E1.08748
G1 X119.878 Y36.373 E.17027
G1 X119.878 Y56.729 E1.02159
G1 X123.271 Y56.729 E.17027
G1 X123.271 Y77.086 E1.02159
G1 X126.663 Y77.086 E.17027
G1 X126.663 Y97.442 E1.02159
G1 X130.056 Y97.442 E.17027
G1 X130.056 Y117.798 E1.02159
G1 X133.449 Y117.798 E.17027
G1 X133.449 Y138.154 E1.02159
G1 X136.841 Y138.154 E.17027
G1 X136.841 Y158.51 E1.02159
G1 X140.234 Y158.51 E.17027
G1 X140.234 Y165.296 E.34053
G1 X143.234 Y165.296 E.15056
G1 X143.234 Y167.876 E.12947
G1 X8.732 Y167.876 E6.75012
G1 X8.732 Y12.124 E7.81652
G1 X119.485 Y12.124 E5.55826
G1 X119.485 Y14.652 E.12687
G1 E-.7 F3600
;WIPE_START
G1 F6240
G1 X119.485 Y14.132 E-.285
;WIPE_END
G1 E-.015 F3600
G1 X103.414 Y25.382 F7800
G1 E1 F2400
G1 F1800
G1 X103.414 Y39.266 E.69677
G1 X106.807 Y39.266 E.17027
G1 X106.807 Y93.549 E2.72425
G1 X110.2 Y93.549 E.17027
G1 X110.2 Y151.225 E2.89452
G1 X113.592 Y151.225 E.17027
G1 X113.592 Y154.618 E.17027
G1 X130.869 Y154.618 E.86703
G1 X130.869 Y147.519 E.35623
G1 X127.476 Y147.519 E.17027
G1 X127.476 Y127.163 E1.02159
G1 X124.083 Y127.163 E.17027
G1 X124.083 Y106.807 E1.02159
G1 X120.691 Y106.807 E.17027
G1 X120.691 Y86.451 E1.02159
G1 X117.298 Y86.451 E.17027
G1 X117.298 Y66.095 E1.02159
G1 X113.905 Y66.095 E.17027
G1 X113.905 Y45.738 E1.02159
G1 X110.513 Y45.738 E.17027
G1 X110.513 Y25.382 E1.02159
