; generated by PrusaSlicer 2.5.0+win64 on 2022-12-07 at 00:20:00 UTC

; 

; external perimeters extrusion width = 1.00mm
; perimeters extrusion width = 1.00mm
; infill extrusion width = 1.00mm
; solid infill extrusion width = 1.00mm
; top infill extrusion width = 1.00mm
; support material extrusion width = 1.00mm
; first layer extrusion width = 0.42mm

M73 P0 R383
M107
;TYPE:Custom
G90 ; use absolute coordinates
M83 ; extruder relative mode
M140 S60 ; set final bed temp
M104 S150 ; set temporary nozzle temp to prevent oozing during homing and auto bed leveling
G4 S10 ; allow partial nozzle warmup
G28 ; home all axisG1 Z50 F240
G1 X7.6 Y10 F3000
M104 S210 ; set final nozzle temp
M190 S60 ; wait for bed temp to stabilize
M109 S210 ; wait for nozzle temp to stabilize
G1 Z0.28 F240
G92 E0
G1 Y140 E10 F1500 ; prime the nozzle
G1 X4 F5000
G92 E0
G1 Y10 E10 F1200 ; prime the nozzle
G92 E0
G21 ; set units to millimeters
G90 ; use absolute coordinates
M83 ; use relative distances for extrusion
; Filament gcode
M107
;LAYER_CHANGE
;Z:0.35
;HEIGHT:0.35
;BEFORE_LAYER_CHANGE
G92 E0
;0.35


G1 E-1 F3600
G1 Z.35 F7800
;AFTER_LAYER_CHANGE
;0.35
G1 X56.524 Y36.059
G1 E1 F2400
;TYPE:Support material interface
;WIDTH:1
G1 F1800
G1 X56.524 Y33.717 E.31525
G1 X57.064 Y33.66 E.07307
G1 X56.991 Y32.265 E.18806
G1 X57.416 Y32.265 E.05729
G1 X57.416 Y35.657 E.45661
G1 X58.309 Y35.657 E.12014
G1 X58.309 Y32.265 E.45661
G1 X59.202 Y32.265 E.12014
G1 X59.202 Y36.059 E.51067
G1 E-.7 F3600
;WIPE_START
G1 F6240
G1 X59.202 Y35.539 E-.285
;WIPE_END
G1 E-.015 F3600
G1 X171.268 Y38.894 F7800
G1 E1 F2400
;TYPE:Support material
;WIDTH:0.42
G1 F1800
G1 X166.74 Y38.894 E.22726
G1 X166.74 Y36.623 E.11395
G1 X166.27 Y36.2 E.03174
G1 X140.741 Y38.894 E1.28831
G1 X57.122 Y38.894 E4.19649
G1 X57.122 Y36.314 E.12947
G1 X60.122 Y36.314 E.15056
G1 X60.122 Y31.608 E.23616
G1 X57.122 Y31.608 E.15056
G1 X57.122 Y29.028 E.12947
G1 X171.268 Y29.028 E5.72853
G1 X171.268 Y38.842 E.4925
G1 X170.857 Y38.738 F7800
G1 F1800
G1 X170.857 Y29.339 E.47173
G1 X170.474 Y29.339 E.01923
G1 X170.474 Y38.583 E.46394
G1 X170.091 Y38.583 E.01923
G1 X170.091 Y29.339 E.46394
G1 X169.708 Y29.339 E.01923
G1 X169.708 Y38.583 E.46394
G1 X169.325 Y38.583 E.01923
G1 X169.325 Y29.339 E.46394
G1 X168.941 Y29.339 E.01923
G1 X168.941 Y38.583 E.46394
G1 X168.558 Y38.583 E.01923
G1 X168.558 Y29.339 E.46394
G1 X168.175 Y29.339 E.01923
G1 X168.175 Y38.583 E.46394
G1 X167.792 Y38.583 E.01923
G1 X167.792 Y29.339 E.46394
G1 X167.408 Y29.339 E.01923
G1 X167.408 Y38.583 E.46394
G1 X167.05 Y38.583 E.01797
G1 X167.05 Y36.485 E.10531
G1 X167.025 Y36.462 E.0017
G1 X167.025 Y29.339 E.35749
G1 X166.642 Y29.339 E.01923
G1 X166.642 Y36.117 E.34018
G1 X166.375 Y35.877 E.01804
G1 X166.259 Y35.889 E.00586
G1 X166.259 Y29.339 E.32873
G1 X165.876 Y29.339 E.01923
G1 X165.876 Y35.929 E.33076
G1 X165.492 Y35.97 E.01934
G1 X165.492 Y29.339 E.33279
G1 X165.109 Y29.339 E.01923
G1 X165.109 Y36.01 E.33481
G1 X164.726 Y36.051 E.01934
G1 X164.726 Y29.339 E.33684
G1 X164.343 Y29.339 E.01923
G1 X164.343 Y36.091 E.33887
G1 X163.96 Y36.132 E.01934
G1 X163.96 Y29.339 E.3409
G1 X163.576 Y29.339 E.01923
G1 X163.576 Y36.172 E.34293
G1 X163.193 Y36.212 E.01934
G1 X163.193 Y29.339 E.34496
G1 X162.81 Y29.339 E.01923
G1 X162.81 Y36.253 E.34699
G1 X162.427 Y36.293 E.01934
G1 X162.427 Y29.339 E.34902
G1 X162.044 Y29.339 E.01923
G1 X162.044 Y36.334 E.35105
G1 X161.66 Y36.374 E.01934
G1 X161.66 Y29.339 E.35308
G1 X161.277 Y29.339 E.01923
G1 X161.277 Y36.415 E.35511
G1 X160.894 Y36.455 E.01934
G1 X160.894 Y29.339 E.35714
G1 X160.511 Y29.339 E.01923
G1 X160.511 Y36.495 E.35917
G1 X160.127 Y36.536 E.01934
G1 X160.127 Y29.339 E.36119
G1 X159.744 Y29.339 E.01923
G1 X159.744 Y36.576 E.36322
G1 X159.361 Y36.617 E.01934
G1 X159.361 Y29.339 E.36525
G1 X158.978 Y29.339 E.01923
G1 X158.978 Y36.657 E.36728
G1 X158.595 Y36.698 E.01934
G1 X158.595 Y29.339 E.36931
G1 X158.211 Y29.339 E.01923
G1 X158.211 Y36.738 E.37134
G1 X157.828 Y36.778 E.01934
G1 X157.828 Y29.339 E.37337
G1 X157.445 Y29.339 E.01923
G1 X157.445 Y36.819 E.3754
G1 X157.062 Y36.859 E.01934
G1 X157.062 Y29.339 E.37743
G1 X156.679 Y29.339 E.01923
G1 X156.679 Y36.9 E.37946
G1 X156.295 Y36.94 E.01934
G1 X156.295 Y29.339 E.38149
G1 X155.912 Y29.339 E.01923
G1 X155.912 Y36.981 E.38352
G1 X155.529 Y37.021 E.01934
G1 X155.529 Y29.339 E.38555
G1 X155.146 Y29.339 E.01923
G1 X155.146 Y37.061 E.38757
G1 X154.763 Y37.102 E.01934
G1 X154.763 Y29.339 E.3896
G1 X154.379 Y29.339 E.01923
G1 X154.379 Y37.142 E.39163
G1 X153.996 Y37.183 E.01934
G1 X153.996 Y29.339 E.39366
G1 X153.613 Y29.339 E.01923
G1 X153.613 Y37.223 E.39569
G1 X153.23 Y37.264 E.01934
G1 X153.23 Y29.339 E.39772
G1 X152.846 Y29.339 E.01923
G1 X152.846 Y37.304 E.39975
G1 X152.463 Y37.345 E.01934
G1 X152.463 Y29.339 E.40178
G1 X152.08 Y29.339 E.01923
G1 X152.08 Y37.385 E.40381
G1 X151.697 Y37.425 E.01934
G1 X151.697 Y29.339 E.40584
G1 X151.314 Y29.339 E.01923
M73 P0 R382
G1 X151.314 Y37.466 E.40787
G1 X150.93 Y37.506 E.01934
G1 X150.93 Y29.339 E.4099
G1 X150.547 Y29.339 E.01923
G1 X150.547 Y37.547 E.41193
G1 X150.164 Y37.587 E.01934
G1 X150.164 Y29.339 E.41395
G1 X149.781 Y29.339 E.01923
G1 X149.781 Y37.628 E.41598
G1 X149.398 Y37.668 E.01934
G1 X149.398 Y29.339 E.41801
G1 X149.014 Y29.339 E.01923
G1 X149.014 Y37.708 E.42004
G1 X148.631 Y37.749 E.01934
G1 X148.631 Y29.339 E.42207
G1 X148.248 Y29.339 E.01923
G1 X148.248 Y37.789 E.4241
G1 X147.865 Y37.83 E.01934
G1 X147.865 Y29.339 E.42613
G1 X147.482 Y29.339 E.01923
G1 X147.482 Y37.87 E.42816
G1 X147.098 Y37.911 E.01934
G1 X147.098 Y29.339 E.43019
G1 X146.715 Y29.339 E.01923
G1 X146.715 Y37.951 E.43222
G1 X146.332 Y37.991 E.01934
G1 X146.332 Y29.339 E.43425
G1 X145.949 Y29.339 E.01923
G1 X145.949 Y38.032 E.43628
G1 X145.565 Y38.072 E.01934
G1 X145.565 Y29.339 E.43831
G1 X145.182 Y29.339 E.01923
G1 X145.182 Y38.113 E.44033
G1 X144.799 Y38.153 E.01934
G1 X144.799 Y29.339 E.44236
G1 X144.416 Y29.339 E.01923
G1 X144.416 Y38.194 E.44439
G1 X144.033 Y38.234 E.01934
G1 X144.033 Y29.339 E.44642
G1 X143.649 Y29.339 E.01923
G1 X143.649 Y38.275 E.44845
G1 X143.266 Y38.315 E.01934
G1 X143.266 Y29.339 E.45048
G1 X142.883 Y29.339 E.01923
G1 X142.883 Y38.355 E.45251
G1 X142.5 Y38.396 E.01934
G1 X142.5 Y29.339 E.45454
G1 X142.117 Y29.339 E.01923
G1 X142.117 Y38.436 E.45657
G1 X141.733 Y38.477 E.01934
G1 X141.733 Y29.339 E.4586
G1 X141.35 Y29.339 E.01923
G1 X141.35 Y38.517 E.46063
G1 X140.967 Y38.558 E.01934
G1 X140.967 Y29.339 E.46266
G1 X140.584 Y29.339 E.01923
G1 X140.584 Y38.583 E.46394
G1 X140.201 Y38.583 E.01923
G1 X140.201 Y29.339 E.46394
G1 X139.817 Y29.339 E.01923
G1 X139.817 Y38.583 E.46394
G1 X139.434 Y38.583 E.01923
G1 X139.434 Y29.339 E.46394
G1 X139.051 Y29.339 E.01923
G1 X139.051 Y38.583 E.46394
G1 X138.668 Y38.583 E.01923
G1 X138.668 Y29.339 E.46394
G1 X138.285 Y29.339 E.01923
G1 X138.285 Y38.583 E.46394
G1 X137.901 Y38.583 E.01923
G1 X137.901 Y29.339 E.46394
G1 X137.518 Y29.339 E.01923
G1 X137.518 Y38.583 E.46394
G1 X137.135 Y38.583 E.01923
G1 X137.135 Y29.339 E.46394
G1 X136.752 Y29.339 E.01923
G1 X136.752 Y38.583 E.46394
G1 X136.368 Y38.583 E.01923
G1 X136.368 Y29.339 E.46394
G1 X135.985 Y29.339 E.01923
G1 X135.985 Y38.583 E.46394
G1 X135.602 Y38.583 E.01923
G1 X135.602 Y29.339 E.46394
G1 X135.219 Y29.339 E.01923
G1 X135.219 Y38.583 E.46394
G1 X134.836 Y38.583 E.01923
G1 X134.836 Y29.339 E.46394
G1 X134.452 Y29.339 E.01923
G1 X134.452 Y38.583 E.46394
G1 X134.069 Y38.583 E.01923
G1 X134.069 Y29.339 E.46394
G1 X133.686 Y29.339 E.01923
G1 X133.686 Y38.583 E.46394
G1 X133.303 Y38.583 E.01923
G1 X133.303 Y29.339 E.46394
G1 X132.92 Y29.339 E.01923
G1 X132.92 Y38.583 E.46394
G1 X132.536 Y38.583 E.01923
G1 X132.536 Y29.339 E.46394
G1 X132.153 Y29.339 E.01923
G1 X132.153 Y38.583 E.46394
G1 X131.77 Y38.583 E.01923
G1 X131.77 Y29.339 E.46394
G1 X131.387 Y29.339 E.01923
G1 X131.387 Y38.583 E.46394
G1 X131.004 Y38.583 E.01923
G1 X131.004 Y29.339 E.46394
G1 X130.62 Y29.339 E.01923
G1 X130.62 Y38.583 E.46394
G1 X130.237 Y38.583 E.01923
G1 X130.237 Y29.339 E.46394
G1 X129.854 Y29.339 E.01923
G1 X129.854 Y38.583 E.46394
G1 X129.471 Y38.583 E.01923
G1 X129.471 Y29.339 E.46394
G1 X129.087 Y29.339 E.01923
G1 X129.087 Y38.583 E.46394
G1 X128.704 Y38.583 E.01923
G1 X128.704 Y29.339 E.46394
G1 X128.321 Y29.339 E.01923
G1 X128.321 Y38.583 E.46394
G1 X127.938 Y38.583 E.01923
G1 X127.938 Y29.339 E.46394
G1 X127.555 Y29.339 E.01923
G1 X127.555 Y38.583 E.46394
G1 X127.171 Y38.583 E.01923
G1 X127.171 Y29.339 E.46394
G1 X126.788 Y29.339 E.01923
G1 X126.788 Y38.583 E.46394
G1 X126.405 Y38.583 E.01923
G1 X126.405 Y29.339 E.46394
G1 X126.022 Y29.339 E.01923
G1 X126.022 Y38.583 E.46394
G1 X125.639 Y38.583 E.01923
G1 X125.639 Y29.339 E.46394
G1 X125.255 Y29.339 E.01923
G1 X125.255 Y38.583 E.46394
G1 X124.872 Y38.583 E.01923
G1 X124.872 Y29.339 E.46394
G1 X124.489 Y29.339 E.01923
G1 X124.489 Y38.583 E.46394
G1 X124.106 Y38.583 E.01923
G1 X124.106 Y29.339 E.46394
G1 X123.723 Y29.339 E.01923
G1 X123.723 Y38.583 E.46394
G1 X123.339 Y38.583 E.01923
G1 X123.339 Y29.339 E.46394
G1 X122.956 Y29.339 E.01923
G1 X122.956 Y38.583 E.46394
G1 X122.573 Y38.583 E.01923
G1 X122.573 Y29.339 E.46394
G1 X122.19 Y29.339 E.01923
G1 X122.19 Y38.583 E.46394
G1 X121.806 Y38.583 E.01923
G1 X121.806 Y29.339 E.46394
G1 X121.423 Y29.339 E.01923
G1 X121.423 Y38.583 E.46394
G1 X121.04 Y38.583 E.01923
G1 X121.04 Y29.339 E.46394
G1 X120.657 Y29.339 E.01923
G1 X120.657 Y38.583 E.46394
G1 X120.274 Y38.583 E.01923
G1 X120.274 Y29.339 E.46394
G1 X119.89 Y29.339 E.01923
G1 X119.89 Y38.583 E.46394
G1 X119.507 Y38.583 E.01923
G1 X119.507 Y29.339 E.46394
G1 X119.124 Y29.339 E.01923
G1 X119.124 Y38.583 E.46394
G1 X118.741 Y38.583 E.01923
G1 X118.741 Y29.339 E.46394
G1 X118.358 Y29.339 E.01923
G1 X118.358 Y38.583 E.46394
G1 X117.974 Y38.583 E.01923
G1 X117.974 Y29.339 E.46394
G1 X117.591 Y29.339 E.01923
G1 X117.591 Y38.583 E.46394
G1 X117.208 Y38.583 E.01923
G1 X117.208 Y29.339 E.46394
G1 X116.825 Y29.339 E.01923
G1 X116.825 Y38.583 E.46394
G1 X116.442 Y38.583 E.01923
G1 X116.442 Y29.339 E.46394
G1 X116.058 Y29.339 E.01923
G1 X116.058 Y38.583 E.46394
G1 X115.675 Y38.583 E.01923
G1 X115.675 Y29.339 E.46394
G1 X115.292 Y29.339 E.01923
G1 X115.292 Y38.583 E.46394
G1 X114.909 Y38.583 E.01923
G1 X114.909 Y29.339 E.46394
G1 X114.525 Y29.339 E.01923
G1 X114.525 Y38.583 E.46394
G1 X114.142 Y38.583 E.01923
G1 X114.142 Y29.339 E.46394
G1 X113.759 Y29.339 E.01923
G1 X113.759 Y38.583 E.46394
G1 X113.376 Y38.583 E.01923
G1 X113.376 Y29.339 E.46394
G1 X112.993 Y29.339 E.01923
G1 X112.993 Y38.583 E.46394
G1 X112.609 Y38.583 E.01923
G1 X112.609 Y29.339 E.46394
G1 X112.226 Y29.339 E.01923
G1 X112.226 Y38.583 E.46394
G1 X111.843 Y38.583 E.01923
G1 X111.843 Y29.339 E.46394
G1 X111.46 Y29.339 E.01923
G1 X111.46 Y38.583 E.46394
G1 X111.077 Y38.583 E.01923
G1 X111.077 Y29.339 E.46394
G1 X110.693 Y29.339 E.01923
G1 X110.693 Y38.583 E.46394
G1 X110.31 Y38.583 E.01923
G1 X110.31 Y29.339 E.46394
G1 X109.927 Y29.339 E.01923
G1 X109.927 Y38.583 E.46394
G1 X109.544 Y38.583 E.01923
G1 X109.544 Y29.339 E.46394
G1 X109.161 Y29.339 E.01923
G1 X109.161 Y38.583 E.46394
G1 X108.777 Y38.583 E.01923
G1 X108.777 Y29.339 E.46394
G1 X108.394 Y29.339 E.01923
G1 X108.394 Y38.583 E.46394
G1 X108.011 Y38.583 E.01923
G1 X108.011 Y29.339 E.46394
G1 X107.628 Y29.339 E.01923
G1 X107.628 Y38.583 E.46394
G1 X107.244 Y38.583 E.01923
G1 X107.244 Y29.339 E.46394
G1 X106.861 Y29.339 E.01923
G1 X106.861 Y38.583 E.46394
G1 X106.478 Y38.583 E.01923
G1 X106.478 Y29.339 E.46394
G1 X106.095 Y29.339 E.01923
G1 X106.095 Y38.583 E.46394
G1 X105.712 Y38.583 E.01923
G1 X105.712 Y29.339 E.46394
G1 X105.328 Y29.339 E.01923
G1 X105.328 Y38.583 E.46394
G1 X104.945 Y38.583 E.01923
G1 X104.945 Y29.339 E.46394
G1 X104.562 Y29.339 E.01923
G1 X104.562 Y38.583 E.46394
G1 X104.179 Y38.583 E.01923
G1 X104.179 Y29.339 E.46394
G1 X103.796 Y29.339 E.01923
G1 X103.796 Y38.583 E.46394
G1 X103.412 Y38.583 E.01923
G1 X103.412 Y29.339 E.46394
G1 X103.029 Y29.339 E.01923
G1 X103.029 Y38.583 E.46394
G1 X102.646 Y38.583 E.01923
G1 X102.646 Y29.339 E.46394
G1 X102.263 Y29.339 E.01923
G1 X102.263 Y38.583 E.46394
G1 X101.88 Y38.583 E.01923
G1 X101.88 Y29.339 E.46394
G1 X101.496 Y29.339 E.01923
G1 X101.496 Y38.583 E.46394
G1 X101.113 Y38.583 E.01923
G1 X101.113 Y29.339 E.46394
G1 X100.73 Y29.339 E.01923
G1 X100.73 Y38.583 E.46394
G1 X100.347 Y38.583 E.01923
G1 X100.347 Y29.339 E.46394
G1 X99.964 Y29.339 E.01923
G1 X99.964 Y38.583 E.46394
G1 X99.58 Y38.583 E.01923
G1 X99.58 Y29.339 E.46394
G1 X99.197 Y29.339 E.01923
G1 X99.197 Y38.583 E.46394
G1 X98.814 Y38.583 E.01923
G1 X98.814 Y29.339 E.46394
G1 X98.431 Y29.339 E.01923
G1 X98.431 Y38.583 E.46394
G1 X98.047 Y38.583 E.01923
G1 X98.047 Y29.339 E.46394
G1 X97.664 Y29.339 E.01923
G1 X97.664 Y38.583 E.46394
G1 X97.281 Y38.583 E.01923
G1 X97.281 Y29.339 E.46394
G1 X96.898 Y29.339 E.01923
G1 X96.898 Y38.583 E.46394
G1 X96.515 Y38.583 E.01923
G1 X96.515 Y29.339 E.46394
G1 X96.131 Y29.339 E.01923
G1 X96.131 Y38.583 E.46394
G1 X95.748 Y38.583 E.01923
G1 X95.748 Y29.339 E.46394
G1 X95.365 Y29.339 E.01923
G1 X95.365 Y38.583 E.46394
G1 X94.982 Y38.583 E.01923
G1 X94.982 Y29.339 E.46394
G1 X94.599 Y29.339 E.01923
G1 X94.599 Y38.583 E.46394
G1 X94.215 Y38.583 E.01923
G1 X94.215 Y29.339 E.46394
G1 X93.832 Y29.339 E.01923
G1 X93.832 Y38.583 E.46394
G1 X93.449 Y38.583 E.01923
G1 X93.449 Y29.339 E.46394
G1 X93.066 Y29.339 E.01923
G1 X93.066 Y38.583 E.46394
G1 X92.683 Y38.583 E.01923
G1 X92.683 Y29.339 E.46394
G1 X92.299 Y29.339 E.01923
G1 X92.299 Y38.583 E.46394
G1 X91.916 Y38.583 E.01923
G1 X91.916 Y29.339 E.46394
G1 X91.533 Y29.339 E.01923
G1 X91.533 Y38.583 E.46394
G1 X91.15 Y38.583 E.01923
G1 X91.15 Y29.339 E.46394
G1 X90.766 Y29.339 E.01923
G1 X90.766 Y38.583 E.46394
G1 X90.383 Y38.583 E.01923
G1 X90.383 Y29.339 E.46394
G1 X90 Y29.339 E.01923
G1 X90 Y38.583 E.46394
G1 X89.617 Y38.583 E.01923
G1 X89.617 Y29.339 E.46394
G1 X89.234 Y29.339 E.01923
G1 X89.234 Y38.583 E.46394
G1 X88.85 Y38.583 E.01923
M73 P0 R381
G1 X88.85 Y29.339 E.46394
G1 X88.467 Y29.339 E.01923
G1 X88.467 Y38.583 E.46394
G1 X88.084 Y38.583 E.01923
G1 X88.084 Y29.339 E.46394
G1 X87.701 Y29.339 E.01923
G1 X87.701 Y38.583 E.46394
G1 X87.318 Y38.583 E.01923
G1 X87.318 Y29.339 E.46394
G1 X86.934 Y29.339 E.01923
G1 X86.934 Y38.583 E.46394
G1 X86.551 Y38.583 E.01923
G1 X86.551 Y29.339 E.46394
G1 X86.168 Y29.339 E.01923
G1 X86.168 Y38.583 E.46394
G1 X85.785 Y38.583 E.01923
G1 X85.785 Y29.339 E.46394
G1 X85.402 Y29.339 E.01923
G1 X85.402 Y38.583 E.46394
G1 X85.018 Y38.583 E.01923
G1 X85.018 Y29.339 E.46394
G1 X84.635 Y29.339 E.01923
G1 X84.635 Y38.583 E.46394
G1 X84.252 Y38.583 E.01923
G1 X84.252 Y29.339 E.46394
G1 X83.869 Y29.339 E.01923
G1 X83.869 Y38.583 E.46394
G1 X83.485 Y38.583 E.01923
G1 X83.485 Y29.339 E.46394
G1 X83.102 Y29.339 E.01923
G1 X83.102 Y38.583 E.46394
G1 X82.719 Y38.583 E.01923
G1 X82.719 Y29.339 E.46394
G1 X82.336 Y29.339 E.01923
G1 X82.336 Y38.583 E.46394
G1 X81.953 Y38.583 E.01923
G1 X81.953 Y29.339 E.46394
G1 X81.569 Y29.339 E.01923
G1 X81.569 Y38.583 E.46394
G1 X81.186 Y38.583 E.01923
G1 X81.186 Y29.339 E.46394
G1 X80.803 Y29.339 E.01923
G1 X80.803 Y38.583 E.46394
G1 X80.42 Y38.583 E.01923
G1 X80.42 Y29.339 E.46394
G1 X80.037 Y29.339 E.01923
G1 X80.037 Y38.583 E.46394
G1 X79.653 Y38.583 E.01923
G1 X79.653 Y29.339 E.46394
G1 X79.27 Y29.339 E.01923
G1 X79.27 Y38.583 E.46394
G1 X78.887 Y38.583 E.01923
G1 X78.887 Y29.339 E.46394
G1 X78.504 Y29.339 E.01923
G1 X78.504 Y38.583 E.46394
G1 X78.121 Y38.583 E.01923
G1 X78.121 Y29.339 E.46394
G1 X77.737 Y29.339 E.01923
G1 X77.737 Y38.583 E.46394
G1 X77.354 Y38.583 E.01923
G1 X77.354 Y29.339 E.46394
G1 X76.971 Y29.339 E.01923
G1 X76.971 Y38.583 E.46394
G1 X76.588 Y38.583 E.01923
G1 X76.588 Y29.339 E.46394
G1 X76.204 Y29.339 E.01923
G1 X76.204 Y38.583 E.46394
G1 X75.821 Y38.583 E.01923
G1 X75.821 Y29.339 E.46394
G1 X75.438 Y29.339 E.01923
G1 X75.438 Y38.583 E.46394
G1 X75.055 Y38.583 E.01923
G1 X75.055 Y29.339 E.46394
G1 X74.672 Y29.339 E.01923
G1 X74.672 Y38.583 E.46394
