; generated by PrusaSlicer 2.5.0+win64 on 2022-12-07 at 00:19:56 UTC

; 

; external perimeters extrusion width = 1.00mm
; perimeters extrusion width = 1.00mm
; infill extrusion width = 1.00mm
; solid infill extrusion width = 1.00mm
; top infill extrusion width = 1.00mm
; support material extrusion width = 1.00mm
; first layer extrusion width = 0.42mm

M73 P0 R155
M107
;TYPE:Custom
G90 ; use absolute coordinates
M83 ; extruder relative mode
M140 S60 ; set final bed temp
M104 S150 ; set temporary nozzle temp to prevent oozing during homing and auto bed leveling
G4 S10 ; allow partial nozzle warmup
G28 ; home all axisG1 Z50 F240
G1 X7.6 Y10 F3000
M104 S210 ; set final nozzle temp
M190 S60 ; wait for bed temp to stabilize
M109 S210 ; wait for nozzle temp to stabilize
G1 Z0.28 F240
G92 E0
G1 Y140 E10 F1500 ; prime the nozzle
G1 X4 F5000
G92 E0
G1 Y10 E10 F1200 ; prime the nozzle
G92 E0
G21 ; set units to millimeters
G90 ; use absolute coordinates
M83 ; use relative distances for extrusion
; Filament gcode
M107
;LAYER_CHANGE
;Z:0.35
;HEIGHT:0.35
;BEFORE_LAYER_CHANGE
G92 E0
;0.35


G1 E-1 F3600
G1 Z.35 F7800
;AFTER_LAYER_CHANGE
;0.35
G1 X165.475 Y113.702
G1 E1 F2400
;TYPE:Perimeter
;WIDTH:0.42
G1 F1800
G1 X54.637 Y125.38 E5.59329
G1 X14.525 Y125.38 E2.01301
G1 X14.525 Y83.926 E2.08036
G1 X165.475 Y55.05 E7.71289
G1 X165.475 Y113.552 E2.93596
G1 X165.82 Y114.012 F7800
;TYPE:External perimeter
G1 F1800
G1 X54.655 Y125.724 E5.60978
G1 X14.181 Y125.724 E2.03123
G1 X14.181 Y83.641 E2.11198
G1 X165.82 Y54.633 E7.74813
G1 X165.82 Y113.862 E2.97248
G1 X164.82 Y114.016 F7800
G1 E-.7 F3600
;WIPE_START
G1 F6240
G1 X165.302 Y113.917 E-.285
;WIPE_END
G1 E-.015 F3600
G1 X164.788 Y55.286 F7800
G1 E1 F2400
;TYPE:Solid infill
;WIDTH:0.420711
G1 F1800
G1 X165.216 Y55.715 E.03046
G1 X165.216 Y56.204 E.02458
G1 X164.51 Y55.498 E.0502
G1 X164.1 Y55.576 E.02101
G1 X165.216 Y56.692 E.07938
G1 X165.216 Y57.181 E.02458
G1 X163.69 Y55.655 E.10856
G1 X163.279 Y55.733 E.02101
G1 X165.216 Y57.67 E.13774
G1 X165.216 Y58.159 E.02458
G1 X162.869 Y55.812 E.16692
G1 X162.459 Y55.89 E.02101
G1 X165.216 Y58.647 E.1961
G1 X165.216 Y59.136 E.02458
G1 X162.048 Y55.969 E.22527
G1 X161.638 Y56.047 E.02101
G1 X165.216 Y59.625 E.25445
G1 X165.216 Y60.114 E.02458
G1 X161.228 Y56.125 E.28363
G1 X160.818 Y56.204 E.02101
G1 X165.216 Y60.602 E.31281
G1 X165.216 Y61.091 E.02458
G1 X160.407 Y56.282 E.34199
G1 X159.997 Y56.361 E.02101
G1 X165.216 Y61.58 E.37116
G1 X165.216 Y62.069 E.02458
G1 X159.587 Y56.439 E.40034
G1 X159.177 Y56.518 E.02101
G1 X165.216 Y62.557 E.42952
G1 X165.216 Y63.046 E.02458
G1 X158.766 Y56.596 E.4587
M73 P0 R154
G1 X158.356 Y56.675 E.02101
G1 X165.216 Y63.535 E.48788
G1 X165.216 Y64.024 E.02458
G1 X157.946 Y56.753 E.51706
G1 X157.536 Y56.832 E.02101
G1 X165.216 Y64.512 E.54623
G1 X165.216 Y65.001 E.02458
G1 X157.125 Y56.91 E.57541
G1 X156.715 Y56.989 E.02101
G1 X165.216 Y65.49 E.60459
G1 X165.216 Y65.979 E.02458
G1 X156.305 Y57.067 E.63377
G1 X155.894 Y57.146 E.02101
G1 X165.216 Y66.467 E.66295
G1 X165.216 Y66.956 E.02458
G1 X155.484 Y57.224 E.69212
G1 X155.074 Y57.303 E.02101
G1 X165.216 Y67.445 E.7213
G1 X165.216 Y67.934 E.02458
G1 X154.664 Y57.381 E.75048
G1 X154.253 Y57.46 E.02101
G1 X165.216 Y68.422 E.77966
G1 X165.216 Y68.911 E.02458
G1 X153.843 Y57.538 E.80884
G1 X153.433 Y57.617 E.02101
G1 X165.216 Y69.4 E.83802
G1 X165.216 Y69.889 E.02458
G1 X153.023 Y57.695 E.86719
G1 X152.612 Y57.774 E.02101
G1 X165.216 Y70.377 E.89637
G1 X165.216 Y70.866 E.02458
G1 X152.202 Y57.852 E.92555
G1 X151.792 Y57.931 E.02101
G1 X165.216 Y71.355 E.95473
G1 X165.216 Y71.844 E.02458
G1 X151.382 Y58.009 E.98391
G1 X150.971 Y58.088 E.02101
G1 X165.216 Y72.332 E1.01308
G1 X165.216 Y72.821 E.02458
G1 X150.561 Y58.166 E1.04226
G1 X150.151 Y58.245 E.02101
G1 X165.216 Y73.31 E1.07144
G1 X165.216 Y73.799 E.02458
G1 X149.74 Y58.323 E1.10062
G1 X149.33 Y58.402 E.02101
G1 X165.216 Y74.287 E1.1298
G1 X165.216 Y74.776 E.02458
G1 X148.92 Y58.48 E1.15898
G1 X148.51 Y58.558 E.02101
G1 X165.216 Y75.265 E1.18815
G1 X165.216 Y75.754 E.02458
G1 X148.099 Y58.637 E1.21733
G1 X147.689 Y58.715 E.02101
G1 X165.216 Y76.242 E1.24651
G1 X165.216 Y76.731 E.02458
G1 X147.279 Y58.794 E1.27569
G1 X146.869 Y58.872 E.02101
G1 X165.216 Y77.22 E1.30487
G1 X165.216 Y77.709 E.02458
G1 X146.458 Y58.951 E1.33404
G1 X146.048 Y59.029 E.02101
G1 X165.216 Y78.197 E1.36322
G1 X165.216 Y78.686 E.02458
G1 X145.638 Y59.108 E1.3924
G1 X145.228 Y59.186 E.02101
G1 X165.216 Y79.175 E1.42158
G1 X165.216 Y79.664 E.02458
G1 X144.817 Y59.265 E1.45076
G1 X144.407 Y59.343 E.02101
G1 X165.216 Y80.152 E1.47994
G1 X165.216 Y80.641 E.02458
G1 X143.997 Y59.422 E1.50911
G1 X143.586 Y59.5 E.02101
G1 X165.216 Y81.13 E1.53829
G1 X165.216 Y81.619 E.02458
G1 X143.176 Y59.579 E1.56747
G1 X142.766 Y59.657 E.02101
G1 X165.216 Y82.107 E1.59665
G1 X165.216 Y82.596 E.02458
G1 X142.356 Y59.736 E1.62583
G1 X141.945 Y59.814 E.02101
G1 X165.216 Y83.085 E1.655
G1 X165.216 Y83.574 E.02458
G1 X141.535 Y59.893 E1.68418
G1 X141.125 Y59.971 E.02101
G1 X165.216 Y84.062 E1.71336
G1 X165.216 Y84.551 E.02458
G1 X140.715 Y60.05 E1.74254
G1 X140.304 Y60.128 E.02101
G1 X165.216 Y85.04 E1.77172
G1 X165.216 Y85.529 E.02458
G1 X139.894 Y60.207 E1.8009
G1 X139.484 Y60.285 E.02101
G1 X165.216 Y86.017 E1.83007
G1 X165.216 Y86.506 E.02458
G1 X139.073 Y60.364 E1.85925
G1 X138.663 Y60.442 E.02101
G1 X165.216 Y86.995 E1.88843
G1 X165.216 Y87.484 E.02458
G1 X138.253 Y60.521 E1.91761
G1 X137.843 Y60.599 E.02101
G1 X165.216 Y87.972 E1.94679
G1 X165.216 Y88.461 E.02458
G1 X137.432 Y60.678 E1.97596
G1 X137.022 Y60.756 E.02101
G1 X165.216 Y88.95 E2.00514
G1 X165.216 Y89.439 E.02458
G1 X136.612 Y60.835 E2.03432
G1 X136.202 Y60.913 E.02101
M73 P1 R154
G1 X165.216 Y89.927 E2.0635
G1 X165.216 Y90.416 E.02458
G1 X135.791 Y60.992 E2.09268
G1 X135.381 Y61.07 E.02101
G1 X165.216 Y90.905 E2.12186
G1 X165.216 Y91.394 E.02458
G1 X134.971 Y61.148 E2.15103
G1 X134.561 Y61.227 E.02101
G1 X165.216 Y91.882 E2.18021
G1 X165.216 Y92.371 E.02458
G1 X134.15 Y61.305 E2.20939
G1 X133.74 Y61.384 E.02101
G1 X165.216 Y92.86 E2.23857
G1 X165.216 Y93.349 E.02458
G1 X133.33 Y61.462 E2.26775
G1 X132.919 Y61.541 E.02101
M73 P1 R153
G1 X165.216 Y93.837 E2.29692
G1 X165.216 Y94.326 E.02458
G1 X132.509 Y61.619 E2.3261
G1 X132.099 Y61.698 E.02101
G1 X165.216 Y94.815 E2.35528
G1 X165.216 Y95.304 E.02458
G1 X131.689 Y61.776 E2.38446
G1 X131.278 Y61.855 E.02101
G1 X165.216 Y95.792 E2.41364
G1 X165.216 Y96.281 E.02458
G1 X130.868 Y61.933 E2.44282
G1 X130.458 Y62.012 E.02101
G1 X165.216 Y96.77 E2.47199
G1 X165.216 Y97.259 E.02458
G1 X130.048 Y62.09 E2.50117
G1 X129.637 Y62.169 E.02101
G1 X165.216 Y97.747 E2.53035
G1 X165.216 Y98.236 E.02458
G1 X129.227 Y62.247 E2.55953
G1 X128.817 Y62.326 E.02101
G1 X165.216 Y98.725 E2.58871
G1 X165.216 Y99.214 E.02458
G1 X128.407 Y62.404 E2.61788
G1 X127.996 Y62.483 E.02101
G1 X165.216 Y99.702 E2.64706
G1 X165.216 Y100.191 E.02458
G1 X127.586 Y62.561 E2.67624
G1 X127.176 Y62.64 E.02101
G1 X165.216 Y100.68 E2.70542
G1 X165.216 Y101.169 E.02458
G1 X126.765 Y62.718 E2.7346
G1 X126.355 Y62.797 E.02101
G1 X165.216 Y101.657 E2.76378
G1 X165.216 Y102.146 E.02458
G1 X125.945 Y62.875 E2.79295
G1 X125.535 Y62.954 E.02101
G1 X165.216 Y102.635 E2.82213
G1 X165.216 Y103.124 E.02458
G1 X125.124 Y63.032 E2.85131
G1 X124.714 Y63.111 E.02101
G1 X165.216 Y103.612 E2.88049
G1 X165.216 Y104.101 E.02458
G1 X124.304 Y63.189 E2.90967
G1 X123.894 Y63.268 E.02101
G1 X165.216 Y104.59 E2.93884
G1 X165.216 Y105.079 E.02458
G1 X123.483 Y63.346 E2.96802
G1 X123.073 Y63.425 E.02101
G1 X165.216 Y105.567 E2.9972
G1 X165.216 Y106.056 E.02458
G1 X122.663 Y63.503 E3.02638
G1 X122.253 Y63.581 E.02101
G1 X165.216 Y106.545 E3.05556
G1 X165.216 Y107.034 E.02458
G1 X121.842 Y63.66 E3.08474
G1 X121.432 Y63.738 E.02101
G1 X165.216 Y107.523 E3.11391
G1 X165.216 Y108.011 E.02458
G1 X121.022 Y63.817 E3.14309
G1 X120.611 Y63.895 E.02101
G1 X165.216 Y108.5 E3.17227
G1 X165.216 Y108.989 E.02458
G1 X120.201 Y63.974 E3.20145
G1 X119.791 Y64.052 E.02101
M73 P1 R152
G1 X165.216 Y109.478 E3.23063
G1 X165.216 Y109.966 E.02458
G1 X119.381 Y64.131 E3.2598
G1 X118.97 Y64.209 E.02101
G1 X165.216 Y110.455 E3.28898
G1 X165.216 Y110.944 E.02458
G1 X118.56 Y64.288 E3.31816
G1 X118.15 Y64.366 E.02101
G1 X165.216 Y111.433 E3.34734
G1 X165.216 Y111.921 E.02458
G1 X117.74 Y64.445 E3.37652
G1 X117.329 Y64.523 E.02101
G1 X165.216 Y112.41 E3.4057
G1 X165.216 Y112.899 E.02458
G1 X116.919 Y64.602 E3.43487
G1 X116.509 Y64.68 E.02101
G1 X165.216 Y113.388 E3.46405
G1 X165.216 Y113.469 E.00408
M73 P2 R152
G1 X164.847 Y113.508 E.01865
G1 X116.098 Y64.759 E3.467
G1 X115.688 Y64.837 E.02101
G1 X164.405 Y113.554 E3.46474
G1 X163.963 Y113.601 E.02236
G1 X115.278 Y64.916 E3.46247
G1 X114.868 Y64.994 E.02101
G1 X163.521 Y113.647 E3.4602
G1 X163.079 Y113.694 E.02236
G1 X114.457 Y65.073 E3.45793
G1 X114.047 Y65.151 E.02101
G1 X162.636 Y113.74 E3.45566
G1 X162.194 Y113.787 E.02236
G1 X113.637 Y65.23 E3.45339
G1 X113.227 Y65.308 E.02101
G1 X161.752 Y113.834 E3.45112
G1 X161.31 Y113.88 E.02236
G1 X112.816 Y65.387 E3.44886
G1 X112.406 Y65.465 E.02101
G1 X160.868 Y113.927 E3.44659
G1 X160.426 Y113.973 E.02236
G1 X111.996 Y65.544 E3.44432
G1 X111.586 Y65.622 E.02101
G1 X159.983 Y114.02 E3.44205
G1 X159.541 Y114.067 E.02236
G1 X111.175 Y65.701 E3.43978
G1 X110.765 Y65.779 E.02101
G1 X159.099 Y114.113 E3.43751
G1 X158.657 Y114.16 E.02236
G1 X110.355 Y65.858 E3.43525
G1 X109.944 Y65.936 E.02101
G1 X158.215 Y114.206 E3.43298
G1 X157.773 Y114.253 E.02236
G1 X109.534 Y66.015 E3.43071
G1 X109.124 Y66.093 E.02101
M73 P2 R151
G1 X157.33 Y114.3 E3.42844
G1 X156.888 Y114.346 E.02236
G1 X108.714 Y66.171 E3.42617
G1 X108.303 Y66.25 E.02101
G1 X156.446 Y114.393 E3.4239
G1 X156.004 Y114.439 E.02236
G1 X107.893 Y66.328 E3.42163
G1 X107.483 Y66.407 E.02101
G1 X155.562 Y114.486 E3.41937
G1 X155.12 Y114.532 E.02236
G1 X107.073 Y66.485 E3.4171
G1 X106.662 Y66.564 E.02101
G1 X154.677 Y114.579 E3.41483
G1 X154.235 Y114.626 E.02236
G1 X106.252 Y66.642 E3.41256
G1 X105.842 Y66.721 E.02101
G1 X153.793 Y114.672 E3.41029
G1 X153.351 Y114.719 E.02236
G1 X105.432 Y66.799 E3.40802
G1 X105.021 Y66.878 E.02101
G1 X152.909 Y114.765 E3.40575
G1 X152.467 Y114.812 E.02236
G1 X104.611 Y66.956 E3.40349
G1 X104.201 Y67.035 E.02101
G1 X152.024 Y114.859 E3.40122
G1 X151.582 Y114.905 E.02236
G1 X103.79 Y67.113 E3.39895
G1 X103.38 Y67.192 E.02101
G1 X151.14 Y114.952 E3.39668
G1 X150.698 Y114.998 E.02236
G1 X102.97 Y67.27 E3.39441
G1 X102.56 Y67.349 E.02101
G1 X150.256 Y115.045 E3.39214
G1 X149.814 Y115.091 E.02236
G1 X102.149 Y67.427 E3.38987
G1 X101.739 Y67.506 E.02101
G1 X149.371 Y115.138 E3.38761
G1 X148.929 Y115.185 E.02236
G1 X101.329 Y67.584 E3.38534
G1 X100.919 Y67.663 E.02101
G1 X148.487 Y115.231 E3.38307
G1 X148.045 Y115.278 E.02236
G1 X100.508 Y67.741 E3.3808
G1 X100.098 Y67.82 E.02101
G1 X147.603 Y115.324 E3.37853
G1 X147.161 Y115.371 E.02236
G1 X99.688 Y67.898 E3.37626
G1 X99.278 Y67.977 E.02101
M73 P3 R151
G1 X146.718 Y115.418 E3.374
G1 X146.276 Y115.464 E.02236
G1 X98.867 Y68.055 E3.37173
G1 X98.457 Y68.134 E.02101
M73 P3 R150
G1 X145.834 Y115.511 E3.36946
G1 X145.392 Y115.557 E.02236
G1 X98.047 Y68.212 E3.36719
G1 X97.636 Y68.291 E.02101
G1 X144.95 Y115.604 E3.36492
G1 X144.508 Y115.651 E.02236
G1 X97.226 Y68.369 E3.36265
G1 X96.816 Y68.448 E.02101
G1 X144.065 Y115.697 E3.36038
G1 X143.623 Y115.744 E.02236
G1 X96.406 Y68.526 E3.35812
G1 X95.995 Y68.604 E.02101
G1 X143.181 Y115.79 E3.35585
G1 X142.739 Y115.837 E.02236
G1 X95.585 Y68.683 E3.35358
G1 X95.175 Y68.761 E.02101
G1 X142.297 Y115.883 E3.35131
G1 X141.855 Y115.93 E.02236
G1 X94.765 Y68.84 E3.34904
G1 X94.354 Y68.918 E.02101
G1 X141.412 Y115.977 E3.34677
G1 X140.97 Y116.023 E.02236
G1 X93.944 Y68.997 E3.3445
G1 X93.534 Y69.075 E.02101
G1 X140.528 Y116.07 E3.34224
G1 X140.086 Y116.116 E.02236
G1 X93.123 Y69.154 E3.33997
G1 X92.713 Y69.232 E.02101
G1 X139.644 Y116.163 E3.3377
G1 X139.202 Y116.21 E.02236
G1 X92.303 Y69.311 E3.33543
G1 X91.893 Y69.389 E.02101
G1 X138.76 Y116.256 E3.33316
G1 X138.317 Y116.303 E.02236
G1 X91.482 Y69.468 E3.33089
G1 X91.072 Y69.546 E.02101
G1 X137.875 Y116.349 E3.32862
G1 X137.433 Y116.396 E.02236
G1 X90.662 Y69.625 E3.32636
G1 X90.252 Y69.703 E.02101
G1 X136.991 Y116.443 E3.32409
G1 X136.549 Y116.489 E.02236
G1 X89.841 Y69.782 E3.32182
G1 X89.431 Y69.86 E.02101
G1 X136.107 Y116.536 E3.31955
G1 X135.664 Y116.582 E.02236
G1 X89.021 Y69.939 E3.31728
G1 X88.611 Y70.017 E.02101
G1 X135.222 Y116.629 E3.31501
G1 X134.78 Y116.675 E.02236
G1 X88.2 Y70.096 E3.31274
G1 X87.79 Y70.174 E.02101
M73 P3 R149
G1 X134.338 Y116.722 E3.31048
G1 X133.896 Y116.769 E.02236
G1 X87.38 Y70.253 E3.30821
G1 X86.969 Y70.331 E.02101
G1 X133.454 Y116.815 E3.30594
G1 X133.011 Y116.862 E.02236
G1 X86.559 Y70.41 E3.30367
G1 X86.149 Y70.488 E.02101
G1 X132.569 Y116.908 E3.3014
G1 X132.127 Y116.955 E.02236
G1 X85.739 Y70.567 E3.29913
G1 X85.328 Y70.645 E.02101
G1 X131.685 Y117.002 E3.29687
G1 X131.243 Y117.048 E.02236
G1 X84.918 Y70.724 E3.2946
G1 X84.508 Y70.802 E.02101
G1 X130.801 Y117.095 E3.29233
G1 X130.358 Y117.141 E.02236
G1 X84.098 Y70.881 E3.29006
G1 X83.687 Y70.959 E.02101
G1 X129.916 Y117.188 E3.28779
G1 X129.474 Y117.234 E.02236
G1 X83.277 Y71.038 E3.28552
G1 X82.867 Y71.116 E.02101
G1 X129.032 Y117.281 E3.28325
G1 X128.59 Y117.328 E.02236
M73 P4 R149
G1 X82.457 Y71.194 E3.28099
G1 X82.046 Y71.273 E.02101
G1 X128.148 Y117.374 E3.27872
G1 X127.705 Y117.421 E.02236
G1 X81.636 Y71.351 E3.27645
G1 X81.226 Y71.43 E.02101
G1 X127.263 Y117.467 E3.27418
G1 X126.821 Y117.514 E.02236
G1 X80.815 Y71.508 E3.27191
G1 X80.405 Y71.587 E.02101
G1 X126.379 Y117.561 E3.26964
G1 X125.937 Y117.607 E.02236
G1 X79.995 Y71.665 E3.26737
G1 X79.585 Y71.744 E.02101
G1 X125.495 Y117.654 E3.26511
G1 X125.052 Y117.7 E.02236
G1 X79.174 Y71.822 E3.26284
G1 X78.764 Y71.901 E.02101
G1 X124.61 Y117.747 E3.26057
G1 X124.168 Y117.794 E.02236
G1 X78.354 Y71.979 E3.2583
G1 X77.944 Y72.058 E.02101
G1 X123.726 Y117.84 E3.25603
G1 X123.284 Y117.887 E.02236
G1 X77.533 Y72.136 E3.25376
G1 X77.123 Y72.215 E.02101
G1 X122.842 Y117.933 E3.25149
G1 X122.399 Y117.98 E.02236
M73 P4 R148
G1 X76.713 Y72.293 E3.24923
G1 X76.303 Y72.372 E.02101
G1 X121.957 Y118.026 E3.24696
G1 X121.515 Y118.073 E.02236
G1 X75.892 Y72.45 E3.24469
G1 X75.482 Y72.529 E.02101
G1 X121.073 Y118.12 E3.24242
G1 X120.631 Y118.166 E.02236
G1 X75.072 Y72.607 E3.24015
G1 X74.661 Y72.686 E.02101
G1 X120.189 Y118.213 E3.23788
G1 X119.746 Y118.259 E.02236
G1 X74.251 Y72.764 E3.23561
G1 X73.841 Y72.843 E.02101
G1 X119.304 Y118.306 E3.23335
G1 X118.862 Y118.353 E.02236
G1 X73.431 Y72.921 E3.23108
G1 X73.02 Y73 E.02101
G1 X118.42 Y118.399 E3.22881
G1 X117.978 Y118.446 E.02236
G1 X72.61 Y73.078 E3.22654
G1 X72.2 Y73.157 E.02101
G1 X117.536 Y118.492 E3.22427
G1 X117.093 Y118.539 E.02236
G1 X71.79 Y73.235 E3.222
G1 X71.379 Y73.314 E.02101
G1 X116.651 Y118.586 E3.21974
G1 X116.209 Y118.632 E.02236
G1 X70.969 Y73.392 E3.21747
G1 X70.559 Y73.471 E.02101
G1 X115.767 Y118.679 E3.2152
G1 X115.325 Y118.725 E.02236
G1 X70.148 Y73.549 E3.21293
G1 X69.738 Y73.627 E.02101
G1 X114.883 Y118.772 E3.21066
G1 X114.44 Y118.818 E.02236
G1 X69.328 Y73.706 E3.20839
G1 X68.918 Y73.784 E.02101
G1 X113.998 Y118.865 E3.20612
G1 X113.556 Y118.912 E.02236
G1 X68.507 Y73.863 E3.20386
G1 X68.097 Y73.941 E.02101
G1 X113.114 Y118.958 E3.20159
G1 X112.672 Y119.005 E.02236
G1 X67.687 Y74.02 E3.19932
G1 X67.277 Y74.098 E.02101
G1 X112.23 Y119.051 E3.19705
G1 X111.787 Y119.098 E.02236
G1 X66.866 Y74.177 E3.19478
G1 X66.456 Y74.255 E.02101
G1 X111.345 Y119.145 E3.19251
G1 X110.903 Y119.191 E.02236
G1 X66.046 Y74.334 E3.19024
G1 X65.636 Y74.412 E.02101
M73 P4 R147
G1 X110.461 Y119.238 E3.18798
G1 X110.019 Y119.284 E.02236
M73 P5 R147
G1 X65.225 Y74.491 E3.18571
G1 X64.815 Y74.569 E.02101
G1 X109.577 Y119.331 E3.18344
G1 X109.134 Y119.378 E.02236
G1 X64.405 Y74.648 E3.18117
G1 X63.994 Y74.726 E.02101
G1 X108.692 Y119.424 E3.1789
G1 X108.25 Y119.471 E.02236
G1 X63.584 Y74.805 E3.17663
G1 X63.174 Y74.883 E.02101
