; generated by PrusaSlicer 2.5.0+win64 on 2022-12-07 at 00:19:55 UTC

; 

; external perimeters extrusion width = 1.00mm
; perimeters extrusion width = 1.00mm
; infill extrusion width = 1.00mm
; solid infill extrusion width = 1.00mm
; top infill extrusion width = 1.00mm
; support material extrusion width = 1.00mm
; first layer extrusion width = 0.42mm

M73 P0 R8
M107
;TYPE:Custom
G90 ; use absolute coordinates
M83 ; extruder relative mode
M140 S60 ; set final bed temp
M104 S150 ; set temporary nozzle temp to prevent oozing during homing and auto bed leveling
G4 S10 ; allow partial nozzle warmup
G28 ; home all axisG1 Z50 F240
G1 X7.6 Y10 F3000
M104 S210 ; set final nozzle temp
M190 S60 ; wait for bed temp to stabilize
M109 S210 ; wait for nozzle temp to stabilize
G1 Z0.28 F240
G92 E0
G1 Y140 E10 F1500 ; prime the nozzle
G1 X4 F5000
G92 E0
M73 P1 R8
G1 Y10 E10 F1200 ; prime the nozzle
G92 E0
G21 ; set units to millimeters
G90 ; use absolute coordinates
M83 ; use relative distances for extrusion
; Filament gcode
M107
;LAYER_CHANGE
;Z:0.35
;HEIGHT:0.35
;BEFORE_LAYER_CHANGE
G92 E0
;0.35


G1 E-1 F3600
M73 P2 R8
G1 Z.35 F7800
;AFTER_LAYER_CHANGE
;0.35
G1 X124.788 Y96.288
G1 E1 F2400
;TYPE:Perimeter
;WIDTH:0.42
G1 F1800
G1 X61.285 Y96.288 E3.18695
G1 X124.788 Y84.141 E3.24472
M73 P3 R8
G1 X124.788 Y96.138 E.60208
G1 X125.133 Y96.633 F7800
;TYPE:External perimeter
G1 F1800
G1 X57.646 Y96.633 E3.38687
G1 X125.133 Y83.724 E3.44827
M73 P4 R7
G1 X125.133 Y96.483 E.64032
G1 X125.633 Y95.767 F7800
G1 E-.7 F3600
;WIPE_START
G1 F6240
G1 X124.613 Y96.484 E-.285
;WIPE_END
G1 E-.015 F3600
G1 X124.684 Y84.964 F7800
G1 E1 F2400
;TYPE:Solid infill
;WIDTH:0.42214
G1 F1800
G1 X124.231 Y84.511 E.03238
G1 X123.819 Y84.59 E.02118
G1 X124.529 Y85.3 E.05072
G1 X124.529 Y85.791 E.02478
G1 X123.407 Y84.669 E.08014
G1 X122.995 Y84.747 E.02118
G1 X124.529 Y86.282 E.10956
G1 X124.529 Y86.772 E.02478
G1 X122.583 Y84.826 E.13898
G1 X122.171 Y84.905 E.02118
G1 X124.529 Y87.263 E.1684
G1 X124.529 Y87.754 E.02478
G1 X121.759 Y84.984 E.19782
G1 X121.347 Y85.063 E.02118
M73 P5 R7
G1 X124.529 Y88.245 E.22724
G1 X124.529 Y88.735 E.02478
G1 X120.935 Y85.141 E.25666
G1 X120.523 Y85.22 E.02118
G1 X124.529 Y89.226 E.28608
G1 X124.529 Y89.717 E.02478
G1 X120.111 Y85.299 E.3155
G1 X119.699 Y85.378 E.02118
G1 X124.529 Y90.208 E.34492
G1 X124.529 Y90.699 E.02478
G1 X119.287 Y85.457 E.37434
G1 X118.875 Y85.535 E.02118
G1 X124.529 Y91.189 E.40376
G1 X124.529 Y91.68 E.02478
G1 X118.463 Y85.614 E.43318
G1 X118.051 Y85.693 E.02118
G1 X124.529 Y92.171 E.4626
G1 X124.529 Y92.662 E.02478
G1 X117.639 Y85.772 E.49202
G1 X117.227 Y85.851 E.02118
G1 X124.529 Y93.152 E.52144
G1 X124.529 Y93.643 E.02478
G1 X116.816 Y85.929 E.55086
G1 X116.404 Y86.008 E.02118
G1 X124.529 Y94.134 E.58028
G1 X124.529 Y94.625 E.02478
G1 X115.992 Y86.087 E.6097
G1 X115.58 Y86.166 E.02118
G1 X124.529 Y95.115 E.63912
G1 X124.529 Y95.606 E.02478
M73 P6 R7
G1 X115.168 Y86.245 E.66854
G1 X114.756 Y86.324 E.02118
G1 X124.462 Y96.029 E.69314
G1 X123.971 Y96.029 E.02478
G1 X114.344 Y86.402 E.68751
G1 X113.932 Y86.481 E.02118
G1 X123.48 Y96.029 E.68188
G1 X122.989 Y96.029 E.02478
G1 X113.52 Y86.56 E.67626
G1 X113.108 Y86.639 E.02118
G1 X122.499 Y96.029 E.67063
G1 X122.008 Y96.029 E.02478
G1 X112.696 Y86.718 E.665
G1 X112.284 Y86.796 E.02118
G1 X121.517 Y96.029 E.65937
G1 X121.026 Y96.029 E.02478
G1 X111.872 Y86.875 E.65375
G1 X111.46 Y86.954 E.02118
G1 X120.535 Y96.029 E.64812
G1 X120.045 Y96.029 E.02478
M73 P7 R7
G1 X111.048 Y87.033 E.64249
G1 X110.636 Y87.112 E.02118
G1 X119.554 Y96.029 E.63686
G1 X119.063 Y96.029 E.02478
G1 X110.224 Y87.19 E.63124
G1 X109.812 Y87.269 E.02118
G1 X118.572 Y96.029 E.62561
G1 X118.082 Y96.029 E.02478
G1 X109.4 Y87.348 E.61998
G1 X108.988 Y87.427 E.02118
G1 X117.591 Y96.029 E.61435
G1 X117.1 Y96.029 E.02478
G1 X108.576 Y87.506 E.60873
G1 X108.164 Y87.584 E.02118
G1 X116.609 Y96.029 E.6031
G1 X116.118 Y96.029 E.02478
G1 X107.752 Y87.663 E.59747
G1 X107.34 Y87.742 E.02118
G1 X115.628 Y96.029 E.59184
G1 X115.137 Y96.029 E.02478
M73 P8 R7
G1 X106.928 Y87.821 E.58622
G1 X106.516 Y87.9 E.02118
G1 X114.646 Y96.029 E.58059
G1 X114.155 Y96.029 E.02478
G1 X106.104 Y87.978 E.57496
G1 X105.692 Y88.057 E.02118
G1 X113.665 Y96.029 E.56933
G1 X113.174 Y96.029 E.02478
G1 X105.28 Y88.136 E.5637
G1 X104.868 Y88.215 E.02118
G1 X112.683 Y96.029 E.55808
G1 X112.192 Y96.029 E.02478
G1 X104.456 Y88.294 E.55245
G1 X104.044 Y88.372 E.02118
G1 X111.701 Y96.029 E.54682
G1 X111.211 Y96.029 E.02478
G1 X103.632 Y88.451 E.54119
G1 X103.22 Y88.53 E.02118
G1 X110.72 Y96.029 E.53557
G1 X110.229 Y96.029 E.02478
G1 X102.809 Y88.609 E.52994
G1 X102.397 Y88.688 E.02118
G1 X109.738 Y96.029 E.52431
G1 X109.248 Y96.029 E.02478
M73 P9 R7
G1 X101.985 Y88.766 E.51868
G1 X101.573 Y88.845 E.02118
G1 X108.757 Y96.029 E.51306
G1 X108.266 Y96.029 E.02478
G1 X101.161 Y88.924 E.50743
G1 X100.749 Y89.003 E.02118
G1 X107.775 Y96.029 E.5018
G1 X107.285 Y96.029 E.02478
G1 X100.337 Y89.082 E.49617
G1 X99.925 Y89.16 E.02118
G1 X106.794 Y96.029 E.49055
G1 X106.303 Y96.029 E.02478
G1 X99.513 Y89.239 E.48492
G1 X99.101 Y89.318 E.02118
G1 X105.812 Y96.029 E.47929
G1 X105.321 Y96.029 E.02478
G1 X98.689 Y89.397 E.47366
G1 X98.277 Y89.476 E.02118
G1 X104.831 Y96.029 E.46804
G1 X104.34 Y96.029 E.02478
G1 X97.865 Y89.554 E.46241
G1 X97.453 Y89.633 E.02118
G1 X103.849 Y96.029 E.45678
G1 X103.358 Y96.029 E.02478
G1 X97.041 Y89.712 E.45115
G1 X96.629 Y89.791 E.02118
M73 P10 R7
G1 X102.868 Y96.029 E.44553
G1 X102.377 Y96.029 E.02478
G1 X96.217 Y89.87 E.4399
G1 X95.805 Y89.948 E.02118
G1 X101.886 Y96.029 E.43427
G1 X101.395 Y96.029 E.02478
G1 X95.393 Y90.027 E.42864
G1 X94.981 Y90.106 E.02118
G1 X100.904 Y96.029 E.42302
G1 X100.414 Y96.029 E.02478
G1 X94.569 Y90.185 E.41739
G1 X94.157 Y90.264 E.02118
G1 X99.923 Y96.029 E.41176
G1 X99.432 Y96.029 E.02478
G1 X93.745 Y90.342 E.40613
G1 X93.333 Y90.421 E.02118
G1 X98.941 Y96.029 E.4005
G1 X98.451 Y96.029 E.02478
G1 X92.921 Y90.5 E.39488
G1 X92.509 Y90.579 E.02118
G1 X97.96 Y96.029 E.38925
G1 X97.469 Y96.029 E.02478
G1 X92.097 Y90.658 E.38362
G1 X91.685 Y90.736 E.02118
G1 X96.978 Y96.029 E.37799
G1 X96.488 Y96.029 E.02478
G1 X91.273 Y90.815 E.37237
G1 X90.861 Y90.894 E.02118
G1 X95.997 Y96.029 E.36674
G1 X95.506 Y96.029 E.02478
M73 P11 R7
G1 X90.449 Y90.973 E.36111
G1 X90.037 Y91.052 E.02118
G1 X95.015 Y96.029 E.35548
G1 X94.524 Y96.029 E.02478
G1 X89.625 Y91.13 E.34986
G1 X89.213 Y91.209 E.02118
G1 X94.034 Y96.029 E.34423
G1 X93.543 Y96.029 E.02478
G1 X88.801 Y91.288 E.3386
G1 X88.39 Y91.367 E.02118
G1 X93.052 Y96.029 E.33297
G1 X92.561 Y96.029 E.02478
G1 X87.978 Y91.446 E.32735
G1 X87.566 Y91.524 E.02118
G1 X92.071 Y96.029 E.32172
G1 X91.58 Y96.029 E.02478
G1 X87.154 Y91.603 E.31609
G1 X86.742 Y91.682 E.02118
G1 X91.089 Y96.029 E.31046
G1 X90.598 Y96.029 E.02478
G1 X86.33 Y91.761 E.30484
G1 X85.918 Y91.84 E.02118
G1 X90.107 Y96.029 E.29921
G1 X89.617 Y96.029 E.02478
G1 X85.506 Y91.918 E.29358
G1 X85.094 Y91.997 E.02118
G1 X89.126 Y96.029 E.28795
G1 X88.635 Y96.029 E.02478
G1 X84.682 Y92.076 E.28233
G1 X84.27 Y92.155 E.02118
G1 X88.144 Y96.029 E.2767
G1 X87.654 Y96.029 E.02478
G1 X83.858 Y92.234 E.27107
G1 X83.446 Y92.312 E.02118
G1 X87.163 Y96.029 E.26544
G1 X86.672 Y96.029 E.02478
G1 X83.034 Y92.391 E.25982
G1 X82.622 Y92.47 E.02118
M73 P12 R7
G1 X86.181 Y96.029 E.25419
G1 X85.691 Y96.029 E.02478
G1 X82.21 Y92.549 E.24856
G1 X81.798 Y92.628 E.02118
G1 X85.2 Y96.029 E.24293
G1 X84.709 Y96.029 E.02478
G1 X81.386 Y92.706 E.23731
G1 X80.974 Y92.785 E.02118
G1 X84.218 Y96.029 E.23168
G1 X83.727 Y96.029 E.02478
G1 X80.562 Y92.864 E.22605
G1 X80.15 Y92.943 E.02118
G1 X83.237 Y96.029 E.22042
G1 X82.746 Y96.029 E.02478
G1 X79.738 Y93.022 E.21479
G1 X79.326 Y93.101 E.02118
G1 X82.255 Y96.029 E.20917
G1 X81.764 Y96.029 E.02478
G1 X78.914 Y93.179 E.20354
G1 X78.502 Y93.258 E.02118
G1 X81.274 Y96.029 E.19791
G1 X80.783 Y96.029 E.02478
G1 X78.09 Y93.337 E.19228
G1 X77.678 Y93.416 E.02118
G1 X80.292 Y96.029 E.18666
G1 X79.801 Y96.029 E.02478
G1 X77.266 Y93.495 E.18103
G1 X76.854 Y93.573 E.02118
G1 X79.31 Y96.029 E.1754
G1 X78.82 Y96.029 E.02478
G1 X76.442 Y93.652 E.16977
G1 X76.03 Y93.731 E.02118
G1 X78.329 Y96.029 E.16415
G1 X77.838 Y96.029 E.02478
G1 X75.618 Y93.81 E.15852
G1 X75.206 Y93.889 E.02118
G1 X77.347 Y96.029 E.15289
G1 X76.857 Y96.029 E.02478
G1 X74.794 Y93.967 E.14726
G1 X74.383 Y94.046 E.02118
G1 X76.366 Y96.029 E.14164
G1 X75.875 Y96.029 E.02478
G1 X73.971 Y94.125 E.13601
G1 X73.559 Y94.204 E.02118
G1 X75.384 Y96.029 E.13038
G1 X74.894 Y96.029 E.02478
G1 X73.147 Y94.283 E.12475
G1 X72.735 Y94.361 E.02118
G1 X74.403 Y96.029 E.11913
G1 X73.912 Y96.029 E.02478
G1 X72.323 Y94.44 E.1135
G1 X71.911 Y94.519 E.02118
G1 X73.421 Y96.029 E.10787
G1 X72.93 Y96.029 E.02478
M73 P13 R7
G1 X71.499 Y94.598 E.10224
G1 X71.087 Y94.677 E.02118
G1 X72.44 Y96.029 E.09662
G1 X71.949 Y96.029 E.02478
G1 X70.675 Y94.755 E.09099
G1 X70.263 Y94.834 E.02118
G1 X71.458 Y96.029 E.08536
G1 X70.967 Y96.029 E.02478
G1 X69.851 Y94.913 E.07973
G1 X69.439 Y94.992 E.02118
G1 X70.477 Y96.029 E.07411
G1 X69.986 Y96.029 E.02478
G1 X69.027 Y95.071 E.06848
G1 X68.615 Y95.149 E.02118
G1 X69.495 Y96.029 E.06285
G1 X69.004 Y96.029 E.02478
G1 X68.203 Y95.228 E.05722
G1 X67.791 Y95.307 E.02118
G1 X68.513 Y96.029 E.05159
G1 X68.023 Y96.029 E.02478
G1 X67.379 Y95.386 E.04597
G1 X66.967 Y95.465 E.02118
G1 X67.532 Y96.029 E.04034
G1 X67.041 Y96.029 E.02478
G1 X66.555 Y95.543 E.03471
G1 X66.143 Y95.622 E.02118
G1 X66.55 Y96.029 E.02908
G1 X66.06 Y96.029 E.02478
G1 X65.731 Y95.701 E.02346
G1 X65.319 Y95.78 E.02118
G1 X65.569 Y96.029 E.01783
G1 X65.078 Y96.029 E.02478
G1 X64.907 Y95.859 E.0122
G1 X64.495 Y95.937 E.02118
G1 X64.742 Y96.185 E.01766
M106 S255
;LAYER_CHANGE
;Z:0.85
;HEIGHT:0.5
;BEFORE_LAYER_CHANGE
G92 E0
;0.85


G1 E-.7 F3600
;WIPE_START
G1 F6240
G1 X64.495 Y95.937 E-.19165
G1 X64.663 Y95.905 E-.09335
;WIPE_END
G1 E-.015 F3600
G1 Z.85 F7800
;AFTER_LAYER_CHANGE
;0.85
M104 S205 ; set temperature
G1 X123.95 Y95.45
G1 E1 F2400
;TYPE:Perimeter
;WIDTH:1
G1 F2016.357
G1 X71.41 Y95.45 E9.74996
G1 X123.95 Y85.4 E9.92672
G1 X123.95 Y95.3 E1.83715
M73 P14 R7
G1 X124.843 Y96.343 F7800
;TYPE:External perimeter
G1 F1800
G1 X61.991 Y96.343 E11.66342
G1 X124.843 Y84.321 E11.87487
G1 X124.843 Y96.193 E2.20315
M73 P15 R7
G1 X125.343 Y95.477 F7800
G1 E-.7 F3600
;WIPE_START
G1 F6240
G1 X124.323 Y96.194 E-.285
;WIPE_END
G1 E-.015 F3600
G1 X123.682 Y93.347 F7800
G1 E1 F2400
;TYPE:Solid infill
;WIDTH:1.01481
G1 F1200
G1 X122.248 Y94.781 E.38263
G1 X120.965 Y94.781 E.24211
G1 X123.281 Y92.465 E.61786
G1 X123.281 Y91.181 E.24211
G1 X119.681 Y94.781 E.96026
G1 X118.398 Y94.781 E.24211
G1 X123.281 Y89.898 E1.30266
G1 X123.281 Y88.615 E.24211
G1 X117.114 Y94.781 E1.64506
G1 X115.831 Y94.781 E.24211
G1 X123.281 Y87.331 E1.98746
G1 X123.281 Y86.21 E.21152
G1 X123.08 Y86.248 E.03852
G1 X114.548 Y94.781 E2.27635
G1 X113.264 Y94.781 E.24211
G1 X121.493 Y86.552 E2.19537
G1 X119.906 Y86.856 E.30481
M73 P16 R7
G1 X111.981 Y94.781 E2.11438
G1 X110.697 Y94.781 E.24211
M73 P16 R6
G1 X118.319 Y87.159 E2.0334
G1 X116.732 Y87.463 E.30481
G1 X109.414 Y94.781 E1.95241
G1 X108.131 Y94.781 E.24211
G1 X115.145 Y87.766 E1.87143
G1 X113.558 Y88.07 E.30481
G1 X106.847 Y94.781 E1.79044
G1 X105.564 Y94.781 E.24211
G1 X111.971 Y88.373 E1.70946
G1 X110.384 Y88.677 E.30481
G1 X104.28 Y94.781 E1.62847
G1 X102.997 Y94.781 E.24211
G1 X108.797 Y88.98 E1.54748
G1 X107.21 Y89.284 E.30481
G1 X101.713 Y94.781 E1.4665
G1 X100.43 Y94.781 E.24211
M73 P17 R6
G1 X105.623 Y89.588 E1.38551
G1 X104.036 Y89.891 E.30481
G1 X99.147 Y94.781 E1.30453
G1 X97.863 Y94.781 E.24211
G1 X102.449 Y90.195 E1.22354
G1 X100.862 Y90.498 E.30481
G1 X96.58 Y94.781 E1.14256
G1 X95.296 Y94.781 E.24211
G1 X99.275 Y90.802 E1.06157
G1 X97.689 Y91.105 E.30481
G1 X94.013 Y94.781 E.98058
G1 X92.73 Y94.781 E.24211
G1 X96.102 Y91.409 E.8996
G1 X94.515 Y91.712 E.30481
G1 X91.446 Y94.781 E.81861
G1 X90.163 Y94.781 E.24211
G1 X92.928 Y92.016 E.73763
G1 X91.341 Y92.32 E.30481
G1 X88.879 Y94.781 E.65664
G1 X87.596 Y94.781 E.24211
G1 X89.754 Y92.623 E.57566
G1 X88.167 Y92.927 E.30481
G1 X86.313 Y94.781 E.49467
G1 X85.029 Y94.781 E.24211
G1 X86.58 Y93.23 E.41368
G1 X84.993 Y93.534 E.30481
G1 X83.746 Y94.781 E.3327
G1 X82.462 Y94.781 E.24211
G1 X83.406 Y93.837 E.25171
G1 X81.819 Y94.141 E.30481
G1 X81.179 Y94.781 E.17073
G1 X79.896 Y94.781 E.24211
G1 X80.738 Y93.939 E.22467
;LAYER_CHANGE
;Z:1.35
;HEIGHT:0.5
;BEFORE_LAYER_CHANGE
G92 E0
;1.35


G1 E-.7 F3600
;WIPE_START
M73 P18 R6
G1 F6240
G1 X80.37 Y94.306 E-.285
;WIPE_END
G1 E-.015 F3600
G1 Z1.35 F7800
;AFTER_LAYER_CHANGE
;1.35
G1 X123.95 Y95.45
G1 E1 F2400
;TYPE:Perimeter
;WIDTH:1
G1 F2016.357
G1 X72.922 Y95.45 E9.46937
G1 X123.95 Y85.69 E9.64105
G1 X123.95 Y95.3 E1.78347
G1 X124.843 Y96.343 F7800
;TYPE:External perimeter
G1 F1800
G1 X63.503 Y96.343 E11.38284
G1 X124.843 Y84.61 E11.58921
M73 P19 R6
G1 X124.843 Y96.193 E2.14948
G1 X125.343 Y95.477 F7800
G1 E-.7 F3600
;WIPE_START
G1 F6240
G1 X124.323 Y96.194 E-.285
;WIPE_END
G1 E-.015 F3600
G1 X122.138 Y86.309 F7800
G1 E1 F2400
;TYPE:Solid infill
;WIDTH:1.0211
G1 F1200
G1 X123.281 Y87.452 E.307
G1 X123.281 Y88.744 E.24548
G1 X121.396 Y86.86 E.50619
G1 X120.311 Y87.067 E.2098
G1 X123.281 Y90.036 E.79761
G1 X123.281 Y91.329 E.24548
M73 P20 R6
G1 X119.227 Y87.275 E1.08903
G1 X118.142 Y87.482 E.2098
G1 X123.281 Y92.621 E1.38046
G1 X123.281 Y93.913 E.24548
G1 X117.057 Y87.69 E1.67188
G1 X115.972 Y87.897 E.2098
G1 X122.856 Y94.781 E1.8492
G1 X121.563 Y94.781 E.24548
G1 X114.887 Y88.105 E1.79346
G1 X113.803 Y88.312 E.2098
G1 X120.271 Y94.781 E1.73772
G1 X118.979 Y94.781 E.24548
G1 X112.718 Y88.52 E1.68197
G1 X111.633 Y88.727 E.2098
G1 X117.687 Y94.781 E1.62623
G1 X116.394 Y94.781 E.24548
G1 X110.548 Y88.935 E1.57049
G1 X109.463 Y89.142 E.2098
G1 X115.102 Y94.781 E1.51474
G1 X113.81 Y94.781 E.24548
M73 P21 R6
G1 X108.379 Y89.35 E1.459
G1 X107.294 Y89.557 E.2098
G1 X112.517 Y94.781 E1.40326
G1 X111.225 Y94.781 E.24548
G1 X106.209 Y89.765 E1.34751
G1 X105.124 Y89.972 E.2098
G1 X109.933 Y94.781 E1.29177
G1 X108.64 Y94.781 E.24548
G1 X104.039 Y90.18 E1.23603
G1 X102.955 Y90.387 E.2098
G1 X107.348 Y94.781 E1.18028
G1 X106.056 Y94.781 E.24548
G1 X101.87 Y90.595 E1.12454
G1 X100.785 Y90.802 E.2098
G1 X104.763 Y94.781 E1.06879
G1 X103.471 Y94.781 E.24548
G1 X99.7 Y91.01 E1.01305
G1 X98.615 Y91.217 E.2098
G1 X102.179 Y94.781 E.95731
G1 X100.886 Y94.781 E.24548
G1 X97.53 Y91.425 E.90156
G1 X96.446 Y91.632 E.2098
G1 X99.594 Y94.781 E.84582
G1 X98.302 Y94.781 E.24548
G1 X95.361 Y91.84 E.79008
G1 X94.276 Y92.047 E.2098
M73 P22 R6
G1 X97.01 Y94.781 E.73433
G1 X95.717 Y94.781 E.24548
G1 X93.191 Y92.255 E.67859
G1 X92.106 Y92.462 E.2098
G1 X94.425 Y94.781 E.62285
G1 X93.133 Y94.781 E.24548
G1 X91.022 Y92.67 E.5671
G1 X89.937 Y92.877 E.2098
G1 X91.84 Y94.781 E.51136
G1 X90.548 Y94.781 E.24548
G1 X88.852 Y93.085 E.45562
G1 X87.767 Y93.292 E.2098
G1 X89.256 Y94.781 E.39987
G1 X87.963 Y94.781 E.24548
G1 X86.682 Y93.5 E.34413
G1 X85.598 Y93.707 E.2098
G1 X86.671 Y94.781 E.28839
G1 X85.379 Y94.781 E.24548
G1 X84.513 Y93.915 E.23264
G1 X83.428 Y94.122 E.2098
G1 X84.086 Y94.781 E.1769
G1 X82.794 Y94.781 E.24548
G1 X82.343 Y94.33 E.12115
G1 X81.258 Y94.537 E.2098
G1 X81.904 Y95.182 E.17333
;LAYER_CHANGE
;Z:1.85
;HEIGHT:0.5
;BEFORE_LAYER_CHANGE
G92 E0
;1.85


G1 E-.7 F3600
;WIPE_START
G1 F6240
G1 X81.536 Y94.815 E-.285
;WIPE_END
G1 E-.015 F3600
G1 Z1.85 F7800
;AFTER_LAYER_CHANGE
;1.85
G1 X123.95 Y95.45
G1 E1 F2400
;TYPE:Perimeter
;WIDTH:1
G1 F900
G1 X74.434 Y95.45 E9.18879
G1 X123.95 Y85.979 E9.35538
M73 P23 R6
G1 X123.95 Y95.3 E1.72979
M73 P24 R6
G1 X124.843 Y96.343 F7800
;TYPE:External perimeter
G1 F900
G1 X65.015 Y96.343 E11.10226
G1 X124.843 Y84.899 E11.30354
G1 X124.843 Y96.193 E2.0958
M73 P25 R6
G1 X125.343 Y95.477 F7800
G1 E-.7 F3600
;WIPE_START
G1 F6240
G1 X124.323 Y96.194 E-.285
;WIPE_END
G1 E-.015 F3600
G1 X123.28 Y92.05 F7800
G1 E1 F2400
;TYPE:Internal infill
;WIDTH:0.842699
;HEIGHT:1
G1 F900
G1 X122.675 Y93.261 E.31412
