; generated by PrusaSlicer 2.5.0+win64 on 2022-12-07 at 00:19:58 UTC

; 

; external perimeters extrusion width = 1.00mm
; perimeters extrusion width = 1.00mm
; infill extrusion width = 1.00mm
; solid infill extrusion width = 1.00mm
; top infill extrusion width = 1.00mm
; support material extrusion width = 1.00mm
; first layer extrusion width = 0.42mm

M73 P0 R403
M107
;TYPE:Custom
G90 ; use absolute coordinates
M83 ; extruder relative mode
M140 S60 ; set final bed temp
M104 S150 ; set temporary nozzle temp to prevent oozing during homing and auto bed leveling
G4 S10 ; allow partial nozzle warmup
G28 ; home all axisG1 Z50 F240
G1 X7.6 Y10 F3000
M104 S210 ; set final nozzle temp
M190 S60 ; wait for bed temp to stabilize
M109 S210 ; wait for nozzle temp to stabilize
G1 Z0.28 F240
G92 E0
G1 Y140 E10 F1500 ; prime the nozzle
G1 X4 F5000
G92 E0
G1 Y10 E10 F1200 ; prime the nozzle
G92 E0
G21 ; set units to millimeters
G90 ; use absolute coordinates
M83 ; use relative distances for extrusion
; Filament gcode
M107
;LAYER_CHANGE
;Z:0.35
;HEIGHT:0.35
;BEFORE_LAYER_CHANGE
G92 E0
;0.35


G1 E-1 F3600
G1 Z.35 F7800
;AFTER_LAYER_CHANGE
;0.35
G1 X165.474 Y60.792
G1 E1 F2400
;TYPE:Perimeter
;WIDTH:0.42
G1 F1800
G1 X165.474 Y72.039 E.56442
G1 X14.526 Y87.93 E7.61733
G1 X14.526 Y74.338 E.68215
G1 X59.757 Y71.921 E2.27318
G1 X165.325 Y60.808 E5.32732
G1 X165.819 Y60.409 F7800
;TYPE:External perimeter
M73 P0 R402
G1 F1800
G1 X165.819 Y72.349 E.59923
G1 X14.181 Y88.313 E7.65214
G1 X14.181 Y74.011 E.71778
G1 X59.72 Y71.578 E2.2887
G1 X165.67 Y60.425 E5.34654
G1 X165.345 Y61.29 F7800
G1 X165.371 Y61.603
;TYPE:Solid infill
;WIDTH:0.420354
G1 F1800
G1 X164.882 Y61.114 E.03471
G1 X164.44 Y61.161 E.02231
G1 X165.215 Y61.936 E.05507
G1 X165.215 Y62.424 E.02453
G1 X163.999 Y61.207 E.08645
G1 X163.557 Y61.254 E.02231
G1 X165.215 Y62.913 E.11784
G1 X165.215 Y63.401 E.02453
G1 X163.115 Y61.3 E.14922
G1 X162.673 Y61.347 E.02231
G1 X165.215 Y63.889 E.18061
G1 X165.215 Y64.377 E.02453
G1 X162.232 Y61.393 E.21199
G1 X161.79 Y61.44 E.02231
G1 X165.215 Y64.866 E.24337
G1 X165.215 Y65.354 E.02453
G1 X161.348 Y61.486 E.27476
G1 X160.906 Y61.533 E.02231
G1 X165.215 Y65.842 E.30614
G1 X165.215 Y66.33 E.02453
G1 X160.465 Y61.579 E.33753
G1 X160.023 Y61.626 E.02231
G1 X165.215 Y66.819 E.36891
G1 X165.215 Y67.307 E.02453
G1 X159.581 Y61.672 E.4003
G1 X159.139 Y61.719 E.02231
G1 X165.215 Y67.795 E.43168
G1 X165.215 Y68.283 E.02453
G1 X158.698 Y61.765 E.46307
G1 X158.256 Y61.812 E.02231
G1 X165.215 Y68.772 E.49445
G1 X165.215 Y69.26 E.02453
G1 X157.814 Y61.858 E.52583
G1 X157.372 Y61.905 E.02231
G1 X165.215 Y69.748 E.55722
G1 X165.215 Y70.236 E.02453
G1 X156.931 Y61.951 E.5886
G1 X156.489 Y61.998 E.02231
G1 X165.215 Y70.725 E.61999
G1 X165.215 Y71.213 E.02453
G1 X156.047 Y62.044 E.65137
G1 X155.605 Y62.091 E.02231
G1 X165.215 Y71.701 E.68276
G1 X165.215 Y71.806 E.00527
G1 X164.869 Y71.842 E.01752
G1 X155.164 Y62.137 E.6895
G1 X154.722 Y62.184 E.02231
G1 X164.427 Y71.889 E.6895
G1 X163.985 Y71.935 E.02231
G1 X154.28 Y62.23 E.6895
G1 X153.838 Y62.277 E.02231
G1 X163.543 Y71.982 E.6895
G1 X163.102 Y72.028 E.02231
G1 X153.397 Y62.324 E.6895
G1 X152.955 Y62.37 E.02231
G1 X162.66 Y72.075 E.6895
G1 X162.218 Y72.121 E.02231
G1 X152.513 Y62.417 E.6895
G1 X152.072 Y62.463 E.02231
G1 X161.776 Y72.168 E.6895
G1 X161.335 Y72.214 E.02231
G1 X151.63 Y62.51 E.6895
G1 X151.188 Y62.556 E.02231
G1 X160.893 Y72.261 E.6895
G1 X160.451 Y72.307 E.02231
G1 X150.746 Y62.603 E.6895
G1 X150.305 Y62.649 E.02231
G1 X160.009 Y72.354 E.6895
G1 X159.568 Y72.4 E.02231
G1 X149.863 Y62.696 E.6895
G1 X149.421 Y62.742 E.02231
G1 X159.126 Y72.447 E.6895
G1 X158.684 Y72.493 E.02231
G1 X148.979 Y62.789 E.6895
G1 X148.538 Y62.835 E.02231
G1 X158.243 Y72.54 E.6895
G1 X157.801 Y72.586 E.02231
G1 X148.096 Y62.882 E.6895
G1 X147.654 Y62.928 E.02231
G1 X157.359 Y72.633 E.6895
G1 X156.917 Y72.679 E.02231
G1 X147.212 Y62.975 E.6895
G1 X146.771 Y63.021 E.02231
G1 X156.476 Y72.726 E.6895
G1 X156.034 Y72.773 E.02231
G1 X146.329 Y63.068 E.6895
G1 X145.887 Y63.114 E.02231
G1 X155.592 Y72.819 E.6895
G1 X155.15 Y72.866 E.02231
G1 X145.445 Y63.161 E.6895
G1 X145.004 Y63.207 E.02231
G1 X154.709 Y72.912 E.6895
G1 X154.267 Y72.959 E.02231
G1 X144.562 Y63.254 E.6895
G1 X144.12 Y63.3 E.02231
G1 X153.825 Y73.005 E.6895
G1 X153.383 Y73.052 E.02231
G1 X143.678 Y63.347 E.6895
G1 X143.237 Y63.393 E.02231
G1 X152.942 Y73.098 E.6895
G1 X152.5 Y73.145 E.02231
G1 X142.795 Y63.44 E.6895
G1 X142.353 Y63.486 E.02231
G1 X152.058 Y73.191 E.6895
G1 X151.616 Y73.238 E.02231
G1 X141.911 Y63.533 E.6895
G1 X141.47 Y63.579 E.02231
G1 X151.175 Y73.284 E.6895
G1 X150.733 Y73.331 E.02231
G1 X141.028 Y63.626 E.68951
G1 X140.586 Y63.672 E.02231
G1 X150.291 Y73.377 E.68951
G1 X149.849 Y73.424 E.02231
G1 X140.144 Y63.719 E.68951
G1 X139.703 Y63.765 E.02231
G1 X149.408 Y73.47 E.68951
G1 X148.966 Y73.517 E.02231
G1 X139.261 Y63.812 E.68951
G1 X138.819 Y63.858 E.02231
G1 X148.524 Y73.563 E.68951
G1 X148.082 Y73.61 E.02231
G1 X138.377 Y63.905 E.68951
G1 X137.936 Y63.951 E.02231
G1 X147.641 Y73.656 E.68951
G1 X147.199 Y73.703 E.02231
G1 X137.494 Y63.998 E.68951
G1 X137.052 Y64.044 E.02231
G1 X146.757 Y73.749 E.68951
G1 X146.315 Y73.796 E.02231
G1 X136.61 Y64.091 E.68951
G1 X136.169 Y64.137 E.02231
G1 X145.874 Y73.842 E.68951
G1 X145.432 Y73.889 E.02231
G1 X135.727 Y64.184 E.68951
G1 X135.285 Y64.23 E.02231
G1 X144.99 Y73.935 E.68951
G1 X144.548 Y73.982 E.02231
G1 X134.843 Y64.277 E.68951
G1 X134.402 Y64.323 E.02231
G1 X144.107 Y74.028 E.68951
G1 X143.665 Y74.075 E.02231
G1 X133.96 Y64.37 E.68951
G1 X133.518 Y64.416 E.02231
G1 X143.223 Y74.121 E.68951
G1 X142.782 Y74.168 E.02231
G1 X133.076 Y64.463 E.68951
G1 X132.635 Y64.509 E.02231
G1 X142.34 Y74.214 E.68951
G1 X141.898 Y74.261 E.02231
G1 X132.193 Y64.556 E.68951
G1 X131.751 Y64.602 E.02231
G1 X141.456 Y74.307 E.68951
G1 X141.015 Y74.354 E.02231
G1 X131.309 Y64.649 E.68951
G1 X130.868 Y64.695 E.02231
G1 X140.573 Y74.4 E.68951
G1 X140.131 Y74.447 E.02231
G1 X130.426 Y64.742 E.68951
G1 X129.984 Y64.788 E.02231
G1 X139.689 Y74.493 E.68951
G1 X139.248 Y74.54 E.02231
G1 X129.542 Y64.835 E.68951
G1 X129.101 Y64.881 E.02231
G1 X138.806 Y74.586 E.68951
G1 X138.364 Y74.633 E.02231
G1 X128.659 Y64.928 E.68951
G1 X128.217 Y64.974 E.02231
G1 X137.922 Y74.679 E.68951
G1 X137.481 Y74.726 E.02231
G1 X127.776 Y65.021 E.68951
G1 X127.334 Y65.067 E.02231
G1 X137.039 Y74.772 E.68951
G1 X136.597 Y74.819 E.02231
G1 X126.892 Y65.114 E.68951
G1 X126.45 Y65.16 E.02231
G1 X136.155 Y74.865 E.68951
G1 X135.714 Y74.912 E.02231
G1 X126.009 Y65.207 E.68951
G1 X125.567 Y65.253 E.02231
G1 X135.272 Y74.958 E.68951
G1 X134.83 Y75.005 E.02231
G1 X125.125 Y65.3 E.68951
G1 X124.683 Y65.346 E.02231
G1 X134.388 Y75.051 E.68951
G1 X133.947 Y75.098 E.02231
G1 X124.242 Y65.393 E.68951
G1 X123.8 Y65.439 E.02231
G1 X133.505 Y75.144 E.68951
G1 X133.063 Y75.191 E.02231
G1 X123.358 Y65.486 E.68951
G1 X122.916 Y65.532 E.02231
G1 X132.621 Y75.237 E.68951
G1 X132.18 Y75.284 E.02231
G1 X122.475 Y65.579 E.68951
G1 X122.033 Y65.625 E.02231
G1 X131.738 Y75.33 E.68951
G1 X131.296 Y75.377 E.02231
G1 X121.591 Y65.672 E.68951
G1 X121.149 Y65.718 E.02231
G1 X130.854 Y75.423 E.68951
G1 X130.413 Y75.47 E.02231
G1 X120.708 Y65.765 E.68951
G1 X120.266 Y65.811 E.02231
M73 P0 R401
G1 X129.971 Y75.516 E.68951
G1 X129.529 Y75.563 E.02231
G1 X119.824 Y65.858 E.68952
G1 X119.382 Y65.904 E.02231
G1 X129.087 Y75.609 E.68952
G1 X128.646 Y75.656 E.02231
G1 X118.941 Y65.951 E.68952
G1 X118.499 Y65.997 E.02231
G1 X128.204 Y75.702 E.68952
G1 X127.762 Y75.749 E.02231
G1 X118.057 Y66.044 E.68952
G1 X117.615 Y66.09 E.02231
G1 X127.321 Y75.795 E.68952
G1 X126.879 Y75.842 E.02231
G1 X117.174 Y66.137 E.68952
G1 X116.732 Y66.183 E.02231
G1 X126.437 Y75.888 E.68952
G1 X125.995 Y75.935 E.02231
G1 X116.29 Y66.23 E.68952
G1 X115.848 Y66.276 E.02231
G1 X125.554 Y75.981 E.68952
G1 X125.112 Y76.028 E.02231
G1 X115.407 Y66.323 E.68952
G1 X114.965 Y66.369 E.02231
G1 X124.67 Y76.074 E.68952
G1 X124.228 Y76.121 E.02231
G1 X114.523 Y66.416 E.68952
G1 X114.081 Y66.462 E.02231
G1 X123.787 Y76.167 E.68952
G1 X123.345 Y76.214 E.02231
G1 X113.64 Y66.509 E.68952
G1 X113.198 Y66.555 E.02231
G1 X122.903 Y76.26 E.68952
G1 X122.461 Y76.307 E.02231
G1 X112.756 Y66.602 E.68952
G1 X112.314 Y66.648 E.02231
G1 X122.02 Y76.353 E.68952
G1 X121.578 Y76.4 E.02231
G1 X111.873 Y66.695 E.68952
G1 X111.431 Y66.741 E.02231
G1 X121.136 Y76.446 E.68952
G1 X120.694 Y76.493 E.02231
G1 X110.989 Y66.788 E.68952
G1 X110.547 Y66.834 E.02231
G1 X120.253 Y76.539 E.68952
G1 X119.811 Y76.586 E.02231
G1 X110.106 Y66.881 E.68952
G1 X109.664 Y66.927 E.02231
G1 X119.369 Y76.632 E.68952
G1 X118.927 Y76.679 E.02231
G1 X109.222 Y66.974 E.68952
G1 X108.78 Y67.02 E.02231
G1 X118.486 Y76.725 E.68952
G1 X118.044 Y76.772 E.02231
G1 X108.339 Y67.067 E.68952
G1 X107.897 Y67.113 E.02231
G1 X117.602 Y76.818 E.68952
G1 X117.16 Y76.865 E.02231
G1 X107.455 Y67.16 E.68952
G1 X107.013 Y67.206 E.02231
G1 X116.719 Y76.911 E.68952
G1 X116.277 Y76.958 E.02231
G1 X106.572 Y67.253 E.68952
G1 X106.13 Y67.299 E.02231
G1 X115.835 Y77.004 E.68952
G1 X115.393 Y77.051 E.02231
G1 X105.688 Y67.346 E.68952
G1 X105.247 Y67.392 E.02231
G1 X114.952 Y77.097 E.68952
G1 X114.51 Y77.144 E.02231
G1 X104.805 Y67.439 E.68952
G1 X104.363 Y67.485 E.02231
G1 X114.068 Y77.19 E.68952
G1 X113.627 Y77.237 E.02231
G1 X103.921 Y67.532 E.68952
G1 X103.48 Y67.578 E.02231
G1 X113.185 Y77.283 E.68952
G1 X112.743 Y77.33 E.02231
G1 X103.038 Y67.625 E.68952
G1 X102.596 Y67.671 E.02231
G1 X112.301 Y77.376 E.68952
G1 X111.86 Y77.423 E.02231
G1 X102.154 Y67.718 E.68952
G1 X101.713 Y67.764 E.02231
G1 X111.418 Y77.469 E.68952
G1 X110.976 Y77.516 E.02231
G1 X101.271 Y67.811 E.68952
G1 X100.829 Y67.857 E.02231
G1 X110.534 Y77.563 E.68952
G1 X110.093 Y77.609 E.02231
G1 X100.387 Y67.904 E.68952
G1 X99.946 Y67.95 E.02231
G1 X109.651 Y77.656 E.68952
G1 X109.209 Y77.702 E.02231
G1 X99.504 Y67.997 E.68952
G1 X99.062 Y68.043 E.02231
G1 X108.767 Y77.749 E.68952
G1 X108.326 Y77.795 E.02231
G1 X98.62 Y68.09 E.68953
G1 X98.179 Y68.136 E.02231
G1 X107.884 Y77.842 E.68953
G1 X107.442 Y77.888 E.02231
G1 X97.737 Y68.183 E.68953
G1 X97.295 Y68.229 E.02231
G1 X107 Y77.935 E.68953
G1 X106.559 Y77.981 E.02231
G1 X96.853 Y68.276 E.68953
G1 X96.412 Y68.322 E.02231
G1 X106.117 Y78.028 E.68953
G1 X105.675 Y78.074 E.02231
G1 X95.97 Y68.369 E.68953
G1 X95.528 Y68.415 E.02231
G1 X105.233 Y78.121 E.68953
G1 X104.792 Y78.167 E.02231
G1 X95.086 Y68.462 E.68953
G1 X94.645 Y68.508 E.02231
G1 X104.35 Y78.214 E.68953
G1 X103.908 Y78.26 E.02231
G1 X94.203 Y68.555 E.68953
G1 X93.761 Y68.601 E.02231
G1 X103.466 Y78.307 E.68953
G1 X103.025 Y78.353 E.02231
G1 X93.319 Y68.648 E.68953
G1 X92.878 Y68.694 E.02231
G1 X102.583 Y78.4 E.68953
G1 X102.141 Y78.446 E.02231
G1 X92.436 Y68.741 E.68953
G1 X91.994 Y68.787 E.02231
G1 X101.699 Y78.493 E.68953
G1 X101.258 Y78.539 E.02231
G1 X91.552 Y68.834 E.68953
G1 X91.111 Y68.88 E.02231
G1 X100.816 Y78.586 E.68953
G1 X100.374 Y78.632 E.02231
G1 X90.669 Y68.927 E.68953
G1 X90.227 Y68.973 E.02231
G1 X99.932 Y78.679 E.68953
G1 X99.491 Y78.725 E.02231
G1 X89.785 Y69.02 E.68953
G1 X89.344 Y69.066 E.02231
G1 X99.049 Y78.772 E.68953
G1 X98.607 Y78.818 E.02231
G1 X88.902 Y69.113 E.68953
G1 X88.46 Y69.159 E.02231
G1 X98.166 Y78.865 E.68953
G1 X97.724 Y78.911 E.02231
G1 X88.018 Y69.206 E.68953
G1 X87.577 Y69.252 E.02231
G1 X97.282 Y78.958 E.68953
G1 X96.84 Y79.004 E.02231
G1 X87.135 Y69.299 E.68953
G1 X86.693 Y69.345 E.02231
G1 X96.399 Y79.051 E.68953
G1 X95.957 Y79.097 E.02231
G1 X86.251 Y69.392 E.68953
G1 X85.81 Y69.438 E.02231
G1 X95.515 Y79.144 E.68953
G1 X95.073 Y79.19 E.02231
G1 X85.368 Y69.485 E.68953
G1 X84.926 Y69.531 E.02231
G1 X94.632 Y79.237 E.68953
G1 X94.19 Y79.283 E.02231
G1 X84.484 Y69.578 E.68953
G1 X84.043 Y69.624 E.02231
G1 X93.748 Y79.33 E.68953
G1 X93.306 Y79.376 E.02231
G1 X83.601 Y69.671 E.68953
G1 X83.159 Y69.717 E.02231
G1 X92.865 Y79.423 E.68953
G1 X92.423 Y79.469 E.02231
G1 X82.717 Y69.764 E.68953
G1 X82.276 Y69.81 E.02231
G1 X91.981 Y79.516 E.68953
G1 X91.539 Y79.562 E.02231
G1 X81.834 Y69.857 E.68953
G1 X81.392 Y69.903 E.02231
G1 X91.098 Y79.609 E.68953
G1 X90.656 Y79.655 E.02231
G1 X80.951 Y69.95 E.68953
G1 X80.509 Y69.996 E.02231
G1 X90.214 Y79.702 E.68953
G1 X89.772 Y79.748 E.02231
G1 X80.067 Y70.043 E.68953
G1 X79.625 Y70.089 E.02231
G1 X89.331 Y79.795 E.68953
G1 X88.889 Y79.841 E.02231
G1 X79.184 Y70.136 E.68953
G1 X78.742 Y70.182 E.02231
G1 X88.447 Y79.888 E.68953
G1 X88.005 Y79.934 E.02231
G1 X78.3 Y70.229 E.68953
G1 X77.858 Y70.275 E.02231
G1 X87.564 Y79.981 E.68953
G1 X87.122 Y80.027 E.02231
G1 X77.417 Y70.322 E.68954
G1 X76.975 Y70.368 E.02231
G1 X86.68 Y80.074 E.68954
G1 X86.238 Y80.12 E.02231
G1 X76.533 Y70.415 E.68954
G1 X76.091 Y70.461 E.02231
G1 X85.797 Y80.167 E.68954
G1 X85.355 Y80.213 E.02231
G1 X75.65 Y70.508 E.68954
G1 X75.208 Y70.554 E.02231
G1 X84.913 Y80.26 E.68954
G1 X84.472 Y80.306 E.02231
G1 X74.766 Y70.601 E.68954
G1 X74.324 Y70.647 E.02231
G1 X84.03 Y80.353 E.68954
G1 X83.588 Y80.399 E.02231
G1 X73.883 Y70.694 E.68954
G1 X73.441 Y70.74 E.02231
G1 X83.146 Y80.446 E.68954
G1 X82.705 Y80.492 E.02231
G1 X72.999 Y70.787 E.68954
G1 X72.557 Y70.833 E.02231
G1 X82.263 Y80.539 E.68954
G1 X81.821 Y80.585 E.02231
G1 X72.116 Y70.88 E.68954
G1 X71.674 Y70.926 E.02231
G1 X81.379 Y80.632 E.68954
G1 X80.938 Y80.678 E.02231
G1 X71.232 Y70.973 E.68954
G1 X70.79 Y71.019 E.02231
G1 X80.496 Y80.725 E.68954
G1 X80.054 Y80.771 E.02231
G1 X70.349 Y71.066 E.68954
G1 X69.907 Y71.112 E.02231
G1 X79.612 Y80.818 E.68954
G1 X79.171 Y80.864 E.02231
G1 X69.465 Y71.159 E.68954
M73 P0 R400
G1 X69.023 Y71.205 E.02231
G1 X78.729 Y80.911 E.68954
G1 X78.287 Y80.957 E.02231
G1 X68.582 Y71.252 E.68954
G1 X68.14 Y71.298 E.02231
G1 X77.845 Y81.004 E.68954
G1 X77.404 Y81.05 E.02231
G1 X67.698 Y71.345 E.68954
G1 X67.256 Y71.391 E.02231
G1 X76.962 Y81.097 E.68954
G1 X76.52 Y81.143 E.02231
G1 X66.815 Y71.438 E.68954
G1 X66.373 Y71.484 E.02231
G1 X76.078 Y81.19 E.68954
G1 X75.637 Y81.236 E.02231
G1 X65.931 Y71.531 E.68954
G1 X65.489 Y71.577 E.02231
G1 X75.195 Y81.283 E.68954
G1 X74.753 Y81.329 E.02231
G1 X65.048 Y71.624 E.68954
G1 X64.606 Y71.67 E.02231
G1 X74.311 Y81.376 E.68954
G1 X73.87 Y81.422 E.02231
G1 X64.164 Y71.717 E.68954
G1 X63.722 Y71.763 E.02231
G1 X73.428 Y81.469 E.68954
G1 X72.986 Y81.515 E.02231
G1 X63.281 Y71.81 E.68954
G1 X62.839 Y71.856 E.02231
G1 X72.544 Y81.562 E.68954
G1 X72.103 Y81.608 E.02231
G1 X62.397 Y71.903 E.68954
G1 X61.955 Y71.949 E.02231
G1 X71.661 Y81.655 E.68954
G1 X71.219 Y81.701 E.02231
G1 X61.514 Y71.996 E.68954
G1 X61.072 Y72.042 E.02231
G1 X70.777 Y81.748 E.68954
G1 X70.336 Y81.794 E.02231
G1 X60.63 Y72.089 E.68954
G1 X60.188 Y72.135 E.02231
G1 X69.894 Y81.841 E.68954
G1 X69.452 Y81.887 E.02231
G1 X59.745 Y72.18 E.68966
G1 X59.282 Y72.205 E.02332
G1 X69.011 Y81.934 E.69121
G1 X68.569 Y81.98 E.02231
G1 X58.818 Y72.23 E.69275
G1 X58.355 Y72.255 E.02332
G1 X68.127 Y82.027 E.6943
G1 X67.685 Y82.073 E.02231
G1 X57.891 Y72.279 E.69584
G1 X57.428 Y72.304 E.02332
G1 X67.244 Y82.12 E.69739
G1 X66.802 Y82.166 E.02231
G1 X56.964 Y72.329 E.69893
G1 X56.501 Y72.354 E.02332
G1 X66.36 Y82.213 E.70048
G1 X65.918 Y82.259 E.02231
G1 X56.037 Y72.378 E.70202
G1 X55.574 Y72.403 E.02332
G1 X65.477 Y82.306 E.70356
G1 X65.035 Y82.353 E.02231
G1 X55.11 Y72.428 E.70511
G1 X54.647 Y72.453 E.02332
G1 X64.593 Y82.399 E.70665
G1 X64.151 Y82.446 E.02231
G1 X54.183 Y72.477 E.7082
G1 X53.72 Y72.502 E.02332
G1 X63.71 Y82.492 E.70974
G1 X63.268 Y82.539 E.02231
G1 X53.256 Y72.527 E.71129
G1 X52.793 Y72.552 E.02332
G1 X62.826 Y82.585 E.71283
G1 X62.384 Y82.632 E.02231
G1 X52.329 Y72.576 E.71438
G1 X51.866 Y72.601 E.02332
G1 X61.943 Y82.678 E.71592
G1 X61.501 Y82.725 E.02231
G1 X51.402 Y72.626 E.71746
G1 X50.939 Y72.651 E.02332
G1 X61.059 Y82.771 E.71901
G1 X60.617 Y82.818 E.02231
G1 X50.475 Y72.676 E.72055
G1 X50.012 Y72.7 E.02332
G1 X60.176 Y82.864 E.7221
G1 X59.734 Y82.911 E.02231
G1 X49.548 Y72.725 E.72364
G1 X49.085 Y72.75 E.02332
G1 X59.292 Y82.957 E.72519
