; generated by PrusaSlicer 2.5.0+win64 on 2022-12-07 at 00:20:07 UTC

; 

; external perimeters extrusion width = 1.00mm
; perimeters extrusion width = 1.00mm
; infill extrusion width = 1.00mm
; solid infill extrusion width = 1.00mm
; top infill extrusion width = 1.00mm
; support material extrusion width = 1.00mm
; first layer extrusion width = 0.42mm

M73 P0 R147
M107
;TYPE:Custom
G90 ; use absolute coordinates
M83 ; extruder relative mode
M140 S60 ; set final bed temp
M104 S150 ; set temporary nozzle temp to prevent oozing during homing and auto bed leveling
G4 S10 ; allow partial nozzle warmup
G28 ; home all axisG1 Z50 F240
G1 X7.6 Y10 F3000
M104 S210 ; set final nozzle temp
M190 S60 ; wait for bed temp to stabilize
M109 S210 ; wait for nozzle temp to stabilize
G1 Z0.28 F240
G92 E0
G1 Y140 E10 F1500 ; prime the nozzle
M73 P0 R146
G1 X4 F5000
G92 E0
G1 Y10 E10 F1200 ; prime the nozzle
G92 E0
G21 ; set units to millimeters
G90 ; use absolute coordinates
M83 ; use relative distances for extrusion
; Filament gcode
M107
;LAYER_CHANGE
;Z:0.35
;HEIGHT:0.35
;BEFORE_LAYER_CHANGE
G92 E0
;0.35


G1 E-1 F3600
G1 Z.35 F7800
;AFTER_LAYER_CHANGE
;0.35
G1 X126.271 Y65.587
G1 E1 F2400
;TYPE:Support material
;WIDTH:0.42
G1 F1800
G1 X123.271 Y65.587 E.15056
G1 X123.271 Y70.293 E.23616
G1 X126.271 Y70.293 E.15056
G1 X126.271 Y72.873 E.12947
G1 X8.732 Y72.873 E5.8988
G1 X8.732 Y63.007 E.49509
G1 X126.271 Y63.007 E5.8988
G1 X126.271 Y65.536 E.12687
G1 E-.7 F3600
;WIPE_START
G1 F6240
G1 X126.271 Y65.016 E-.285
;WIPE_END
G1 E-.015 F3600
G1 X125.639 Y72.717 F7800
G1 E1 F2400
G1 F1800
G1 X125.639 Y70.603 E.1061
G1 X125.255 Y70.603 E.01923
G1 X125.255 Y72.562 E.09831
G1 X124.872 Y72.562 E.01923
G1 X124.872 Y70.603 E.09831
G1 X124.489 Y70.603 E.01923
G1 X124.489 Y72.562 E.09831
G1 X124.106 Y72.562 E.01923
G1 X124.106 Y70.603 E.09831
G1 X123.722 Y70.603 E.01923
G1 X123.722 Y72.562 E.09831
G1 X123.339 Y72.562 E.01923
G1 X123.339 Y70.603 E.09831
G1 X122.96 Y70.603 E.01903
G1 X122.96 Y65.277 E.26731
G1 X123.339 Y65.277 E.01903
G1 X123.339 Y63.318 E.09831
G1 X123.722 Y63.318 E.01923
G1 X123.722 Y65.277 E.09831
G1 X124.106 Y65.277 E.01923
G1 X124.106 Y63.318 E.09831
G1 X124.489 Y63.318 E.01923
G1 X124.489 Y65.277 E.09831
G1 X124.872 Y65.277 E.01923
G1 X124.872 Y63.318 E.09831
G1 X125.255 Y63.318 E.01923
G1 X125.255 Y65.277 E.09831
G1 X125.639 Y65.277 E.01923
G1 X125.639 Y63.163 E.1061
G1 E-.7 F3600
;WIPE_START
G1 F6240
G1 X125.639 Y63.683 E-.285
;WIPE_END
G1 E-.015 F3600
G1 X122.956 Y72.717 F7800
G1 E1 F2400
G1 F1800
G1 X122.956 Y63.318 E.47173
G1 X122.573 Y63.318 E.01923
G1 X122.573 Y72.562 E.46394
G1 X122.19 Y72.562 E.01923
G1 X122.19 Y63.318 E.46394
G1 X121.806 Y63.318 E.01923
G1 X121.806 Y72.562 E.46394
G1 X121.423 Y72.562 E.01923
G1 X121.423 Y63.318 E.46394
G1 X121.04 Y63.318 E.01923
G1 X121.04 Y72.562 E.46394
G1 X120.657 Y72.562 E.01923
G1 X120.657 Y63.318 E.46394
G1 X120.274 Y63.318 E.01923
G1 X120.274 Y72.562 E.46394
G1 X119.89 Y72.562 E.01923
G1 X119.89 Y63.318 E.46394
G1 X119.507 Y63.318 E.01923
G1 X119.507 Y72.562 E.46394
G1 X119.124 Y72.562 E.01923
G1 X119.124 Y63.318 E.46394
G1 X118.741 Y63.318 E.01923
G1 X118.741 Y72.562 E.46394
G1 X118.358 Y72.562 E.01923
G1 X118.358 Y63.318 E.46394
G1 X117.974 Y63.318 E.01923
G1 X117.974 Y72.562 E.46394
G1 X117.591 Y72.562 E.01923
G1 X117.591 Y63.318 E.46394
G1 X117.208 Y63.318 E.01923
G1 X117.208 Y72.562 E.46394
G1 X116.825 Y72.562 E.01923
G1 X116.825 Y63.318 E.46394
G1 X116.441 Y63.318 E.01923
G1 X116.441 Y72.562 E.46394
G1 X116.058 Y72.562 E.01923
G1 X116.058 Y63.318 E.46394
G1 X115.675 Y63.318 E.01923
G1 X115.675 Y72.562 E.46394
G1 X115.292 Y72.562 E.01923
G1 X115.292 Y63.318 E.46394
G1 X114.909 Y63.318 E.01923
G1 X114.909 Y72.562 E.46394
G1 X114.525 Y72.562 E.01923
G1 X114.525 Y63.318 E.46394
G1 X114.142 Y63.318 E.01923
G1 X114.142 Y72.562 E.46394
G1 X113.759 Y72.562 E.01923
G1 X113.759 Y63.318 E.46394
G1 X113.376 Y63.318 E.01923
G1 X113.376 Y72.562 E.46394
G1 X112.993 Y72.562 E.01923
G1 X112.993 Y63.318 E.46394
G1 X112.609 Y63.318 E.01923
G1 X112.609 Y72.562 E.46394
G1 X112.226 Y72.562 E.01923
G1 X112.226 Y63.318 E.46394
G1 X111.843 Y63.318 E.01923
G1 X111.843 Y72.562 E.46394
G1 X111.46 Y72.562 E.01923
G1 X111.46 Y63.318 E.46394
G1 X111.077 Y63.318 E.01923
G1 X111.077 Y72.562 E.46394
G1 X110.693 Y72.562 E.01923
G1 X110.693 Y63.318 E.46394
G1 X110.31 Y63.318 E.01923
G1 X110.31 Y72.562 E.46394
G1 X109.927 Y72.562 E.01923
G1 X109.927 Y63.318 E.46394
G1 X109.544 Y63.318 E.01923
G1 X109.544 Y72.562 E.46394
G1 X109.161 Y72.562 E.01923
G1 X109.161 Y63.318 E.46394
G1 X108.777 Y63.318 E.01923
G1 X108.777 Y72.562 E.46394
G1 X108.394 Y72.562 E.01923
G1 X108.394 Y63.318 E.46394
G1 X108.011 Y63.318 E.01923
G1 X108.011 Y72.562 E.46394
G1 X107.628 Y72.562 E.01923
G1 X107.628 Y63.318 E.46394
G1 X107.244 Y63.318 E.01923
G1 X107.244 Y72.562 E.46394
G1 X106.861 Y72.562 E.01923
G1 X106.861 Y63.318 E.46394
G1 X106.478 Y63.318 E.01923
G1 X106.478 Y72.562 E.46394
G1 X106.095 Y72.562 E.01923
G1 X106.095 Y63.318 E.46394
G1 X105.712 Y63.318 E.01923
G1 X105.712 Y72.562 E.46394
G1 X105.328 Y72.562 E.01923
G1 X105.328 Y63.318 E.46394
G1 X104.945 Y63.318 E.01923
G1 X104.945 Y72.562 E.46394
G1 X104.562 Y72.562 E.01923
G1 X104.562 Y63.318 E.46394
G1 X104.179 Y63.318 E.01923
G1 X104.179 Y72.562 E.46394
G1 X103.796 Y72.562 E.01923
G1 X103.796 Y63.318 E.46394
G1 X103.412 Y63.318 E.01923
G1 X103.412 Y72.562 E.46394
G1 X103.029 Y72.562 E.01923
G1 X103.029 Y63.318 E.46394
G1 X102.646 Y63.318 E.01923
G1 X102.646 Y72.562 E.46394
G1 X102.263 Y72.562 E.01923
G1 X102.263 Y63.318 E.46394
G1 X101.88 Y63.318 E.01923
G1 X101.88 Y72.562 E.46394
G1 X101.496 Y72.562 E.01923
G1 X101.496 Y63.318 E.46394
G1 X101.113 Y63.318 E.01923
G1 X101.113 Y72.562 E.46394
G1 X100.73 Y72.562 E.01923
G1 X100.73 Y63.318 E.46394
G1 X100.347 Y63.318 E.01923
G1 X100.347 Y72.562 E.46394
G1 X99.963 Y72.562 E.01923
G1 X99.963 Y63.318 E.46394
G1 X99.58 Y63.318 E.01923
G1 X99.58 Y72.562 E.46394
G1 X99.197 Y72.562 E.01923
G1 X99.197 Y63.318 E.46394
G1 X98.814 Y63.318 E.01923
G1 X98.814 Y72.562 E.46394
G1 X98.431 Y72.562 E.01923
G1 X98.431 Y63.318 E.46394
G1 X98.047 Y63.318 E.01923
G1 X98.047 Y72.562 E.46394
G1 X97.664 Y72.562 E.01923
G1 X97.664 Y63.318 E.46394
G1 X97.281 Y63.318 E.01923
G1 X97.281 Y72.562 E.46394
G1 X96.898 Y72.562 E.01923
G1 X96.898 Y63.318 E.46394
G1 X96.515 Y63.318 E.01923
G1 X96.515 Y72.562 E.46394
G1 X96.131 Y72.562 E.01923
G1 X96.131 Y63.318 E.46394
G1 X95.748 Y63.318 E.01923
G1 X95.748 Y72.562 E.46394
G1 X95.365 Y72.562 E.01923
G1 X95.365 Y63.318 E.46394
G1 X94.982 Y63.318 E.01923
G1 X94.982 Y72.562 E.46394
G1 X94.599 Y72.562 E.01923
G1 X94.599 Y63.318 E.46394
G1 X94.215 Y63.318 E.01923
G1 X94.215 Y72.562 E.46394
G1 X93.832 Y72.562 E.01923
G1 X93.832 Y63.318 E.46394
G1 X93.449 Y63.318 E.01923
G1 X93.449 Y72.562 E.46394
G1 X93.066 Y72.562 E.01923
G1 X93.066 Y63.318 E.46394
G1 X92.682 Y63.318 E.01923
G1 X92.682 Y72.562 E.46394
G1 X92.299 Y72.562 E.01923
G1 X92.299 Y63.318 E.46394
G1 X91.916 Y63.318 E.01923
G1 X91.916 Y72.562 E.46394
G1 X91.533 Y72.562 E.01923
G1 X91.533 Y63.318 E.46394
G1 X91.15 Y63.318 E.01923
G1 X91.15 Y72.562 E.46394
G1 X90.766 Y72.562 E.01923
G1 X90.766 Y63.318 E.46394
G1 X90.383 Y63.318 E.01923
G1 X90.383 Y72.562 E.46394
G1 X90 Y72.562 E.01923
G1 X90 Y63.318 E.46394
G1 X89.617 Y63.318 E.01923
G1 X89.617 Y72.562 E.46394
G1 X89.234 Y72.562 E.01923
G1 X89.234 Y63.318 E.46394
G1 X88.85 Y63.318 E.01923
G1 X88.85 Y72.562 E.46394
G1 X88.467 Y72.562 E.01923
G1 X88.467 Y63.318 E.46394
G1 X88.084 Y63.318 E.01923
G1 X88.084 Y72.562 E.46394
G1 X87.701 Y72.562 E.01923
G1 X87.701 Y63.318 E.46394
G1 X87.318 Y63.318 E.01923
G1 X87.318 Y72.562 E.46394
G1 X86.934 Y72.562 E.01923
M73 P0 R145
G1 X86.934 Y63.318 E.46394
G1 X86.551 Y63.318 E.01923
G1 X86.551 Y72.562 E.46394
G1 X86.168 Y72.562 E.01923
G1 X86.168 Y63.318 E.46394
G1 X85.785 Y63.318 E.01923
G1 X85.785 Y72.562 E.46394
G1 X85.401 Y72.562 E.01923
G1 X85.401 Y63.318 E.46394
G1 X85.018 Y63.318 E.01923
G1 X85.018 Y72.562 E.46394
G1 X84.635 Y72.562 E.01923
G1 X84.635 Y63.318 E.46394
G1 X84.252 Y63.318 E.01923
G1 X84.252 Y72.562 E.46394
G1 X83.869 Y72.562 E.01923
G1 X83.869 Y63.318 E.46394
G1 X83.485 Y63.318 E.01923
G1 X83.485 Y72.562 E.46394
G1 X83.102 Y72.562 E.01923
G1 X83.102 Y63.318 E.46394
G1 X82.719 Y63.318 E.01923
G1 X82.719 Y72.562 E.46394
G1 X82.336 Y72.562 E.01923
G1 X82.336 Y63.318 E.46394
G1 X81.953 Y63.318 E.01923
G1 X81.953 Y72.562 E.46394
G1 X81.569 Y72.562 E.01923
G1 X81.569 Y63.318 E.46394
G1 X81.186 Y63.318 E.01923
G1 X81.186 Y72.562 E.46394
G1 X80.803 Y72.562 E.01923
G1 X80.803 Y63.318 E.46394
G1 X80.42 Y63.318 E.01923
G1 X80.42 Y72.562 E.46394
G1 X80.037 Y72.562 E.01923
G1 X80.037 Y63.318 E.46394
G1 X79.653 Y63.318 E.01923
G1 X79.653 Y72.562 E.46394
G1 X79.27 Y72.562 E.01923
G1 X79.27 Y63.318 E.46394
G1 X78.887 Y63.318 E.01923
G1 X78.887 Y72.562 E.46394
G1 X78.504 Y72.562 E.01923
G1 X78.504 Y63.318 E.46394
G1 X78.12 Y63.318 E.01923
G1 X78.12 Y72.562 E.46394
G1 X77.737 Y72.562 E.01923
G1 X77.737 Y63.318 E.46394
G1 X77.354 Y63.318 E.01923
G1 X77.354 Y72.562 E.46394
G1 X76.971 Y72.562 E.01923
G1 X76.971 Y63.318 E.46394
G1 X76.588 Y63.318 E.01923
G1 X76.588 Y72.562 E.46394
G1 X76.204 Y72.562 E.01923
G1 X76.204 Y63.318 E.46394
G1 X75.821 Y63.318 E.01923
G1 X75.821 Y72.562 E.46394
G1 X75.438 Y72.562 E.01923
G1 X75.438 Y63.318 E.46394
G1 X75.055 Y63.318 E.01923
G1 X75.055 Y72.562 E.46394
G1 X74.672 Y72.562 E.01923
G1 X74.672 Y63.318 E.46394
G1 X74.288 Y63.318 E.01923
G1 X74.288 Y72.562 E.46394
G1 X73.905 Y72.562 E.01923
G1 X73.905 Y63.318 E.46394
G1 X73.522 Y63.318 E.01923
G1 X73.522 Y72.562 E.46394
G1 X73.139 Y72.562 E.01923
G1 X73.139 Y63.318 E.46394
G1 X72.756 Y63.318 E.01923
G1 X72.756 Y72.562 E.46394
G1 X72.372 Y72.562 E.01923
G1 X72.372 Y63.318 E.46394
G1 X71.989 Y63.318 E.01923
G1 X71.989 Y72.562 E.46394
G1 X71.606 Y72.562 E.01923
G1 X71.606 Y63.318 E.46394
G1 X71.223 Y63.318 E.01923
G1 X71.223 Y72.562 E.46394
G1 X70.84 Y72.562 E.01923
G1 X70.84 Y63.318 E.46394
G1 X70.456 Y63.318 E.01923
G1 X70.456 Y72.562 E.46394
G1 X70.073 Y72.562 E.01923
G1 X70.073 Y63.318 E.46394
G1 X69.69 Y63.318 E.01923
G1 X69.69 Y72.562 E.46394
G1 X69.307 Y72.562 E.01923
G1 X69.307 Y63.318 E.46394
G1 X68.923 Y63.318 E.01923
G1 X68.923 Y72.562 E.46394
G1 X68.54 Y72.562 E.01923
G1 X68.54 Y63.318 E.46394
G1 X68.157 Y63.318 E.01923
G1 X68.157 Y72.562 E.46394
G1 X67.774 Y72.562 E.01923
G1 X67.774 Y63.318 E.46394
G1 X67.391 Y63.318 E.01923
G1 X67.391 Y72.562 E.46394
G1 X67.007 Y72.562 E.01923
G1 X67.007 Y63.318 E.46394
G1 X66.624 Y63.318 E.01923
G1 X66.624 Y72.562 E.46394
G1 X66.241 Y72.562 E.01923
G1 X66.241 Y63.318 E.46394
G1 X65.858 Y63.318 E.01923
G1 X65.858 Y72.562 E.46394
G1 X65.475 Y72.562 E.01923
G1 X65.475 Y63.318 E.46394
G1 X65.091 Y63.318 E.01923
G1 X65.091 Y72.562 E.46394
G1 X64.708 Y72.562 E.01923
G1 X64.708 Y63.318 E.46394
G1 X64.325 Y63.318 E.01923
G1 X64.325 Y72.562 E.46394
G1 X63.942 Y72.562 E.01923
G1 X63.942 Y63.318 E.46394
G1 X63.559 Y63.318 E.01923
G1 X63.559 Y72.562 E.46394
G1 X63.175 Y72.562 E.01923
G1 X63.175 Y63.318 E.46394
G1 X62.792 Y63.318 E.01923
G1 X62.792 Y72.562 E.46394
G1 X62.409 Y72.562 E.01923
G1 X62.409 Y63.318 E.46394
G1 X62.026 Y63.318 E.01923
G1 X62.026 Y72.562 E.46394
G1 X61.642 Y72.562 E.01923
G1 X61.642 Y63.318 E.46394
G1 X61.259 Y63.318 E.01923
G1 X61.259 Y72.562 E.46394
G1 X60.876 Y72.562 E.01923
G1 X60.876 Y63.318 E.46394
G1 X60.493 Y63.318 E.01923
G1 X60.493 Y72.562 E.46394
G1 X60.11 Y72.562 E.01923
G1 X60.11 Y63.318 E.46394
G1 X59.726 Y63.318 E.01923
G1 X59.726 Y72.562 E.46394
G1 X59.343 Y72.562 E.01923
G1 X59.343 Y63.318 E.46394
G1 X58.96 Y63.318 E.01923
G1 X58.96 Y72.562 E.46394
G1 X58.577 Y72.562 E.01923
G1 X58.577 Y63.318 E.46394
G1 X58.194 Y63.318 E.01923
M73 P1 R145
G1 X58.194 Y72.562 E.46394
G1 X57.81 Y72.562 E.01923
G1 X57.81 Y63.318 E.46394
G1 X57.427 Y63.318 E.01923
G1 X57.427 Y72.562 E.46394
G1 X57.044 Y72.562 E.01923
G1 X57.044 Y63.318 E.46394
G1 X56.661 Y63.318 E.01923
G1 X56.661 Y72.562 E.46394
G1 X56.278 Y72.562 E.01923
G1 X56.278 Y63.318 E.46394
G1 X55.894 Y63.318 E.01923
G1 X55.894 Y72.562 E.46394
G1 X55.511 Y72.562 E.01923
G1 X55.511 Y63.318 E.46394
G1 X55.128 Y63.318 E.01923
G1 X55.128 Y72.562 E.46394
G1 X54.745 Y72.562 E.01923
G1 X54.745 Y63.318 E.46394
G1 X54.361 Y63.318 E.01923
G1 X54.361 Y72.562 E.46394
G1 X53.978 Y72.562 E.01923
G1 X53.978 Y63.318 E.46394
G1 X53.595 Y63.318 E.01923
G1 X53.595 Y72.562 E.46394
G1 X53.212 Y72.562 E.01923
G1 X53.212 Y63.318 E.46394
G1 X52.829 Y63.318 E.01923
G1 X52.829 Y72.562 E.46394
G1 X52.445 Y72.562 E.01923
G1 X52.445 Y63.318 E.46394
G1 X52.062 Y63.318 E.01923
G1 X52.062 Y72.562 E.46394
G1 X51.679 Y72.562 E.01923
G1 X51.679 Y63.318 E.46394
G1 X51.296 Y63.318 E.01923
G1 X51.296 Y72.562 E.46394
G1 X50.913 Y72.562 E.01923
G1 X50.913 Y63.318 E.46394
G1 X50.529 Y63.318 E.01923
G1 X50.529 Y72.562 E.46394
G1 X50.146 Y72.562 E.01923
G1 X50.146 Y63.318 E.46394
G1 X49.763 Y63.318 E.01923
G1 X49.763 Y72.562 E.46394
G1 X49.38 Y72.562 E.01923
G1 X49.38 Y63.318 E.46394
G1 X48.997 Y63.318 E.01923
G1 X48.997 Y72.562 E.46394
G1 X48.613 Y72.562 E.01923
G1 X48.613 Y63.318 E.46394
G1 X48.23 Y63.318 E.01923
G1 X48.23 Y72.562 E.46394
G1 X47.847 Y72.562 E.01923
G1 X47.847 Y63.318 E.46394
G1 X47.464 Y63.318 E.01923
G1 X47.464 Y72.562 E.46394
G1 X47.08 Y72.562 E.01923
G1 X47.08 Y63.318 E.46394
G1 X46.697 Y63.318 E.01923
G1 X46.697 Y72.562 E.46394
G1 X46.314 Y72.562 E.01923
G1 X46.314 Y63.318 E.46394
G1 X45.931 Y63.318 E.01923
G1 X45.931 Y72.562 E.46394
G1 X45.548 Y72.562 E.01923
G1 X45.548 Y63.318 E.46394
G1 X45.164 Y63.318 E.01923
G1 X45.164 Y72.562 E.46394
G1 X44.781 Y72.562 E.01923
G1 X44.781 Y63.318 E.46394
G1 X44.398 Y63.318 E.01923
G1 X44.398 Y72.562 E.46394
G1 X44.015 Y72.562 E.01923
G1 X44.015 Y63.318 E.46394
G1 X43.632 Y63.318 E.01923
G1 X43.632 Y72.562 E.46394
G1 X43.248 Y72.562 E.01923
G1 X43.248 Y63.318 E.46394
G1 X42.865 Y63.318 E.01923
G1 X42.865 Y72.562 E.46394
G1 X42.482 Y72.562 E.01923
G1 X42.482 Y63.318 E.46394
G1 X42.099 Y63.318 E.01923
G1 X42.099 Y72.562 E.46394
G1 X41.716 Y72.562 E.01923
G1 X41.716 Y63.318 E.46394
G1 X41.332 Y63.318 E.01923
G1 X41.332 Y72.562 E.46394
G1 X40.949 Y72.562 E.01923
G1 X40.949 Y63.318 E.46394
G1 X40.566 Y63.318 E.01923
G1 X40.566 Y72.562 E.46394
G1 X40.183 Y72.562 E.01923
G1 X40.183 Y63.318 E.46394
G1 X39.799 Y63.318 E.01923
G1 X39.799 Y72.562 E.46394
G1 X39.416 Y72.562 E.01923
G1 X39.416 Y63.318 E.46394
G1 X39.033 Y63.318 E.01923
G1 X39.033 Y72.562 E.46394
G1 X38.65 Y72.562 E.01923
G1 X38.65 Y63.318 E.46394
G1 X38.267 Y63.318 E.01923
G1 X38.267 Y72.562 E.46394
G1 X37.883 Y72.562 E.01923
G1 X37.883 Y63.318 E.46394
G1 X37.5 Y63.318 E.01923
G1 X37.5 Y72.562 E.46394
G1 X37.117 Y72.562 E.01923
G1 X37.117 Y63.318 E.46394
G1 X36.734 Y63.318 E.01923
G1 X36.734 Y72.562 E.46394
G1 X36.351 Y72.562 E.01923
G1 X36.351 Y63.318 E.46394
G1 X35.967 Y63.318 E.01923
G1 X35.967 Y72.562 E.46394
G1 X35.584 Y72.562 E.01923
G1 X35.584 Y63.318 E.46394
G1 X35.201 Y63.318 E.01923
G1 X35.201 Y72.562 E.46394
G1 X34.818 Y72.562 E.01923
G1 X34.818 Y63.318 E.46394
G1 X34.435 Y63.318 E.01923
G1 X34.435 Y72.562 E.46394
G1 X34.051 Y72.562 E.01923
G1 X34.051 Y63.318 E.46394
G1 X33.668 Y63.318 E.01923
G1 X33.668 Y72.562 E.46394
G1 X33.285 Y72.562 E.01923
G1 X33.285 Y63.318 E.46394
G1 X32.902 Y63.318 E.01923
G1 X32.902 Y72.562 E.46394
G1 X32.519 Y72.562 E.01923
G1 X32.519 Y63.318 E.46394
G1 X32.135 Y63.318 E.01923
G1 X32.135 Y72.562 E.46394
G1 X31.752 Y72.562 E.01923
G1 X31.752 Y63.318 E.46394
G1 X31.369 Y63.318 E.01923
G1 X31.369 Y72.562 E.46394
G1 X30.986 Y72.562 E.01923
G1 X30.986 Y63.318 E.46394
G1 X30.602 Y63.318 E.01923
G1 X30.602 Y72.562 E.46394
G1 X30.219 Y72.562 E.01923
G1 X30.219 Y63.318 E.46394
G1 X29.836 Y63.318 E.01923
G1 X29.836 Y72.562 E.46394
G1 X29.453 Y72.562 E.01923
G1 X29.453 Y63.318 E.46394
G1 X29.07 Y63.318 E.01923
G1 X29.07 Y72.562 E.46394
G1 X28.686 Y72.562 E.01923
G1 X28.686 Y63.318 E.46394
G1 X28.303 Y63.318 E.01923
G1 X28.303 Y72.562 E.46394
