; generated by PrusaSlicer 2.5.0+win64 on 2022-12-07 at 00:20:03 UTC

; 

; external perimeters extrusion width = 1.00mm
; perimeters extrusion width = 1.00mm
; infill extrusion width = 1.00mm
; solid infill extrusion width = 1.00mm
; top infill extrusion width = 1.00mm
; support material extrusion width = 1.00mm
; first layer extrusion width = 0.42mm

M73 P0 R324
M107
;TYPE:Custom
G90 ; use absolute coordinates
M83 ; extruder relative mode
M140 S60 ; set final bed temp
M104 S150 ; set temporary nozzle temp to prevent oozing during homing and auto bed leveling
G4 S10 ; allow partial nozzle warmup
G28 ; home all axisG1 Z50 F240
G1 X7.6 Y10 F3000
M104 S210 ; set final nozzle temp
M190 S60 ; wait for bed temp to stabilize
M109 S210 ; wait for nozzle temp to stabilize
G1 Z0.28 F240
G92 E0
G1 Y140 E10 F1500 ; prime the nozzle
G1 X4 F5000
G92 E0
M73 P0 R323
G1 Y10 E10 F1200 ; prime the nozzle
G92 E0
G21 ; set units to millimeters
G90 ; use absolute coordinates
M83 ; use relative distances for extrusion
; Filament gcode
M107
;LAYER_CHANGE
;Z:0.35
;HEIGHT:0.35
;BEFORE_LAYER_CHANGE
G92 E0
;0.35


G1 E-1 F3600
G1 Z.35 F7800
;AFTER_LAYER_CHANGE
;0.35
G1 X14.526 Y74.557
G1 E1 F2400
;TYPE:Perimeter
;WIDTH:0.42
G1 F1800
G1 X165.474 Y66.518 E7.5862
G1 X165.474 Y118.736 E2.62062
G1 X149.929 Y120.375 E.78449
G1 X14.526 Y118.327 E6.79609
G1 X14.526 Y74.707 E2.18913
G1 X14.181 Y74.23 F7800
;TYPE:External perimeter
G1 F1800
G1 X165.819 Y66.154 E7.62087
G1 X165.819 Y119.046 E2.65445
G1 X149.944 Y120.72 E.80111
G1 X14.181 Y118.667 E6.81418
G1 X14.181 Y74.38 E2.22259
G1 X15.178 Y74.304 F7800
G1 E-.7 F3600
;WIPE_START
G1 F6240
G1 X14.7 Y74.351 E-.285
;WIPE_END
G1 E-.015 F3600
G1 X165.371 Y67.325 F7800
G1 E1 F2400
;TYPE:Solid infill
;WIDTH:0.420823
G1 F1800
G1 X164.856 Y66.81 E.03665
G1 X164.391 Y66.834 E.02338
G1 X165.215 Y67.658 E.05863
G1 X165.215 Y68.147 E.02459
G1 X163.927 Y66.859 E.09166
G1 X163.463 Y66.884 E.02338
G1 X165.215 Y68.636 E.12468
G1 X165.215 Y69.125 E.02459
G1 X162.999 Y66.909 E.1577
G1 X162.535 Y66.933 E.02338
G1 X165.215 Y69.614 E.19073
G1 X165.215 Y70.103 E.02459
G1 X162.07 Y66.958 E.22375
G1 X161.606 Y66.983 E.02338
G1 X165.215 Y70.592 E.25677
G1 X165.215 Y71.081 E.02459
G1 X161.142 Y67.007 E.2898
G1 X160.678 Y67.032 E.02338
G1 X165.215 Y71.57 E.32282
G1 X165.215 Y72.059 E.02459
G1 X160.214 Y67.057 E.35585
G1 X159.749 Y67.082 E.02338
G1 X165.215 Y72.548 E.38887
G1 X165.215 Y73.036 E.02459
G1 X159.285 Y67.106 E.42189
G1 X158.821 Y67.131 E.02338
G1 X165.215 Y73.525 E.45492
G1 X165.215 Y74.014 E.02459
G1 X158.357 Y67.156 E.48794
G1 X157.893 Y67.18 E.02338
G1 X165.215 Y74.503 E.52096
G1 X165.215 Y74.992 E.02459
G1 X157.429 Y67.205 E.55399
G1 X156.964 Y67.23 E.02338
G1 X165.215 Y75.481 E.58701
G1 X165.215 Y75.97 E.02459
G1 X156.5 Y67.255 E.62004
G1 X156.036 Y67.279 E.02338
G1 X165.215 Y76.459 E.65306
G1 X165.215 Y76.948 E.02459
G1 X155.572 Y67.304 E.68608
G1 X155.108 Y67.329 E.02338
G1 X165.215 Y77.437 E.71911
G1 X165.215 Y77.926 E.02459
G1 X154.643 Y67.353 E.75213
G1 X154.179 Y67.378 E.02338
G1 X165.215 Y78.415 E.78516
G1 X165.215 Y78.903 E.02459
G1 X153.715 Y67.403 E.81818
G1 X153.251 Y67.428 E.02338
G1 X165.215 Y79.392 E.8512
G1 X165.215 Y79.881 E.02459
G1 X152.787 Y67.452 E.88423
G1 X152.322 Y67.477 E.02338
G1 X165.215 Y80.37 E.91725
G1 X165.215 Y80.859 E.02459
G1 X151.858 Y67.502 E.95027
G1 X151.394 Y67.527 E.02338
G1 X165.215 Y81.348 E.9833
G1 X165.215 Y81.837 E.02459
G1 X150.93 Y67.551 E1.01632
G1 X150.466 Y67.576 E.02338
G1 X165.215 Y82.326 E1.04935
G1 X165.215 Y82.815 E.02459
G1 X150.001 Y67.601 E1.08237
G1 X149.537 Y67.625 E.02338
G1 X165.215 Y83.304 E1.11539
G1 X165.215 Y83.793 E.02459
G1 X149.073 Y67.65 E1.14842
G1 X148.609 Y67.675 E.02338
G1 X165.215 Y84.281 E1.18144
G1 X165.215 Y84.77 E.02459
G1 X148.145 Y67.7 E1.21446
G1 X147.681 Y67.724 E.02338
G1 X165.215 Y85.259 E1.24749
G1 X165.215 Y85.748 E.02459
G1 X147.216 Y67.749 E1.28051
G1 X146.752 Y67.774 E.02338
G1 X165.215 Y86.237 E1.31354
G1 X165.215 Y86.726 E.02459
G1 X146.288 Y67.798 E1.34656
G1 X145.824 Y67.823 E.02338
G1 X165.215 Y87.215 E1.37958
G1 X165.215 Y87.704 E.02459
M73 P0 R322
G1 X145.36 Y67.848 E1.41261
G1 X144.895 Y67.873 E.02338
G1 X165.215 Y88.193 E1.44563
G1 X165.215 Y88.682 E.02459
G1 X144.431 Y67.897 E1.47865
G1 X143.967 Y67.922 E.02338
G1 X165.215 Y89.171 E1.51168
G1 X165.215 Y89.659 E.02459
G1 X143.503 Y67.947 E1.5447
G1 X143.039 Y67.972 E.02338
G1 X165.215 Y90.148 E1.57773
G1 X165.215 Y90.637 E.02459
G1 X142.574 Y67.996 E1.61075
G1 X142.11 Y68.021 E.02338
G1 X165.215 Y91.126 E1.64377
G1 X165.215 Y91.615 E.02459
G1 X141.646 Y68.046 E1.6768
G1 X141.182 Y68.07 E.02338
G1 X165.215 Y92.104 E1.70982
G1 X165.215 Y92.593 E.02459
G1 X140.718 Y68.095 E1.74285
G1 X140.253 Y68.12 E.02338
G1 X165.215 Y93.082 E1.77587
G1 X165.215 Y93.571 E.02459
G1 X139.789 Y68.145 E1.80889
G1 X139.325 Y68.169 E.02338
G1 X165.215 Y94.06 E1.84192
G1 X165.215 Y94.549 E.02459
G1 X138.861 Y68.194 E1.87494
G1 X138.397 Y68.219 E.02338
G1 X165.215 Y95.037 E1.90796
G1 X165.215 Y95.526 E.02459
G1 X137.933 Y68.243 E1.94099
G1 X137.468 Y68.268 E.02338
G1 X165.215 Y96.015 E1.97401
G1 X165.215 Y96.504 E.02459
G1 X137.004 Y68.293 E2.00704
G1 X136.54 Y68.318 E.02338
G1 X165.215 Y96.993 E2.04006
G1 X165.215 Y97.482 E.02459
G1 X136.076 Y68.342 E2.07308
G1 X135.612 Y68.367 E.02338
G1 X165.215 Y97.971 E2.10611
G1 X165.215 Y98.46 E.02459
G1 X135.147 Y68.392 E2.13913
G1 X134.683 Y68.416 E.02338
G1 X165.215 Y98.949 E2.17215
G1 X165.215 Y99.438 E.02459
G1 X134.219 Y68.441 E2.20518
G1 X133.755 Y68.466 E.02338
G1 X165.215 Y99.927 E2.2382
G1 X165.215 Y100.415 E.02459
G1 X133.291 Y68.491 E2.27123
G1 X132.826 Y68.515 E.02338
G1 X165.215 Y100.904 E2.30425
G1 X165.215 Y101.393 E.02459
G1 X132.362 Y68.54 E2.33727
G1 X131.898 Y68.565 E.02338
G1 X165.215 Y101.882 E2.3703
G1 X165.215 Y102.371 E.02459
G1 X131.434 Y68.59 E2.40332
G1 X130.97 Y68.614 E.02338
G1 X165.215 Y102.86 E2.43634
G1 X165.215 Y103.349 E.02459
G1 X130.506 Y68.639 E2.46937
G1 X130.041 Y68.664 E.02338
G1 X165.215 Y103.838 E2.50239
G1 X165.215 Y104.327 E.02459
G1 X129.577 Y68.688 E2.53542
G1 X129.113 Y68.713 E.02338
G1 X165.215 Y104.816 E2.56844
G1 X165.215 Y105.305 E.02459
G1 X128.649 Y68.738 E2.60146
G1 X128.185 Y68.763 E.02338
G1 X165.215 Y105.794 E2.63449
G1 X165.215 Y106.282 E.02459
G1 X127.72 Y68.787 E2.66751
G1 X127.256 Y68.812 E.02338
G1 X165.215 Y106.771 E2.70054
G1 X165.215 Y107.26 E.02459
G1 X126.792 Y68.837 E2.73356
G1 X126.328 Y68.861 E.02338
G1 X165.215 Y107.749 E2.76658
G1 X165.215 Y108.238 E.02459
M73 P0 R321
G1 X125.864 Y68.886 E2.79961
G1 X125.399 Y68.911 E.02338
G1 X165.215 Y108.727 E2.83263
G1 X165.215 Y109.216 E.02459
G1 X124.935 Y68.936 E2.86565
G1 X124.471 Y68.96 E.02338
G1 X165.215 Y109.705 E2.89868
G1 X165.215 Y110.194 E.02459
G1 X124.007 Y68.985 E2.9317
G1 X123.543 Y69.01 E.02338
G1 X165.215 Y110.683 E2.96473
G1 X165.215 Y111.172 E.02459
G1 X123.078 Y69.035 E2.99775
G1 X122.614 Y69.059 E.02338
G1 X165.215 Y111.66 E3.03077
G1 X165.215 Y112.149 E.02459
G1 X122.15 Y69.084 E3.0638
G1 X121.686 Y69.109 E.02338
G1 X165.215 Y112.638 E3.09682
G1 X165.215 Y113.127 E.02459
G1 X121.222 Y69.133 E3.12984
G1 X120.758 Y69.158 E.02338
G1 X165.215 Y113.616 E3.16287
G1 X165.215 Y114.105 E.02459
G1 X120.293 Y69.183 E3.19589
G1 X119.829 Y69.208 E.02338
G1 X165.215 Y114.594 E3.22892
G1 X165.215 Y115.083 E.02459
G1 X119.365 Y69.232 E3.26194
G1 X118.901 Y69.257 E.02338
G1 X165.215 Y115.572 E3.29496
G1 X165.215 Y116.061 E.02459
G1 X118.437 Y69.282 E3.32799
G1 X117.972 Y69.306 E.02338
G1 X165.215 Y116.55 E3.36101
G1 X165.215 Y117.038 E.02459
G1 X117.508 Y69.331 E3.39403
G1 X117.044 Y69.356 E.02338
G1 X165.215 Y117.527 E3.42706
G1 X165.215 Y118.016 E.02459
G1 X116.58 Y69.381 E3.46008
G1 X116.116 Y69.405 E.02338
G1 X165.214 Y118.503 E3.49297
G1 X164.771 Y118.55 E.02237
G1 X115.651 Y69.43 E3.49453
G1 X115.187 Y69.455 E.02338
G1 X164.329 Y118.597 E3.49609
G1 X163.887 Y118.643 E.02237
G1 X114.723 Y69.479 E3.49765
G1 X114.259 Y69.504 E.02338
G1 X163.444 Y118.69 E3.49921
G1 X163.002 Y118.736 E.02237
G1 X113.795 Y69.529 E3.50077
G1 X113.33 Y69.554 E.02338
M73 P0 R320
G1 X162.56 Y118.783 E3.50233
G1 X162.118 Y118.83 E.02237
G1 X112.866 Y69.578 E3.50389
G1 X112.402 Y69.603 E.02338
G1 X161.675 Y118.876 E3.50545
G1 X161.233 Y118.923 E.02237
G1 X111.938 Y69.628 E3.507
G1 X111.474 Y69.653 E.02338
G1 X160.791 Y118.97 E3.50856
G1 X160.349 Y119.016 E.02237
M73 P1 R320
G1 X111.01 Y69.677 E3.51012
G1 X110.545 Y69.702 E.02338
G1 X159.906 Y119.063 E3.51168
G1 X159.464 Y119.11 E.02237
G1 X110.081 Y69.727 E3.51324
G1 X109.617 Y69.751 E.02338
G1 X159.022 Y119.156 E3.5148
G1 X158.58 Y119.203 E.02237
G1 X109.153 Y69.776 E3.51636
G1 X108.689 Y69.801 E.02338
G1 X158.137 Y119.25 E3.51792
G1 X157.695 Y119.296 E.02237
G1 X108.224 Y69.826 E3.51948
G1 X107.76 Y69.85 E.02338
G1 X157.253 Y119.343 E3.52104
G1 X156.81 Y119.389 E.02237
G1 X107.296 Y69.875 E3.5226
G1 X106.832 Y69.9 E.02338
G1 X156.368 Y119.436 E3.52416
G1 X155.926 Y119.483 E.02237
G1 X106.368 Y69.924 E3.52572
G1 X105.903 Y69.949 E.02338
G1 X155.484 Y119.529 E3.52728
G1 X155.041 Y119.576 E.02237
G1 X105.439 Y69.974 E3.52884
G1 X104.975 Y69.999 E.02338
G1 X154.599 Y119.623 E3.5304
G1 X154.157 Y119.669 E.02237
G1 X104.511 Y70.023 E3.53196
G1 X104.047 Y70.048 E.02338
G1 X153.715 Y119.716 E3.53351
G1 X153.272 Y119.763 E.02237
G1 X103.583 Y70.073 E3.53507
G1 X103.118 Y70.098 E.02338
G1 X152.83 Y119.809 E3.53663
G1 X152.388 Y119.856 E.02237
G1 X102.654 Y70.122 E3.53819
G1 X102.19 Y70.147 E.02338
G1 X151.945 Y119.902 E3.53975
G1 X151.503 Y119.949 E.02237
M73 P1 R319
G1 X101.726 Y70.172 E3.54131
G1 X101.262 Y70.196 E.02338
G1 X151.061 Y119.996 E3.54287
G1 X150.619 Y120.042 E.02237
G1 X100.797 Y70.221 E3.54443
G1 X100.333 Y70.246 E.02338
G1 X150.176 Y120.089 E3.54599
G1 X149.917 Y120.116 E.01312
G1 X149.712 Y120.113 E.01033
G1 X99.869 Y70.271 E3.54596
G1 X99.405 Y70.295 E.02338
G1 X149.215 Y120.106 E3.54366
G1 X148.719 Y120.098 E.02498
G1 X98.941 Y70.32 E3.54137
G1 X98.476 Y70.345 E.02338
G1 X148.222 Y120.091 E3.53908
G1 X147.726 Y120.083 E.02498
G1 X98.012 Y70.369 E3.53678
G1 X97.548 Y70.394 E.02338
G1 X147.23 Y120.076 E3.53449
G1 X146.733 Y120.068 E.02498
G1 X97.084 Y70.419 E3.5322
G1 X96.62 Y70.444 E.02338
G1 X146.237 Y120.061 E3.52991
G1 X145.74 Y120.053 E.02498
G1 X96.155 Y70.468 E3.52761
G1 X95.691 Y70.493 E.02338
G1 X145.244 Y120.046 E3.52532
G1 X144.748 Y120.038 E.02498
G1 X95.227 Y70.518 E3.52303
G1 X94.763 Y70.542 E.02338
G1 X144.251 Y120.031 E3.52073
G1 X143.755 Y120.023 E.02498
G1 X94.299 Y70.567 E3.51844
G1 X93.835 Y70.592 E.02338
G1 X143.258 Y120.016 E3.51615
G1 X142.762 Y120.008 E.02498
G1 X93.37 Y70.617 E3.51385
G1 X92.906 Y70.641 E.02338
G1 X142.265 Y120.001 E3.51156
G1 X141.769 Y119.993 E.02498
G1 X92.442 Y70.666 E3.50927
G1 X91.978 Y70.691 E.02338
G1 X141.273 Y119.986 E3.50698
G1 X140.776 Y119.978 E.02498
G1 X91.514 Y70.716 E3.50468
G1 X91.049 Y70.74 E.02338
G1 X140.28 Y119.971 E3.50239
G1 X139.783 Y119.963 E.02498
G1 X90.585 Y70.765 E3.5001
G1 X90.121 Y70.79 E.02338
M73 P1 R318
G1 X139.287 Y119.956 E3.4978
G1 X138.79 Y119.948 E.02498
G1 X89.657 Y70.814 E3.49551
G1 X89.193 Y70.839 E.02338
G1 X138.294 Y119.941 E3.49322
G1 X137.798 Y119.933 E.02498
G1 X88.728 Y70.864 E3.49093
G1 X88.264 Y70.889 E.02338
G1 X137.301 Y119.926 E3.48863
G1 X136.805 Y119.918 E.02498
G1 X87.8 Y70.913 E3.48634
G1 X87.336 Y70.938 E.02338
G1 X136.308 Y119.911 E3.48405
G1 X135.812 Y119.903 E.02498
G1 X86.872 Y70.963 E3.48175
G1 X86.407 Y70.987 E.02338
G1 X135.316 Y119.896 E3.47946
G1 X134.819 Y119.888 E.02498
G1 X85.943 Y71.012 E3.47717
G1 X85.479 Y71.037 E.02338
G1 X134.323 Y119.881 E3.47488
G1 X133.826 Y119.873 E.02498
G1 X85.015 Y71.062 E3.47258
G1 X84.551 Y71.086 E.02338
G1 X133.33 Y119.865 E3.47029
G1 X132.833 Y119.858 E.02498
G1 X84.087 Y71.111 E3.468
G1 X83.622 Y71.136 E.02338
G1 X132.337 Y119.85 E3.4657
G1 X131.841 Y119.843 E.02498
G1 X83.158 Y71.161 E3.46341
G1 X82.694 Y71.185 E.02338
G1 X131.344 Y119.835 E3.46112
G1 X130.848 Y119.828 E.02498
G1 X82.23 Y71.21 E3.45882
G1 X81.766 Y71.235 E.02338
G1 X130.351 Y119.82 E3.45653
G1 X129.855 Y119.813 E.02498
G1 X81.301 Y71.259 E3.45424
G1 X80.837 Y71.284 E.02338
G1 X129.359 Y119.805 E3.45195
G1 X128.862 Y119.798 E.02498
G1 X80.373 Y71.309 E3.44965
G1 X79.909 Y71.334 E.02338
G1 X128.366 Y119.79 E3.44736
G1 X127.869 Y119.783 E.02498
G1 X79.445 Y71.358 E3.44507
G1 X78.98 Y71.383 E.02338
G1 X127.373 Y119.775 E3.44277
G1 X126.876 Y119.768 E.02498
G1 X78.516 Y71.408 E3.44048
G1 X78.052 Y71.432 E.02338
M73 P1 R317
G1 X126.38 Y119.76 E3.43819
G1 X125.884 Y119.753 E.02498
G1 X77.588 Y71.457 E3.4359
G1 X77.124 Y71.482 E.02338
G1 X125.387 Y119.745 E3.4336
G1 X124.891 Y119.738 E.02498
G1 X76.66 Y71.507 E3.43131
G1 X76.195 Y71.531 E.02338
G1 X124.394 Y119.73 E3.42902
G1 X123.898 Y119.723 E.02498
G1 X75.731 Y71.556 E3.42672
G1 X75.267 Y71.581 E.02338
G1 X123.401 Y119.715 E3.42443
G1 X122.905 Y119.708 E.02498
G1 X74.803 Y71.605 E3.42214
G1 X74.339 Y71.63 E.02338
G1 X122.409 Y119.7 E3.41984
G1 X121.912 Y119.693 E.02498
G1 X73.874 Y71.655 E3.41755
G1 X73.41 Y71.68 E.02338
G1 X121.416 Y119.685 E3.41526
G1 X120.919 Y119.678 E.02498
M73 P2 R317
G1 X72.946 Y71.704 E3.41297
G1 X72.482 Y71.729 E.02338
G1 X120.423 Y119.67 E3.41067
G1 X119.927 Y119.663 E.02498
G1 X72.018 Y71.754 E3.40838
G1 X71.553 Y71.779 E.02338
G1 X119.43 Y119.655 E3.40609
G1 X118.934 Y119.648 E.02498
G1 X71.089 Y71.803 E3.40379
G1 X70.625 Y71.828 E.02338
G1 X118.437 Y119.64 E3.4015
G1 X117.941 Y119.633 E.02498
G1 X70.161 Y71.853 E3.39921
G1 X69.697 Y71.877 E.02338
G1 X117.444 Y119.625 E3.39692
G1 X116.948 Y119.618 E.02498
G1 X69.232 Y71.902 E3.39462
G1 X68.768 Y71.927 E.02338
G1 X116.452 Y119.61 E3.39233
G1 X115.955 Y119.603 E.02498
G1 X68.304 Y71.952 E3.39004
G1 X67.84 Y71.976 E.02338
G1 X115.459 Y119.595 E3.38774
G1 X114.962 Y119.588 E.02498
G1 X67.376 Y72.001 E3.38545
G1 X66.912 Y72.026 E.02338
G1 X114.466 Y119.58 E3.38316
G1 X113.97 Y119.573 E.02498
G1 X66.447 Y72.05 E3.38086
G1 X65.983 Y72.075 E.02338
M73 P2 R316
G1 X113.473 Y119.565 E3.37857
G1 X112.977 Y119.558 E.02498
G1 X65.519 Y72.1 E3.37628
G1 X65.055 Y72.125 E.02338
G1 X112.48 Y119.55 E3.37399
G1 X111.984 Y119.543 E.02498
G1 X64.591 Y72.149 E3.37169
G1 X64.126 Y72.174 E.02338
G1 X111.487 Y119.535 E3.3694
G1 X110.991 Y119.528 E.02498
G1 X63.662 Y72.199 E3.36711
G1 X63.198 Y72.224 E.02338
G1 X110.495 Y119.52 E3.36481
G1 X109.998 Y119.513 E.02498
G1 X62.734 Y72.248 E3.36252
G1 X62.27 Y72.273 E.02338
G1 X109.502 Y119.505 E3.36023
G1 X109.005 Y119.498 E.02498
G1 X61.805 Y72.298 E3.35794
G1 X61.341 Y72.322 E.02338
G1 X108.509 Y119.49 E3.35564
G1 X108.012 Y119.483 E.02498
G1 X60.877 Y72.347 E3.35335
G1 X60.413 Y72.372 E.02338
G1 X107.516 Y119.475 E3.35106
G1 X107.02 Y119.468 E.02498
G1 X59.949 Y72.397 E3.34876
G1 X59.484 Y72.421 E.02338
G1 X106.523 Y119.46 E3.34647
G1 X106.027 Y119.452 E.02498
G1 X59.02 Y72.446 E3.34418
G1 X58.556 Y72.471 E.02338
G1 X105.53 Y119.445 E3.34188
G1 X105.034 Y119.437 E.02498
G1 X58.092 Y72.495 E3.33959
G1 X57.628 Y72.52 E.02338
G1 X104.538 Y119.43 E3.3373
G1 X104.041 Y119.422 E.02498
G1 X57.164 Y72.545 E3.33501
G1 X56.699 Y72.57 E.02338
G1 X103.545 Y119.415 E3.33271
G1 X103.048 Y119.407 E.02498
G1 X56.235 Y72.594 E3.33042
G1 X55.771 Y72.619 E.02338
G1 X102.552 Y119.4 E3.32813
G1 X102.055 Y119.392 E.02498
G1 X55.307 Y72.644 E3.32583
G1 X54.843 Y72.668 E.02338
G1 X101.559 Y119.385 E3.32354
G1 X101.063 Y119.377 E.02498
G1 X54.378 Y72.693 E3.32125
G1 X53.914 Y72.718 E.02338
M73 P2 R315
G1 X100.566 Y119.37 E3.31896
G1 X100.07 Y119.362 E.02498
G1 X53.45 Y72.743 E3.31666
G1 X52.986 Y72.767 E.02338
G1 X99.573 Y119.355 E3.31437
G1 X99.077 Y119.347 E.02498
G1 X52.522 Y72.792 E3.31208
G1 X52.057 Y72.817 E.02338
G1 X98.58 Y119.34 E3.30978
G1 X98.084 Y119.332 E.02498
G1 X51.593 Y72.842 E3.30749
G1 X51.129 Y72.866 E.02338
G1 X97.588 Y119.325 E3.3052
G1 X97.091 Y119.317 E.02498
G1 X50.665 Y72.891 E3.30291
G1 X50.201 Y72.916 E.02338
G1 X96.595 Y119.31 E3.30061
G1 X96.098 Y119.302 E.02498
G1 X49.737 Y72.94 E3.29832
