; generated by PrusaSlicer 2.5.0+win64 on 2022-12-07 at 00:20:10 UTC

; 

; external perimeters extrusion width = 1.00mm
; perimeters extrusion width = 1.00mm
; infill extrusion width = 1.00mm
; solid infill extrusion width = 1.00mm
; top infill extrusion width = 1.00mm
; support material extrusion width = 1.00mm
; first layer extrusion width = 0.42mm

M73 P0 R26
M107
;TYPE:Custom
G90 ; use absolute coordinates
M83 ; extruder relative mode
M140 S60 ; set final bed temp
M104 S150 ; set temporary nozzle temp to prevent oozing during homing and auto bed leveling
G4 S10 ; allow partial nozzle warmup
G28 ; home all axisG1 Z50 F240
G1 X7.6 Y10 F3000
M104 S210 ; set final nozzle temp
M190 S60 ; wait for bed temp to stabilize
M109 S210 ; wait for nozzle temp to stabilize
G1 Z0.28 F240
G92 E0
G1 Y140 E10 F1500 ; prime the nozzle
G1 X4 F5000
G92 E0
G1 Y10 E10 F1200 ; prime the nozzle
G92 E0
G21 ; set units to millimeters
G90 ; use absolute coordinates
M83 ; use relative distances for extrusion
; Filament gcode
M107
;LAYER_CHANGE
;Z:0.35
;HEIGHT:0.35
;BEFORE_LAYER_CHANGE
G92 E0
;0.35


G1 E-1 F3600
G1 Z.35 F7800
;AFTER_LAYER_CHANGE
;0.35
G1 X165.474 Y95.983
G1 E1 F2400
;TYPE:Perimeter
;WIDTH:0.42
G1 F1800
G1 X14.526 Y95.983 E7.57547
G1 X14.526 Y86.363 E.48278
M73 P1 R25
G1 X111.869 Y84.096 E4.8866
G1 X165.474 Y86.097 E2.69207
G1 X165.474 Y95.833 E.48864
G1 X165.819 Y96.328 F7800
;TYPE:External perimeter
G1 F1800
G1 X14.181 Y96.328 E7.61009
G1 X14.181 Y86.027 E.517
G1 X111.872 Y83.751 E4.90403
G1 X165.819 Y85.764 E2.70927
M73 P2 R25
G1 X165.819 Y96.178 E.52262
G1 X164.822 Y96.252 F7800
G1 E-.7 F3600
;WIPE_START
G1 F6240
G1 X165.299 Y96.179 E-.285
;WIPE_END
G1 E-.015 F3600
G1 X164.646 Y86.169 F7800
G1 E1 F2400
;TYPE:Solid infill
;WIDTH:0.420052
G1 F1800
G1 X165.215 Y86.739 E.04045
G1 X165.215 Y87.227 E.02449
G1 X164.3 Y86.312 E.06497
G1 X163.794 Y86.293 E.02545
G1 X165.215 Y87.715 E.10094
G1 X165.215 Y88.203 E.02449
G1 X163.287 Y86.274 E.13691
G1 X162.78 Y86.255 E.02545
G1 X165.215 Y88.69 E.17288
G1 X165.215 Y89.178 E.02449
G1 X162.273 Y86.236 E.20885
G1 X161.767 Y86.217 E.02545
G1 X165.215 Y89.666 E.24482
G1 X165.215 Y90.154 E.02449
G1 X161.26 Y86.198 E.28079
G1 X160.753 Y86.179 E.02545
G1 X165.215 Y90.642 E.31676
G1 X165.215 Y91.129 E.02449
G1 X160.246 Y86.16 E.35273
G1 X159.74 Y86.141 E.02545
G1 X165.215 Y91.617 E.3887
G1 X165.215 Y92.105 E.02449
G1 X159.233 Y86.123 E.42467
G1 X158.726 Y86.104 E.02545
G1 X165.215 Y92.593 E.46064
G1 X165.215 Y93.081 E.02449
G1 X158.219 Y86.085 E.49661
G1 X157.713 Y86.066 E.02545
G1 X165.215 Y93.569 E.53258
G1 X165.215 Y94.056 E.02449
G1 X157.206 Y86.047 E.56855
G1 X156.699 Y86.028 E.02545
G1 X165.215 Y94.544 E.60452
G1 X165.215 Y95.032 E.02449
G1 X156.193 Y86.009 E.64049
G1 X155.686 Y85.99 E.02545
G1 X165.215 Y95.52 E.67646
G1 X165.215 Y95.725 E.01028
G1 X164.932 Y95.725 E.01421
G1 X155.179 Y85.971 E.69233
G1 X154.672 Y85.952 E.02545
G1 X164.445 Y95.725 E.69368
G1 X163.957 Y95.725 E.02449
G1 X154.166 Y85.933 E.69502
G1 X153.659 Y85.915 E.02545
G1 X163.469 Y95.725 E.69636
G1 X162.981 Y95.725 E.02449
G1 X153.152 Y85.896 E.6977
G1 X152.645 Y85.877 E.02545
G1 X162.493 Y95.725 E.69905
G1 X162.006 Y95.725 E.02449
G1 X152.139 Y85.858 E.70039
G1 X151.632 Y85.839 E.02545
G1 X161.518 Y95.725 E.70173
G1 X161.03 Y95.725 E.02449
G1 X151.125 Y85.82 E.70307
G1 X150.618 Y85.801 E.02545
G1 X160.542 Y95.725 E.70442
G1 X160.054 Y95.725 E.02449
G1 X150.112 Y85.782 E.70576
M73 P3 R25
G1 X149.605 Y85.763 E.02545
G1 X159.566 Y95.725 E.7071
G1 X159.079 Y95.725 E.02449
G1 X149.098 Y85.744 E.70844
G1 X148.592 Y85.725 E.02545
G1 X158.591 Y95.725 E.70979
G1 X158.103 Y95.725 E.02449
G1 X148.085 Y85.706 E.71113
G1 X147.578 Y85.688 E.02545
G1 X157.615 Y95.725 E.71247
G1 X157.127 Y95.725 E.02449
G1 X147.071 Y85.669 E.71381
G1 X146.565 Y85.65 E.02545
G1 X156.639 Y95.725 E.71516
G1 X156.152 Y95.725 E.02449
G1 X146.058 Y85.631 E.7165
G1 X145.551 Y85.612 E.02545
G1 X155.664 Y95.725 E.71784
G1 X155.176 Y95.725 E.02449
G1 X145.044 Y85.593 E.71918
G1 X144.538 Y85.574 E.02545
G1 X154.688 Y95.725 E.72053
G1 X154.2 Y95.725 E.02449
G1 X144.031 Y85.555 E.72187
G1 X143.524 Y85.536 E.02545
G1 X153.713 Y95.725 E.72321
G1 X153.225 Y95.725 E.02449
G1 X143.018 Y85.517 E.72455
G1 X142.511 Y85.498 E.02545
G1 X152.737 Y95.725 E.7259
G1 X152.249 Y95.725 E.02449
G1 X142.004 Y85.48 E.72724
G1 X141.497 Y85.461 E.02545
G1 X151.761 Y95.725 E.72858
G1 X151.273 Y95.725 E.02449
G1 X140.991 Y85.442 E.72992
G1 X140.484 Y85.423 E.02545
G1 X150.786 Y95.725 E.73127
G1 X150.298 Y95.725 E.02449
G1 X139.977 Y85.404 E.73261
G1 X139.47 Y85.385 E.02545
G1 X149.81 Y95.725 E.73395
G1 X149.322 Y95.725 E.02449
G1 X138.964 Y85.366 E.73529
G1 X138.457 Y85.347 E.02545
G1 X148.834 Y95.725 E.73664
G1 X148.347 Y95.725 E.02449
G1 X137.95 Y85.328 E.73798
G1 X137.443 Y85.309 E.02545
G1 X147.859 Y95.725 E.73932
G1 X147.371 Y95.725 E.02449
G1 X136.937 Y85.29 E.74066
G1 X136.43 Y85.271 E.02545
G1 X146.883 Y95.725 E.74201
G1 X146.395 Y95.725 E.02449
G1 X135.923 Y85.253 E.74335
G1 X135.417 Y85.234 E.02545
M73 P4 R25
G1 X145.907 Y95.725 E.74469
G1 X145.42 Y95.725 E.02449
G1 X134.91 Y85.215 E.74603
G1 X134.403 Y85.196 E.02545
G1 X144.932 Y95.725 E.74738
G1 X144.444 Y95.725 E.02449
G1 X133.896 Y85.177 E.74872
G1 X133.39 Y85.158 E.02545
G1 X143.956 Y95.725 E.75006
G1 X143.468 Y95.725 E.02449
G1 X132.883 Y85.139 E.7514
G1 X132.376 Y85.12 E.02545
G1 X142.981 Y95.725 E.75275
G1 X142.493 Y95.725 E.02449
G1 X131.869 Y85.101 E.75409
G1 X131.363 Y85.082 E.02545
G1 X142.005 Y95.725 E.75543
G1 X141.517 Y95.725 E.02449
G1 X130.856 Y85.063 E.75677
G1 X130.349 Y85.045 E.02545
G1 X141.029 Y95.725 E.75812
G1 X140.541 Y95.725 E.02449
G1 X129.842 Y85.026 E.75946
G1 X129.336 Y85.007 E.02545
G1 X140.054 Y95.725 E.7608
G1 X139.566 Y95.725 E.02449
G1 X128.829 Y84.988 E.76214
G1 X128.322 Y84.969 E.02545
G1 X139.078 Y95.725 E.76349
G1 X138.59 Y95.725 E.02449
G1 X127.816 Y84.95 E.76483
G1 X127.309 Y84.931 E.02545
G1 X138.102 Y95.725 E.76617
G1 X137.615 Y95.725 E.02449
G1 X126.802 Y84.912 E.76751
G1 X126.295 Y84.893 E.02545
G1 X137.127 Y95.725 E.76886
G1 X136.639 Y95.725 E.02449
G1 X125.789 Y84.874 E.7702
G1 X125.282 Y84.855 E.02545
G1 X136.151 Y95.725 E.77154
G1 X135.663 Y95.725 E.02449
G1 X124.775 Y84.836 E.77288
G1 X124.268 Y84.818 E.02545
G1 X135.175 Y95.725 E.77423
G1 X134.688 Y95.725 E.02449
G1 X123.762 Y84.799 E.77557
G1 X123.255 Y84.78 E.02545
M73 P4 R24
G1 X134.2 Y95.725 E.77691
G1 X133.712 Y95.725 E.02449
G1 X122.748 Y84.761 E.77825
G1 X122.241 Y84.742 E.02545
G1 X133.224 Y95.725 E.7796
G1 X132.736 Y95.725 E.02449
G1 X121.735 Y84.723 E.78094
G1 X121.228 Y84.704 E.02545
M73 P5 R24
G1 X132.248 Y95.725 E.78228
G1 X131.761 Y95.725 E.02449
G1 X120.721 Y84.685 E.78362
G1 X120.215 Y84.666 E.02545
G1 X131.273 Y95.725 E.78497
G1 X130.785 Y95.725 E.02449
G1 X119.708 Y84.647 E.78631
G1 X119.201 Y84.628 E.02545
G1 X130.297 Y95.725 E.78765
G1 X129.809 Y95.725 E.02449
G1 X118.694 Y84.61 E.78899
G1 X118.188 Y84.591 E.02545
G1 X129.322 Y95.725 E.79034
G1 X128.834 Y95.725 E.02449
G1 X117.681 Y84.572 E.79168
G1 X117.174 Y84.553 E.02545
G1 X128.346 Y95.725 E.79302
G1 X127.858 Y95.725 E.02449
G1 X116.667 Y84.534 E.79436
G1 X116.161 Y84.515 E.02545
G1 X127.37 Y95.725 E.79571
G1 X126.882 Y95.725 E.02449
G1 X115.654 Y84.496 E.79705
G1 X115.147 Y84.477 E.02545
G1 X126.395 Y95.725 E.79839
G1 X125.907 Y95.725 E.02449
G1 X114.64 Y84.458 E.79973
G1 X114.134 Y84.439 E.02545
G1 X125.419 Y95.725 E.80108
G1 X124.931 Y95.725 E.02449
G1 X113.627 Y84.42 E.80242
G1 X113.12 Y84.402 E.02545
G1 X124.443 Y95.725 E.80376
G1 X123.956 Y95.725 E.02449
G1 X112.614 Y84.383 E.8051
G1 X112.107 Y84.364 E.02545
G1 X123.468 Y95.725 E.80645
G1 X122.98 Y95.725 E.02449
G1 X111.626 Y84.371 E.80593
G1 X111.149 Y84.382 E.02394
G1 X122.492 Y95.725 E.80515
G1 X122.004 Y95.725 E.02449
G1 X110.673 Y84.393 E.80436
G1 X110.196 Y84.404 E.02394
G1 X121.516 Y95.725 E.80358
G1 X121.029 Y95.725 E.02449
G1 X109.719 Y84.415 E.80279
G1 X109.242 Y84.426 E.02394
G1 X120.541 Y95.725 E.80201
G1 X120.053 Y95.725 E.02449
G1 X108.766 Y84.437 E.80122
G1 X108.289 Y84.448 E.02394
G1 X119.565 Y95.725 E.80044
G1 X119.077 Y95.725 E.02449
M73 P6 R24
G1 X107.812 Y84.459 E.79965
G1 X107.335 Y84.47 E.02394
G1 X118.59 Y95.725 E.79887
G1 X118.102 Y95.725 E.02449
G1 X106.859 Y84.481 E.79809
G1 X106.382 Y84.493 E.02394
G1 X117.614 Y95.725 E.7973
G1 X117.126 Y95.725 E.02449
G1 X105.905 Y84.504 E.79652
G1 X105.428 Y84.515 E.02394
G1 X116.638 Y95.725 E.79573
G1 X116.15 Y95.725 E.02449
G1 X104.952 Y84.526 E.79495
G1 X104.475 Y84.537 E.02394
G1 X115.663 Y95.725 E.79416
G1 X115.175 Y95.725 E.02449
G1 X103.998 Y84.548 E.79338
G1 X103.521 Y84.559 E.02394
G1 X114.687 Y95.725 E.79259
G1 X114.199 Y95.725 E.02449
G1 X103.044 Y84.57 E.79181
G1 X102.568 Y84.581 E.02394
G1 X113.711 Y95.725 E.79102
G1 X113.223 Y95.725 E.02449
G1 X102.091 Y84.592 E.79024
G1 X101.614 Y84.603 E.02394
G1 X112.736 Y95.725 E.78945
G1 X112.248 Y95.725 E.02449
G1 X101.137 Y84.614 E.78867
G1 X100.661 Y84.625 E.02394
G1 X111.76 Y95.725 E.78788
G1 X111.272 Y95.725 E.02449
G1 X100.184 Y84.636 E.7871
G1 X99.707 Y84.647 E.02394
G1 X110.784 Y95.725 E.78632
G1 X110.297 Y95.725 E.02449
G1 X99.23 Y84.658 E.78553
G1 X98.754 Y84.669 E.02394
G1 X109.809 Y95.725 E.78475
G1 X109.321 Y95.725 E.02449
G1 X98.277 Y84.68 E.78396
G1 X97.8 Y84.691 E.02394
G1 X108.833 Y95.725 E.78318
G1 X108.345 Y95.725 E.02449
G1 X97.323 Y84.703 E.78239
G1 X96.846 Y84.714 E.02394
G1 X107.857 Y95.725 E.78161
G1 X107.37 Y95.725 E.02449
G1 X96.37 Y84.725 E.78082
G1 X95.893 Y84.736 E.02394
G1 X106.882 Y95.725 E.78004
G1 X106.394 Y95.725 E.02449
G1 X95.416 Y84.747 E.77925
G1 X94.939 Y84.758 E.02394
M73 P7 R24
G1 X105.906 Y95.725 E.77847
G1 X105.418 Y95.725 E.02449
G1 X94.463 Y84.769 E.77768
G1 X93.986 Y84.78 E.02394
G1 X104.931 Y95.725 E.7769
G1 X104.443 Y95.725 E.02449
G1 X93.509 Y84.791 E.77612
G1 X93.032 Y84.802 E.02394
G1 X103.955 Y95.725 E.77533
G1 X103.467 Y95.725 E.02449
G1 X92.556 Y84.813 E.77455
G1 X92.079 Y84.824 E.02394
G1 X102.979 Y95.725 E.77376
G1 X102.491 Y95.725 E.02449
G1 X91.602 Y84.835 E.77298
G1 X91.125 Y84.846 E.02394
G1 X102.004 Y95.725 E.77219
G1 X101.516 Y95.725 E.02449
G1 X90.649 Y84.857 E.77141
G1 X90.172 Y84.868 E.02394
G1 X101.028 Y95.725 E.77062
G1 X100.54 Y95.725 E.02449
G1 X89.695 Y84.879 E.76984
G1 X89.218 Y84.89 E.02394
G1 X100.052 Y95.725 E.76905
G1 X99.565 Y95.725 E.02449
G1 X88.741 Y84.902 E.76827
G1 X88.265 Y84.913 E.02394
G1 X99.077 Y95.725 E.76748
G1 X98.589 Y95.725 E.02449
G1 X87.788 Y84.924 E.7667
G1 X87.311 Y84.935 E.02394
G1 X98.101 Y95.725 E.76592
G1 X97.613 Y95.725 E.02449
G1 X86.834 Y84.946 E.76513
G1 X86.358 Y84.957 E.02394
G1 X97.125 Y95.725 E.76435
G1 X96.638 Y95.725 E.02449
G1 X85.881 Y84.968 E.76356
G1 X85.404 Y84.979 E.02394
G1 X96.15 Y95.725 E.76278
G1 X95.662 Y95.725 E.02449
G1 X84.927 Y84.99 E.76199
G1 X84.451 Y85.001 E.02394
G1 X95.174 Y95.725 E.76121
G1 X94.686 Y95.725 E.02449
G1 X83.974 Y85.012 E.76042
G1 X83.497 Y85.023 E.02394
G1 X94.199 Y95.725 E.75964
G1 X93.711 Y95.725 E.02449
G1 X83.02 Y85.034 E.75885
G1 X82.543 Y85.045 E.02394
G1 X93.223 Y95.725 E.75807
G1 X92.735 Y95.725 E.02449
M73 P8 R24
G1 X82.067 Y85.056 E.75728
G1 X81.59 Y85.067 E.02394
G1 X92.247 Y95.725 E.7565
G1 X91.759 Y95.725 E.02449
G1 X81.113 Y85.078 E.75571
G1 X80.636 Y85.089 E.02394
G1 X91.272 Y95.725 E.75493
G1 X90.784 Y95.725 E.02449
G1 X80.16 Y85.1 E.75415
G1 X79.683 Y85.112 E.02394
G1 X90.296 Y95.725 E.75336
G1 X89.808 Y95.725 E.02449
G1 X79.206 Y85.123 E.75258
G1 X78.729 Y85.134 E.02394
G1 X89.32 Y95.725 E.75179
G1 X88.832 Y95.725 E.02449
G1 X78.253 Y85.145 E.75101
G1 X77.776 Y85.156 E.02394
G1 X88.345 Y95.725 E.75022
G1 X87.857 Y95.725 E.02449
G1 X77.299 Y85.167 E.74944
G1 X76.822 Y85.178 E.02394
G1 X87.369 Y95.725 E.74865
G1 X86.881 Y95.725 E.02449
G1 X76.346 Y85.189 E.74787
G1 X75.869 Y85.2 E.02394
G1 X86.393 Y95.725 E.74708
G1 X85.906 Y95.725 E.02449
G1 X75.392 Y85.211 E.7463
G1 X74.915 Y85.222 E.02394
G1 X85.418 Y95.725 E.74551
G1 X84.93 Y95.725 E.02449
G1 X74.438 Y85.233 E.74473
G1 X73.962 Y85.244 E.02394
G1 X84.442 Y95.725 E.74395
G1 X83.954 Y95.725 E.02449
M73 P8 R23
G1 X73.485 Y85.255 E.74316
G1 X73.008 Y85.266 E.02394
G1 X83.466 Y95.725 E.74238
G1 X82.979 Y95.725 E.02449
G1 X72.531 Y85.277 E.74159
G1 X72.055 Y85.288 E.02394
G1 X82.491 Y95.725 E.74081
G1 X82.003 Y95.725 E.02449
G1 X71.578 Y85.299 E.74002
G1 X71.101 Y85.31 E.02394
G1 X81.515 Y95.725 E.73924
G1 X81.027 Y95.725 E.02449
G1 X70.624 Y85.322 E.73845
G1 X70.148 Y85.333 E.02394
G1 X80.54 Y95.725 E.73767
G1 X80.052 Y95.725 E.02449
G1 X69.671 Y85.344 E.73688
G1 X69.194 Y85.355 E.02394
G1 X79.564 Y95.725 E.7361
G1 X79.076 Y95.725 E.02449
M73 P9 R23
G1 X68.717 Y85.366 E.73531
G1 X68.24 Y85.377 E.02394
G1 X78.588 Y95.725 E.73453
G1 X78.1 Y95.725 E.02449
G1 X67.764 Y85.388 E.73375
G1 X67.287 Y85.399 E.02394
G1 X77.613 Y95.725 E.73296
G1 X77.125 Y95.725 E.02449
G1 X66.81 Y85.41 E.73218
G1 X66.333 Y85.421 E.02394
G1 X76.637 Y95.725 E.73139
G1 X76.149 Y95.725 E.02449
G1 X65.857 Y85.432 E.73061
G1 X65.38 Y85.443 E.02394
G1 X75.661 Y95.725 E.72982
G1 X75.174 Y95.725 E.02449
G1 X64.903 Y85.454 E.72904
G1 X64.426 Y85.465 E.02394
G1 X74.686 Y95.725 E.72825
G1 X74.198 Y95.725 E.02449
G1 X63.95 Y85.476 E.72747
G1 X63.473 Y85.487 E.02394
G1 X73.71 Y95.725 E.72668
G1 X73.222 Y95.725 E.02449
G1 X62.996 Y85.498 E.7259
G1 X62.519 Y85.509 E.02394
G1 X72.734 Y95.725 E.72511
G1 X72.247 Y95.725 E.02449
G1 X62.043 Y85.521 E.72433
G1 X61.566 Y85.532 E.02394
G1 X71.759 Y95.725 E.72354
G1 X71.271 Y95.725 E.02449
G1 X61.089 Y85.543 E.72276
G1 X60.612 Y85.554 E.02394
G1 X70.783 Y95.725 E.72198
G1 X70.295 Y95.725 E.02449
G1 X60.135 Y85.565 E.72119
G1 X59.659 Y85.576 E.02394
G1 X69.807 Y95.725 E.72041
G1 X69.32 Y95.725 E.02449
G1 X59.182 Y85.587 E.71962
G1 X58.705 Y85.598 E.02394
G1 X68.832 Y95.725 E.71884
G1 X68.344 Y95.725 E.02449
G1 X58.228 Y85.609 E.71805
G1 X57.752 Y85.62 E.02394
G1 X67.856 Y95.725 E.71727
G1 X67.368 Y95.725 E.02449
G1 X57.275 Y85.631 E.71648
G1 X56.798 Y85.642 E.02394
G1 X66.881 Y95.725 E.7157
G1 X66.393 Y95.725 E.02449
G1 X56.321 Y85.653 E.71491
G1 X55.845 Y85.664 E.02394
G1 X65.905 Y95.725 E.71413
G1 X65.417 Y95.725 E.02449
G1 X55.368 Y85.675 E.71334
G1 X54.891 Y85.686 E.02394
M73 P10 R23
G1 X64.929 Y95.725 E.71256
G1 X64.441 Y95.725 E.02449
G1 X54.414 Y85.697 E.71178
G1 X53.937 Y85.708 E.02394
G1 X63.954 Y95.725 E.71099
G1 X63.466 Y95.725 E.02449
G1 X53.461 Y85.719 E.71021
G1 X52.984 Y85.731 E.02394
G1 X62.978 Y95.725 E.70942
G1 X62.49 Y95.725 E.02449
G1 X52.507 Y85.742 E.70864
G1 X52.03 Y85.753 E.02394
G1 X62.002 Y95.725 E.70785
G1 X61.515 Y95.725 E.02449
G1 X51.554 Y85.764 E.70707
G1 X51.077 Y85.775 E.02394
G1 X61.027 Y95.725 E.70628
G1 X60.539 Y95.725 E.02449
G1 X50.6 Y85.786 E.7055
G1 X50.123 Y85.797 E.02394
G1 X60.051 Y95.725 E.70471
G1 X59.563 Y95.725 E.02449
G1 X49.647 Y85.808 E.70393
G1 X49.17 Y85.819 E.02394
G1 X59.075 Y95.725 E.70314
G1 X58.588 Y95.725 E.02449
G1 X48.693 Y85.83 E.70236
G1 X48.216 Y85.841 E.02394
G1 X58.1 Y95.725 E.70158
G1 X57.612 Y95.725 E.02449
G1 X47.74 Y85.852 E.70079
G1 X47.263 Y85.863 E.02394
G1 X57.124 Y95.725 E.70001
G1 X56.636 Y95.725 E.02449
G1 X46.786 Y85.874 E.69922
G1 X46.309 Y85.885 E.02394
G1 X56.149 Y95.725 E.69844
G1 X55.661 Y95.725 E.02449
G1 X45.832 Y85.896 E.69765
G1 X45.356 Y85.907 E.02394
G1 X55.173 Y95.725 E.69687
G1 X54.685 Y95.725 E.02449
G1 X44.879 Y85.918 E.69608
G1 X44.402 Y85.929 E.02394
G1 X54.197 Y95.725 E.6953
G1 X53.709 Y95.725 E.02449
G1 X43.925 Y85.941 E.69451
G1 X43.449 Y85.952 E.02394
G1 X53.222 Y95.725 E.69373
G1 X52.734 Y95.725 E.02449
G1 X42.972 Y85.963 E.69294
G1 X42.495 Y85.974 E.02394
G1 X52.246 Y95.725 E.69216
G1 X51.758 Y95.725 E.02449
G1 X42.018 Y85.985 E.69138
G1 X41.542 Y85.996 E.02394
G1 X51.27 Y95.725 E.69059
G1 X50.783 Y95.725 E.02449
G1 X41.065 Y86.007 E.68981
G1 X40.588 Y86.018 E.02394
M73 P11 R23
G1 X50.295 Y95.725 E.68902
G1 X49.807 Y95.725 E.02449
G1 X40.111 Y86.029 E.68824
G1 X39.634 Y86.04 E.02394
G1 X49.319 Y95.725 E.68745
G1 X48.831 Y95.725 E.02449
