; generated by PrusaSlicer 2.5.0+win64 on 2022-12-07 at 00:20:13 UTC

; 

; external perimeters extrusion width = 1.00mm
; perimeters extrusion width = 1.00mm
; infill extrusion width = 1.00mm
; solid infill extrusion width = 1.00mm
; top infill extrusion width = 1.00mm
; support material extrusion width = 1.00mm
; first layer extrusion width = 0.42mm

M73 P0 R567
M107
;TYPE:Custom
G90 ; use absolute coordinates
M83 ; extruder relative mode
M140 S60 ; set final bed temp
M104 S150 ; set temporary nozzle temp to prevent oozing during homing and auto bed leveling
G4 S10 ; allow partial nozzle warmup
G28 ; home all axisG1 Z50 F240
G1 X7.6 Y10 F3000
M104 S210 ; set final nozzle temp
M190 S60 ; wait for bed temp to stabilize
M109 S210 ; wait for nozzle temp to stabilize
G1 Z0.28 F240
G92 E0
G1 Y140 E10 F1500 ; prime the nozzle
G1 X4 F5000
G92 E0
G1 Y10 E10 F1200 ; prime the nozzle
G92 E0
G21 ; set units to millimeters
G90 ; use absolute coordinates
M83 ; use relative distances for extrusion
; Filament gcode
M107
;LAYER_CHANGE
;Z:0.35
;HEIGHT:0.35
;BEFORE_LAYER_CHANGE
G92 E0
;0.35


G1 E-1 F3600
G1 Z.35 F7800
;AFTER_LAYER_CHANGE
;0.35
G1 X171.268 Y167.876
G1 E1 F2400
;TYPE:Support material
;WIDTH:0.42
G1 F1800
G1 X8.732 Y167.876 E8.15705
G1 X8.732 Y141.047 E1.34642
G1 X171.268 Y141.047 E8.15705
G1 X171.268 Y167.824 E1.34383
M73 P0 R566
G1 X170.857 Y167.72 F7800
G1 F1800
G1 X170.857 Y141.357 E1.32306
G1 X170.474 Y141.357 E.01923
G1 X170.474 Y167.565 E1.31527
G1 X170.091 Y167.565 E.01923
G1 X170.091 Y141.357 E1.31527
G1 X169.708 Y141.357 E.01923
G1 X169.708 Y167.565 E1.31527
G1 X169.324 Y167.565 E.01923
G1 X169.324 Y141.357 E1.31527
G1 X168.941 Y141.357 E.01923
G1 X168.941 Y167.565 E1.31527
G1 X168.558 Y167.565 E.01923
G1 X168.558 Y141.357 E1.31527
G1 X168.175 Y141.357 E.01923
G1 X168.175 Y167.565 E1.31527
G1 X167.792 Y167.565 E.01923
G1 X167.792 Y141.357 E1.31527
G1 X167.408 Y141.357 E.01923
G1 X167.408 Y167.565 E1.31527
G1 X167.025 Y167.565 E.01923
G1 X167.025 Y141.357 E1.31527
G1 X166.642 Y141.357 E.01923
G1 X166.642 Y167.565 E1.31527
G1 X166.259 Y167.565 E.01923
G1 X166.259 Y141.357 E1.31527
G1 X165.876 Y141.357 E.01923
G1 X165.876 Y167.565 E1.31527
G1 X165.492 Y167.565 E.01923
G1 X165.492 Y141.357 E1.31527
G1 X165.109 Y141.357 E.01923
G1 X165.109 Y167.565 E1.31527
G1 X164.726 Y167.565 E.01923
G1 X164.726 Y141.357 E1.31527
G1 X164.343 Y141.357 E.01923
G1 X164.343 Y167.565 E1.31527
G1 X163.96 Y167.565 E.01923
G1 X163.96 Y141.357 E1.31527
G1 X163.576 Y141.357 E.01923
G1 X163.576 Y167.565 E1.31527
G1 X163.193 Y167.565 E.01923
G1 X163.193 Y141.357 E1.31527
G1 X162.81 Y141.357 E.01923
G1 X162.81 Y167.565 E1.31527
G1 X162.427 Y167.565 E.01923
G1 X162.427 Y141.357 E1.31527
G1 X162.043 Y141.357 E.01923
G1 X162.043 Y167.565 E1.31527
G1 X161.66 Y167.565 E.01923
G1 X161.66 Y141.357 E1.31527
G1 X161.277 Y141.357 E.01923
G1 X161.277 Y167.565 E1.31527
G1 X160.894 Y167.565 E.01923
G1 X160.894 Y141.357 E1.31527
G1 X160.511 Y141.357 E.01923
G1 X160.511 Y167.565 E1.31527
G1 X160.127 Y167.565 E.01923
G1 X160.127 Y141.357 E1.31527
G1 X159.744 Y141.357 E.01923
G1 X159.744 Y167.565 E1.31527
G1 X159.361 Y167.565 E.01923
G1 X159.361 Y141.357 E1.31527
G1 X158.978 Y141.357 E.01923
G1 X158.978 Y167.565 E1.31527
G1 X158.595 Y167.565 E.01923
G1 X158.595 Y141.357 E1.31527
G1 X158.211 Y141.357 E.01923
G1 X158.211 Y167.565 E1.31527
G1 X157.828 Y167.565 E.01923
G1 X157.828 Y141.357 E1.31527
G1 X157.445 Y141.357 E.01923
G1 X157.445 Y167.565 E1.31527
G1 X157.062 Y167.565 E.01923
G1 X157.062 Y141.357 E1.31527
G1 X156.679 Y141.357 E.01923
G1 X156.679 Y167.565 E1.31527
G1 X156.295 Y167.565 E.01923
G1 X156.295 Y141.357 E1.31527
G1 X155.912 Y141.357 E.01923
G1 X155.912 Y167.565 E1.31527
G1 X155.529 Y167.565 E.01923
G1 X155.529 Y141.357 E1.31527
G1 X155.146 Y141.357 E.01923
G1 X155.146 Y167.565 E1.31527
G1 X154.762 Y167.565 E.01923
G1 X154.762 Y141.357 E1.31527
G1 X154.379 Y141.357 E.01923
G1 X154.379 Y167.565 E1.31527
G1 X153.996 Y167.565 E.01923
G1 X153.996 Y141.357 E1.31527
G1 X153.613 Y141.357 E.01923
G1 X153.613 Y167.565 E1.31527
G1 X153.23 Y167.565 E.01923
G1 X153.23 Y141.357 E1.31527
G1 X152.846 Y141.357 E.01923
G1 X152.846 Y167.565 E1.31527
G1 X152.463 Y167.565 E.01923
G1 X152.463 Y141.357 E1.31527
G1 X152.08 Y141.357 E.01923
G1 X152.08 Y167.565 E1.31527
G1 X151.697 Y167.565 E.01923
G1 X151.697 Y141.357 E1.31527
G1 X151.314 Y141.357 E.01923
G1 X151.314 Y167.565 E1.31527
G1 X150.93 Y167.565 E.01923
G1 X150.93 Y141.357 E1.31527
G1 X150.547 Y141.357 E.01923
G1 X150.547 Y167.565 E1.31527
G1 X150.164 Y167.565 E.01923
G1 X150.164 Y141.357 E1.31527
G1 X149.781 Y141.357 E.01923
G1 X149.781 Y167.565 E1.31527
G1 X149.398 Y167.565 E.01923
G1 X149.398 Y141.357 E1.31527
G1 X149.014 Y141.357 E.01923
G1 X149.014 Y167.565 E1.31527
G1 X148.631 Y167.565 E.01923
G1 X148.631 Y141.357 E1.31527
G1 X148.248 Y141.357 E.01923
G1 X148.248 Y167.565 E1.31527
G1 X147.865 Y167.565 E.01923
G1 X147.865 Y141.357 E1.31527
G1 X147.481 Y141.357 E.01923
G1 X147.481 Y167.565 E1.31527
G1 X147.098 Y167.565 E.01923
M73 P0 R565
G1 X147.098 Y141.357 E1.31527
G1 X146.715 Y141.357 E.01923
G1 X146.715 Y167.565 E1.31527
G1 X146.332 Y167.565 E.01923
G1 X146.332 Y141.357 E1.31527
G1 X145.949 Y141.357 E.01923
G1 X145.949 Y167.565 E1.31527
G1 X145.565 Y167.565 E.01923
G1 X145.565 Y141.357 E1.31527
G1 X145.182 Y141.357 E.01923
G1 X145.182 Y167.565 E1.31527
G1 X144.799 Y167.565 E.01923
G1 X144.799 Y141.357 E1.31527
G1 X144.416 Y141.357 E.01923
G1 X144.416 Y167.565 E1.31527
G1 X144.033 Y167.565 E.01923
G1 X144.033 Y141.357 E1.31527
G1 X143.649 Y141.357 E.01923
G1 X143.649 Y167.565 E1.31527
G1 X143.266 Y167.565 E.01923
G1 X143.266 Y141.357 E1.31527
G1 X142.883 Y141.357 E.01923
G1 X142.883 Y167.565 E1.31527
G1 X142.5 Y167.565 E.01923
G1 X142.5 Y141.357 E1.31527
G1 X142.117 Y141.357 E.01923
G1 X142.117 Y167.565 E1.31527
G1 X141.733 Y167.565 E.01923
G1 X141.733 Y141.357 E1.31527
G1 X141.35 Y141.357 E.01923
G1 X141.35 Y167.565 E1.31527
G1 X140.967 Y167.565 E.01923
G1 X140.967 Y141.357 E1.31527
G1 X140.584 Y141.357 E.01923
G1 X140.584 Y167.565 E1.31527
G1 X140.201 Y167.565 E.01923
G1 X140.201 Y141.357 E1.31527
G1 X139.817 Y141.357 E.01923
G1 X139.817 Y167.565 E1.31527
G1 X139.434 Y167.565 E.01923
G1 X139.434 Y141.357 E1.31527
G1 X139.051 Y141.357 E.01923
G1 X139.051 Y167.565 E1.31527
G1 X138.668 Y167.565 E.01923
G1 X138.668 Y141.357 E1.31527
G1 X138.284 Y141.357 E.01923
G1 X138.284 Y167.565 E1.31527
G1 X137.901 Y167.565 E.01923
G1 X137.901 Y141.357 E1.31527
G1 X137.518 Y141.357 E.01923
G1 X137.518 Y167.565 E1.31527
G1 X137.135 Y167.565 E.01923
G1 X137.135 Y141.357 E1.31527
G1 X136.752 Y141.357 E.01923
G1 X136.752 Y167.565 E1.31527
G1 X136.368 Y167.565 E.01923
G1 X136.368 Y141.357 E1.31527
G1 X135.985 Y141.357 E.01923
G1 X135.985 Y167.565 E1.31527
G1 X135.602 Y167.565 E.01923
G1 X135.602 Y141.357 E1.31527
G1 X135.219 Y141.357 E.01923
G1 X135.219 Y167.565 E1.31527
G1 X134.836 Y167.565 E.01923
G1 X134.836 Y141.357 E1.31527
G1 X134.452 Y141.357 E.01923
G1 X134.452 Y167.565 E1.31527
G1 X134.069 Y167.565 E.01923
G1 X134.069 Y141.357 E1.31527
G1 X133.686 Y141.357 E.01923
G1 X133.686 Y167.565 E1.31527
G1 X133.303 Y167.565 E.01923
G1 X133.303 Y141.357 E1.31527
G1 X132.92 Y141.357 E.01923
G1 X132.92 Y167.565 E1.31527
G1 X132.536 Y167.565 E.01923
G1 X132.536 Y141.357 E1.31527
G1 X132.153 Y141.357 E.01923
G1 X132.153 Y167.565 E1.31527
G1 X131.77 Y167.565 E.01923
G1 X131.77 Y141.357 E1.31527
G1 X131.387 Y141.357 E.01923
G1 X131.387 Y167.565 E1.31527
G1 X131.003 Y167.565 E.01923
G1 X131.003 Y141.357 E1.31527
G1 X130.62 Y141.357 E.01923
G1 X130.62 Y167.565 E1.31527
G1 X130.237 Y167.565 E.01923
G1 X130.237 Y141.357 E1.31527
G1 X129.854 Y141.357 E.01923
G1 X129.854 Y167.565 E1.31527
G1 X129.471 Y167.565 E.01923
G1 X129.471 Y141.357 E1.31527
G1 X129.087 Y141.357 E.01923
G1 X129.087 Y167.565 E1.31527
G1 X128.704 Y167.565 E.01923
G1 X128.704 Y141.357 E1.31527
G1 X128.321 Y141.357 E.01923
G1 X128.321 Y167.565 E1.31527
G1 X127.938 Y167.565 E.01923
G1 X127.938 Y141.357 E1.31527
G1 X127.555 Y141.357 E.01923
G1 X127.555 Y167.565 E1.31527
G1 X127.171 Y167.565 E.01923
G1 X127.171 Y141.357 E1.31527
G1 X126.788 Y141.357 E.01923
G1 X126.788 Y167.565 E1.31527
G1 X126.405 Y167.565 E.01923
G1 X126.405 Y141.357 E1.31527
G1 X126.022 Y141.357 E.01923
G1 X126.022 Y167.565 E1.31527
G1 X125.639 Y167.565 E.01923
G1 X125.639 Y141.357 E1.31527
G1 X125.255 Y141.357 E.01923
G1 X125.255 Y167.565 E1.31527
G1 X124.872 Y167.565 E.01923
G1 X124.872 Y141.357 E1.31527
G1 X124.489 Y141.357 E.01923
G1 X124.489 Y167.565 E1.31527
G1 X124.106 Y167.565 E.01923
G1 X124.106 Y141.357 E1.31527
G1 X123.722 Y141.357 E.01923
G1 X123.722 Y167.565 E1.31527
G1 X123.339 Y167.565 E.01923
G1 X123.339 Y141.357 E1.31527
G1 X122.956 Y141.357 E.01923
G1 X122.956 Y167.565 E1.31527
G1 X122.573 Y167.565 E.01923
M73 P0 R564
G1 X122.573 Y141.357 E1.31527
G1 X122.19 Y141.357 E.01923
G1 X122.19 Y167.565 E1.31527
G1 X121.806 Y167.565 E.01923
G1 X121.806 Y141.357 E1.31527
G1 X121.423 Y141.357 E.01923
G1 X121.423 Y167.565 E1.31527
G1 X121.04 Y167.565 E.01923
G1 X121.04 Y141.357 E1.31527
G1 X120.657 Y141.357 E.01923
G1 X120.657 Y167.565 E1.31527
G1 X120.274 Y167.565 E.01923
G1 X120.274 Y141.357 E1.31527
G1 X119.89 Y141.357 E.01923
G1 X119.89 Y167.565 E1.31527
G1 X119.507 Y167.565 E.01923
G1 X119.507 Y141.357 E1.31527
G1 X119.124 Y141.357 E.01923
G1 X119.124 Y167.565 E1.31527
G1 X118.741 Y167.565 E.01923
G1 X118.741 Y141.357 E1.31527
G1 X118.358 Y141.357 E.01923
G1 X118.358 Y167.565 E1.31527
G1 X117.974 Y167.565 E.01923
G1 X117.974 Y141.357 E1.31527
G1 X117.591 Y141.357 E.01923
G1 X117.591 Y167.565 E1.31527
G1 X117.208 Y167.565 E.01923
G1 X117.208 Y141.357 E1.31527
G1 X116.825 Y141.357 E.01923
G1 X116.825 Y167.565 E1.31527
G1 X116.441 Y167.565 E.01923
G1 X116.441 Y141.357 E1.31527
G1 X116.058 Y141.357 E.01923
G1 X116.058 Y167.565 E1.31527
G1 X115.675 Y167.565 E.01923
G1 X115.675 Y141.357 E1.31527
G1 X115.292 Y141.357 E.01923
G1 X115.292 Y167.565 E1.31527
G1 X114.909 Y167.565 E.01923
G1 X114.909 Y141.357 E1.31527
G1 X114.525 Y141.357 E.01923
G1 X114.525 Y167.565 E1.31527
G1 X114.142 Y167.565 E.01923
G1 X114.142 Y141.357 E1.31527
G1 X113.759 Y141.357 E.01923
G1 X113.759 Y167.565 E1.31527
G1 X113.376 Y167.565 E.01923
G1 X113.376 Y141.357 E1.31527
G1 X112.993 Y141.357 E.01923
G1 X112.993 Y167.565 E1.31527
G1 X112.609 Y167.565 E.01923
G1 X112.609 Y141.357 E1.31527
G1 X112.226 Y141.357 E.01923
G1 X112.226 Y167.565 E1.31527
G1 X111.843 Y167.565 E.01923
G1 X111.843 Y141.357 E1.31527
G1 X111.46 Y141.357 E.01923
G1 X111.46 Y167.565 E1.31527
G1 X111.077 Y167.565 E.01923
G1 X111.077 Y141.357 E1.31527
G1 X110.693 Y141.357 E.01923
G1 X110.693 Y167.565 E1.31527
G1 X110.31 Y167.565 E.01923
G1 X110.31 Y141.357 E1.31527
G1 X109.927 Y141.357 E.01923
G1 X109.927 Y167.565 E1.31527
G1 X109.544 Y167.565 E.01923
G1 X109.544 Y141.357 E1.31527
G1 X109.16 Y141.357 E.01923
G1 X109.16 Y167.565 E1.31527
G1 X108.777 Y167.565 E.01923
G1 X108.777 Y141.357 E1.31527
G1 X108.394 Y141.357 E.01923
G1 X108.394 Y167.565 E1.31527
G1 X108.011 Y167.565 E.01923
G1 X108.011 Y141.357 E1.31527
G1 X107.628 Y141.357 E.01923
G1 X107.628 Y167.565 E1.31527
G1 X107.244 Y167.565 E.01923
G1 X107.244 Y141.357 E1.31527
G1 X106.861 Y141.357 E.01923
G1 X106.861 Y167.565 E1.31527
G1 X106.478 Y167.565 E.01923
G1 X106.478 Y141.357 E1.31527
G1 X106.095 Y141.357 E.01923
G1 X106.095 Y167.565 E1.31527
G1 X105.712 Y167.565 E.01923
G1 X105.712 Y141.357 E1.31527
G1 X105.328 Y141.357 E.01923
G1 X105.328 Y167.565 E1.31527
G1 X104.945 Y167.565 E.01923
G1 X104.945 Y141.357 E1.31527
G1 X104.562 Y141.357 E.01923
G1 X104.562 Y167.565 E1.31527
G1 X104.179 Y167.565 E.01923
G1 X104.179 Y141.357 E1.31527
G1 X103.796 Y141.357 E.01923
G1 X103.796 Y167.565 E1.31527
G1 X103.412 Y167.565 E.01923
G1 X103.412 Y141.357 E1.31527
G1 X103.029 Y141.357 E.01923
G1 X103.029 Y167.565 E1.31527
G1 X102.646 Y167.565 E.01923
G1 X102.646 Y141.357 E1.31527
G1 X102.263 Y141.357 E.01923
G1 X102.263 Y167.565 E1.31527
G1 X101.88 Y167.565 E.01923
G1 X101.88 Y141.357 E1.31527
G1 X101.496 Y141.357 E.01923
G1 X101.496 Y167.565 E1.31527
G1 X101.113 Y167.565 E.01923
G1 X101.113 Y141.357 E1.31527
G1 X100.73 Y141.357 E.01923
G1 X100.73 Y167.565 E1.31527
G1 X100.347 Y167.565 E.01923
G1 X100.347 Y141.357 E1.31527
G1 X99.963 Y141.357 E.01923
G1 X99.963 Y167.565 E1.31527
G1 X99.58 Y167.565 E.01923
G1 X99.58 Y141.357 E1.31527
G1 X99.197 Y141.357 E.01923
G1 X99.197 Y167.565 E1.31527
G1 X98.814 Y167.565 E.01923
G1 X98.814 Y141.357 E1.31527
G1 X98.431 Y141.357 E.01923
G1 X98.431 Y167.565 E1.31527
M73 P0 R563
G1 X98.047 Y167.565 E.01923
G1 X98.047 Y141.357 E1.31527
G1 X97.664 Y141.357 E.01923
G1 X97.664 Y167.565 E1.31527
G1 X97.281 Y167.565 E.01923
G1 X97.281 Y141.357 E1.31527
G1 X96.898 Y141.357 E.01923
G1 X96.898 Y167.565 E1.31527
G1 X96.515 Y167.565 E.01923
G1 X96.515 Y141.357 E1.31527
G1 X96.131 Y141.357 E.01923
G1 X96.131 Y167.565 E1.31527
G1 X95.748 Y167.565 E.01923
G1 X95.748 Y141.357 E1.31527
G1 X95.365 Y141.357 E.01923
G1 X95.365 Y167.565 E1.31527
G1 X94.982 Y167.565 E.01923
G1 X94.982 Y141.357 E1.31527
G1 X94.599 Y141.357 E.01923
G1 X94.599 Y167.565 E1.31527
G1 X94.215 Y167.565 E.01923
G1 X94.215 Y141.357 E1.31527
G1 X93.832 Y141.357 E.01923
G1 X93.832 Y167.565 E1.31527
G1 X93.449 Y167.565 E.01923
G1 X93.449 Y141.357 E1.31527
G1 X93.066 Y141.357 E.01923
G1 X93.066 Y167.565 E1.31527
G1 X92.682 Y167.565 E.01923
G1 X92.682 Y141.357 E1.31527
G1 X92.299 Y141.357 E.01923
G1 X92.299 Y167.565 E1.31527
G1 X91.916 Y167.565 E.01923
G1 X91.916 Y141.357 E1.31527
G1 X91.533 Y141.357 E.01923
G1 X91.533 Y167.565 E1.31527
G1 X91.15 Y167.565 E.01923
G1 X91.15 Y141.357 E1.31527
G1 X90.766 Y141.357 E.01923
G1 X90.766 Y167.565 E1.31527
G1 X90.383 Y167.565 E.01923
G1 X90.383 Y141.357 E1.31527
G1 X90 Y141.357 E.01923
G1 X90 Y167.565 E1.31527
G1 X89.617 Y167.565 E.01923
G1 X89.617 Y141.357 E1.31527
G1 X89.234 Y141.357 E.01923
G1 X89.234 Y167.565 E1.31527
G1 X88.85 Y167.565 E.01923
G1 X88.85 Y141.357 E1.31527
G1 X88.467 Y141.357 E.01923
G1 X88.467 Y167.565 E1.31527
G1 X88.084 Y167.565 E.01923
G1 X88.084 Y141.357 E1.31527
G1 X87.701 Y141.357 E.01923
G1 X87.701 Y167.565 E1.31527
G1 X87.318 Y167.565 E.01923
G1 X87.318 Y141.357 E1.31527
G1 X86.934 Y141.357 E.01923
G1 X86.934 Y167.565 E1.31527
G1 X86.551 Y167.565 E.01923
G1 X86.551 Y141.357 E1.31527
G1 X86.168 Y141.357 E.01923
G1 X86.168 Y167.565 E1.31527
G1 X85.785 Y167.565 E.01923
G1 X85.785 Y141.357 E1.31527
G1 X85.401 Y141.357 E.01923
G1 X85.401 Y167.565 E1.31527
G1 X85.018 Y167.565 E.01923
G1 X85.018 Y141.357 E1.31527
G1 X84.635 Y141.357 E.01923
G1 X84.635 Y167.565 E1.31527
G1 X84.252 Y167.565 E.01923
G1 X84.252 Y141.357 E1.31527
G1 X83.869 Y141.357 E.01923
G1 X83.869 Y167.565 E1.31527
G1 X83.485 Y167.565 E.01923
G1 X83.485 Y141.357 E1.31527
G1 X83.102 Y141.357 E.01923
G1 X83.102 Y167.565 E1.31527
G1 X82.719 Y167.565 E.01923
G1 X82.719 Y141.357 E1.31527
G1 X82.336 Y141.357 E.01923
G1 X82.336 Y167.565 E1.31527
G1 X81.953 Y167.565 E.01923
G1 X81.953 Y141.357 E1.31527
G1 X81.569 Y141.357 E.01923
G1 X81.569 Y167.565 E1.31527
G1 X81.186 Y167.565 E.01923
G1 X81.186 Y141.357 E1.31527
G1 X80.803 Y141.357 E.01923
G1 X80.803 Y167.565 E1.31527
G1 X80.42 Y167.565 E.01923
G1 X80.42 Y141.357 E1.31527
G1 X80.037 Y141.357 E.01923
G1 X80.037 Y167.565 E1.31527
G1 X79.653 Y167.565 E.01923
G1 X79.653 Y141.357 E1.31527
G1 X79.27 Y141.357 E.01923
G1 X79.27 Y167.565 E1.31527
G1 X78.887 Y167.565 E.01923
G1 X78.887 Y141.357 E1.31527
G1 X78.504 Y141.357 E.01923
G1 X78.504 Y167.565 E1.31527
G1 X78.12 Y167.565 E.01923
G1 X78.12 Y141.357 E1.31527
G1 X77.737 Y141.357 E.01923
G1 X77.737 Y167.565 E1.31527
G1 X77.354 Y167.565 E.01923
G1 X77.354 Y141.357 E1.31527
G1 X76.971 Y141.357 E.01923
G1 X76.971 Y167.565 E1.31527
G1 X76.588 Y167.565 E.01923
G1 X76.588 Y141.357 E1.31527
G1 X76.204 Y141.357 E.01923
G1 X76.204 Y167.565 E1.31527
G1 X75.821 Y167.565 E.01923
G1 X75.821 Y141.357 E1.31527
G1 X75.438 Y141.357 E.01923
G1 X75.438 Y167.565 E1.31527
G1 X75.055 Y167.565 E.01923
