; generated by PrusaSlicer 2.5.0+win64 on 2022-12-07 at 00:25:01 UTC

; 

; external perimeters extrusion width = 1.00mm
; perimeters extrusion width = 1.00mm
; infill extrusion width = 1.00mm
; solid infill extrusion width = 1.00mm
; top infill extrusion width = 1.00mm
; support material extrusion width = 1.00mm
; first layer extrusion width = 0.42mm

M73 P0 R295
M107
;TYPE:Custom
G90 ; use absolute coordinates
M83 ; extruder relative mode
M140 S60 ; set final bed temp
M104 S150 ; set temporary nozzle temp to prevent oozing during homing and auto bed leveling
G4 S10 ; allow partial nozzle warmup
G28 ; home all axisG1 Z50 F240
G1 X7.6 Y10 F3000
M104 S210 ; set final nozzle temp
M190 S60 ; wait for bed temp to stabilize
M109 S210 ; wait for nozzle temp to stabilize
G1 Z0.28 F240
G92 E0
G1 Y140 E10 F1500 ; prime the nozzle
G1 X4 F5000
G92 E0
G1 Y10 E10 F1200 ; prime the nozzle
G92 E0
G21 ; set units to millimeters
G90 ; use absolute coordinates
M83 ; use relative distances for extrusion
; Filament gcode
M107
;LAYER_CHANGE
;Z:0.35
;HEIGHT:0.35
;BEFORE_LAYER_CHANGE
G92 E0
;0.35


G1 E-1 F3600
G1 Z.35 F7800
;AFTER_LAYER_CHANGE
;0.35
G1 X66.343 Y14.959
G1 E1 F2400
;TYPE:Support material interface
;WIDTH:1
G1 F1800
G1 X66.343 Y22.146 E.96727
G1 X67.236 Y22.146 E.12014
G1 X67.236 Y15.361 E.91321
G1 X68.129 Y15.361 E.12014
G1 X68.129 Y22.146 E.91321
G1 X69.022 Y22.146 E.12014
G1 X69.022 Y15.361 E.91321
G1 X69.914 Y15.361 E.12014
G1 X69.914 Y25.539 E1.36981
G1 X70.807 Y25.539 E.12014
G1 X70.807 Y15.361 E1.36981
G1 X71.7 Y15.361 E.12014
G1 X71.7 Y25.539 E1.36981
G1 X72.592 Y25.539 E.12014
G1 X72.592 Y15.361 E1.36981
G1 X73.485 Y15.361 E.12014
G1 X73.485 Y28.931 E1.82641
G1 X74.378 Y28.931 E.12014
G1 X74.378 Y15.361 E1.82641
G1 X75.27 Y15.361 E.12014
G1 X75.27 Y28.931 E1.82641
G1 X76.163 Y28.931 E.12014
G1 X76.163 Y15.361 E1.82641
G1 X77.056 Y15.361 E.12014
G1 X77.056 Y35.717 E2.73961
G1 X77.949 Y35.717 E.12014
G1 X77.949 Y15.361 E2.73961
G1 X78.841 Y15.361 E.12014
G1 X78.841 Y35.717 E2.73961
G1 X79.734 Y35.717 E.12014
G1 X79.734 Y15.361 E2.73961
G1 X80.627 Y15.361 E.12014
G1 X80.627 Y39.11 E3.19621
G1 X81.519 Y39.11 E.12014
G1 X81.519 Y15.361 E3.19621
G1 X82.412 Y15.361 E.12014
G1 X82.412 Y39.11 E3.19621
G1 X83.215 Y39.11 E.10801
G1 X83.215 Y42.502 E.4566
G1 X83.305 Y42.502 E.01213
G1 X83.305 Y15.361 E3.65282
G1 X84.197 Y15.361 E.12014
G1 X84.197 Y42.502 E3.65282
G1 X85.09 Y42.502 E.12014
G1 X85.09 Y15.361 E3.65282
G1 X85.983 Y15.361 E.12014
G1 X85.983 Y42.502 E3.65282
G1 X86.607 Y42.502 E.08404
G1 X86.607 Y49.288 E.9132
G1 X86.876 Y49.288 E.0361
G1 X86.876 Y15.361 E4.56602
G1 X87.768 Y15.361 E.12014
G1 X87.768 Y49.288 E4.56602
G1 X88.661 Y49.288 E.12014
G1 X88.661 Y15.361 E4.56602
G1 X89.554 Y15.361 E.12014
G1 X89.554 Y49.288 E4.56602
G1 X90 Y49.288 E.06007
M73 P0 R294
G1 X90 Y52.68 E.4566
G1 X90.446 Y52.68 E.06007
G1 X90.446 Y15.361 E5.02262
G1 X91.339 Y15.361 E.12014
G1 X91.339 Y52.68 E5.02262
G1 X92.232 Y52.68 E.12014
G1 X92.232 Y15.361 E5.02262
G1 X93.124 Y15.361 E.12014
G1 X93.124 Y52.68 E5.02262
G1 X93.393 Y52.68 E.03611
G1 X93.393 Y59.466 E.9132
G1 X94.017 Y59.466 E.08404
G1 X94.017 Y15.361 E5.93582
G1 X94.91 Y15.361 E.12014
G1 X94.91 Y59.466 E5.93582
G1 X95.802 Y59.466 E.12014
G1 X95.802 Y15.361 E5.93582
G1 X96.695 Y15.361 E.12014
G1 X96.695 Y59.466 E5.93582
G1 X96.785 Y59.466 E.01214
G1 X96.785 Y62.858 E.4566
G1 X97.588 Y62.858 E.10801
G1 X97.588 Y15.361 E6.39242
G1 X98.481 Y15.361 E.12014
G1 X98.481 Y62.858 E6.39242
G1 X99.373 Y62.858 E.12014
G1 X99.373 Y15.361 E6.39242
G1 X100.266 Y15.361 E.12014
G1 X100.266 Y66.251 E6.84903
G1 X101.159 Y66.251 E.12014
G1 X101.159 Y15.361 E6.84903
G1 X102.051 Y15.361 E.12014
G1 X102.051 Y66.251 E6.84903
G1 X102.944 Y66.251 E.12014
G1 X102.944 Y15.361 E6.84903
G1 X103.837 Y15.361 E.12014
G1 X103.837 Y73.037 E7.76223
G1 X104.729 Y73.037 E.12014
G1 X104.729 Y15.361 E7.76223
G1 X105.622 Y15.361 E.12014
G1 X105.622 Y73.037 E7.76223
G1 X106.515 Y73.037 E.12014
G1 X106.515 Y15.361 E7.76223
G1 X107.408 Y15.361 E.12014
G1 X107.408 Y76.429 E8.21883
G1 X108.3 Y76.429 E.12014
G1 X108.3 Y15.361 E8.21883
G1 X109.193 Y15.361 E.12014
G1 X109.193 Y76.429 E8.21883
G1 X110.086 Y76.429 E.12014
G1 X110.086 Y15.361 E8.21883
G1 X110.978 Y15.361 E.12014
G1 X110.978 Y79.822 E8.67543
G1 X111.871 Y79.822 E.12014
G1 X111.871 Y15.361 E8.67543
G1 X112.764 Y15.361 E.12014
G1 X112.764 Y80.224 E8.7295
G1 E-.7 F3600
;WIPE_START
G1 F6240
G1 X112.764 Y79.704 E-.285
;WIPE_END
G1 E-.015 F3600
G1 X140.437 Y14.959 F7800
G1 E1 F2400
G1 F1800
G1 X140.437 Y15.678 E.09682
G1 X139.545 Y15.678 E.12014
G1 X139.545 Y15.361 E.04276
G1 X138.652 Y15.361 E.12014
G1 X138.652 Y15.678 E.04276
G1 X137.759 Y15.678 E.12014
G1 X137.759 Y15.361 E.04276
G1 X136.867 Y15.361 E.12014
G1 X136.867 Y15.678 E.04276
G1 X135.974 Y15.678 E.12014
G1 X135.974 Y15.361 E.04276
G1 X135.081 Y15.361 E.12014
G1 X135.081 Y15.678 E.04276
G1 X134.189 Y15.678 E.12014
G1 X134.189 Y15.361 E.04276
G1 X133.296 Y15.361 E.12014
G1 X133.296 Y15.678 E.04276
G1 X132.403 Y15.678 E.12014
G1 X132.403 Y15.361 E.04276
G1 X131.51 Y15.361 E.12014
G1 X131.51 Y15.678 E.04276
G1 X130.618 Y15.678 E.12014
G1 X130.618 Y15.361 E.04276
G1 X129.725 Y15.361 E.12014
G1 X129.725 Y15.678 E.04276
G1 X128.832 Y15.678 E.12014
G1 X128.832 Y15.361 E.04276
G1 X127.94 Y15.361 E.12014
G1 X127.94 Y15.678 E.04276
G1 X127.047 Y15.678 E.12014
G1 X127.047 Y15.361 E.04276
G1 X126.154 Y15.361 E.12014
G1 X126.154 Y15.678 E.04276
G1 X125.262 Y15.678 E.12014
G1 X125.262 Y15.361 E.04276
G1 X124.369 Y15.361 E.12014
G1 X124.369 Y15.678 E.04276
G1 X123.476 Y15.678 E.12014
G1 X123.476 Y15.361 E.04276
G1 X122.583 Y15.361 E.12014
G1 X122.583 Y15.678 E.04276
G1 X121.691 Y15.678 E.12014
G1 X121.691 Y15.361 E.04276
G1 X120.798 Y15.361 E.12014
G1 X120.798 Y15.678 E.04276
G1 X119.905 Y15.678 E.12014
G1 X119.905 Y15.361 E.04276
G1 X119.013 Y15.361 E.12014
G1 X119.013 Y15.678 E.04276
G1 X118.12 Y15.678 E.12014
G1 X118.12 Y15.361 E.04276
G1 X117.227 Y15.361 E.12014
G1 X117.227 Y15.678 E.04276
G1 X116.335 Y15.678 E.12014
G1 X116.335 Y15.361 E.04276
G1 X115.442 Y15.361 E.12014
G1 X115.442 Y15.678 E.04276
G1 X114.624 Y15.678 E.11005
G1 X114.549 Y15.827 E.0224
G1 X114.549 Y15.361 E.06276
G1 X113.656 Y15.361 E.12014
G1 X113.656 Y79.822 E8.67543
G1 X113.749 Y79.822 E.01243
G1 X113.749 Y86.607 E.9132
G1 X114.549 Y86.607 E.10771
G1 X114.549 Y18.252 E9.19945
G1 X115.442 Y19.461 E.20224
G1 X115.442 Y86.607 E9.03676
G1 X116.335 Y86.607 E.12014
G1 X116.335 Y20.67 E8.87407
G1 X117.227 Y21.879 E.20224
M73 P0 R293
G1 X117.227 Y90 E9.16798
G1 X118.12 Y90 E.12014
G1 X118.12 Y23.088 E9.00529
G1 X119.013 Y24.297 E.20224
G1 X119.013 Y90 E8.84259
G1 X119.905 Y90 E.12014
G1 X119.905 Y25.506 E8.6799
G1 X120.798 Y26.714 E.20224
G1 X120.798 Y93.393 E8.97381
G1 X121.691 Y93.393 E.12014
G1 X121.691 Y27.923 E8.81112
G1 X122.583 Y29.132 E.20224
G1 X122.583 Y93.393 E8.64843
G1 X123.476 Y93.393 E.12014
G1 X123.476 Y30.341 E8.48574
G1 X124.369 Y31.55 E.20224
G1 X124.369 Y100.178 E9.23625
G1 X125.262 Y100.178 E.12014
G1 X125.262 Y32.759 E9.07356
G1 X126.154 Y33.967 E.20224
G1 X126.154 Y100.178 E8.91087
G1 X127.047 Y100.178 E.12014
G1 X127.047 Y35.176 E8.74818
G1 X127.94 Y36.385 E.20224
G1 X127.94 Y103.571 E9.04209
G1 X128.832 Y103.571 E.12014
G1 X128.832 Y37.594 E8.8794
G1 X129.725 Y38.803 E.20224
G1 X129.725 Y103.571 E8.71671
G1 X130.618 Y103.571 E.12014
G1 X130.618 Y40.012 E8.55402
G1 X131.51 Y41.22 E.20224
G1 X131.51 Y106.964 E8.84793
G1 X132.403 Y106.964 E.12014
G1 X132.403 Y42.429 E8.68524
G1 X133.296 Y43.638 E.20224
G1 X133.296 Y106.964 E8.52255
G1 X134.105 Y106.964 E.10891
G1 X134.105 Y113.749 E.9132
G1 X134.189 Y113.749 E.01124
G1 X134.189 Y44.847 E9.27306
G1 X135.081 Y46.056 E.20224
G1 X135.081 Y113.749 E9.11037
G1 X135.974 Y113.749 E.12014
G1 X135.974 Y47.265 E8.94768
G1 X136.867 Y48.474 E.20224
G1 X136.867 Y113.749 E8.78499
G1 X137.498 Y113.749 E.08494
G1 X137.498 Y117.142 E.4566
G1 X137.759 Y117.142 E.0352
G1 X137.759 Y49.682 E9.0789
G1 X138.652 Y50.891 E.20224
G1 X138.652 Y117.142 E8.91621
G1 X139.545 Y117.142 E.12014
G1 X139.545 Y52.1 E8.75352
G1 X140.437 Y53.309 E.20224
M73 P0 R292
G1 X140.437 Y117.142 E8.59083
G1 X140.89 Y117.142 E.06097
G1 X140.89 Y120.534 E.4566
G1 X141.33 Y120.534 E.05917
G1 X141.33 Y54.518 E8.88474
G1 X142.223 Y55.727 E.20224
G1 X142.223 Y120.534 E8.72205
G1 X143.116 Y120.534 E.12014
G1 X143.116 Y56.935 E8.55936
G1 X144.008 Y58.144 E.20224
G1 X144.008 Y120.534 E8.39667
G1 X144.283 Y120.534 E.037
G1 X144.283 Y127.32 E.9132
G1 X144.901 Y127.32 E.08314
G1 X144.901 Y59.353 E9.14718
G1 X145.794 Y60.562 E.20224
G1 X145.794 Y127.32 E8.98449
G1 X146.686 Y127.32 E.12014
G1 X146.686 Y61.771 E8.8218
G1 X147.579 Y62.98 E.20224
G1 X147.579 Y127.32 E8.65911
G1 X147.676 Y127.32 E.01303
G1 X147.676 Y130.712 E.4566
G1 X148.472 Y130.712 E.10711
G1 X148.472 Y64.189 E8.95302
G1 X149.364 Y65.397 E.20224
G1 X149.364 Y130.712 E8.79033
G1 X150.257 Y130.712 E.12014
M73 P1 R292
G1 X150.257 Y66.606 E8.62764
G1 X151.15 Y67.815 E.20224
G1 X151.15 Y137.498 E9.37815
G1 X152.043 Y137.498 E.12014
G1 X152.043 Y69.024 E9.21546
G1 X152.935 Y70.233 E.20224
G1 X152.935 Y137.498 E9.05277
G1 X153.828 Y137.498 E.12014
G1 X153.828 Y71.442 E8.89008
G1 X154.721 Y72.65 E.20224
G1 X154.721 Y140.891 E9.18399
G1 X155.613 Y140.891 E.12014
G1 X155.613 Y73.859 E9.0213
G1 X156.506 Y75.068 E.20224
G1 X156.506 Y140.891 E8.85861
G1 X157.399 Y140.891 E.12014
G1 X157.399 Y76.277 E8.69592
G1 X158.291 Y77.486 E.20224
G1 X158.291 Y144.283 E8.98983
G1 X159.184 Y144.283 E.12014
G1 X159.184 Y78.695 E8.82714
G1 X160.077 Y79.904 E.20224
G1 X160.077 Y144.283 E8.66445
G1 X160.97 Y144.283 E.12014
G1 X160.97 Y81.112 E8.50176
G1 X161.862 Y82.321 E.20224
G1 X161.862 Y151.069 E9.25227
G1 X162.755 Y151.069 E.12014
G1 X162.755 Y83.53 E9.08958
G1 X163.648 Y84.739 E.20224
M73 P1 R291
G1 X163.648 Y151.069 E8.92689
G1 X164.54 Y151.069 E.12014
G1 X164.54 Y85.948 E8.7642
G1 X164.987 Y86.552 E.10114
G1 X165.433 Y86.405 E.06323
G1 X165.433 Y151.069 E8.70261
G1 X166.326 Y151.069 E.12014
G1 X166.326 Y86.111 E8.74216
G1 X166.975 Y85.898 E.09198
G1 X166.975 Y52.68 E4.47052
G1 X167.218 Y52.68 E.03278
G1 X167.218 Y151.47 E13.29551
G1 E-.7 F3600
;WIPE_START
G1 F6240
G1 X167.218 Y150.95 E-.285
;WIPE_END
G1 E-.015 F3600
G1 X68.595 Y14.704 F7800
G1 E1 F2400
;TYPE:Support material
;WIDTH:0.42
G1 F1800
G1 X65.595 Y14.704 E.15056
G1 X65.595 Y22.803 E.40642
G1 X68.987 Y22.803 E.17027
G1 X68.987 Y26.195 E.17027
G1 X72.38 Y26.195 E.17027
G1 X72.38 Y29.588 E.17027
G1 X75.773 Y29.588 E.17027
G1 X75.773 Y36.373 E.34053
G1 X79.165 Y36.373 E.17027
G1 X79.165 Y39.766 E.17027
G1 X82.558 Y39.766 E.17027
G1 X82.558 Y43.159 E.17027
G1 X85.951 Y43.159 E.17027
G1 X85.951 Y49.944 E.34053
G1 X89.344 Y49.944 E.17027
G1 X89.344 Y53.337 E.17027
G1 X92.736 Y53.337 E.17027
G1 X92.736 Y60.122 E.34053
G1 X96.129 Y60.122 E.17027
G1 X96.129 Y63.515 E.17027
G1 X99.522 Y63.515 E.17027
G1 X99.522 Y66.908 E.17027
G1 X102.914 Y66.908 E.17027
G1 X102.914 Y73.693 E.34053
G1 X106.307 Y73.693 E.17027
G1 X106.307 Y77.086 E.17027
G1 X109.7 Y77.086 E.17027
G1 X109.7 Y80.478 E.17027
G1 X113.092 Y80.478 E.17027
G1 X113.092 Y87.264 E.34053
G1 X116.485 Y87.264 E.17027
G1 X116.485 Y90.657 E.17027
G1 X119.878 Y90.657 E.17027
G1 X119.878 Y94.049 E.17027
G1 X123.271 Y94.049 E.17027
G1 X123.271 Y100.835 E.34053
G1 X126.663 Y100.835 E.17027
G1 X126.663 Y104.227 E.17027
G1 X130.056 Y104.227 E.17027
G1 X130.056 Y107.62 E.17027
G1 X133.449 Y107.62 E.17027
G1 X133.449 Y114.405 E.34053
G1 X136.841 Y114.405 E.17027
G1 X136.841 Y117.798 E.17027
G1 X140.234 Y117.798 E.17027
G1 X140.234 Y121.191 E.17027
G1 X143.627 Y121.191 E.17027
G1 X143.627 Y127.976 E.34053
G1 X147.019 Y127.976 E.17027
G1 X147.019 Y131.369 E.17027
G1 X150.412 Y131.369 E.17027
G1 X150.412 Y138.154 E.34053
G1 X153.805 Y138.154 E.17027
G1 X153.805 Y141.547 E.17027
G1 X157.198 Y141.547 E.17027
G1 X157.198 Y144.94 E.17027
G1 X160.59 Y144.94 E.17027
G1 X160.59 Y151.725 E.34053
G1 X168.689 Y151.725 E.40642
G1 X168.689 Y148.725 E.15056
G1 X171.268 Y148.725 E.12947
G1 X171.268 Y167.876 E.96109
G1 X8.732 Y167.876 E8.15705
G1 X8.732 Y12.124 E7.81652
G1 X68.595 Y12.124 E3.00428
G1 X68.595 Y14.652 E.12687
G1 E-.7 F3600
;WIPE_START
G1 F6240
G1 X68.595 Y14.132 E-.285
;WIPE_END
G1 E-.015 F3600
G1 X38.953 Y150.912 F7800
G1 E1 F2400
G1 F1800
G1 X38.953 Y154.618 E.18597
G1 X42.659 Y154.618 E.18597
G1 X42.659 Y150.912 E.18597
G1 X39.005 Y150.912 E.18337
G1 X59.309 Y147.519 F7800
G1 F1800
G1 X59.309 Y151.225 E.18597
G1 X62.702 Y151.225 E.17027
G1 X62.702 Y154.618 E.17027
G1 X66.408 Y154.618 E.18597
G1 X66.408 Y150.912 E.18597
G1 X63.015 Y150.912 E.17027
G1 X63.015 Y147.519 E.17027
G1 X59.361 Y147.519 E.18337
G1 X106.807 Y147.519 F7800
G1 F1800
G1 X106.807 Y151.225 E.18597
G1 X110.2 Y151.225 E.17027
G1 X110.2 Y154.618 E.17027
G1 X113.905 Y154.618 E.18597
G1 X113.905 Y150.912 E.18597
G1 X110.513 Y150.912 E.17027
G1 X110.513 Y147.519 E.17027
G1 X106.859 Y147.519 E.18337
G1 X83.058 Y147.519 F7800
G1 F1800
G1 X83.058 Y151.225 E.18597
G1 X86.451 Y151.225 E.17027
G1 X86.451 Y154.618 E.17027
G1 X90.156 Y154.618 E.18597
G1 X90.156 Y150.912 E.18597
G1 X86.764 Y150.912 E.17027
G1 X86.764 Y147.519 E.17027
G1 X83.11 Y147.519 E.18337
G1 X127.163 Y144.127 F7800
G1 F1800
G1 X127.163 Y147.832 E.18597
G1 X130.556 Y147.832 E.17027
G1 X130.556 Y151.225 E.17027
G1 X134.262 Y151.225 E.18597
G1 X134.262 Y147.519 E.18597
G1 X130.869 Y147.519 E.17027
G1 X130.869 Y144.127 E.17027
G1 X127.215 Y144.127 E.18337
G1 E-.7 F3600
;WIPE_START
G1 F6240
G1 X127.735 Y144.127 E-.285
;WIPE_END
G1 E-.015 F3600
G1 X28.775 Y137.341 F7800
G1 E1 F2400
G1 F1800
G1 X28.775 Y141.047 E.18597
G1 X32.168 Y141.047 E.17027
G1 X32.168 Y144.44 E.17027
G1 X35.873 Y144.44 E.18597
G1 X35.873 Y140.734 E.18597
G1 X32.481 Y140.734 E.17027
G1 X32.481 Y137.341 E.17027
G1 X28.827 Y137.341 E.18337
G1 X52.524 Y137.341 F7800
G1 F1800
G1 X52.524 Y141.047 E.18597
G1 X55.917 Y141.047 E.17027
G1 X55.917 Y144.44 E.17027
G1 X59.622 Y144.44 E.18597
G1 X59.622 Y140.734 E.18597
G1 X56.229 Y140.734 E.17027
G1 X56.229 Y137.341 E.17027
G1 X52.576 Y137.341 E.18337
G1 E-.7 F3600
;WIPE_START
G1 F6240
G1 X53.096 Y137.341 E-.285
;WIPE_END
G1 E-.015 F3600
G1 X21.99 Y66.095 F7800
G1 E1 F2400
G1 F1800
G1 X21.99 Y69.8 E.18597
G1 X25.382 Y69.8 E.17027
G1 X25.382 Y73.193 E.17027
G1 X28.775 Y73.193 E.17027
G1 X28.775 Y79.978 E.34053
G1 X32.168 Y79.978 E.17027
G1 X32.168 Y83.371 E.17027
G1 X35.56 Y83.371 E.17027
G1 X35.56 Y86.764 E.17027
G1 X38.953 Y86.764 E.17027
G1 X38.953 Y93.549 E.34053
G1 X42.346 Y93.549 E.17027
G1 X42.346 Y96.942 E.17027
G1 X45.738 Y96.942 E.17027
G1 X45.738 Y103.727 E.34053
G1 X49.131 Y103.727 E.17027
G1 X49.131 Y107.12 E.17027
G1 X52.524 Y107.12 E.17027
G1 X52.524 Y110.513 E.17027
G1 X55.917 Y110.513 E.17027
G1 X55.917 Y117.298 E.34053
G1 X59.309 Y117.298 E.17027
G1 X59.309 Y120.691 E.17027
G1 X62.702 Y120.691 E.17027
G1 X62.702 Y124.083 E.17027
G1 X66.095 Y124.083 E.17027
G1 X66.095 Y130.869 E.34053
G1 X69.487 Y130.869 E.17027
G1 X69.487 Y134.262 E.17027
G1 X72.88 Y134.262 E.17027
G1 X72.88 Y137.654 E.17027
G1 X76.273 Y137.654 E.17027
G1 X76.273 Y144.44 E.34053
M73 P1 R290
G1 X79.978 Y144.44 E.18597
G1 X79.978 Y137.341 E.35623
G1 X76.586 Y137.341 E.17027
G1 X76.586 Y133.949 E.17027
G1 X73.193 Y133.949 E.17027
G1 X73.193 Y127.163 E.34053
G1 X69.8 Y127.163 E.17027
G1 X69.8 Y123.771 E.17027
G1 X66.408 Y123.771 E.17027
G1 X66.408 Y120.378 E.17027
G1 X63.015 Y120.378 E.17027
G1 X63.015 Y113.592 E.34053
G1 X59.622 Y113.592 E.17027
G1 X59.622 Y110.2 E.17027
G1 X56.229 Y110.2 E.17027
G1 X56.229 Y106.807 E.17027
G1 X52.837 Y106.807 E.17027
G1 X52.837 Y100.022 E.34053
G1 X49.444 Y100.022 E.17027
G1 X49.444 Y96.629 E.17027
G1 X46.051 Y96.629 E.17027
G1 X46.051 Y93.236 E.17027
G1 X42.659 Y93.236 E.17027
G1 X42.659 Y86.451 E.34053
G1 X39.266 Y86.451 E.17027
G1 X39.266 Y83.058 E.17027
G1 X35.873 Y83.058 E.17027
G1 X35.873 Y79.665 E.17027
G1 X32.481 Y79.665 E.17027
G1 X32.481 Y72.88 E.34053
G1 X29.088 Y72.88 E.17027
G1 X29.088 Y69.487 E.17027
G1 X25.695 Y69.487 E.17027
