; generated by PrusaSlicer 2.5.0+win64 on 2022-12-07 at 00:24:57 UTC

; 

; external perimeters extrusion width = 1.00mm
; perimeters extrusion width = 1.00mm
; infill extrusion width = 1.00mm
; solid infill extrusion width = 1.00mm
; top infill extrusion width = 1.00mm
; support material extrusion width = 1.00mm
; first layer extrusion width = 0.42mm

M73 P0 R238
M107
;TYPE:Custom
G90 ; use absolute coordinates
M83 ; extruder relative mode
M140 S60 ; set final bed temp
M104 S150 ; set temporary nozzle temp to prevent oozing during homing and auto bed leveling
G4 S10 ; allow partial nozzle warmup
G28 ; home all axisG1 Z50 F240
G1 X7.6 Y10 F3000
M104 S210 ; set final nozzle temp
M190 S60 ; wait for bed temp to stabilize
M109 S210 ; wait for nozzle temp to stabilize
G1 Z0.28 F240
G92 E0
G1 Y140 E10 F1500 ; prime the nozzle
G1 X4 F5000
G92 E0
G1 Y10 E10 F1200 ; prime the nozzle
G92 E0
G21 ; set units to millimeters
G90 ; use absolute coordinates
M83 ; use relative distances for extrusion
; Filament gcode
M107
;LAYER_CHANGE
;Z:0.35
;HEIGHT:0.35
;BEFORE_LAYER_CHANGE
G92 E0
;0.35


G1 E-1 F3600
G1 Z.35 F7800
;AFTER_LAYER_CHANGE
;0.35
G1 X22.601 Y14.959
G1 E1 F2400
;TYPE:Support material interface
;WIDTH:1
G1 F1800
G1 X22.601 Y18.753 E.51067
G1 X23.494 Y18.753 E.12014
G1 X23.494 Y15.361 E.45661
G1 X24.387 Y15.361 E.12014
G1 X24.387 Y18.753 E.45661
G1 X25.279 Y18.753 E.12014
G1 X25.279 Y15.361 E.45661
G1 X26.172 Y15.361 E.12014
G1 X26.172 Y25.539 E1.36981
G1 X27.065 Y25.539 E.12014
G1 X27.065 Y15.361 E1.36981
G1 X27.957 Y15.361 E.12014
G1 X27.957 Y25.539 E1.36981
G1 X28.85 Y25.539 E.12014
G1 X28.85 Y15.361 E1.36981
G1 X29.743 Y15.361 E.12014
G1 X29.743 Y32.324 E2.28301
G1 X30.635 Y32.324 E.12014
G1 X30.635 Y15.361 E2.28301
G1 X31.528 Y15.361 E.12014
G1 X31.528 Y32.324 E2.28301
G1 X32.324 Y32.324 E.10712
G1 X32.324 Y39.11 E.9132
G1 X32.421 Y39.11 E.01302
G1 X32.421 Y15.361 E3.19621
G1 X33.314 Y15.361 E.12014
G1 X33.314 Y39.11 E3.19621
G1 X34.206 Y39.11 E.12014
G1 X34.206 Y15.361 E3.19621
G1 X35.099 Y15.361 E.12014
G1 X35.099 Y39.511 E3.25028
G1 E-.7 F3600
;WIPE_START
G1 F6240
G1 X35.099 Y38.991 E-.285
;WIPE_END
G1 E-.015 F3600
G1 X24.49 Y14.704 F7800
G1 E1 F2400
;TYPE:Support material
;WIDTH:0.42
G1 F1800
G1 X21.49 Y14.704 E.15056
G1 X21.49 Y19.41 E.23616
G1 X24.882 Y19.41 E.17027
G1 X24.882 Y25.382 E.29973
G1 X21.99 Y25.382 E.14517
G1 X21.99 Y59.622 E1.71836
G1 X25.382 Y59.622 E.17027
G1 X25.382 Y66.408 E.34053
G1 X28.775 Y66.408 E.17027
G1 X28.775 Y73.193 E.34053
G1 X32.168 Y73.193 E.17027
G1 X32.168 Y79.978 E.34053
G1 X35.56 Y79.978 E.17027
G1 X35.56 Y86.764 E.34053
G1 X38.953 Y86.764 E.17027
G1 X38.953 Y96.942 E.5108
G1 X42.346 Y96.942 E.17027
G1 X42.346 Y103.727 E.34053
G1 X45.738 Y103.727 E.17027
G1 X45.738 Y110.513 E.34053
G1 X49.131 Y110.513 E.17027
G1 X49.131 Y117.298 E.34053
G1 X52.524 Y117.298 E.17027
G1 X52.524 Y124.083 E.34053
G1 X55.917 Y124.083 E.17027
G1 X55.917 Y130.869 E.34053
G1 X59.309 Y130.869 E.17027
G1 X59.309 Y137.654 E.34053
G1 X62.702 Y137.654 E.17027
G1 X62.702 Y144.44 E.34053
G1 X66.095 Y144.44 E.17027
G1 X66.095 Y151.225 E.34053
G1 X69.487 Y151.225 E.17027
G1 X69.487 Y154.618 E.17027
G1 X89.344 Y154.618 E.9965
G1 X89.344 Y158.51 E.19536
G1 X92.736 Y158.51 E.17027
G1 X92.736 Y165.296 E.34053
G1 X95.736 Y165.296 E.15056
G1 X95.736 Y167.876 E.12947
G1 X8.732 Y167.876 E4.3664
G1 X8.732 Y12.124 E7.81652
G1 X24.49 Y12.124 E.79082
G1 X24.49 Y14.652 E.12687
G1 E-.7 F3600
;WIPE_START
G1 F6240
G1 X24.49 Y14.132 E-.285
;WIPE_END
G1 E-.015 F3600
G1 X21.99 Y100.022 F7800
G1 E1 F2400
G1 F1800
G1 X21.99 Y130.869 E1.54809
G1 X25.382 Y130.869 E.17027
G1 X25.382 Y137.654 E.34053
G1 X28.775 Y137.654 E.17027
G1 X28.775 Y144.44 E.34053
G1 X32.168 Y144.44 E.17027
G1 X32.168 Y151.225 E.34053
G1 X35.56 Y151.225 E.17027
G1 X35.56 Y154.618 E.17027
G1 X49.444 Y154.618 E.69677
G1 X49.444 Y147.519 E.35623
G1 X46.051 Y147.519 E.17027
G1 X46.051 Y140.734 E.34053
G1 X42.659 Y140.734 E.17027
G1 X42.659 Y133.949 E.34053
G1 X39.266 Y133.949 E.17027
G1 X39.266 Y127.163 E.34053
G1 X35.873 Y127.163 E.17027
G1 X35.873 Y120.378 E.34053
G1 X32.481 Y120.378 E.17027
G1 X32.481 Y113.592 E.34053
G1 X29.088 Y113.592 E.17027
G1 X29.088 Y106.807 E.34053
G1 X25.695 Y106.807 E.17027
G1 X25.695 Y100.022 E.34053
G1 X22.041 Y100.022 E.18337
G1 E-.7 F3600
;WIPE_START
G1 F6240
G1 X22.561 Y100.022 E-.285
;WIPE_END
G1 E-.015 F3600
G1 X95.365 Y167.72 F7800
G1 E1 F2400
G1 F1800
G1 X95.365 Y165.606 E.1061
G1 X94.982 Y165.606 E.01923
G1 X94.982 Y167.565 E.09831
G1 X94.599 Y167.565 E.01923
G1 X94.599 Y165.606 E.09831
G1 X94.215 Y165.606 E.01923
G1 X94.215 Y167.565 E.09831
G1 X93.832 Y167.565 E.01923
G1 X93.832 Y165.606 E.09831
G1 X93.449 Y165.606 E.01923
G1 X93.449 Y167.565 E.09831
G1 X93.066 Y167.565 E.01923
G1 X93.066 Y165.606 E.09831
G1 X92.682 Y165.606 E.01923
G1 X92.682 Y167.565 E.09831
G1 X92.299 Y167.565 E.01923
G1 X92.299 Y158.821 E.43885
G1 X91.916 Y158.821 E.01923
G1 X91.916 Y167.565 E.43885
G1 X91.533 Y167.565 E.01923
G1 X91.533 Y158.821 E.43885
G1 X91.15 Y158.821 E.01923
G1 X91.15 Y167.565 E.43885
G1 X90.766 Y167.565 E.01923
G1 X90.766 Y158.821 E.43885
G1 X90.383 Y158.821 E.01923
G1 X90.383 Y167.565 E.43885
G1 X90 Y167.565 E.01923
G1 X90 Y158.821 E.43885
G1 X89.617 Y158.821 E.01923
G1 X89.617 Y167.565 E.43885
G1 X89.234 Y167.565 E.01923
G1 X89.234 Y158.821 E.43885
G1 X89.033 Y158.821 E.01006
G1 X89.033 Y154.928 E.19536
G1 X88.85 Y154.928 E.00917
G1 X88.85 Y167.565 E.6342
G1 X88.467 Y167.565 E.01923
G1 X88.467 Y154.928 E.6342
G1 X88.084 Y154.928 E.01923
G1 X88.084 Y167.565 E.6342
G1 X87.701 Y167.565 E.01923
G1 X87.701 Y154.928 E.6342
G1 X87.318 Y154.928 E.01923
G1 X87.318 Y167.565 E.6342
G1 X86.934 Y167.565 E.01923
G1 X86.934 Y154.928 E.6342
G1 X86.551 Y154.928 E.01923
G1 X86.551 Y167.565 E.6342
G1 X86.168 Y167.565 E.01923
G1 X86.168 Y154.928 E.6342
G1 X85.785 Y154.928 E.01923
M73 P0 R237
G1 X85.785 Y167.565 E.6342
G1 X85.401 Y167.565 E.01923
G1 X85.401 Y154.928 E.6342
G1 X85.018 Y154.928 E.01923
G1 X85.018 Y167.565 E.6342
G1 X84.635 Y167.565 E.01923
G1 X84.635 Y154.928 E.6342
G1 X84.252 Y154.928 E.01923
G1 X84.252 Y167.565 E.6342
G1 X83.869 Y167.565 E.01923
G1 X83.869 Y154.928 E.6342
G1 X83.485 Y154.928 E.01923
G1 X83.485 Y167.565 E.6342
G1 X83.102 Y167.565 E.01923
G1 X83.102 Y154.928 E.6342
G1 X82.719 Y154.928 E.01923
G1 X82.719 Y167.565 E.6342
G1 X82.336 Y167.565 E.01923
G1 X82.336 Y154.928 E.6342
G1 X81.953 Y154.928 E.01923
G1 X81.953 Y167.565 E.6342
G1 X81.569 Y167.565 E.01923
G1 X81.569 Y154.928 E.6342
G1 X81.186 Y154.928 E.01923
G1 X81.186 Y167.565 E.6342
G1 X80.803 Y167.565 E.01923
G1 X80.803 Y154.928 E.6342
G1 X80.42 Y154.928 E.01923
G1 X80.42 Y167.565 E.6342
G1 X80.037 Y167.565 E.01923
G1 X80.037 Y154.928 E.6342
G1 X79.653 Y154.928 E.01923
G1 X79.653 Y167.565 E.6342
G1 X79.27 Y167.565 E.01923
G1 X79.27 Y154.928 E.6342
G1 X78.887 Y154.928 E.01923
G1 X78.887 Y167.565 E.6342
G1 X78.504 Y167.565 E.01923
G1 X78.504 Y154.928 E.6342
G1 X78.121 Y154.928 E.01923
G1 X78.12 Y167.565 E.6342
G1 X77.737 Y167.565 E.01923
G1 X77.737 Y154.928 E.6342
G1 X77.354 Y154.928 E.01923
G1 X77.354 Y167.565 E.6342
G1 X76.971 Y167.565 E.01923
G1 X76.971 Y154.928 E.6342
G1 X76.588 Y154.928 E.01923
G1 X76.588 Y167.565 E.6342
G1 X76.204 Y167.565 E.01923
G1 X76.204 Y154.928 E.6342
G1 X75.821 Y154.928 E.01923
G1 X75.821 Y167.565 E.6342
G1 X75.438 Y167.565 E.01923
G1 X75.438 Y154.928 E.6342
G1 X75.055 Y154.928 E.01923
G1 X75.055 Y167.565 E.6342
G1 X74.672 Y167.565 E.01923
G1 X74.672 Y154.928 E.6342
G1 X74.288 Y154.928 E.01923
G1 X74.288 Y167.565 E.6342
G1 X73.905 Y167.565 E.01923
G1 X73.905 Y154.928 E.6342
G1 X73.522 Y154.928 E.01923
G1 X73.522 Y167.565 E.6342
G1 X73.139 Y167.565 E.01923
G1 X73.139 Y154.928 E.6342
G1 X72.756 Y154.928 E.01923
G1 X72.756 Y167.565 E.6342
G1 X72.372 Y167.565 E.01923
G1 X72.372 Y154.928 E.6342
G1 X71.989 Y154.928 E.01923
G1 X71.989 Y167.565 E.6342
G1 X71.606 Y167.565 E.01923
G1 X71.606 Y154.928 E.6342
G1 X71.223 Y154.928 E.01923
G1 X71.223 Y167.565 E.6342
G1 X70.84 Y167.565 E.01923
G1 X70.84 Y154.928 E.6342
G1 X70.456 Y154.928 E.01923
G1 X70.456 Y167.565 E.6342
G1 X70.073 Y167.565 E.01923
G1 X70.073 Y154.928 E.6342
G1 X69.69 Y154.928 E.01923
G1 X69.69 Y167.565 E.6342
G1 X69.307 Y167.565 E.01923
G1 X69.307 Y154.928 E.6342
G1 X69.177 Y154.928 E.00651
G1 X69.177 Y151.535 E.17027
G1 X68.923 Y151.535 E.01272
G1 X68.923 Y167.565 E.80447
G1 X68.54 Y167.565 E.01923
G1 X68.54 Y151.535 E.80447
G1 X68.157 Y151.535 E.01923
G1 X68.157 Y167.565 E.80447
G1 X67.774 Y167.565 E.01923
G1 X67.774 Y151.535 E.80447
G1 X67.391 Y151.535 E.01923
G1 X67.391 Y167.565 E.80447
G1 X67.007 Y167.565 E.01923
G1 X67.007 Y151.535 E.80447
G1 X66.624 Y151.535 E.01923
G1 X66.624 Y167.565 E.80447
G1 X66.241 Y167.565 E.01923
G1 X66.241 Y151.535 E.80447
G1 X65.858 Y151.535 E.01923
G1 X65.858 Y167.565 E.80447
G1 X65.475 Y167.565 E.01923
G1 X65.475 Y144.75 E1.145
G1 X65.091 Y144.75 E.01923
G1 X65.091 Y167.565 E1.145
G1 X64.708 Y167.565 E.01923
G1 X64.708 Y144.75 E1.145
G1 X64.325 Y144.75 E.01923
G1 X64.325 Y167.565 E1.145
G1 X63.942 Y167.565 E.01923
G1 X63.942 Y144.75 E1.145
G1 X63.559 Y144.75 E.01923
G1 X63.559 Y167.565 E1.145
G1 X63.175 Y167.565 E.01923
G1 X63.175 Y144.75 E1.145
G1 X62.792 Y144.75 E.01923
G1 X62.792 Y167.565 E1.145
G1 X62.409 Y167.565 E.01923
G1 X62.409 Y144.75 E1.145
G1 X62.392 Y144.75 E.00087
G1 X62.392 Y137.965 E.34053
G1 X62.026 Y137.965 E.01836
G1 X62.026 Y167.565 E1.48553
G1 X61.642 Y167.565 E.01923
G1 X61.642 Y137.965 E1.48553
G1 X61.259 Y137.965 E.01923
G1 X61.259 Y167.565 E1.48553
G1 X60.876 Y167.565 E.01923
G1 X60.876 Y137.965 E1.48553
G1 X60.493 Y137.965 E.01923
G1 X60.493 Y167.565 E1.48553
G1 X60.11 Y167.565 E.01923
G1 X60.11 Y137.965 E1.48553
G1 X59.726 Y137.965 E.01923
G1 X59.726 Y167.565 E1.48553
G1 X59.343 Y167.565 E.01923
G1 X59.343 Y137.965 E1.48553
G1 X58.999 Y137.965 E.01728
G1 X58.999 Y131.179 E.34053
G1 X58.96 Y131.179 E.00195
G1 X58.96 Y167.565 E1.82606
G1 X58.577 Y167.565 E.01923
G1 X58.577 Y131.179 E1.82606
G1 X58.194 Y131.179 E.01923
G1 X58.194 Y167.565 E1.82606
G1 X57.81 Y167.565 E.01923
G1 X57.81 Y131.179 E1.82606
G1 X57.427 Y131.179 E.01923
G1 X57.427 Y167.565 E1.82606
G1 X57.044 Y167.565 E.01923
G1 X57.044 Y131.179 E1.82606
G1 X56.661 Y131.179 E.01923
G1 X56.661 Y167.565 E1.82606
G1 X56.278 Y167.565 E.01923
G1 X56.278 Y131.179 E1.82606
G1 X55.894 Y131.179 E.01923
G1 X55.894 Y167.565 E1.82606
G1 X55.511 Y167.565 E.01923
G1 X55.511 Y124.394 E2.1666
G1 X55.128 Y124.394 E.01923
G1 X55.128 Y167.565 E2.1666
G1 X54.745 Y167.565 E.01923
G1 X54.745 Y124.394 E2.1666
G1 X54.361 Y124.394 E.01923
G1 X54.361 Y167.565 E2.1666
G1 X53.978 Y167.565 E.01923
M73 P0 R236
G1 X53.978 Y124.394 E2.1666
G1 X53.595 Y124.394 E.01923
G1 X53.595 Y167.565 E2.1666
G1 X53.212 Y167.565 E.01923
G1 X53.212 Y124.394 E2.1666
G1 X52.829 Y124.394 E.01923
G1 X52.829 Y167.565 E2.1666
G1 X52.445 Y167.565 E.01923
G1 X52.445 Y124.394 E2.1666
G1 X52.213 Y124.394 E.01164
G1 X52.213 Y117.608 E.34053
G1 X52.062 Y117.608 E.00759
G1 X52.062 Y167.565 E2.50713
G1 X51.679 Y167.565 E.01923
G1 X51.679 Y117.608 E2.50713
G1 X51.296 Y117.608 E.01923
G1 X51.296 Y167.565 E2.50713
G1 X50.913 Y167.565 E.01923
G1 X50.913 Y117.608 E2.50713
G1 X50.529 Y117.608 E.01923
G1 X50.529 Y167.565 E2.50713
G1 X50.146 Y167.565 E.01923
G1 X50.146 Y117.608 E2.50713
G1 X49.763 Y117.608 E.01923
G1 X49.763 Y167.565 E2.50713
G1 X49.38 Y167.565 E.01923
G1 X49.38 Y154.928 E.6342
G1 X48.997 Y154.928 E.01923
G1 X48.997 Y167.565 E.6342
G1 X48.613 Y167.565 E.01923
G1 X48.613 Y154.928 E.6342
G1 X48.23 Y154.928 E.01923
G1 X48.23 Y167.565 E.6342
G1 X47.847 Y167.565 E.01923
G1 X47.847 Y154.928 E.6342
G1 X47.464 Y154.928 E.01923
G1 X47.464 Y167.565 E.6342
G1 X47.08 Y167.565 E.01923
G1 X47.08 Y154.928 E.6342
G1 X46.697 Y154.928 E.01923
G1 X46.697 Y167.565 E.6342
G1 X46.314 Y167.565 E.01923
G1 X46.314 Y154.928 E.6342
G1 X45.931 Y154.928 E.01923
G1 X45.931 Y167.565 E.6342
G1 X45.548 Y167.565 E.01923
G1 X45.548 Y154.928 E.6342
G1 X45.164 Y154.928 E.01923
G1 X45.164 Y167.565 E.6342
G1 X44.781 Y167.565 E.01923
G1 X44.781 Y154.928 E.6342
G1 X44.398 Y154.928 E.01923
M73 P1 R236
G1 X44.398 Y167.565 E.6342
G1 X44.015 Y167.565 E.01923
G1 X44.015 Y154.928 E.6342
G1 X43.632 Y154.928 E.01923
G1 X43.632 Y167.565 E.6342
G1 X43.248 Y167.565 E.01923
G1 X43.248 Y154.928 E.6342
G1 X42.865 Y154.928 E.01923
G1 X42.865 Y167.565 E.6342
G1 X42.482 Y167.565 E.01923
G1 X42.482 Y154.928 E.6342
G1 X42.099 Y154.928 E.01923
G1 X42.099 Y167.565 E.6342
G1 X41.716 Y167.565 E.01923
G1 X41.716 Y154.928 E.6342
G1 X41.332 Y154.928 E.01923
G1 X41.332 Y167.565 E.6342
G1 X40.949 Y167.565 E.01923
G1 X40.949 Y154.928 E.6342
G1 X40.566 Y154.928 E.01923
G1 X40.566 Y167.565 E.6342
G1 X40.183 Y167.565 E.01923
G1 X40.183 Y154.928 E.6342
G1 X39.8 Y154.928 E.01923
G1 X39.799 Y167.565 E.6342
G1 X39.416 Y167.565 E.01923
G1 X39.416 Y154.928 E.6342
G1 X39.033 Y154.928 E.01923
G1 X39.033 Y167.565 E.6342
G1 X38.65 Y167.565 E.01923
G1 X38.65 Y154.928 E.6342
G1 X38.267 Y154.928 E.01923
G1 X38.267 Y167.565 E.6342
G1 X37.883 Y167.565 E.01923
G1 X37.883 Y154.928 E.6342
G1 X37.5 Y154.928 E.01923
G1 X37.5 Y167.565 E.6342
G1 X37.117 Y167.565 E.01923
G1 X37.117 Y154.928 E.6342
G1 X36.734 Y154.928 E.01923
G1 X36.734 Y167.565 E.6342
G1 X36.351 Y167.565 E.01923
G1 X36.351 Y154.928 E.6342
G1 X35.967 Y154.928 E.01923
G1 X35.967 Y167.565 E.6342
G1 X35.584 Y167.565 E.01923
G1 X35.584 Y154.928 E.6342
G1 X35.25 Y154.928 E.01677
G1 X35.25 Y151.535 E.17027
G1 X35.201 Y151.535 E.00246
G1 X35.201 Y167.565 E.80447
G1 X34.818 Y167.565 E.01923
G1 X34.818 Y151.535 E.80447
G1 X34.435 Y151.535 E.01923
G1 X34.435 Y167.565 E.80447
G1 X34.051 Y167.565 E.01923
G1 X34.051 Y151.535 E.80447
G1 X33.668 Y151.535 E.01923
G1 X33.668 Y167.565 E.80447
G1 X33.285 Y167.565 E.01923
G1 X33.285 Y151.535 E.80447
G1 X32.902 Y151.535 E.01923
G1 X32.902 Y167.565 E.80447
G1 X32.519 Y167.565 E.01923
G1 X32.519 Y151.535 E.80447
G1 X32.135 Y151.535 E.01923
G1 X32.135 Y167.565 E.80447
G1 X31.752 Y167.565 E.01923
G1 X31.752 Y144.75 E1.145
G1 X31.369 Y144.75 E.01923
G1 X31.369 Y167.565 E1.145
G1 X30.986 Y167.565 E.01923
G1 X30.986 Y144.75 E1.145
G1 X30.602 Y144.75 E.01923
G1 X30.602 Y167.565 E1.145
G1 X30.219 Y167.565 E.01923
G1 X30.219 Y144.75 E1.145
G1 X29.836 Y144.75 E.01923
G1 X29.836 Y167.565 E1.145
G1 X29.453 Y167.565 E.01923
G1 X29.453 Y144.75 E1.145
G1 X29.07 Y144.75 E.01923
G1 X29.07 Y167.565 E1.145
G1 X28.686 Y167.565 E.01923
G1 X28.686 Y144.75 E1.145
G1 X28.465 Y144.75 E.01113
G1 X28.465 Y137.965 E.34053
G1 X28.303 Y137.965 E.0081
G1 X28.303 Y167.565 E1.48553
G1 X27.92 Y167.565 E.01923
G1 X27.92 Y137.965 E1.48553
G1 X27.537 Y137.965 E.01923
G1 X27.537 Y167.565 E1.48553
G1 X27.154 Y167.565 E.01923
G1 X27.154 Y137.965 E1.48553
G1 X26.77 Y137.965 E.01923
G1 X26.77 Y167.565 E1.48553
G1 X26.387 Y167.565 E.01923
G1 X26.387 Y137.965 E1.48553
G1 X26.004 Y137.965 E.01923
G1 X26.004 Y167.565 E1.48553
G1 X25.621 Y167.565 E.01923
G1 X25.621 Y137.965 E1.48553
G1 X25.238 Y137.965 E.01923
M73 P1 R235
G1 X25.238 Y167.565 E1.48553
G1 X24.854 Y167.565 E.01923
G1 X24.854 Y131.179 E1.82606
G1 X24.471 Y131.179 E.01923
G1 X24.471 Y167.565 E1.82606
G1 X24.088 Y167.565 E.01923
G1 X24.088 Y131.179 E1.82606
G1 X23.705 Y131.179 E.01923
G1 X23.705 Y167.565 E1.82606
G1 X23.321 Y167.565 E.01923
G1 X23.321 Y131.179 E1.82606
G1 X22.938 Y131.179 E.01923
G1 X22.938 Y167.565 E1.82606
G1 X22.555 Y167.565 E.01923
G1 X22.555 Y131.179 E1.82606
G1 X22.172 Y131.179 E.01923
G1 X22.172 Y167.565 E1.82606
G1 X21.789 Y167.565 E.01923
G1 X21.789 Y19.72 E7.41974
G1 X22.172 Y19.72 E.01923
G1 X22.172 Y25.072 E.26858
G1 X22.555 Y25.072 E.01923
G1 X22.555 Y19.72 E.26858
G1 X22.938 Y19.72 E.01923
G1 X22.938 Y25.072 E.26858
G1 X23.321 Y25.072 E.01923
G1 X23.321 Y19.72 E.26858
G1 X23.705 Y19.72 E.01923
G1 X23.705 Y25.072 E.26858
G1 X24.088 Y25.072 E.01923
G1 X24.088 Y19.72 E.26858
G1 X24.471 Y19.72 E.01923
G1 X24.471 Y25.227 E.27637
G1 E-.7 F3600
;WIPE_START
G1 F6240
G1 X24.471 Y24.707 E-.285
;WIPE_END
G1 E-.015 F3600
G1 X49.38 Y147.364 F7800
G1 E1 F2400
