; generated by PrusaSlicer 2.5.0+win64 on 2022-12-07 at 00:25:04 UTC

; 

; external perimeters extrusion width = 1.00mm
; perimeters extrusion width = 1.00mm
; infill extrusion width = 1.00mm
; solid infill extrusion width = 1.00mm
; top infill extrusion width = 1.00mm
; support material extrusion width = 1.00mm
; first layer extrusion width = 0.42mm

M73 P0 R291
M107
;TYPE:Custom
G90 ; use absolute coordinates
M83 ; extruder relative mode
M140 S60 ; set final bed temp
M104 S150 ; set temporary nozzle temp to prevent oozing during homing and auto bed leveling
G4 S10 ; allow partial nozzle warmup
G28 ; home all axisG1 Z50 F240
G1 X7.6 Y10 F3000
M104 S210 ; set final nozzle temp
M190 S60 ; wait for bed temp to stabilize
M109 S210 ; wait for nozzle temp to stabilize
G1 Z0.28 F240
G92 E0
G1 Y140 E10 F1500 ; prime the nozzle
G1 X4 F5000
G92 E0
G1 Y10 E10 F1200 ; prime the nozzle
G92 E0
G21 ; set units to millimeters
G90 ; use absolute coordinates
M83 ; use relative distances for extrusion
; Filament gcode
M107
;LAYER_CHANGE
;Z:0.35
;HEIGHT:0.35
;BEFORE_LAYER_CHANGE
G92 E0
;0.35


G1 E-1 F3600
G1 Z.35 F7800
;AFTER_LAYER_CHANGE
;0.35
G1 X29.743 Y14.959
G1 E1 F2400
;TYPE:Support material interface
;WIDTH:1
G1 F1800
G1 X29.743 Y22.146 E.96727
G1 X30.635 Y22.146 E.12014
G1 X30.635 Y15.361 E.91321
G1 X31.528 Y15.361 E.12014
G1 X31.528 Y22.146 E.91321
G1 X32.324 Y22.146 E.10712
G1 X32.324 Y25.539 E.4566
G1 X32.421 Y25.539 E.01302
G1 X32.421 Y15.361 E1.36981
G1 X33.314 Y15.361 E.12014
G1 X33.314 Y25.539 E1.36981
G1 X34.206 Y25.539 E.12014
G1 X34.206 Y15.361 E1.36981
G1 X35.099 Y15.361 E.12014
G1 X35.099 Y25.539 E1.36981
G1 X35.717 Y25.539 E.08315
G1 X35.717 Y28.931 E.4566
G1 X35.992 Y28.931 E.03699
G1 X35.992 Y15.361 E1.82641
G1 X36.884 Y15.361 E.12014
G1 X36.884 Y28.931 E1.82641
G1 X37.777 Y28.931 E.12014
G1 X37.777 Y15.361 E1.82641
G1 X38.67 Y15.361 E.12014
G1 X38.67 Y28.931 E1.82641
G1 X39.109 Y28.931 E.05918
G1 X39.109 Y35.717 E.9132
G1 X39.562 Y35.717 E.06096
G1 X39.562 Y15.361 E2.73961
G1 X40.455 Y15.361 E.12014
G1 X40.455 Y35.717 E2.73961
G1 X41.348 Y35.717 E.12014
G1 X41.348 Y15.361 E2.73961
G1 X42.241 Y15.361 E.12014
G1 X42.241 Y39.511 E3.25028
G1 E-.7 F3600
;WIPE_START
G1 F6240
G1 X42.241 Y38.991 E-.285
;WIPE_END
G1 E-.015 F3600
G1 X31.275 Y14.704 F7800
G1 E1 F2400
;TYPE:Support material
;WIDTH:0.42
G1 F1800
G1 X28.275 Y14.704 E.15056
G1 X28.275 Y22.803 E.40642
G1 X31.275 Y22.803 E.15056
G1 X31.275 Y25.382 E.12947
G1 X28.775 Y25.382 E.12546
G1 X28.775 Y32.481 E.35623
G1 X32.168 Y32.481 E.17027
G1 X32.168 Y35.873 E.17027
G1 X35.56 Y35.873 E.17027
G1 X35.56 Y39.266 E.17027
G1 X38.953 Y39.266 E.17027
G1 X38.953 Y46.051 E.34053
G1 X42.346 Y46.051 E.17027
G1 X42.346 Y49.444 E.17027
G1 X45.738 Y49.444 E.17027
G1 X45.738 Y52.837 E.17027
G1 X49.131 Y52.837 E.17027
G1 X49.131 Y59.622 E.34053
G1 X52.524 Y59.622 E.17027
G1 X52.524 Y63.015 E.17027
G1 X55.917 Y63.015 E.17027
G1 X55.917 Y69.8 E.34053
G1 X59.309 Y69.8 E.17027
G1 X59.309 Y73.193 E.17027
G1 X62.702 Y73.193 E.17027
G1 X62.702 Y76.586 E.17027
G1 X66.095 Y76.586 E.17027
G1 X66.095 Y83.371 E.34053
G1 X69.487 Y83.371 E.17027
G1 X69.487 Y86.764 E.17027
G1 X72.88 Y86.764 E.17027
G1 X72.88 Y90.156 E.17027
G1 X76.273 Y90.156 E.17027
G1 X76.273 Y96.942 E.34053
G1 X79.665 Y96.942 E.17027
G1 X79.665 Y100.335 E.17027
G1 X83.058 Y100.335 E.17027
G1 X83.058 Y103.727 E.17027
G1 X86.451 Y103.727 E.17027
G1 X86.451 Y110.513 E.34053
G1 X89.844 Y110.513 E.17027
G1 X89.844 Y113.905 E.17027
G1 X93.236 Y113.905 E.17027
G1 X93.236 Y120.691 E.34053
G1 X96.629 Y120.691 E.17027
G1 X96.629 Y124.083 E.17027
G1 X100.022 Y124.083 E.17027
G1 X100.022 Y127.476 E.17027
G1 X103.414 Y127.476 E.17027
G1 X103.414 Y134.262 E.34053
G1 X106.807 Y134.262 E.17027
G1 X106.807 Y137.654 E.17027
G1 X110.2 Y137.654 E.17027
G1 X110.2 Y141.047 E.17027
G1 X113.592 Y141.047 E.17027
G1 X113.592 Y147.832 E.34053
G1 X116.985 Y147.832 E.17027
G1 X116.985 Y151.225 E.17027
G1 X120.378 Y151.225 E.17027
G1 X120.378 Y154.618 E.17027
G1 X126.663 Y154.618 E.31544
G1 X126.663 Y155.118 E.02509
G1 X130.056 Y155.118 E.17027
G1 X130.056 Y158.51 E.17027
G1 X133.449 Y158.51 E.17027
G1 X133.449 Y165.296 E.34053
G1 X136.449 Y165.296 E.15056
G1 X136.449 Y167.876 E.12947
G1 X8.732 Y167.876 E6.40959
G1 X8.732 Y12.124 E7.81652
G1 X31.275 Y12.124 E1.13136
G1 X31.275 Y14.652 E.12687
G1 E-.7 F3600
;WIPE_START
G1 F6240
G1 X31.275 Y14.132 E-.285
;WIPE_END
G1 E-.015 F3600
G1 X69.487 Y147.519 F7800
G1 E1 F2400
G1 F1800
G1 X69.487 Y151.225 E.18597
G1 X72.88 Y151.225 E.17027
G1 X72.88 Y154.618 E.17027
G1 X76.586 Y154.618 E.18597
G1 X76.586 Y150.912 E.18597
G1 X73.193 Y150.912 E.17027
G1 X73.193 Y147.519 E.17027
G1 X69.539 Y147.519 E.18337
G1 X45.738 Y147.519 F7800
G1 F1800
G1 X45.738 Y151.225 E.18597
G1 X49.131 Y151.225 E.17027
G1 X49.131 Y154.618 E.17027
G1 X52.837 Y154.618 E.18597
G1 X52.837 Y150.912 E.18597
G1 X49.444 Y150.912 E.17027
G1 X49.444 Y147.519 E.17027
G1 X45.79 Y147.519 E.18337
G1 X25.382 Y150.912 F7800
G1 F1800
G1 X25.382 Y154.618 E.18597
G1 X29.088 Y154.618 E.18597
G1 X29.088 Y150.912 E.18597
G1 X25.434 Y150.912 E.18337
G1 E-.7 F3600
;WIPE_START
G1 F6240
G1 X25.954 Y150.912 E-.285
;WIPE_END
G1 E-.015 F3600
G1 X89.844 Y144.127 F7800
G1 E1 F2400
G1 F1800
G1 X89.844 Y147.832 E.18597
G1 X93.236 Y147.832 E.17027
G1 X93.236 Y151.225 E.17027
G1 X96.942 Y151.225 E.18597
G1 X96.942 Y147.519 E.18597
G1 X93.549 Y147.519 E.17027
G1 X93.549 Y144.127 E.17027
G1 X89.895 Y144.127 E.18337
G1 E-.7 F3600
;WIPE_START
G1 F6240
G1 X90.415 Y144.127 E-.285
;WIPE_END
G1 E-.015 F3600
G1 X35.56 Y133.949 F7800
G1 E1 F2400
G1 F1800
G1 X35.56 Y137.654 E.18597
G1 X38.953 Y137.654 E.17027
G1 X38.953 Y141.047 E.17027
G1 X42.346 Y141.047 E.17027
G1 X42.346 Y144.44 E.17027
G1 X46.051 Y144.44 E.18597
G1 X46.051 Y140.734 E.18597
G1 X42.659 Y140.734 E.17027
G1 X42.659 Y137.341 E.17027
G1 X39.266 Y137.341 E.17027
G1 X39.266 Y133.949 E.17027
G1 X35.612 Y133.949 E.18337
G1 X59.309 Y133.949 F7800
G1 F1800
G1 X59.309 Y137.654 E.18597
G1 X62.702 Y137.654 E.17027
G1 X62.702 Y141.047 E.17027
G1 X66.408 Y141.047 E.18597
G1 X66.408 Y137.341 E.18597
G1 X63.015 Y137.341 E.17027
M73 P0 R290
G1 X63.015 Y133.949 E.17027
G1 X59.361 Y133.949 E.18337
G1 X83.058 Y133.949 F7800
G1 F1800
G1 X83.058 Y137.654 E.18597
G1 X86.451 Y137.654 E.17027
G1 X86.451 Y141.047 E.17027
G1 X90.156 Y141.047 E.18597
G1 X90.156 Y137.341 E.18597
G1 X86.764 Y137.341 E.17027
G1 X86.764 Y133.949 E.17027
G1 X83.11 Y133.949 E.18337
G1 E-.7 F3600
;WIPE_START
G1 F6240
G1 X83.63 Y133.949 E-.285
;WIPE_END
G1 E-.015 F3600
G1 X28.775 Y123.771 F7800
G1 E1 F2400
G1 F1800
G1 X28.775 Y127.476 E.18597
G1 X32.168 Y127.476 E.17027
G1 X32.168 Y130.869 E.17027
G1 X35.873 Y130.869 E.18597
G1 X35.873 Y127.163 E.18597
G1 X32.481 Y127.163 E.17027
G1 X32.481 Y123.771 E.17027
G1 X28.827 Y123.771 E.18337
G1 E-.7 F3600
;WIPE_START
G1 F6240
G1 X29.347 Y123.771 E-.285
;WIPE_END
G1 E-.015 F3600
G1 X72.88 Y120.378 F7800
G1 E1 F2400
G1 F1800
G1 X72.88 Y124.083 E.18597
G1 X76.273 Y124.083 E.17027
G1 X76.273 Y127.476 E.17027
G1 X79.978 Y127.476 E.18597
G1 X79.978 Y123.771 E.18597
G1 X76.586 Y123.771 E.17027
G1 X76.586 Y120.378 E.17027
G1 X72.932 Y120.378 E.18337
G1 X49.131 Y120.378 F7800
G1 F1800
G1 X49.131 Y124.083 E.18597
G1 X52.524 Y124.083 E.17027
G1 X52.524 Y127.476 E.17027
G1 X56.229 Y127.476 E.18597
G1 X56.229 Y123.771 E.18597
G1 X52.837 Y123.771 E.17027
G1 X52.837 Y120.378 E.17027
G1 X49.183 Y120.378 E.18337
G1 E-.7 F3600
;WIPE_START
G1 F6240
G1 X49.703 Y120.378 E-.285
;WIPE_END
G1 E-.015 F3600
G1 X42.346 Y110.2 F7800
G1 E1 F2400
G1 F1800
G1 X42.346 Y113.905 E.18597
G1 X45.738 Y113.905 E.17027
G1 X45.738 Y117.298 E.17027
G1 X49.444 Y117.298 E.18597
G1 X49.444 Y113.592 E.18597
G1 X46.051 Y113.592 E.17027
G1 X46.051 Y110.2 E.17027
G1 X42.397 Y110.2 E.18337
G1 X21.99 Y113.592 F7800
G1 F1800
G1 X21.99 Y117.298 E.18597
G1 X25.695 Y117.298 E.18597
G1 X25.695 Y113.592 E.18597
G1 X22.041 Y113.592 E.18337
G1 X62.702 Y106.807 F7800
G1 F1800
G1 X62.702 Y110.513 E.18597
G1 X66.095 Y110.513 E.17027
G1 X66.095 Y113.905 E.17027
G1 X69.8 Y113.905 E.18597
G1 X69.8 Y110.2 E.18597
G1 X66.408 Y110.2 E.17027
G1 X66.408 Y106.807 E.17027
G1 X62.754 Y106.807 E.18337
G1 E-.7 F3600
;WIPE_START
G1 F6240
G1 X63.274 Y106.807 E-.285
;WIPE_END
G1 E-.015 F3600
G1 X32.168 Y96.629 F7800
G1 E1 F2400
G1 F1800
G1 X32.168 Y100.335 E.18597
G1 X35.56 Y100.335 E.17027
G1 X35.56 Y103.727 E.17027
G1 X39.266 Y103.727 E.18597
G1 X39.266 Y100.022 E.18597
G1 X35.873 Y100.022 E.17027
G1 X35.873 Y96.629 E.17027
G1 X32.219 Y96.629 E.18337
G1 X52.524 Y93.236 F7800
G1 F1800
G1 X52.524 Y96.942 E.18597
G1 X55.917 Y96.942 E.17027
G1 X55.917 Y100.335 E.17027
G1 X59.622 Y100.335 E.18597
G1 X59.622 Y96.629 E.18597
G1 X56.229 Y96.629 E.17027
G1 X56.229 Y93.236 E.17027
G1 X52.576 Y93.236 E.18337
G1 E-.7 F3600
;WIPE_START
G1 F6240
G1 X53.096 Y93.236 E-.285
;WIPE_END
G1 E-.015 F3600
G1 X45.738 Y83.058 F7800
G1 E1 F2400
G1 F1800
G1 X45.738 Y86.764 E.18597
G1 X49.131 Y86.764 E.17027
G1 X49.131 Y90.156 E.17027
G1 X52.837 Y90.156 E.18597
G1 X52.837 Y86.451 E.18597
G1 X49.444 Y86.451 E.17027
G1 X49.444 Y83.058 E.17027
G1 X45.79 Y83.058 E.18337
G1 X21.99 Y83.058 F7800
G1 F1800
G1 X21.99 Y86.764 E.18597
G1 X25.382 Y86.764 E.17027
G1 X25.382 Y90.156 E.17027
G1 X29.088 Y90.156 E.18597
G1 X29.088 Y86.451 E.18597
G1 X25.695 Y86.451 E.17027
G1 X25.695 Y83.058 E.17027
G1 X22.041 Y83.058 E.18337
G1 X35.56 Y69.487 F7800
G1 F1800
G1 X35.56 Y73.193 E.18597
G1 X38.953 Y73.193 E.17027
G1 X38.953 Y76.586 E.17027
G1 X42.659 Y76.586 E.18597
G1 X42.659 Y72.88 E.18597
G1 X39.266 Y72.88 E.17027
G1 X39.266 Y69.487 E.17027
G1 X35.612 Y69.487 E.18337
G1 E-.7 F3600
;WIPE_START
G1 F6240
G1 X36.132 Y69.487 E-.285
;WIPE_END
G1 E-.015 F3600
G1 X25.382 Y55.917 F7800
G1 E1 F2400
G1 F1800
G1 X25.382 Y59.622 E.18597
G1 X28.775 Y59.622 E.17027
G1 X28.775 Y63.015 E.17027
G1 X32.481 Y63.015 E.18597
G1 X32.481 Y59.309 E.18597
G1 X29.088 Y59.309 E.17027
G1 X29.088 Y55.917 E.17027
G1 X25.434 Y55.917 E.18337
G1 E-.7 F3600
;WIPE_START
G1 F6240
G1 X25.954 Y55.917 E-.285
;WIPE_END
G1 E-.015 F3600
G1 X135.985 Y167.72 F7800
G1 E1 F2400
G1 F1800
G1 X135.985 Y165.606 E.1061
G1 X135.602 Y165.606 E.01923
G1 X135.602 Y167.565 E.09831
G1 X135.219 Y167.565 E.01923
G1 X135.219 Y165.606 E.09831
G1 X134.836 Y165.606 E.01923
G1 X134.836 Y167.565 E.09831
G1 X134.452 Y167.565 E.01923
G1 X134.452 Y165.606 E.09831
G1 X134.069 Y165.606 E.01923
G1 X134.069 Y167.565 E.09831
G1 X133.686 Y167.565 E.01923
G1 X133.686 Y165.606 E.09831
G1 X133.303 Y165.606 E.01923
G1 X133.303 Y167.565 E.09831
G1 X132.919 Y167.565 E.01923
G1 X132.919 Y158.821 E.43885
G1 X132.536 Y158.821 E.01923
G1 X132.536 Y167.565 E.43885
G1 X132.153 Y167.565 E.01923
G1 X132.153 Y158.821 E.43885
G1 X131.77 Y158.821 E.01923
G1 X131.77 Y167.565 E.43885
G1 X131.387 Y167.565 E.01923
G1 X131.387 Y158.821 E.43885
G1 X131.003 Y158.821 E.01923
G1 X131.003 Y167.565 E.43885
G1 X130.62 Y167.565 E.01923
G1 X130.62 Y158.821 E.43885
G1 X130.237 Y158.821 E.01923
G1 X130.237 Y167.565 E.43885
G1 X129.854 Y167.565 E.01923
G1 X129.854 Y158.821 E.43885
G1 X129.746 Y158.821 E.00544
G1 X129.746 Y155.428 E.17027
G1 X129.471 Y155.428 E.0138
G1 X129.471 Y167.565 E.60911
G1 X129.087 Y167.565 E.01923
G1 X129.087 Y155.428 E.60911
G1 X128.704 Y155.428 E.01923
G1 X128.704 Y167.565 E.60911
G1 X128.321 Y167.565 E.01923
G1 X128.321 Y155.428 E.60911
G1 X127.938 Y155.428 E.01923
G1 X127.938 Y167.565 E.60911
G1 X127.555 Y167.565 E.01923
G1 X127.555 Y155.428 E.60911
G1 X127.171 Y155.428 E.01923
G1 X127.171 Y167.565 E.60911
G1 X126.788 Y167.565 E.01923
G1 X126.788 Y155.428 E.60911
G1 X126.405 Y155.428 E.01923
G1 X126.405 Y167.565 E.60911
G1 X126.022 Y167.565 E.01923
G1 X126.022 Y154.928 E.6342
G1 X125.639 Y154.928 E.01923
G1 X125.639 Y167.565 E.6342
G1 X125.255 Y167.565 E.01923
G1 X125.255 Y154.928 E.6342
G1 X124.872 Y154.928 E.01923
G1 X124.872 Y167.565 E.6342
G1 X124.489 Y167.565 E.01923
G1 X124.489 Y154.928 E.6342
G1 X124.106 Y154.928 E.01923
G1 X124.106 Y167.565 E.6342
G1 X123.722 Y167.565 E.01923
G1 X123.722 Y154.928 E.6342
G1 X123.339 Y154.928 E.01923
G1 X123.339 Y167.565 E.6342
G1 X122.956 Y167.565 E.01923
G1 X122.956 Y154.928 E.6342
G1 X122.573 Y154.928 E.01923
G1 X122.573 Y167.565 E.6342
G1 X122.19 Y167.565 E.01923
G1 X122.19 Y154.928 E.6342
G1 X121.806 Y154.928 E.01923
G1 X121.806 Y167.565 E.6342
G1 X121.423 Y167.565 E.01923
G1 X121.423 Y154.928 E.6342
G1 X121.04 Y154.928 E.01923
G1 X121.04 Y167.565 E.6342
G1 X120.657 Y167.565 E.01923
G1 X120.657 Y154.928 E.6342
G1 X120.274 Y154.928 E.01923
G1 X120.274 Y167.565 E.6342
G1 X119.89 Y167.565 E.01923
G1 X119.89 Y151.535 E.80447
G1 X119.507 Y151.535 E.01923
G1 X119.507 Y167.565 E.80447
G1 X119.124 Y167.565 E.01923
G1 X119.124 Y151.535 E.80447
G1 X118.741 Y151.535 E.01923
G1 X118.741 Y167.565 E.80447
G1 X118.358 Y167.565 E.01923
G1 X118.358 Y151.535 E.80447
G1 X117.974 Y151.535 E.01923
G1 X117.974 Y167.565 E.80447
G1 X117.591 Y167.565 E.01923
G1 X117.591 Y151.535 E.80447
G1 X117.208 Y151.535 E.01923
G1 X117.208 Y167.565 E.80447
G1 X116.825 Y167.565 E.01923
G1 X116.825 Y151.535 E.80447
G1 X116.675 Y151.535 E.00752
G1 X116.675 Y148.143 E.17027
G1 X116.441 Y148.143 E.01171
G1 X116.441 Y167.565 E.97474
G1 X116.058 Y167.565 E.01923
G1 X116.058 Y148.143 E.97474
G1 X115.675 Y148.143 E.01923
G1 X115.675 Y167.565 E.97474
G1 X115.292 Y167.565 E.01923
G1 X115.292 Y148.143 E.97474
G1 X114.909 Y148.143 E.01923
G1 X114.909 Y167.565 E.97474
G1 X114.525 Y167.565 E.01923
G1 X114.525 Y148.143 E.97474
G1 X114.142 Y148.143 E.01923
G1 X114.142 Y167.565 E.97474
G1 X113.759 Y167.565 E.01923
G1 X113.759 Y148.143 E.97474
G1 X113.376 Y148.143 E.01923
G1 X113.376 Y167.565 E.97474
G1 X112.993 Y167.565 E.01923
G1 X112.993 Y141.357 E1.31527
G1 X112.609 Y141.357 E.01923
G1 X112.609 Y167.565 E1.31527
G1 X112.226 Y167.565 E.01923
G1 X112.226 Y141.357 E1.31527
G1 X111.843 Y141.357 E.01923
G1 X111.843 Y167.565 E1.31527
G1 X111.46 Y167.565 E.01923
G1 X111.46 Y141.357 E1.31527
G1 X111.077 Y141.357 E.01923
G1 X111.077 Y167.565 E1.31527
G1 X110.693 Y167.565 E.01923
G1 X110.693 Y141.357 E1.31527
G1 X110.31 Y141.357 E.01923
G1 X110.31 Y167.565 E1.31527
G1 X109.927 Y167.565 E.01923
G1 X109.927 Y141.357 E1.31527
G1 X109.889 Y141.357 E.00189
M73 P0 R289
G1 X109.889 Y137.965 E.17027
G1 X109.544 Y137.965 E.01735
G1 X109.544 Y167.565 E1.48553
G1 X109.16 Y167.565 E.01923
G1 X109.16 Y137.965 E1.48553
G1 X108.777 Y137.965 E.01923
G1 X108.777 Y167.565 E1.48553
G1 X108.394 Y167.565 E.01923
G1 X108.394 Y137.965 E1.48553
G1 X108.011 Y137.965 E.01923
G1 X108.011 Y167.565 E1.48553
G1 X107.628 Y167.565 E.01923
G1 X107.628 Y137.965 E1.48553
G1 X107.244 Y137.965 E.01923
G1 X107.244 Y167.565 E1.48553
G1 X106.861 Y167.565 E.01923
G1 X106.861 Y137.965 E1.48553
G1 X106.497 Y137.965 E.0183
G1 X106.497 Y134.572 E.17027
G1 X106.478 Y134.572 E.00093
G1 X106.478 Y167.565 E1.6558
G1 X106.095 Y167.565 E.01923
G1 X106.095 Y134.572 E1.6558
G1 X105.712 Y134.572 E.01923
G1 X105.712 Y167.565 E1.6558
G1 X105.328 Y167.565 E.01923
G1 X105.328 Y134.572 E1.6558
G1 X104.945 Y134.572 E.01923
G1 X104.945 Y167.565 E1.6558
G1 X104.562 Y167.565 E.01923
G1 X104.562 Y134.572 E1.6558
G1 X104.179 Y134.572 E.01923
G1 X104.179 Y167.565 E1.6558
G1 X103.796 Y167.565 E.01923
G1 X103.796 Y134.572 E1.6558
G1 X103.412 Y134.572 E.01923
G1 X103.412 Y167.565 E1.6558
G1 X103.029 Y167.565 E.01923
G1 X103.029 Y127.787 E1.99633
G1 X102.646 Y127.787 E.01923
G1 X102.646 Y167.565 E1.99633
G1 X102.263 Y167.565 E.01923
G1 X102.263 Y127.787 E1.99633
G1 X101.879 Y127.787 E.01923
G1 X101.879 Y167.565 E1.99633
G1 X101.496 Y167.565 E.01923
G1 X101.496 Y127.787 E1.99633
G1 X101.113 Y127.787 E.01923
G1 X101.113 Y167.565 E1.99633
G1 X100.73 Y167.565 E.01923
G1 X100.73 Y127.787 E1.99633
G1 X100.347 Y127.787 E.01923
G1 X100.347 Y167.565 E1.99633
G1 X99.963 Y167.565 E.01923
G1 X99.963 Y127.787 E1.99633
G1 X99.711 Y127.787 E.01266
G1 X99.711 Y124.394 E.17027
G1 X99.58 Y124.394 E.00657
G1 X99.58 Y167.565 E2.1666
G1 X99.197 Y167.565 E.01923
G1 X99.197 Y124.394 E2.1666
