; generated by PrusaSlicer 2.5.0+win64 on 2022-12-07 at 00:25:20 UTC

; 

; external perimeters extrusion width = 1.00mm
; perimeters extrusion width = 1.00mm
; infill extrusion width = 1.00mm
; solid infill extrusion width = 1.00mm
; top infill extrusion width = 1.00mm
; support material extrusion width = 1.00mm
; first layer extrusion width = 0.42mm

M73 P0 R647
M107
;TYPE:Custom
G90 ; use absolute coordinates
M83 ; extruder relative mode
M140 S60 ; set final bed temp
M104 S150 ; set temporary nozzle temp to prevent oozing during homing and auto bed leveling
G4 S10 ; allow partial nozzle warmup
G28 ; home all axisG1 Z50 F240
G1 X7.6 Y10 F3000
M104 S210 ; set final nozzle temp
M190 S60 ; wait for bed temp to stabilize
M109 S210 ; wait for nozzle temp to stabilize
G1 Z0.28 F240
G92 E0
G1 Y140 E10 F1500 ; prime the nozzle
G1 X4 F5000
G92 E0
G1 Y10 E10 F1200 ; prime the nozzle
G92 E0
G21 ; set units to millimeters
G90 ; use absolute coordinates
M83 ; use relative distances for extrusion
; Filament gcode
M107
;LAYER_CHANGE
;Z:0.35
;HEIGHT:0.35
;BEFORE_LAYER_CHANGE
G92 E0
;0.35


G1 E-1 F3600
G1 Z.35 F7800
;AFTER_LAYER_CHANGE
;0.35
G1 X22.601 Y14.959
G1 E1 F2400
;TYPE:Support material interface
;WIDTH:1
G1 F1800
G1 X22.601 Y15.68 E.097
G1 X23.494 Y15.68 E.12014
G1 X23.494 Y15.361 E.04294
G1 X24.387 Y15.361 E.12014
G1 X24.387 Y15.68 E.04294
G1 X25.279 Y15.68 E.12014
G1 X25.279 Y15.361 E.04294
G1 X26.172 Y15.361 E.12014
G1 X26.172 Y15.68 E.04294
G1 X27.065 Y15.68 E.12014
G1 X27.065 Y15.361 E.04294
G1 X27.957 Y15.361 E.12014
G1 X27.957 Y15.68 E.04294
G1 X28.85 Y15.68 E.12014
G1 X28.85 Y15.361 E.04294
G1 X29.743 Y15.361 E.12014
G1 X29.743 Y15.68 E.04294
G1 X30.636 Y15.68 E.12014
G1 X30.636 Y15.361 E.04294
G1 X31.528 Y15.361 E.12014
G1 X31.528 Y15.68 E.04294
G1 X32.421 Y15.68 E.12014
G1 X32.421 Y15.361 E.04294
G1 X33.314 Y15.361 E.12014
G1 X33.314 Y16.416 E.14202
G1 X33.39 Y16.489 E.01426
G1 X34.206 Y38.545 E2.97035
G1 X34.206 Y15.361 E3.12023
G1 X35.099 Y15.361 E.12014
G1 X35.099 Y62.662 E6.36598
G1 X35.717 Y79.354 E2.24803
M73 P0 R646
G1 X35.717 Y22.146 E7.69927
G1 X35.992 Y22.146 E.03699
G1 X35.992 Y15.361 E.91321
G1 X36.884 Y15.361 E.12014
G1 X36.884 Y22.146 E.91321
G1 X37.777 Y22.146 E.12014
G1 X37.777 Y15.361 E.91321
G1 X38.67 Y15.361 E.12014
G1 X38.67 Y22.146 E.91321
G1 X39.11 Y22.146 E.05918
G1 X39.11 Y86.607 E8.67543
G1 X39.562 Y86.607 E.06096
G1 X39.562 Y15.361 E9.58863
G1 X40.455 Y15.361 E.12014
G1 X40.455 Y86.607 E9.58863
G1 X41.348 Y86.607 E.12014
G1 X41.348 Y15.361 E9.58863
G1 X42.241 Y15.361 E.12014
G1 X42.241 Y164.639 E20.09046
G1 X43.133 Y164.639 E.12014
G1 X43.133 Y15.361 E20.09046
G1 X44.026 Y15.361 E.12014
G1 X44.026 Y164.639 E20.09046
G1 X44.919 Y164.639 E.12014
G1 X44.919 Y15.361 E20.09046
G1 X45.811 Y15.361 E.12014
G1 X45.811 Y165.041 E20.14453
G1 E-.7 F3600
;WIPE_START
G1 F6240
G1 X45.811 Y164.521 E-.285
;WIPE_END
G1 E-.015 F3600
G1 X41.348 Y165.041 F7800
G1 E1 F2400
G1 F1800
G1 X41.348 Y157.854 E.96727
G1 X40.455 Y157.854 E.12014
G1 X40.455 Y164.639 E.91321
G1 X39.562 Y164.639 E.12014
G1 X39.562 Y157.854 E.91321
G1 X39.11 Y157.854 E.06096
G1 X39.11 Y103.571 E7.30562
G1 X38.67 Y103.571 E.05919
G1 X38.67 Y164.639 E8.21883
G1 X37.777 Y164.639 E.12014
G1 X37.777 Y157.758 E.92608
G1 X37.509 Y163.522 E.77653
G1 X36.884 Y164.119 E.11631
G1 X36.884 Y164.639 E.07007
G1 X35.992 Y164.639 E.12014
G1 X35.992 Y164.322 E.04267
G1 X35.099 Y164.322 E.12014
G1 X35.099 Y164.639 E.04267
G1 X34.206 Y164.639 E.12014
G1 X34.206 Y164.322 E.04267
G1 X33.314 Y164.322 E.12014
G1 X33.314 Y164.639 E.04267
G1 X32.421 Y164.639 E.12014
G1 X32.421 Y164.322 E.04267
G1 X31.528 Y164.322 E.12014
G1 X31.528 Y164.639 E.04267
G1 X30.635 Y164.639 E.12014
G1 X30.635 Y164.322 E.04267
G1 X29.743 Y164.322 E.12014
G1 X29.743 Y164.639 E.04267
G1 X28.85 Y164.639 E.12014
G1 X28.85 Y164.322 E.04267
G1 X27.957 Y164.322 E.12014
G1 X27.957 Y164.639 E.04267
G1 X27.065 Y164.639 E.12014
G1 X27.065 Y164.322 E.04267
G1 X26.172 Y164.322 E.12014
G1 X26.172 Y165.041 E.09674
G1 E-.7 F3600
;WIPE_START
G1 F6240
G1 X26.172 Y164.521 E-.285
;WIPE_END
G1 E-.015 F3600
G1 X37.777 Y145.873 F7800
G1 E1 F2400
G1 F1800
G1 X37.777 Y103.571 E5.69317
G1 X36.884 Y103.571 E.12014
G1 X36.884 Y121.756 E2.44742
G1 E-.7 F3600
;WIPE_START
G1 F6240
G1 X36.884 Y121.236 E-.285
;WIPE_END
G1 E-.015 F3600
G1 X59.202 Y165.041 F7800
G1 E1 F2400
G1 F1800
G1 X59.202 Y79.822 E11.4691
G1 X58.309 Y79.822 E.12014
G1 X58.309 Y164.639 E11.41504
G1 X57.416 Y164.639 E.12014
G1 X57.416 Y79.822 E11.41504
G1 X56.524 Y79.822 E.12014
G1 X56.524 Y164.639 E11.41504
G1 X55.631 Y164.639 E.12014
M73 P0 R645
G1 X55.631 Y15.361 E20.09046
G1 X54.738 Y15.361 E.12014
G1 X54.738 Y164.639 E20.09046
G1 X53.846 Y164.639 E.12014
G1 X53.846 Y15.361 E20.09046
G1 X52.953 Y15.361 E.12014
G1 X52.953 Y164.639 E20.09046
G1 X52.06 Y164.639 E.12014
G1 X52.06 Y157.854 E.91321
G1 X51.168 Y157.854 E.12014
G1 X51.168 Y164.639 E.91321
G1 X50.275 Y164.639 E.12014
G1 X50.275 Y157.854 E.91321
G1 X49.382 Y157.854 E.12014
G1 X49.382 Y164.639 E.91321
G1 X48.489 Y164.639 E.12014
G1 X48.489 Y93.393 E9.58863
G1 X47.597 Y93.393 E.12014
G1 X47.597 Y164.639 E9.58863
G1 X46.704 Y164.639 E.12014
G1 X46.704 Y93.393 E9.58863
G1 X45.895 Y93.393 E.10889
G1 X45.895 Y22.146 E9.58862
G1 X46.704 Y22.146 E.1089
G1 X46.704 Y15.361 E.91321
G1 X47.597 Y15.361 E.12014
G1 X47.597 Y22.146 E.91321
G1 X48.489 Y22.146 E.12014
G1 X48.489 Y15.361 E.91321
G1 X49.382 Y15.361 E.12014
G1 X49.382 Y76.429 E8.21883
G1 X50.275 Y76.429 E.12014
G1 X50.275 Y15.361 E8.21883
G1 X51.168 Y15.361 E.12014
G1 X51.168 Y76.429 E8.21883
G1 X52.06 Y76.429 E.12014
G1 X52.06 Y14.959 E8.27289
G1 E-.7 F3600
;WIPE_START
G1 F6240
G1 X52.06 Y15.479 E-.285
;WIPE_END
G1 E-.015 F3600
G1 X24.49 Y14.704 F7800
G1 E1 F2400
;TYPE:Support material
;WIDTH:0.42
G1 F1800
G1 X21.49 Y14.704 E.15056
G1 X21.49 Y16.336 E.0819
G1 X21.95 Y16.336 E.02308
G1 X22.118 Y16.499 E.01175
G1 X22.148 Y17.34 E.04223
G1 X22.561 Y17.332 E.02072
G1 X22.561 Y16.336 E.05
G1 X24.49 Y16.336 E.09681
G1 X24.49 Y18.916 E.12947
G1 X15.517 Y18.916 E.45029
G1 X15.517 Y12.124 E.34084
G1 X24.49 Y12.124 E.45029
G1 X24.49 Y14.652 E.12687
G1 E-.7 F3600
;WIPE_START
G1 F6240
G1 X24.49 Y14.132 E-.285
;WIPE_END
G1 E-.015 F3600
G1 X24.088 Y18.761 F7800
G1 E1 F2400
G1 F1800
G1 X24.088 Y16.646 E.1061
G1 X23.705 Y16.646 E.01923
G1 X23.705 Y18.605 E.09831
G1 X23.321 Y18.605 E.01923
G1 X23.321 Y16.646 E.09831
G1 X22.938 Y16.646 E.01923
G1 X22.938 Y18.605 E.09831
G1 X22.555 Y18.605 E.01923
G1 X22.555 Y17.643 E.04831
G1 X22.172 Y17.65 E.01923
G1 X22.172 Y18.605 E.04797
G1 X21.789 Y18.605 E.01923
G1 X21.789 Y16.646 E.09831
G1 X21.405 Y16.646 E.01923
G1 X21.405 Y18.605 E.09831
G1 X21.022 Y18.605 E.01923
G1 X21.022 Y12.435 E.30968
G1 X21.405 Y12.435 E.01923
G1 X21.405 Y14.394 E.09831
G1 X21.789 Y14.394 E.01923
G1 X21.789 Y12.435 E.09831
G1 X22.172 Y12.435 E.01923
G1 X22.172 Y14.394 E.09831
G1 X22.555 Y14.394 E.01923
G1 X22.555 Y12.435 E.09831
G1 X22.938 Y12.435 E.01923
G1 X22.938 Y14.394 E.09831
G1 X23.321 Y14.394 E.01923
G1 X23.321 Y12.435 E.09831
G1 X23.705 Y12.435 E.01923
G1 X23.705 Y14.394 E.09831
G1 X24.088 Y14.394 E.01923
G1 X24.088 Y12.28 E.1061
G1 E-.7 F3600
;WIPE_START
G1 F6240
G1 X24.088 Y12.8 E-.285
;WIPE_END
G1 E-.015 F3600
G1 X20.639 Y18.761 F7800
G1 E1 F2400
G1 F1800
G1 X20.639 Y12.435 E.31747
G1 X20.256 Y12.435 E.01923
G1 X20.256 Y18.605 E.30968
G1 X19.873 Y18.605 E.01923
G1 X19.873 Y12.435 E.30968
G1 X19.489 Y12.435 E.01923
G1 X19.489 Y18.605 E.30968
G1 X19.106 Y18.605 E.01923
G1 X19.106 Y12.435 E.30968
G1 X18.723 Y12.435 E.01923
G1 X18.723 Y18.605 E.30968
G1 X18.34 Y18.605 E.01923
G1 X18.34 Y12.435 E.30968
G1 X17.957 Y12.435 E.01923
G1 X17.957 Y18.605 E.30968
G1 X17.573 Y18.605 E.01923
G1 X17.573 Y12.435 E.30968
G1 X17.19 Y12.435 E.01923
G1 X17.19 Y18.605 E.30968
G1 X16.807 Y18.605 E.01923
G1 X16.807 Y12.435 E.30968
G1 X16.424 Y12.435 E.01923
G1 X16.424 Y18.605 E.30968
G1 X16.041 Y18.605 E.01923
G1 X16.041 Y12.28 E.31747
G1 E-.7 F3600
;WIPE_START
G1 F6240
G1 X16.041 Y12.8 E-.285
;WIPE_END
G1 E-.015 F3600
G1 X16.262 Y48.942 F7800
G1 E1 F2400
G1 F1800
G1 X14.739 Y48.97 E.07643
G1 X14.656 Y46.721 E.11293
G1 X13.262 Y46.747 E.06995
G1 X13.262 Y163.67 E5.86788
G1 X13.678 Y164.086 E.02952
G1 X17.245 Y164.086 E.17902
G1 X17.656 Y163.694 E.02851
G1 X17.783 Y161.086 E.13105
G1 X27.882 Y161.086 E.50682
G1 X27.882 Y163.666 E.12947
G1 X26.705 Y163.666 E.05908
G1 X26.705 Y162.671 E.04993
G1 X26.295 Y162.661 E.02058
G1 X26.254 Y163.506 E.04246
G1 X26.086 Y163.666 E.01164
G1 X24.882 Y163.666 E.06041
G1 X24.882 Y165.296 E.0818
G1 X27.882 Y165.296 E.15056
G1 X27.882 Y167.876 E.12947
G1 X8.732 Y167.876 E.96109
G1 X8.732 Y29.088 E6.96519
G1 X16.262 Y29.088 E.37791
M73 P0 R644
G1 X16.262 Y48.89 E.99379
G1 E-.7 F3600
;WIPE_START
G1 F6240
G1 X16.262 Y48.37 E-.285
;WIPE_END
G1 E-.015 F3600
G1 X27.537 Y167.72 F7800
G1 E1 F2400
G1 F1800
G1 X27.537 Y165.606 E.1061
G1 X27.154 Y165.606 E.01923
G1 X27.154 Y167.565 E.09831
G1 X26.77 Y167.565 E.01923
G1 X26.77 Y165.606 E.09831
G1 X26.387 Y165.606 E.01923
G1 X26.387 Y167.565 E.09831
G1 X26.004 Y167.565 E.01923
G1 X26.004 Y165.606 E.09831
G1 X25.621 Y165.606 E.01923
G1 X25.621 Y167.565 E.09831
G1 X25.238 Y167.565 E.01923
G1 X25.238 Y165.606 E.09831
G1 X24.854 Y165.606 E.01923
G1 X24.854 Y167.565 E.09831
G1 X24.471 Y167.565 E.01923
G1 X24.471 Y161.396 E.30958
G1 X24.854 Y161.396 E.01923
G1 X24.854 Y163.355 E.09831
G1 X25.238 Y163.355 E.01923
G1 X25.238 Y161.396 E.09831
G1 X25.621 Y161.396 E.01923
G1 X25.621 Y163.355 E.09831
G1 X25.951 Y163.355 E.01655
G1 X26.004 Y162.343 E.05087
G1 X26.004 Y161.396 E.04752
G1 X26.387 Y161.396 E.01923
G1 X26.387 Y162.353 E.04799
G1 X26.77 Y162.362 E.01924
G1 X26.77 Y161.396 E.04846
G1 X27.154 Y161.396 E.01923
G1 X27.154 Y163.355 E.09831
G1 X27.537 Y163.355 E.01923
G1 X27.537 Y161.241 E.1061
G1 E-.7 F3600
;WIPE_START
G1 F6240
G1 X27.537 Y161.761 E-.285
;WIPE_END
G1 E-.015 F3600
G1 X24.088 Y167.72 F7800
G1 E1 F2400
G1 F1800
G1 X24.088 Y161.396 E.31737
G1 X23.705 Y161.396 E.01923
G1 X23.705 Y167.565 E.30958
G1 X23.321 Y167.565 E.01923
G1 X23.321 Y161.396 E.30958
G1 X22.938 Y161.396 E.01923
G1 X22.938 Y167.565 E.30958
G1 X22.555 Y167.565 E.01923
G1 X22.555 Y161.396 E.30958
G1 X22.172 Y161.396 E.01923
G1 X22.172 Y167.565 E.30958
G1 X21.789 Y167.565 E.01923
G1 X21.789 Y161.396 E.30958
G1 X21.405 Y161.396 E.01923
G1 X21.405 Y167.565 E.30958
G1 X21.022 Y167.565 E.01923
G1 X21.022 Y161.396 E.30958
G1 X20.639 Y161.396 E.01923
G1 X20.639 Y167.565 E.30958
G1 X20.256 Y167.565 E.01923
G1 X20.256 Y161.396 E.30958
G1 X19.873 Y161.396 E.01923
G1 X19.873 Y167.565 E.30958
G1 X19.489 Y167.565 E.01923
G1 X19.489 Y161.396 E.30958
G1 X19.106 Y161.396 E.01923
G1 X19.106 Y167.565 E.30958
G1 X18.723 Y167.565 E.01923
G1 X18.723 Y161.396 E.30958
G1 X18.34 Y161.396 E.01923
G1 X18.34 Y167.565 E.30958
G1 X17.957 Y167.565 E.01923
G1 X17.957 Y163.837 E.18711
G1 X17.573 Y164.202 E.02656
G1 X17.573 Y167.565 E.16879
G1 X17.19 Y167.565 E.01923
G1 X17.19 Y164.396 E.15903
G1 X16.807 Y164.396 E.01923
G1 X16.807 Y167.565 E.15903
G1 X16.424 Y167.565 E.01923
G1 X16.424 Y164.396 E.15903
G1 X16.04 Y164.396 E.01923
G1 X16.04 Y167.565 E.15903
G1 X15.657 Y167.565 E.01923
G1 X15.657 Y164.396 E.15903
G1 X15.274 Y164.396 E.01923
G1 X15.274 Y167.565 E.15903
G1 X14.891 Y167.565 E.01923
G1 X14.891 Y164.396 E.15903
G1 X14.508 Y164.396 E.01923
G1 X14.508 Y167.565 E.15903
G1 X14.124 Y167.565 E.01923
G1 X14.124 Y164.396 E.15903
G1 X13.741 Y164.396 E.01923
G1 X13.741 Y167.565 E.15903
G1 X13.358 Y167.565 E.01923
G1 X13.358 Y163.986 E.17965
G1 E-.7 F3600
;WIPE_START
G1 F6240
G1 X13.358 Y164.506 E-.285
;WIPE_END
G1 E-.015 F3600
G1 X15.657 Y48.798 F7800
G1 E1 F2400
G1 F1800
G1 X15.657 Y29.398 E.97358
G1 X15.274 Y29.398 E.01923
G1 X15.274 Y48.65 E.96615
G1 X15.038 Y48.654 E.01184
G1 X14.955 Y46.405 E.11293
G1 X14.891 Y46.406 E.00319
G1 X14.891 Y29.398 E.85357
G1 X14.508 Y29.398 E.01923
G1 X14.508 Y46.414 E.85393
G1 X14.124 Y46.421 E.01924
G1 X14.124 Y29.398 E.85429
G1 X13.741 Y29.398 E.01923
G1 X13.741 Y46.428 E.85465
G1 X13.358 Y46.435 E.01924
G1 X13.358 Y29.398 E.855
G1 X12.975 Y29.398 E.01923
G1 X12.975 Y167.565 E6.93404
G1 X12.592 Y167.565 E.01923
G1 X12.592 Y29.398 E6.93404
G1 X12.208 Y29.398 E.01923
G1 X12.208 Y167.565 E6.93404
G1 X11.825 Y167.565 E.01923
G1 X11.825 Y29.398 E6.93404
G1 X11.442 Y29.398 E.01923
G1 X11.442 Y167.565 E6.93404
G1 X11.059 Y167.565 E.01923
G1 X11.059 Y29.398 E6.93404
G1 X10.676 Y29.398 E.01923
G1 X10.676 Y167.565 E6.93404
G1 X10.292 Y167.565 E.01923
G1 X10.292 Y29.398 E6.93404
G1 X9.909 Y29.398 E.01923
G1 X9.909 Y167.565 E6.93404
G1 X9.526 Y167.565 E.01923
M73 P0 R643
G1 X9.526 Y29.398 E6.93404
G1 X9.143 Y29.398 E.01923
G1 X9.143 Y167.72 E6.94182
G1 E-.7 F3600
;WIPE_START
G1 F6240
G1 X9.143 Y167.2 E-.285
;WIPE_END
G1 E-.015 F3600
G1 X171.268 Y167.876 F7800
G1 E1 F2400
G1 F1800
G1 X57.122 Y167.876 E5.72853
G1 X57.122 Y165.296 E.12947
G1 X60.122 Y165.296 E.15056
G1 X60.122 Y79.165 E4.32253
G1 X59.622 Y79.165 E.02509
G1 X59.622 Y69.487 E.4857
G1 X56.729 Y69.487 E.14517
G1 X56.73 Y14.704 E2.74934
G1 X53.729 Y14.704 E.15056
G1 X53.729 Y12.124 E.12947
G1 X171.268 Y12.124 E5.8988
G1 X171.268 Y167.824 E7.81392
G1 X170.857 Y167.72 F7800
G1 F1800
G1 X170.857 Y12.435 E7.79315
G1 X170.474 Y12.435 E.01923
G1 X170.474 Y167.565 E7.78536
G1 X170.091 Y167.565 E.01923
G1 X170.091 Y12.435 E7.78536
G1 X169.708 Y12.435 E.01923
G1 X169.708 Y167.565 E7.78536
G1 X169.324 Y167.565 E.01923
G1 X169.325 Y12.435 E7.78536
G1 X168.941 Y12.435 E.01923
G1 X168.941 Y167.565 E7.78536
G1 X168.558 Y167.565 E.01923
M73 P0 R642
G1 X168.558 Y12.435 E7.78536
G1 X168.175 Y12.435 E.01923
G1 X168.175 Y167.565 E7.78536
G1 X167.792 Y167.565 E.01923
G1 X167.792 Y12.435 E7.78536
G1 X167.408 Y12.435 E.01923
G1 X167.408 Y167.565 E7.78536
G1 X167.025 Y167.565 E.01923
G1 X167.025 Y12.435 E7.78536
G1 X166.642 Y12.435 E.01923
G1 X166.642 Y167.565 E7.78536
G1 X166.259 Y167.565 E.01923
G1 X166.259 Y12.435 E7.78536
G1 X165.876 Y12.435 E.01923
G1 X165.876 Y167.565 E7.78536
G1 X165.492 Y167.565 E.01923
G1 X165.492 Y12.435 E7.78536
G1 X165.109 Y12.435 E.01923
G1 X165.109 Y167.565 E7.78536
G1 X164.726 Y167.565 E.01923
G1 X164.726 Y12.435 E7.78536
G1 X164.343 Y12.435 E.01923
M73 P0 R641
G1 X164.343 Y167.565 E7.78536
G1 X163.96 Y167.565 E.01923
G1 X163.96 Y12.435 E7.78536
G1 X163.576 Y12.435 E.01923
G1 X163.576 Y167.565 E7.78536
G1 X163.193 Y167.565 E.01923
G1 X163.193 Y12.435 E7.78536
G1 X162.81 Y12.435 E.01923
G1 X162.81 Y167.565 E7.78536
G1 X162.427 Y167.565 E.01923
G1 X162.427 Y12.435 E7.78536
G1 X162.044 Y12.435 E.01923
G1 X162.044 Y167.565 E7.78536
G1 X161.66 Y167.565 E.01923
G1 X161.66 Y12.435 E7.78536
G1 X161.277 Y12.435 E.01923
G1 X161.277 Y167.565 E7.78536
G1 X160.894 Y167.565 E.01923
G1 X160.894 Y12.435 E7.78536
G1 X160.511 Y12.435 E.01923
G1 X160.511 Y167.565 E7.78536
G1 X160.127 Y167.565 E.01923
G1 X160.127 Y12.435 E7.78536
G1 X159.744 Y12.435 E.01923
M73 P0 R640
G1 X159.744 Y167.565 E7.78536
G1 X159.361 Y167.565 E.01923
G1 X159.361 Y12.435 E7.78536
G1 X158.978 Y12.435 E.01923
M73 P1 R640
G1 X158.978 Y167.565 E7.78536
G1 X158.595 Y167.565 E.01923
G1 X158.595 Y12.435 E7.78536
G1 X158.211 Y12.435 E.01923
G1 X158.211 Y167.565 E7.78536
G1 X157.828 Y167.565 E.01923
G1 X157.828 Y12.435 E7.78536
G1 X157.445 Y12.435 E.01923
G1 X157.445 Y167.565 E7.78536
G1 X157.062 Y167.565 E.01923
G1 X157.062 Y12.435 E7.78536
G1 X156.679 Y12.435 E.01923
G1 X156.679 Y167.565 E7.78536
G1 X156.295 Y167.565 E.01923
G1 X156.295 Y12.435 E7.78536
G1 X155.912 Y12.435 E.01923
G1 X155.912 Y167.565 E7.78536
G1 X155.529 Y167.565 E.01923
M73 P1 R639
G1 X155.529 Y12.435 E7.78536
G1 X155.146 Y12.435 E.01923
G1 X155.146 Y167.565 E7.78536
G1 X154.763 Y167.565 E.01923
G1 X154.763 Y12.435 E7.78536
G1 X154.379 Y12.435 E.01923
G1 X154.379 Y167.565 E7.78536
G1 X153.996 Y167.565 E.01923
G1 X153.996 Y12.435 E7.78536
G1 X153.613 Y12.435 E.01923
G1 X153.613 Y167.565 E7.78536
G1 X153.23 Y167.565 E.01923
G1 X153.23 Y12.435 E7.78536
G1 X152.846 Y12.435 E.01923
G1 X152.846 Y167.565 E7.78536
