; generated by PrusaSlicer 2.5.0+win64 on 2022-12-07 at 00:25:36 UTC

; 

; external perimeters extrusion width = 1.00mm
; perimeters extrusion width = 1.00mm
; infill extrusion width = 1.00mm
; solid infill extrusion width = 1.00mm
; top infill extrusion width = 1.00mm
; support material extrusion width = 1.00mm
; first layer extrusion width = 0.42mm

M73 P0 R1042
M107
;TYPE:Custom
G90 ; use absolute coordinates
M83 ; extruder relative mode
M140 S60 ; set final bed temp
M104 S150 ; set temporary nozzle temp to prevent oozing during homing and auto bed leveling
G4 S10 ; allow partial nozzle warmup
G28 ; home all axisG1 Z50 F240
G1 X7.6 Y10 F3000
M104 S210 ; set final nozzle temp
M190 S60 ; wait for bed temp to stabilize
M109 S210 ; wait for nozzle temp to stabilize
G1 Z0.28 F240
G92 E0
G1 Y140 E10 F1500 ; prime the nozzle
G1 X4 F5000
G92 E0
G1 Y10 E10 F1200 ; prime the nozzle
G92 E0
G21 ; set units to millimeters
G90 ; use absolute coordinates
M83 ; use relative distances for extrusion
; Filament gcode
M107
;LAYER_CHANGE
;Z:0.35
;HEIGHT:0.35
;BEFORE_LAYER_CHANGE
G92 E0
;0.35


G1 E-1 F3600
G1 Z.35 F7800
;AFTER_LAYER_CHANGE
;0.35
G1 X77.056 Y160.845
G1 E1 F2400
;TYPE:Support material interface
;WIDTH:1
G1 F1800
G1 X77.056 Y164.639 E.51067
G1 X77.948 Y164.639 E.12014
G1 X77.948 Y161.247 E.45661
G1 X78.841 Y161.247 E.12014
G1 X78.841 Y164.639 E.45661
G1 X79.734 Y164.639 E.12014
G1 X79.734 Y161.247 E.45661
G1 X80.627 Y161.247 E.12014
G1 X80.627 Y164.639 E.45661
G1 X81.519 Y164.639 E.12014
G1 X81.519 Y161.247 E.45661
G1 X82.412 Y161.247 E.12014
G1 X82.412 Y164.639 E.45661
G1 X83.305 Y164.639 E.12014
G1 X83.305 Y161.247 E.45661
G1 X84.197 Y161.247 E.12014
G1 X84.197 Y164.639 E.45661
G1 X85.09 Y164.639 E.12014
G1 X85.09 Y161.247 E.45661
G1 X85.983 Y161.247 E.12014
G1 X85.983 Y164.639 E.45661
G1 X86.875 Y164.639 E.12014
G1 X86.875 Y161.247 E.45661
G1 X87.768 Y161.247 E.12014
G1 X87.768 Y164.639 E.45661
G1 X88.661 Y164.639 E.12014
G1 X88.661 Y161.247 E.45661
G1 X89.554 Y161.247 E.12014
G1 X89.554 Y164.639 E.45661
G1 X90.446 Y164.639 E.12014
G1 X90.446 Y161.247 E.45661
G1 X91.339 Y161.247 E.12014
G1 X91.339 Y164.639 E.45661
G1 X92.232 Y164.639 E.12014
G1 X92.232 Y161.247 E.45661
G1 X93.124 Y161.247 E.12014
G1 X93.124 Y164.639 E.45661
G1 X94.017 Y164.639 E.12014
G1 X94.017 Y161.247 E.45661
G1 X94.91 Y161.247 E.12014
G1 X94.91 Y164.639 E.45661
G1 X95.802 Y164.639 E.12014
G1 X95.802 Y161.247 E.45661
G1 X96.695 Y161.247 E.12014
G1 X96.695 Y164.639 E.45661
G1 X97.588 Y164.639 E.12014
G1 X97.588 Y161.247 E.45661
G1 X98.481 Y161.247 E.12014
G1 X98.481 Y164.639 E.45661
G1 X99.373 Y164.639 E.12014
G1 X99.373 Y161.247 E.45661
G1 X100.266 Y161.247 E.12014
G1 X100.266 Y164.639 E.45661
G1 X101.159 Y164.639 E.12014
G1 X101.159 Y161.247 E.45661
G1 X102.051 Y161.247 E.12014
G1 X102.051 Y164.639 E.45661
G1 X102.944 Y164.639 E.12014
G1 X102.944 Y161.247 E.45661
G1 X103.837 Y161.247 E.12014
G1 X103.837 Y164.639 E.45661
G1 X104.729 Y164.639 E.12014
G1 X104.729 Y161.247 E.45661
G1 X105.622 Y161.247 E.12014
G1 X105.622 Y164.639 E.45661
G1 X106.515 Y164.639 E.12014
G1 X106.515 Y161.247 E.45661
G1 X107.408 Y161.247 E.12014
G1 X107.408 Y164.639 E.45661
G1 X108.3 Y164.639 E.12014
G1 X108.3 Y161.247 E.45661
G1 X109.193 Y161.247 E.12014
G1 X109.193 Y164.639 E.45661
G1 X110.086 Y164.639 E.12014
G1 X110.086 Y161.247 E.45661
G1 X110.978 Y161.247 E.12014
G1 X110.978 Y164.639 E.45661
G1 X111.871 Y164.639 E.12014
G1 X111.871 Y161.247 E.45661
G1 X112.764 Y161.247 E.12014
G1 X112.764 Y164.639 E.45661
G1 X113.656 Y164.639 E.12014
G1 X113.656 Y161.247 E.45661
G1 X114.549 Y161.247 E.12014
G1 X114.549 Y164.639 E.45661
G1 X115.442 Y164.639 E.12014
G1 X115.442 Y161.247 E.45661
G1 X116.335 Y161.247 E.12014
G1 X116.335 Y164.639 E.45661
G1 X117.227 Y164.639 E.12014
G1 X117.227 Y161.247 E.45661
G1 X118.12 Y161.247 E.12014
G1 X118.12 Y164.639 E.45661
G1 X119.013 Y164.639 E.12014
G1 X119.013 Y161.247 E.45661
G1 X119.905 Y161.247 E.12014
G1 X119.905 Y164.639 E.45661
G1 X120.798 Y164.639 E.12014
G1 X120.798 Y161.247 E.45661
G1 X121.691 Y161.247 E.12014
G1 X121.691 Y164.639 E.45661
G1 X122.583 Y164.639 E.12014
G1 X122.583 Y161.247 E.45661
G1 X123.476 Y161.247 E.12014
G1 X123.476 Y164.639 E.45661
G1 X124.369 Y164.639 E.12014
G1 X124.369 Y161.247 E.45661
G1 X125.262 Y161.247 E.12014
G1 X125.262 Y164.639 E.45661
G1 X126.154 Y164.639 E.12014
G1 X126.154 Y161.247 E.45661
G1 X127.047 Y161.247 E.12014
G1 X127.047 Y164.639 E.45661
G1 X127.94 Y164.639 E.12014
G1 X127.94 Y161.247 E.45661
G1 X128.832 Y161.247 E.12014
G1 X128.832 Y164.639 E.45661
G1 X129.725 Y164.639 E.12014
G1 X129.725 Y161.247 E.45661
G1 X130.618 Y161.247 E.12014
G1 X130.618 Y165.041 E.51067
G1 E-.7 F3600
;WIPE_START
G1 F6240
G1 X130.618 Y164.521 E-.285
;WIPE_END
G1 E-.015 F3600
G1 X133.296 Y165.041 F7800
G1 E1 F2400
G1 F1800
G1 X133.296 Y164.321 E.09687
G1 X132.403 Y164.321 E.12014
G1 X132.403 Y164.639 E.04281
G1 X131.51 Y164.639 E.12014
G1 X131.51 Y161.247 E.45661
G1 X132.403 Y161.247 E.12014
G1 X132.403 Y162.431 E.15933
G1 X133.296 Y162.42 E.12015
G1 X133.296 Y160.845 E.21195
G1 E-.7 F3600
;WIPE_START
G1 F6240
G1 X133.296 Y161.365 E-.285
;WIPE_END
G1 E-.015 F3600
G1 X171.268 Y137.341 F7800
G1 E1 F2400
;TYPE:Support material
;WIDTH:0.42
G1 F1800
G1 X90.156 Y137.341 E4.07067
G1 X90.156 Y133.949 E.17027
G1 X8.732 Y133.949 E4.08638
G1 X8.732 Y12.124 E6.11386
G1 X171.268 Y12.124 E8.15705
G1 X171.268 Y137.29 E6.28153
G1 X170.857 Y137.186 F7800
G1 F1800
G1 X170.857 Y12.435 E6.26076
G1 X170.474 Y12.435 E.01923
G1 X170.474 Y137.031 E6.25297
G1 X170.091 Y137.031 E.01923
M73 P0 R1041
G1 X170.091 Y12.435 E6.25297
G1 X169.708 Y12.435 E.01923
G1 X169.708 Y137.031 E6.25297
G1 X169.324 Y137.031 E.01923
G1 X169.324 Y12.435 E6.25297
G1 X168.941 Y12.435 E.01923
G1 X168.941 Y137.031 E6.25297
G1 X168.558 Y137.031 E.01923
G1 X168.558 Y12.435 E6.25297
G1 X168.175 Y12.435 E.01923
G1 X168.175 Y137.031 E6.25297
G1 X167.792 Y137.031 E.01923
G1 X167.792 Y12.435 E6.25297
G1 X167.408 Y12.435 E.01923
G1 X167.408 Y137.031 E6.25297
G1 X167.025 Y137.031 E.01923
G1 X167.025 Y12.435 E6.25297
G1 X166.642 Y12.435 E.01923
G1 X166.642 Y137.031 E6.25297
G1 X166.259 Y137.031 E.01923
G1 X166.259 Y12.435 E6.25297
G1 X165.876 Y12.435 E.01923
G1 X165.876 Y137.031 E6.25297
G1 X165.492 Y137.031 E.01923
G1 X165.492 Y12.435 E6.25297
G1 X165.109 Y12.435 E.01923
G1 X165.109 Y137.031 E6.25297
G1 X164.726 Y137.031 E.01923
M73 P0 R1040
G1 X164.726 Y12.435 E6.25297
G1 X164.343 Y12.435 E.01923
G1 X164.343 Y137.031 E6.25297
G1 X163.96 Y137.031 E.01923
G1 X163.96 Y12.435 E6.25297
G1 X163.576 Y12.435 E.01923
G1 X163.576 Y137.031 E6.25297
G1 X163.193 Y137.031 E.01923
G1 X163.193 Y12.435 E6.25297
G1 X162.81 Y12.435 E.01923
G1 X162.81 Y137.031 E6.25297
G1 X162.427 Y137.031 E.01923
G1 X162.427 Y12.435 E6.25297
G1 X162.043 Y12.435 E.01923
G1 X162.043 Y137.031 E6.25297
G1 X161.66 Y137.031 E.01923
G1 X161.66 Y12.435 E6.25297
G1 X161.277 Y12.435 E.01923
G1 X161.277 Y137.031 E6.25297
G1 X160.894 Y137.031 E.01923
G1 X160.894 Y12.435 E6.25297
G1 X160.511 Y12.435 E.01923
G1 X160.511 Y137.031 E6.25297
G1 X160.127 Y137.031 E.01923
G1 X160.127 Y12.435 E6.25297
G1 X159.744 Y12.435 E.01923
G1 X159.744 Y137.031 E6.25297
G1 X159.361 Y137.031 E.01923
G1 X159.361 Y12.435 E6.25297
G1 X158.978 Y12.435 E.01923
M73 P0 R1039
G1 X158.978 Y137.031 E6.25297
G1 X158.595 Y137.031 E.01923
G1 X158.595 Y12.435 E6.25297
G1 X158.211 Y12.435 E.01923
G1 X158.211 Y137.031 E6.25297
G1 X157.828 Y137.031 E.01923
G1 X157.828 Y12.435 E6.25297
G1 X157.445 Y12.435 E.01923
G1 X157.445 Y137.031 E6.25297
G1 X157.062 Y137.031 E.01923
G1 X157.062 Y12.435 E6.25297
G1 X156.679 Y12.435 E.01923
G1 X156.679 Y137.031 E6.25297
G1 X156.295 Y137.031 E.01923
G1 X156.295 Y12.435 E6.25297
G1 X155.912 Y12.435 E.01923
G1 X155.912 Y137.031 E6.25297
G1 X155.529 Y137.031 E.01923
G1 X155.529 Y12.435 E6.25297
G1 X155.146 Y12.435 E.01923
G1 X155.146 Y137.031 E6.25297
G1 X154.762 Y137.031 E.01923
G1 X154.762 Y12.435 E6.25297
G1 X154.379 Y12.435 E.01923
G1 X154.379 Y137.031 E6.25297
G1 X153.996 Y137.031 E.01923
G1 X153.996 Y12.435 E6.25297
G1 X153.613 Y12.435 E.01923
M73 P0 R1038
G1 X153.613 Y137.031 E6.25297
G1 X153.23 Y137.031 E.01923
G1 X153.23 Y12.435 E6.25297
G1 X152.846 Y12.435 E.01923
G1 X152.846 Y137.031 E6.25297
G1 X152.463 Y137.031 E.01923
G1 X152.463 Y12.435 E6.25297
G1 X152.08 Y12.435 E.01923
G1 X152.08 Y137.031 E6.25297
G1 X151.697 Y137.031 E.01923
G1 X151.697 Y12.435 E6.25297
G1 X151.314 Y12.435 E.01923
G1 X151.314 Y137.031 E6.25297
G1 X150.93 Y137.031 E.01923
G1 X150.93 Y12.435 E6.25297
G1 X150.547 Y12.435 E.01923
G1 X150.547 Y137.031 E6.25297
G1 X150.164 Y137.031 E.01923
G1 X150.164 Y12.435 E6.25297
G1 X149.781 Y12.435 E.01923
G1 X149.781 Y137.031 E6.25297
G1 X149.398 Y137.031 E.01923
G1 X149.398 Y12.435 E6.25297
G1 X149.014 Y12.435 E.01923
G1 X149.014 Y137.031 E6.25297
G1 X148.631 Y137.031 E.01923
G1 X148.631 Y12.435 E6.25297
G1 X148.248 Y12.435 E.01923
M73 P0 R1037
G1 X148.248 Y137.031 E6.25297
G1 X147.865 Y137.031 E.01923
G1 X147.865 Y12.435 E6.25297
G1 X147.481 Y12.435 E.01923
G1 X147.481 Y137.031 E6.25297
G1 X147.098 Y137.031 E.01923
G1 X147.098 Y12.435 E6.25297
G1 X146.715 Y12.435 E.01923
G1 X146.715 Y137.031 E6.25297
G1 X146.332 Y137.031 E.01923
G1 X146.332 Y12.435 E6.25297
G1 X145.949 Y12.435 E.01923
G1 X145.949 Y137.031 E6.25297
G1 X145.565 Y137.031 E.01923
G1 X145.565 Y12.435 E6.25297
G1 X145.182 Y12.435 E.01923
G1 X145.182 Y137.031 E6.25297
G1 X144.799 Y137.031 E.01923
G1 X144.799 Y12.435 E6.25297
G1 X144.416 Y12.435 E.01923
G1 X144.416 Y137.031 E6.25297
G1 X144.033 Y137.031 E.01923
G1 X144.033 Y12.435 E6.25297
G1 X143.649 Y12.435 E.01923
G1 X143.649 Y137.031 E6.25297
G1 X143.266 Y137.031 E.01923
G1 X143.266 Y12.435 E6.25297
G1 X142.883 Y12.435 E.01923
M73 P0 R1036
G1 X142.883 Y137.031 E6.25297
G1 X142.5 Y137.031 E.01923
G1 X142.5 Y12.435 E6.25297
G1 X142.117 Y12.435 E.01923
G1 X142.117 Y137.031 E6.25297
G1 X141.733 Y137.031 E.01923
G1 X141.733 Y12.435 E6.25297
G1 X141.35 Y12.435 E.01923
G1 X141.35 Y137.031 E6.25297
G1 X140.967 Y137.031 E.01923
G1 X140.967 Y12.435 E6.25297
G1 X140.584 Y12.435 E.01923
G1 X140.584 Y137.031 E6.25297
G1 X140.2 Y137.031 E.01923
G1 X140.201 Y12.435 E6.25297
G1 X139.817 Y12.435 E.01923
G1 X139.817 Y137.031 E6.25297
G1 X139.434 Y137.031 E.01923
G1 X139.434 Y12.435 E6.25297
G1 X139.051 Y12.435 E.01923
G1 X139.051 Y137.031 E6.25297
G1 X138.668 Y137.031 E.01923
G1 X138.668 Y12.435 E6.25297
G1 X138.284 Y12.435 E.01923
G1 X138.284 Y137.031 E6.25297
G1 X137.901 Y137.031 E.01923
G1 X137.901 Y12.435 E6.25297
G1 X137.518 Y12.435 E.01923
M73 P0 R1035
G1 X137.518 Y137.031 E6.25297
G1 X137.135 Y137.031 E.01923
G1 X137.135 Y12.435 E6.25297
G1 X136.752 Y12.435 E.01923
G1 X136.752 Y137.031 E6.25297
G1 X136.368 Y137.031 E.01923
G1 X136.368 Y12.435 E6.25297
G1 X135.985 Y12.435 E.01923
G1 X135.985 Y137.031 E6.25297
G1 X135.602 Y137.031 E.01923
G1 X135.602 Y12.435 E6.25297
G1 X135.219 Y12.435 E.01923
G1 X135.219 Y137.031 E6.25297
G1 X134.836 Y137.031 E.01923
G1 X134.836 Y12.435 E6.25297
G1 X134.452 Y12.435 E.01923
G1 X134.452 Y137.031 E6.25297
G1 X134.069 Y137.031 E.01923
G1 X134.069 Y12.435 E6.25297
G1 X133.686 Y12.435 E.01923
G1 X133.686 Y137.031 E6.25297
G1 X133.303 Y137.031 E.01923
G1 X133.303 Y12.435 E6.25297
G1 X132.92 Y12.435 E.01923
G1 X132.92 Y137.031 E6.25297
G1 X132.536 Y137.031 E.01923
G1 X132.536 Y12.435 E6.25297
G1 X132.153 Y12.435 E.01923
G1 X132.153 Y137.031 E6.25297
G1 X131.77 Y137.031 E.01923
M73 P0 R1034
G1 X131.77 Y12.435 E6.25297
G1 X131.387 Y12.435 E.01923
G1 X131.387 Y137.031 E6.25297
G1 X131.003 Y137.031 E.01923
G1 X131.003 Y12.435 E6.25297
G1 X130.62 Y12.435 E.01923
G1 X130.62 Y137.031 E6.25297
G1 X130.237 Y137.031 E.01923
G1 X130.237 Y12.435 E6.25297
G1 X129.854 Y12.435 E.01923
G1 X129.854 Y137.031 E6.25297
G1 X129.471 Y137.031 E.01923
G1 X129.471 Y12.435 E6.25297
G1 X129.087 Y12.435 E.01923
G1 X129.087 Y137.031 E6.25297
G1 X128.704 Y137.031 E.01923
G1 X128.704 Y12.435 E6.25297
G1 X128.321 Y12.435 E.01923
G1 X128.321 Y137.031 E6.25297
G1 X127.938 Y137.031 E.01923
G1 X127.938 Y12.435 E6.25297
G1 X127.555 Y12.435 E.01923
G1 X127.555 Y137.031 E6.25297
G1 X127.171 Y137.031 E.01923
G1 X127.171 Y12.435 E6.25297
G1 X126.788 Y12.435 E.01923
G1 X126.788 Y137.031 E6.25297
G1 X126.405 Y137.031 E.01923
M73 P0 R1033
G1 X126.405 Y12.435 E6.25297
G1 X126.022 Y12.435 E.01923
G1 X126.022 Y137.031 E6.25297
G1 X125.639 Y137.031 E.01923
G1 X125.639 Y12.435 E6.25297
G1 X125.255 Y12.435 E.01923
G1 X125.255 Y137.031 E6.25297
G1 X124.872 Y137.031 E.01923
G1 X124.872 Y12.435 E6.25297
G1 X124.489 Y12.435 E.01923
G1 X124.489 Y137.031 E6.25297
G1 X124.106 Y137.031 E.01923
G1 X124.106 Y12.435 E6.25297
G1 X123.722 Y12.435 E.01923
G1 X123.722 Y137.031 E6.25297
G1 X123.339 Y137.031 E.01923
G1 X123.339 Y12.435 E6.25297
G1 X122.956 Y12.435 E.01923
G1 X122.956 Y137.031 E6.25297
G1 X122.573 Y137.031 E.01923
G1 X122.573 Y12.435 E6.25297
G1 X122.19 Y12.435 E.01923
G1 X122.19 Y137.031 E6.25297
G1 X121.806 Y137.031 E.01923
G1 X121.806 Y12.435 E6.25297
G1 X121.423 Y12.435 E.01923
G1 X121.423 Y137.031 E6.25297
G1 X121.04 Y137.031 E.01923
M73 P0 R1032
G1 X121.04 Y12.435 E6.25297
G1 X120.657 Y12.435 E.01923
G1 X120.657 Y137.031 E6.25297
G1 X120.274 Y137.031 E.01923
G1 X120.274 Y12.435 E6.25297
G1 X119.89 Y12.435 E.01923
G1 X119.89 Y137.031 E6.25297
G1 X119.507 Y137.031 E.01923
G1 X119.507 Y12.435 E6.25297
G1 X119.124 Y12.435 E.01923
G1 X119.124 Y137.031 E6.25297
G1 X118.741 Y137.031 E.01923
G1 X118.741 Y12.435 E6.25297
G1 X118.358 Y12.435 E.01923
G1 X118.358 Y137.031 E6.25297
G1 X117.974 Y137.031 E.01923
M73 P1 R1032
G1 X117.974 Y12.435 E6.25297
G1 X117.591 Y12.435 E.01923
G1 X117.591 Y137.031 E6.25297
G1 X117.208 Y137.031 E.01923
G1 X117.208 Y12.435 E6.25297
G1 X116.825 Y12.435 E.01923
G1 X116.825 Y137.031 E6.25297
G1 X116.441 Y137.031 E.01923
G1 X116.441 Y12.435 E6.25297
G1 X116.058 Y12.435 E.01923
G1 X116.058 Y137.031 E6.25297
G1 X115.675 Y137.031 E.01923
M73 P1 R1031
G1 X115.675 Y12.435 E6.25297
G1 X115.292 Y12.435 E.01923
G1 X115.292 Y137.031 E6.25297
G1 X114.909 Y137.031 E.01923
G1 X114.909 Y12.435 E6.25297
G1 X114.525 Y12.435 E.01923
G1 X114.525 Y137.031 E6.25297
G1 X114.142 Y137.031 E.01923
G1 X114.142 Y12.435 E6.25297
G1 X113.759 Y12.435 E.01923
G1 X113.759 Y137.031 E6.25297
G1 X113.376 Y137.031 E.01923
G1 X113.376 Y12.435 E6.25297
G1 X112.993 Y12.435 E.01923
G1 X112.993 Y137.031 E6.25297
G1 X112.609 Y137.031 E.01923
G1 X112.609 Y12.435 E6.25297
G1 X112.226 Y12.435 E.01923
G1 X112.226 Y137.031 E6.25297
G1 X111.843 Y137.031 E.01923
G1 X111.843 Y12.435 E6.25297
G1 X111.46 Y12.435 E.01923
G1 X111.46 Y137.031 E6.25297
G1 X111.077 Y137.031 E.01923
G1 X111.077 Y12.435 E6.25297
G1 X110.693 Y12.435 E.01923
G1 X110.693 Y137.031 E6.25297
G1 X110.31 Y137.031 E.01923
G1 X110.31 Y12.435 E6.25297
G1 X109.927 Y12.435 E.01923
M73 P1 R1030
G1 X109.927 Y137.031 E6.25297
G1 X109.544 Y137.031 E.01923
G1 X109.544 Y12.435 E6.25297
G1 X109.16 Y12.435 E.01923
G1 X109.16 Y137.031 E6.25297
G1 X108.777 Y137.031 E.01923
G1 X108.777 Y12.435 E6.25297
G1 X108.394 Y12.435 E.01923
G1 X108.394 Y137.031 E6.25297
G1 X108.011 Y137.031 E.01923
G1 X108.011 Y12.435 E6.25297
G1 X107.628 Y12.435 E.01923
G1 X107.628 Y137.031 E6.25297
G1 X107.244 Y137.031 E.01923
G1 X107.244 Y12.435 E6.25297
G1 X106.861 Y12.435 E.01923
G1 X106.861 Y137.031 E6.25297
G1 X106.478 Y137.031 E.01923
G1 X106.478 Y12.435 E6.25297
G1 X106.095 Y12.435 E.01923
G1 X106.095 Y137.031 E6.25297
G1 X105.712 Y137.031 E.01923
G1 X105.712 Y12.435 E6.25297
G1 X105.328 Y12.435 E.01923
G1 X105.328 Y137.031 E6.25297
G1 X104.945 Y137.031 E.01923
G1 X104.945 Y12.435 E6.25297
G1 X104.562 Y12.435 E.01923
M73 P1 R1029
G1 X104.562 Y137.031 E6.25297
G1 X104.179 Y137.031 E.01923
G1 X104.179 Y12.435 E6.25297
G1 X103.796 Y12.435 E.01923
G1 X103.796 Y137.031 E6.25297
G1 X103.412 Y137.031 E.01923
G1 X103.412 Y12.435 E6.25297
G1 X103.029 Y12.435 E.01923
G1 X103.029 Y137.031 E6.25297
G1 X102.646 Y137.031 E.01923
G1 X102.646 Y12.435 E6.25297
G1 X102.263 Y12.435 E.01923
