; generated by PrusaSlicer 2.5.0+win64 on 2022-12-07 at 00:25:31 UTC

; 

; external perimeters extrusion width = 1.00mm
; perimeters extrusion width = 1.00mm
; infill extrusion width = 1.00mm
; solid infill extrusion width = 1.00mm
; top infill extrusion width = 1.00mm
; support material extrusion width = 1.00mm
; first layer extrusion width = 0.42mm

M73 P0 R763
M107
;TYPE:Custom
G90 ; use absolute coordinates
M83 ; extruder relative mode
M140 S60 ; set final bed temp
M104 S150 ; set temporary nozzle temp to prevent oozing during homing and auto bed leveling
G4 S10 ; allow partial nozzle warmup
G28 ; home all axisG1 Z50 F240
G1 X7.6 Y10 F3000
M104 S210 ; set final nozzle temp
M190 S60 ; wait for bed temp to stabilize
M109 S210 ; wait for nozzle temp to stabilize
G1 Z0.28 F240
G92 E0
G1 Y140 E10 F1500 ; prime the nozzle
G1 X4 F5000
G92 E0
G1 Y10 E10 F1200 ; prime the nozzle
G92 E0
G21 ; set units to millimeters
G90 ; use absolute coordinates
M83 ; use relative distances for extrusion
; Filament gcode
M107
;LAYER_CHANGE
;Z:0.35
;HEIGHT:0.35
;BEFORE_LAYER_CHANGE
G92 E0
;0.35


G1 E-1 F3600
G1 Z.35 F7800
;AFTER_LAYER_CHANGE
;0.35
G1 X85.558 Y160.59
G1 E1 F2400
;TYPE:Support material
;WIDTH:0.42
G1 F1800
G1 X82.558 Y160.59 E.15056
G1 X82.558 Y165.296 E.23616
G1 X85.558 Y165.296 E.15056
G1 X85.558 Y167.876 E.12947
G1 X8.732 Y167.876 E3.85561
G1 X8.732 Y158.01 E.49509
G1 X85.558 Y158.01 E3.85561
G1 X85.558 Y160.539 E.12687
G1 E-.7 F3600
;WIPE_START
G1 F6240
G1 X85.558 Y160.019 E-.285
;WIPE_END
G1 E-.015 F3600
G1 X85.018 Y167.72 F7800
G1 E1 F2400
G1 F1800
G1 X85.018 Y165.606 E.1061
G1 X84.635 Y165.606 E.01923
G1 X84.635 Y167.565 E.09831
G1 X84.252 Y167.565 E.01923
G1 X84.252 Y165.606 E.09831
G1 X83.869 Y165.606 E.01923
G1 X83.869 Y167.565 E.09831
G1 X83.485 Y167.565 E.01923
G1 X83.485 Y165.606 E.09831
G1 X83.102 Y165.606 E.01923
G1 X83.102 Y167.565 E.09831
G1 X82.719 Y167.565 E.01923
G1 X82.719 Y165.451 E.1061
G1 E-.7 F3600
;WIPE_START
G1 F6240
G1 X82.719 Y165.971 E-.285
;WIPE_END
G1 E-.015 F3600
G1 X85.018 Y160.435 F7800
G1 E1 F2400
G1 F1800
G1 X85.018 Y158.321 E.1061
G1 X84.635 Y158.321 E.01923
G1 X84.635 Y160.28 E.09831
G1 X84.252 Y160.28 E.01923
G1 X84.252 Y158.321 E.09831
G1 X83.869 Y158.321 E.01923
G1 X83.869 Y160.28 E.09831
G1 X83.485 Y160.28 E.01923
G1 X83.485 Y158.321 E.09831
G1 X83.102 Y158.321 E.01923
G1 X83.102 Y160.28 E.09831
G1 X82.719 Y160.28 E.01923
G1 X82.719 Y158.321 E.09831
G1 X82.336 Y158.321 E.01923
G1 X82.336 Y167.565 E.46394
G1 X81.953 Y167.565 E.01923
G1 X81.953 Y158.321 E.46394
G1 X81.569 Y158.321 E.01923
G1 X81.569 Y167.565 E.46394
G1 X81.186 Y167.565 E.01923
G1 X81.186 Y158.321 E.46394
G1 X80.803 Y158.321 E.01923
G1 X80.803 Y167.565 E.46394
G1 X80.42 Y167.565 E.01923
M73 P0 R762
G1 X80.42 Y158.321 E.46394
G1 X80.037 Y158.321 E.01923
G1 X80.037 Y167.565 E.46394
G1 X79.653 Y167.565 E.01923
G1 X79.653 Y158.321 E.46394
G1 X79.27 Y158.321 E.01923
G1 X79.27 Y167.565 E.46394
G1 X78.887 Y167.565 E.01923
G1 X78.887 Y158.321 E.46394
G1 X78.504 Y158.321 E.01923
G1 X78.504 Y167.565 E.46394
G1 X78.12 Y167.565 E.01923
G1 X78.12 Y158.321 E.46394
G1 X77.737 Y158.321 E.01923
G1 X77.737 Y167.565 E.46394
G1 X77.354 Y167.565 E.01923
G1 X77.354 Y158.321 E.46394
G1 X76.971 Y158.321 E.01923
G1 X76.971 Y167.565 E.46394
G1 X76.588 Y167.565 E.01923
G1 X76.588 Y158.321 E.46394
G1 X76.204 Y158.321 E.01923
G1 X76.204 Y167.565 E.46394
G1 X75.821 Y167.565 E.01923
G1 X75.821 Y158.321 E.46394
G1 X75.438 Y158.321 E.01923
G1 X75.438 Y167.565 E.46394
G1 X75.055 Y167.565 E.01923
G1 X75.055 Y158.321 E.46394
G1 X74.672 Y158.321 E.01923
G1 X74.672 Y167.565 E.46394
G1 X74.288 Y167.565 E.01923
G1 X74.288 Y158.321 E.46394
G1 X73.905 Y158.321 E.01923
G1 X73.905 Y167.565 E.46394
G1 X73.522 Y167.565 E.01923
G1 X73.522 Y158.321 E.46394
G1 X73.139 Y158.321 E.01923
G1 X73.139 Y167.565 E.46394
G1 X72.756 Y167.565 E.01923
G1 X72.756 Y158.321 E.46394
G1 X72.372 Y158.321 E.01923
G1 X72.372 Y167.565 E.46394
G1 X71.989 Y167.565 E.01923
G1 X71.989 Y158.321 E.46394
G1 X71.606 Y158.321 E.01923
G1 X71.606 Y167.565 E.46394
G1 X71.223 Y167.565 E.01923
G1 X71.223 Y158.321 E.46394
G1 X70.84 Y158.321 E.01923
G1 X70.84 Y167.565 E.46394
G1 X70.456 Y167.565 E.01923
G1 X70.456 Y158.321 E.46394
G1 X70.073 Y158.321 E.01923
G1 X70.073 Y167.565 E.46394
G1 X69.69 Y167.565 E.01923
G1 X69.69 Y158.321 E.46394
G1 X69.307 Y158.321 E.01923
G1 X69.307 Y167.565 E.46394
G1 X68.923 Y167.565 E.01923
G1 X68.923 Y158.321 E.46394
G1 X68.54 Y158.321 E.01923
G1 X68.54 Y167.565 E.46394
G1 X68.157 Y167.565 E.01923
G1 X68.157 Y158.321 E.46394
G1 X67.774 Y158.321 E.01923
G1 X67.774 Y167.565 E.46394
G1 X67.391 Y167.565 E.01923
G1 X67.391 Y158.321 E.46394
G1 X67.007 Y158.321 E.01923
G1 X67.007 Y167.565 E.46394
G1 X66.624 Y167.565 E.01923
G1 X66.624 Y158.321 E.46394
G1 X66.241 Y158.321 E.01923
G1 X66.241 Y167.565 E.46394
G1 X65.858 Y167.565 E.01923
G1 X65.858 Y158.321 E.46394
G1 X65.475 Y158.321 E.01923
G1 X65.475 Y167.565 E.46394
G1 X65.091 Y167.565 E.01923
G1 X65.091 Y158.321 E.46394
G1 X64.708 Y158.321 E.01923
G1 X64.708 Y167.565 E.46394
G1 X64.325 Y167.565 E.01923
G1 X64.325 Y158.321 E.46394
G1 X63.942 Y158.321 E.01923
G1 X63.942 Y167.565 E.46394
G1 X63.559 Y167.565 E.01923
G1 X63.559 Y158.321 E.46394
G1 X63.175 Y158.321 E.01923
G1 X63.175 Y167.565 E.46394
G1 X62.792 Y167.565 E.01923
G1 X62.792 Y158.321 E.46394
G1 X62.409 Y158.321 E.01923
G1 X62.409 Y167.565 E.46394
G1 X62.026 Y167.565 E.01923
G1 X62.026 Y158.321 E.46394
G1 X61.642 Y158.321 E.01923
G1 X61.642 Y167.565 E.46394
G1 X61.259 Y167.565 E.01923
G1 X61.259 Y158.321 E.46394
G1 X60.876 Y158.321 E.01923
G1 X60.876 Y167.565 E.46394
G1 X60.493 Y167.565 E.01923
G1 X60.493 Y158.321 E.46394
G1 X60.11 Y158.321 E.01923
G1 X60.11 Y167.565 E.46394
G1 X59.726 Y167.565 E.01923
G1 X59.726 Y158.321 E.46394
G1 X59.343 Y158.321 E.01923
G1 X59.343 Y167.565 E.46394
G1 X58.96 Y167.565 E.01923
G1 X58.96 Y158.321 E.46394
G1 X58.577 Y158.321 E.01923
G1 X58.577 Y167.565 E.46394
G1 X58.194 Y167.565 E.01923
G1 X58.194 Y158.321 E.46394
G1 X57.81 Y158.321 E.01923
G1 X57.81 Y167.565 E.46394
G1 X57.427 Y167.565 E.01923
G1 X57.427 Y158.321 E.46394
G1 X57.044 Y158.321 E.01923
G1 X57.044 Y167.565 E.46394
G1 X56.661 Y167.565 E.01923
G1 X56.661 Y158.321 E.46394
G1 X56.278 Y158.321 E.01923
G1 X56.278 Y167.565 E.46394
G1 X55.894 Y167.565 E.01923
G1 X55.894 Y158.321 E.46394
G1 X55.511 Y158.321 E.01923
G1 X55.511 Y167.565 E.46394
G1 X55.128 Y167.565 E.01923
G1 X55.128 Y158.321 E.46394
G1 X54.745 Y158.321 E.01923
G1 X54.745 Y167.565 E.46394
G1 X54.361 Y167.565 E.01923
G1 X54.361 Y158.321 E.46394
G1 X53.978 Y158.321 E.01923
G1 X53.978 Y167.565 E.46394
G1 X53.595 Y167.565 E.01923
G1 X53.595 Y158.321 E.46394
G1 X53.212 Y158.321 E.01923
G1 X53.212 Y167.565 E.46394
G1 X52.829 Y167.565 E.01923
G1 X52.829 Y158.321 E.46394
G1 X52.445 Y158.321 E.01923
G1 X52.445 Y167.565 E.46394
G1 X52.062 Y167.565 E.01923
G1 X52.062 Y158.321 E.46394
G1 X51.679 Y158.321 E.01923
G1 X51.679 Y167.565 E.46394
G1 X51.296 Y167.565 E.01923
G1 X51.296 Y158.321 E.46394
G1 X50.913 Y158.321 E.01923
G1 X50.913 Y167.565 E.46394
G1 X50.529 Y167.565 E.01923
G1 X50.529 Y158.321 E.46394
G1 X50.146 Y158.321 E.01923
G1 X50.146 Y167.565 E.46394
G1 X49.763 Y167.565 E.01923
G1 X49.763 Y158.321 E.46394
G1 X49.38 Y158.321 E.01923
G1 X49.38 Y167.565 E.46394
G1 X48.997 Y167.565 E.01923
G1 X48.997 Y158.321 E.46394
G1 X48.613 Y158.321 E.01923
G1 X48.613 Y167.565 E.46394
G1 X48.23 Y167.565 E.01923
G1 X48.23 Y158.321 E.46394
G1 X47.847 Y158.321 E.01923
G1 X47.847 Y167.565 E.46394
G1 X47.464 Y167.565 E.01923
G1 X47.464 Y158.321 E.46394
G1 X47.08 Y158.321 E.01923
G1 X47.08 Y167.565 E.46394
G1 X46.697 Y167.565 E.01923
G1 X46.697 Y158.321 E.46394
G1 X46.314 Y158.321 E.01923
G1 X46.314 Y167.565 E.46394
G1 X45.931 Y167.565 E.01923
G1 X45.931 Y158.321 E.46394
G1 X45.548 Y158.321 E.01923
G1 X45.548 Y167.565 E.46394
G1 X45.164 Y167.565 E.01923
G1 X45.164 Y158.321 E.46394
G1 X44.781 Y158.321 E.01923
G1 X44.781 Y167.565 E.46394
G1 X44.398 Y167.565 E.01923
G1 X44.398 Y158.321 E.46394
G1 X44.015 Y158.321 E.01923
G1 X44.015 Y167.565 E.46394
G1 X43.632 Y167.565 E.01923
G1 X43.632 Y158.321 E.46394
G1 X43.248 Y158.321 E.01923
G1 X43.248 Y167.565 E.46394
G1 X42.865 Y167.565 E.01923
G1 X42.865 Y158.321 E.46394
G1 X42.482 Y158.321 E.01923
G1 X42.482 Y167.565 E.46394
G1 X42.099 Y167.565 E.01923
G1 X42.099 Y158.321 E.46394
G1 X41.716 Y158.321 E.01923
G1 X41.716 Y167.565 E.46394
G1 X41.332 Y167.565 E.01923
G1 X41.332 Y158.321 E.46394
G1 X40.949 Y158.321 E.01923
G1 X40.949 Y167.565 E.46394
G1 X40.566 Y167.565 E.01923
G1 X40.566 Y158.321 E.46394
G1 X40.183 Y158.321 E.01923
G1 X40.183 Y167.565 E.46394
G1 X39.799 Y167.565 E.01923
G1 X39.799 Y158.321 E.46394
G1 X39.416 Y158.321 E.01923
G1 X39.416 Y167.565 E.46394
G1 X39.033 Y167.565 E.01923
G1 X39.033 Y158.321 E.46394
G1 X38.65 Y158.321 E.01923
G1 X38.65 Y167.565 E.46394
G1 X38.267 Y167.565 E.01923
G1 X38.267 Y158.321 E.46394
G1 X37.883 Y158.321 E.01923
G1 X37.883 Y167.565 E.46394
G1 X37.5 Y167.565 E.01923
G1 X37.5 Y158.321 E.46394
G1 X37.117 Y158.321 E.01923
G1 X37.117 Y167.565 E.46394
G1 X36.734 Y167.565 E.01923
G1 X36.734 Y158.321 E.46394
G1 X36.351 Y158.321 E.01923
G1 X36.351 Y167.565 E.46394
G1 X35.967 Y167.565 E.01923
G1 X35.967 Y158.321 E.46394
G1 X35.584 Y158.321 E.01923
G1 X35.584 Y167.565 E.46394
G1 X35.201 Y167.565 E.01923
G1 X35.201 Y158.321 E.46394
G1 X34.818 Y158.321 E.01923
G1 X34.818 Y167.565 E.46394
G1 X34.435 Y167.565 E.01923
G1 X34.435 Y158.321 E.46394
G1 X34.051 Y158.321 E.01923
G1 X34.051 Y167.565 E.46394
G1 X33.668 Y167.565 E.01923
G1 X33.668 Y158.321 E.46394
G1 X33.285 Y158.321 E.01923
G1 X33.285 Y167.565 E.46394
G1 X32.902 Y167.565 E.01923
G1 X32.902 Y158.321 E.46394
G1 X32.519 Y158.321 E.01923
G1 X32.519 Y167.565 E.46394
G1 X32.135 Y167.565 E.01923
G1 X32.135 Y158.321 E.46394
G1 X31.752 Y158.321 E.01923
G1 X31.752 Y167.565 E.46394
G1 X31.369 Y167.565 E.01923
G1 X31.369 Y158.321 E.46394
G1 X30.986 Y158.321 E.01923
G1 X30.986 Y167.565 E.46394
G1 X30.602 Y167.565 E.01923
G1 X30.602 Y158.321 E.46394
G1 X30.219 Y158.321 E.01923
G1 X30.219 Y167.565 E.46394
G1 X29.836 Y167.565 E.01923
G1 X29.836 Y158.321 E.46394
G1 X29.453 Y158.321 E.01923
G1 X29.453 Y167.565 E.46394
G1 X29.07 Y167.565 E.01923
G1 X29.07 Y158.321 E.46394
G1 X28.686 Y158.321 E.01923
G1 X28.686 Y167.565 E.46394
G1 X28.303 Y167.565 E.01923
G1 X28.303 Y158.321 E.46394
G1 X27.92 Y158.321 E.01923
G1 X27.92 Y167.565 E.46394
G1 X27.537 Y167.565 E.01923
G1 X27.537 Y158.321 E.46394
G1 X27.154 Y158.321 E.01923
G1 X27.154 Y167.565 E.46394
G1 X26.77 Y167.565 E.01923
G1 X26.77 Y158.321 E.46394
G1 X26.387 Y158.321 E.01923
G1 X26.387 Y167.565 E.46394
G1 X26.004 Y167.565 E.01923
G1 X26.004 Y158.321 E.46394
G1 X25.621 Y158.321 E.01923
G1 X25.621 Y167.565 E.46394
G1 X25.238 Y167.565 E.01923
G1 X25.238 Y158.321 E.46394
G1 X24.854 Y158.321 E.01923
G1 X24.854 Y167.565 E.46394
G1 X24.471 Y167.565 E.01923
G1 X24.471 Y158.321 E.46394
G1 X24.088 Y158.321 E.01923
G1 X24.088 Y167.565 E.46394
G1 X23.705 Y167.565 E.01923
G1 X23.705 Y158.321 E.46394
G1 X23.321 Y158.321 E.01923
G1 X23.321 Y167.565 E.46394
G1 X22.938 Y167.565 E.01923
G1 X22.938 Y158.321 E.46394
G1 X22.555 Y158.321 E.01923
G1 X22.555 Y167.565 E.46394
G1 X22.172 Y167.565 E.01923
G1 X22.172 Y158.321 E.46394
G1 X21.789 Y158.321 E.01923
G1 X21.789 Y167.565 E.46394
G1 X21.405 Y167.565 E.01923
G1 X21.405 Y158.321 E.46394
G1 X21.022 Y158.321 E.01923
G1 X21.022 Y167.565 E.46394
G1 X20.639 Y167.565 E.01923
G1 X20.639 Y158.321 E.46394
G1 X20.256 Y158.321 E.01923
G1 X20.256 Y167.565 E.46394
G1 X19.873 Y167.565 E.01923
G1 X19.873 Y158.321 E.46394
G1 X19.489 Y158.321 E.01923
G1 X19.489 Y167.565 E.46394
G1 X19.106 Y167.565 E.01923
G1 X19.106 Y158.321 E.46394
G1 X18.723 Y158.321 E.01923
M73 P0 R761
G1 X18.723 Y167.565 E.46394
G1 X18.34 Y167.565 E.01923
G1 X18.34 Y158.321 E.46394
G1 X17.957 Y158.321 E.01923
G1 X17.957 Y167.565 E.46394
G1 X17.573 Y167.565 E.01923
G1 X17.573 Y158.321 E.46394
G1 X17.19 Y158.321 E.01923
G1 X17.19 Y167.565 E.46394
G1 X16.807 Y167.565 E.01923
G1 X16.807 Y158.321 E.46394
G1 X16.424 Y158.321 E.01923
G1 X16.424 Y167.565 E.46394
G1 X16.04 Y167.565 E.01923
G1 X16.04 Y158.321 E.46394
G1 X15.657 Y158.321 E.01923
G1 X15.657 Y167.565 E.46394
G1 X15.274 Y167.565 E.01923
G1 X15.274 Y158.321 E.46394
G1 X14.891 Y158.321 E.01923
G1 X14.891 Y167.565 E.46394
G1 X14.508 Y167.565 E.01923
G1 X14.508 Y158.321 E.46394
G1 X14.124 Y158.321 E.01923
G1 X14.124 Y167.565 E.46394
G1 X13.741 Y167.565 E.01923
G1 X13.741 Y158.321 E.46394
G1 X13.358 Y158.321 E.01923
G1 X13.358 Y167.565 E.46394
G1 X12.975 Y167.565 E.01923
G1 X12.975 Y158.321 E.46394
G1 X12.592 Y158.321 E.01923
G1 X12.592 Y167.565 E.46394
G1 X12.208 Y167.565 E.01923
G1 X12.208 Y158.321 E.46394
G1 X11.825 Y158.321 E.01923
G1 X11.825 Y167.565 E.46394
G1 X11.442 Y167.565 E.01923
G1 X11.442 Y158.321 E.46394
G1 X11.059 Y158.321 E.01923
G1 X11.059 Y167.565 E.46394
G1 X10.676 Y167.565 E.01923
G1 X10.676 Y158.321 E.46394
G1 X10.292 Y158.321 E.01923
G1 X10.292 Y167.565 E.46394
G1 X9.909 Y167.565 E.01923
G1 X9.909 Y158.321 E.46394
G1 X9.526 Y158.321 E.01923
G1 X9.526 Y167.565 E.46394
G1 X9.143 Y167.565 E.01923
G1 X9.143 Y158.166 E.47173
G1 E-.7 F3600
;WIPE_START
G1 F6240
G1 X9.143 Y158.686 E-.285
;WIPE_END
G1 E-.015 F3600
G1 X83.305 Y165.041 F7800
G1 E1 F2400
;TYPE:Support material interface
;WIDTH:1
G1 F1800
G1 X83.305 Y161.247 E.51067
G1 X84.197 Y161.247 E.12014
G1 X84.197 Y164.639 E.45661
G1 X85.09 Y164.639 E.12014
G1 X85.09 Y161.247 E.45661
G1 X85.983 Y161.247 E.12014
G1 X85.983 Y164.639 E.45661
G1 X86.876 Y164.639 E.12014
G1 X86.876 Y161.247 E.45661
G1 X87.768 Y161.247 E.12014
G1 X87.768 Y164.639 E.45661
G1 X88.661 Y164.639 E.12014
G1 X88.661 Y161.247 E.45661
G1 X89.554 Y161.247 E.12014
G1 X89.554 Y164.639 E.45661
G1 X90.446 Y164.639 E.12014
G1 X90.446 Y161.247 E.45661
G1 X91.339 Y161.247 E.12014
G1 X91.339 Y164.639 E.45661
G1 X92.232 Y164.639 E.12014
G1 X92.232 Y161.247 E.45661
G1 X93.124 Y161.247 E.12014
G1 X93.124 Y164.639 E.45661
G1 X94.017 Y164.639 E.12014
G1 X94.017 Y161.247 E.45661
G1 X94.91 Y161.247 E.12014
G1 X94.91 Y164.639 E.45661
G1 X95.802 Y164.639 E.12014
G1 X95.802 Y161.247 E.45661
G1 X96.695 Y161.247 E.12014
G1 X96.695 Y164.639 E.45661
G1 X97.588 Y164.639 E.12014
G1 X97.588 Y161.247 E.45661
G1 X98.481 Y161.247 E.12014
G1 X98.481 Y164.639 E.45661
G1 X99.373 Y164.639 E.12014
G1 X99.373 Y161.247 E.45661
G1 X100.266 Y161.247 E.12014
G1 X100.266 Y164.639 E.45661
G1 X101.159 Y164.639 E.12014
G1 X101.159 Y161.247 E.45661
G1 X102.051 Y161.247 E.12014
G1 X102.051 Y164.639 E.45661
G1 X102.944 Y164.639 E.12014
G1 X102.944 Y161.247 E.45661
G1 X103.837 Y161.247 E.12014
G1 X103.837 Y164.639 E.45661
G1 X104.729 Y164.639 E.12014
G1 X104.729 Y161.247 E.45661
G1 X105.622 Y161.247 E.12014
G1 X105.622 Y164.639 E.45661
G1 X106.515 Y164.639 E.12014
G1 X106.515 Y161.247 E.45661
G1 X107.408 Y161.247 E.12014
G1 X107.408 Y164.639 E.45661
G1 X108.3 Y164.639 E.12014
G1 X108.3 Y161.247 E.45661
G1 X109.193 Y161.247 E.12014
G1 X109.193 Y164.639 E.45661
G1 X110.086 Y164.639 E.12014
G1 X110.086 Y161.247 E.45661
G1 X110.978 Y161.247 E.12014
G1 X110.978 Y164.639 E.45661
G1 X111.871 Y164.639 E.12014
G1 X111.871 Y161.247 E.45661
G1 X112.764 Y161.247 E.12014
G1 X112.764 Y164.639 E.45661
G1 X113.656 Y164.639 E.12014
G1 X113.656 Y161.247 E.45661
G1 X114.549 Y161.247 E.12014
G1 X114.549 Y164.639 E.45661
G1 X115.442 Y164.639 E.12014
G1 X115.442 Y161.247 E.45661
G1 X116.335 Y161.247 E.12014
G1 X116.335 Y164.639 E.45661
G1 X117.227 Y164.639 E.12014
G1 X117.227 Y161.247 E.45661
G1 X118.12 Y161.247 E.12014
G1 X118.12 Y164.639 E.45661
G1 X119.013 Y164.639 E.12014
G1 X119.013 Y161.247 E.45661
G1 X119.905 Y161.247 E.12014
G1 X119.905 Y164.639 E.45661
G1 X120.798 Y164.639 E.12014
G1 X120.798 Y161.247 E.45661
G1 X121.691 Y161.247 E.12014
G1 X121.691 Y164.639 E.45661
G1 X122.583 Y164.639 E.12014
G1 X122.583 Y161.247 E.45661
G1 X123.476 Y161.247 E.12014
G1 X123.476 Y164.639 E.45661
G1 X124.369 Y164.639 E.12014
G1 X124.369 Y161.247 E.45661
