; generated by PrusaSlicer 2.5.0+win64 on 2022-12-07 at 00:25:29 UTC

; 

; external perimeters extrusion width = 1.00mm
; perimeters extrusion width = 1.00mm
; infill extrusion width = 1.00mm
; solid infill extrusion width = 1.00mm
; top infill extrusion width = 1.00mm
; support material extrusion width = 1.00mm
; first layer extrusion width = 0.42mm

M73 P0 R825
M107
;TYPE:Custom
G90 ; use absolute coordinates
M83 ; extruder relative mode
M140 S60 ; set final bed temp
M104 S150 ; set temporary nozzle temp to prevent oozing during homing and auto bed leveling
G4 S10 ; allow partial nozzle warmup
G28 ; home all axisG1 Z50 F240
G1 X7.6 Y10 F3000
M104 S210 ; set final nozzle temp
M190 S60 ; wait for bed temp to stabilize
M109 S210 ; wait for nozzle temp to stabilize
G1 Z0.28 F240
G92 E0
G1 Y140 E10 F1500 ; prime the nozzle
G1 X4 F5000
G92 E0
G1 Y10 E10 F1200 ; prime the nozzle
G92 E0
G21 ; set units to millimeters
G90 ; use absolute coordinates
M83 ; use relative distances for extrusion
; Filament gcode
M107
;LAYER_CHANGE
;Z:0.35
;HEIGHT:0.35
;BEFORE_LAYER_CHANGE
G92 E0
;0.35


G1 E-1 F3600
G1 Z.35 F7800
;AFTER_LAYER_CHANGE
;0.35
G1 X110.978 Y165.041
G1 E1 F2400
;TYPE:Support material interface
;WIDTH:1
G1 F1800
G1 X110.978 Y161.247 E.51067
G1 X111.871 Y161.247 E.12014
G1 X111.871 Y164.639 E.45661
G1 X112.764 Y164.639 E.12014
G1 X112.764 Y161.247 E.45661
G1 X113.656 Y161.247 E.12014
G1 X113.656 Y164.639 E.45661
G1 X114.549 Y164.639 E.12014
G1 X114.549 Y157.854 E.91321
G1 X115.442 Y157.854 E.12014
G1 X115.442 Y164.639 E.91321
G1 X116.335 Y164.639 E.12014
G1 X116.335 Y157.854 E.91321
G1 X117.227 Y157.854 E.12014
G1 X117.227 Y164.639 E.91321
G1 X118.12 Y164.639 E.12014
G1 X118.12 Y157.854 E.91321
G1 X119.013 Y157.854 E.12014
G1 X119.013 Y164.639 E.91321
G1 X119.905 Y164.639 E.12014
G1 X119.905 Y157.854 E.91321
G1 X120.534 Y157.854 E.08464
G1 X120.534 Y154.461 E.4566
G1 X120.798 Y154.461 E.0355
G1 X120.798 Y164.639 E1.36981
G1 X121.691 Y164.639 E.12014
G1 X121.691 Y154.461 E1.36981
G1 X122.583 Y154.461 E.12014
G1 X122.583 Y164.639 E1.36981
G1 X123.476 Y164.639 E.12014
G1 X123.476 Y154.461 E1.36981
G1 X124.369 Y154.461 E.12014
G1 X124.369 Y164.639 E1.36981
G1 X125.262 Y164.639 E.12014
G1 X125.262 Y154.461 E1.36981
G1 X126.154 Y154.461 E.12014
G1 X126.154 Y164.639 E1.36981
G1 X127.047 Y164.639 E.12014
G1 X127.047 Y154.461 E1.36981
G1 X127.32 Y154.461 E.0367
G1 X127.32 Y151.069 E.4566
G1 X127.94 Y151.069 E.08344
G1 X127.94 Y164.639 E1.82641
G1 X128.832 Y164.639 E.12014
G1 X128.832 Y151.069 E1.82641
G1 X129.725 Y151.069 E.12014
G1 X129.725 Y164.639 E1.82641
G1 X130.618 Y164.639 E.12014
G1 X130.618 Y151.069 E1.82641
G1 X131.51 Y151.069 E.12014
G1 X131.51 Y164.639 E1.82641
G1 X132.403 Y164.639 E.12014
G1 X132.403 Y151.069 E1.82641
G1 X133.296 Y151.069 E.12014
G1 X133.296 Y164.639 E1.82641
G1 X134.189 Y164.639 E.12014
G1 X134.189 Y147.676 E2.28301
G1 X135.081 Y147.676 E.12014
G1 X135.081 Y164.639 E2.28301
G1 X135.974 Y164.639 E.12014
G1 X135.974 Y147.676 E2.28301
G1 X136.867 Y147.676 E.12014
G1 X136.867 Y164.639 E2.28301
G1 X137.759 Y164.639 E.12014
G1 X137.759 Y144.283 E2.73961
G1 X138.652 Y144.283 E.12014
G1 X138.652 Y165.041 E2.79368
G1 X139.545 Y163.92 F7800
G1 F1800
G1 X139.545 Y164.639 E.09687
G1 X140.437 Y164.639 E.12014
G1 X140.437 Y164.321 E.0428
G1 X141.33 Y164.321 E.12014
G1 X141.33 Y164.639 E.0428
G1 X142.223 Y164.639 E.12014
G1 X142.223 Y164.321 E.0428
G1 X143.116 Y164.321 E.12014
G1 X143.116 Y164.639 E.0428
G1 X144.008 Y164.639 E.12014
G1 X144.008 Y164.321 E.0428
G1 X144.901 Y164.321 E.12014
G1 X144.901 Y164.639 E.0428
G1 X145.794 Y164.639 E.12014
G1 X145.794 Y164.321 E.0428
G1 X146.686 Y164.321 E.12014
G1 X146.686 Y164.639 E.0428
G1 X147.579 Y164.639 E.12014
G1 X147.579 Y164.321 E.0428
G1 X148.472 Y164.321 E.12014
G1 X148.472 Y164.639 E.0428
G1 X149.364 Y164.639 E.12014
G1 X149.364 Y164.321 E.0428
G1 X150.257 Y164.321 E.12014
G1 X150.257 Y164.639 E.0428
G1 X151.15 Y164.639 E.12014
G1 X151.15 Y164.321 E.0428
G1 X152.043 Y164.321 E.12014
G1 X152.043 Y164.639 E.0428
G1 X152.935 Y164.639 E.12014
G1 X152.935 Y164.321 E.0428
G1 X153.828 Y164.321 E.12014
G1 X153.828 Y165.041 E.09687
G1 E-.7 F3600
;WIPE_START
G1 F6240
G1 X153.828 Y164.521 E-.285
;WIPE_END
G1 E-.015 F3600
G1 X166.318 Y158.51 F7800
G1 E1 F2400
;TYPE:Support material
;WIDTH:0.42
G1 F1800
G1 X168.689 Y158.51 E.11897
G1 X168.689 Y155.51 E.15056
G1 X171.268 Y155.51 E.12947
G1 X171.268 Y167.876 E.62056
G1 X152.118 Y167.876 E.96109
G1 X152.118 Y165.296 E.12947
G1 X155.118 Y165.296 E.15056
G1 X155.118 Y163.665 E.08185
G1 X152.118 Y163.665 E.15056
G1 X152.118 Y161.085 E.12947
G1 X162.608 Y161.085 E.52648
G1 X162.817 Y161.887 E.04159
G1 X160.784 Y163.023 E.11688
G1 X161.06 Y164.085 E.05509
G1 X166.322 Y164.085 E.26406
G1 X166.738 Y163.669 E.02952
G1 X166.738 Y160.483 E.1599
G1 X166.041 Y160.07 E.04063
G1 X163.738 Y161.346 E.13213
G1 X163.738 Y155.51 E.29286
G1 X166.318 Y155.51 E.12947
G1 X166.318 Y158.459 E.14796
G1 X170.857 Y167.72 F7800
G1 F1800
G1 X170.857 Y155.821 E.59719
G1 X170.474 Y155.821 E.01923
G1 X170.474 Y167.565 E.5894
G1 X170.091 Y167.565 E.01923
G1 X170.091 Y155.821 E.5894
G1 X169.708 Y155.821 E.01923
G1 X169.708 Y167.565 E.5894
G1 X169.324 Y167.565 E.01923
G1 X169.324 Y155.821 E.5894
G1 X168.999 Y155.821 E.01634
G1 X168.999 Y158.821 E.15056
G1 X168.941 Y158.821 E.00289
G1 X168.941 Y167.565 E.43885
G1 X168.558 Y167.565 E.01923
G1 X168.558 Y158.821 E.43885
G1 X168.175 Y158.821 E.01923
G1 X168.175 Y167.565 E.43885
G1 X167.792 Y167.565 E.01923
G1 X167.792 Y158.821 E.43885
G1 X167.408 Y158.821 E.01923
G1 X167.408 Y167.565 E.43885
G1 X167.025 Y167.565 E.01923
G1 X167.025 Y158.821 E.43885
G1 X166.642 Y158.821 E.01923
M73 P0 R824
G1 X166.642 Y160.065 E.06246
G1 X166.259 Y159.838 E.02235
G1 X166.259 Y158.821 E.05107
G1 X166.008 Y158.821 E.01261
G1 X166.008 Y155.821 E.15056
G1 X165.876 Y155.821 E.00662
G1 X165.876 Y159.807 E.20007
G1 X165.492 Y160.018 E.02194
G1 X165.492 Y155.821 E.21062
G1 X165.109 Y155.821 E.01923
G1 X165.109 Y160.228 E.22116
G1 X164.726 Y160.438 E.02193
G1 X164.726 Y155.821 E.23171
G1 X164.343 Y155.821 E.01923
G1 X164.343 Y160.825 E.25113
G1 E-.7 F3600
;WIPE_START
G1 F6240
G1 X164.343 Y160.305 E-.285
;WIPE_END
G1 E-.015 F3600
G1 X166.642 Y167.72 F7800
G1 E1 F2400
G1 F1800
G1 X166.642 Y164.204 E.17647
G1 X166.451 Y164.395 E.01358
G1 X166.259 Y164.395 E.00963
G1 X166.259 Y167.565 E.15908
G1 X165.876 Y167.565 E.01923
G1 X165.876 Y164.395 E.15908
G1 X165.492 Y164.395 E.01923
G1 X165.492 Y167.565 E.15908
G1 X165.109 Y167.565 E.01923
G1 X165.109 Y164.395 E.15908
G1 X164.726 Y164.395 E.01923
G1 X164.726 Y167.565 E.15908
G1 X164.343 Y167.565 E.01923
G1 X164.343 Y164.395 E.15908
G1 X163.96 Y164.395 E.01923
G1 X163.96 Y167.565 E.15908
G1 X163.576 Y167.565 E.01923
G1 X163.576 Y164.395 E.15908
G1 X163.193 Y164.395 E.01923
G1 X163.193 Y167.565 E.15908
G1 X162.81 Y167.565 E.01923
G1 X162.81 Y164.395 E.15908
G1 X162.427 Y164.395 E.01923
G1 X162.427 Y167.565 E.15908
G1 X162.044 Y167.565 E.01923
G1 X162.044 Y164.395 E.15908
G1 X161.66 Y164.395 E.01923
G1 X161.66 Y167.565 E.15908
G1 X161.277 Y167.565 E.01923
G1 X161.277 Y164.395 E.15908
G1 X160.894 Y164.395 E.01923
G1 X160.894 Y167.565 E.15908
G1 X160.511 Y167.565 E.01923
G1 X160.511 Y161.395 E.30963
G1 X160.894 Y161.395 E.01923
G1 X160.894 Y162.606 E.06074
G1 X161.277 Y162.392 E.02203
G1 X161.277 Y161.395 E.05
G1 X161.66 Y161.395 E.01923
G1 X161.66 Y162.178 E.03925
G1 X162.044 Y161.964 E.02203
G1 X162.044 Y161.395 E.02851
G1 X162.368 Y161.395 E.0163
G1 X162.427 Y161.62 E.01162
G1 X162.427 Y161.927 E.01544
G1 E-.7 F3600
;WIPE_START
G1 F6240
G1 X162.427 Y161.62 E-.16866
G1 X162.373 Y161.414 E-.11634
;WIPE_END
G1 E-.015 F3600
G1 X160.127 Y167.72 F7800
G1 E1 F2400
G1 F1800
G1 X160.127 Y161.395 E.31742
G1 X159.744 Y161.395 E.01923
G1 X159.744 Y167.565 E.30963
G1 X159.361 Y167.565 E.01923
G1 X159.361 Y161.395 E.30963
G1 X158.978 Y161.395 E.01923
G1 X158.978 Y167.565 E.30963
G1 X158.595 Y167.565 E.01923
G1 X158.595 Y161.395 E.30963
G1 X158.211 Y161.395 E.01923
G1 X158.211 Y167.565 E.30963
G1 X157.828 Y167.565 E.01923
G1 X157.828 Y161.395 E.30963
G1 X157.445 Y161.395 E.01923
G1 X157.445 Y167.565 E.30963
G1 X157.062 Y167.565 E.01923
G1 X157.062 Y161.395 E.30963
G1 X156.679 Y161.395 E.01923
G1 X156.679 Y167.565 E.30963
G1 X156.295 Y167.565 E.01923
G1 X156.295 Y161.395 E.30963
G1 X155.912 Y161.395 E.01923
G1 X155.912 Y167.565 E.30963
G1 X155.529 Y167.565 E.01923
G1 X155.529 Y161.395 E.30963
G1 X155.146 Y161.395 E.01923
G1 X155.146 Y163.354 E.09831
G1 X154.763 Y163.354 E.01923
G1 X154.763 Y161.395 E.09831
G1 X154.379 Y161.395 E.01923
G1 X154.379 Y163.354 E.09831
G1 X153.996 Y163.354 E.01923
G1 X153.996 Y161.395 E.09831
G1 X153.613 Y161.395 E.01923
G1 X153.613 Y163.354 E.09831
G1 X153.23 Y163.354 E.01923
G1 X153.23 Y161.395 E.09831
G1 X152.846 Y161.395 E.01923
G1 X152.846 Y163.354 E.09831
G1 X152.463 Y163.354 E.01923
G1 X152.463 Y161.24 E.1061
G1 E-.7 F3600
;WIPE_START
G1 F6240
G1 X152.463 Y161.76 E-.285
;WIPE_END
G1 E-.015 F3600
G1 X155.146 Y167.72 F7800
G1 E1 F2400
G1 F1800
G1 X155.146 Y165.606 E.1061
G1 X154.763 Y165.606 E.01923
G1 X154.763 Y167.565 E.09831
G1 X154.379 Y167.565 E.01923
G1 X154.379 Y165.606 E.09831
G1 X153.996 Y165.606 E.01923
G1 X153.996 Y167.565 E.09831
G1 X153.613 Y167.565 E.01923
G1 X153.613 Y165.606 E.09831
G1 X153.23 Y165.606 E.01923
G1 X153.23 Y167.565 E.09831
G1 X152.846 Y167.565 E.01923
G1 X152.846 Y165.606 E.09831
G1 X152.463 Y165.606 E.01923
G1 X152.463 Y167.72 E.1061
G1 E-.7 F3600
;WIPE_START
G1 F6240
G1 X152.463 Y167.2 E-.285
;WIPE_END
G1 E-.015 F3600
G1 X139.545 Y161.968 F7800
G1 E1 F2400
;TYPE:Support material interface
;WIDTH:1
G1 F1800
G1 X139.545 Y144.283 E2.38013
G1 X140.437 Y144.283 E.12014
G1 X140.437 Y161.008 E2.25083
G1 X141.33 Y160.507 E.13772
G1 X141.33 Y144.283 E2.1835
G1 X142.223 Y144.283 E.12014
G1 X142.223 Y160.007 E2.11618
G1 X143.116 Y159.507 E.13772
G1 X143.116 Y144.283 E2.04886
G1 X144.008 Y144.283 E.12014
G1 X144.008 Y159.007 E1.98153
G1 X144.901 Y158.506 E.13772
G1 X144.901 Y140.89 E2.37081
G1 X145.794 Y140.89 E.12014
G1 X145.794 Y158.006 E2.30348
G1 X146.686 Y157.506 E.13772
G1 X146.686 Y140.89 E2.23616
G1 X147.579 Y140.89 E.12014
G1 X147.579 Y157.006 E2.16884
G1 X148.472 Y156.505 E.13772
G1 X148.472 Y140.89 E2.10151
G1 X149.364 Y140.89 E.12014
G1 X149.364 Y156.005 E2.03419
G1 X150.257 Y155.505 E.13772
G1 X150.257 Y140.89 E1.96686
G1 X151.069 Y140.89 E.1092
G1 X151.069 Y137.498 E.4566
G1 X151.15 Y137.498 E.01094
G1 X151.15 Y155.005 E2.35614
G1 X152.043 Y154.504 E.13772
G1 X152.043 Y137.498 E2.28882
G1 X152.935 Y137.498 E.12014
G1 X152.935 Y154.004 E2.22149
G1 X153.828 Y153.504 E.13772
G1 X153.828 Y137.498 E2.15417
G1 X154.721 Y137.498 E.12014
G1 X154.721 Y153.004 E2.08684
G1 X155.613 Y152.503 E.13772
G1 X155.613 Y137.498 E2.01952
G1 X156.506 Y137.498 E.12014
G1 X156.506 Y152.003 E1.9522
G1 X157.399 Y151.503 E.13772
G1 X157.399 Y137.498 E1.88487
G1 X157.854 Y137.498 E.06127
G1 X157.854 Y134.105 E.4566
G1 X158.291 Y134.105 E.05888
G1 X158.291 Y151.003 E2.27415
G1 X159.184 Y150.502 E.13772
G1 X159.184 Y134.105 E2.20682
G1 X160.077 Y134.105 E.12014
G1 X160.077 Y150.002 E2.1395
G1 X160.97 Y149.502 E.13772
G1 X160.97 Y134.105 E2.07218
G1 X161.862 Y134.105 E.12014
G1 X161.862 Y149.002 E2.00485
G1 X162.755 Y148.502 E.13772
G1 X162.755 Y134.105 E1.93753
G1 X163.648 Y134.105 E.12014
G1 X163.648 Y147.987 E1.86826
G1 X164.54 Y147.477 E.13838
G1 X164.54 Y134.105 E1.79959
G1 X164.639 Y134.105 E.01333
G1 X164.639 Y130.712 E.4566
G1 X165.433 Y130.712 E.10681
G1 X165.433 Y146.987 E2.19032
G1 X165.556 Y146.92 E.0188
G1 X166.326 Y147.376 E.12046
G1 X166.326 Y130.712 E2.24266
G1 X167.218 Y130.712 E.12014
G1 X167.218 Y158.256 E3.70688
G1 E-.7 F3600
;WIPE_START
G1 F6240
G1 X167.218 Y157.736 E-.285
;WIPE_END
G1 E-.015 F3600
G1 X171.268 Y133.056 F7800
G1 E1 F2400
;TYPE:Support material
;WIDTH:0.42
G1 F1800
G1 X168.689 Y133.056 E.12947
G1 X168.689 Y130.056 E.15056
G1 X163.983 Y130.056 E.23616
G1 X163.983 Y133.449 E.17027
G1 X157.198 Y133.449 E.34053
G1 X157.198 Y136.841 E.17027
G1 X150.412 Y136.841 E.34053
G1 X150.412 Y140.234 E.17027
G1 X143.627 Y140.234 E.34053
G1 X143.627 Y143.627 E.17027
G1 X136.841 Y143.627 E.34053
G1 X136.841 Y147.019 E.17027
G1 X133.449 Y147.019 E.17027
G1 X133.449 Y150.412 E.17027
G1 X126.663 Y150.412 E.34053
G1 X126.663 Y153.805 E.17027
G1 X119.878 Y153.805 E.34053
G1 X119.878 Y157.197 E.17027
G1 X113.092 Y157.197 E.34053
G1 X113.092 Y160.59 E.17027
G1 X109.7 Y160.59 E.17027
G1 X109.7 Y165.296 E.23616
G1 X112.7 Y165.296 E.15056
G1 X112.7 Y167.876 E.12947
G1 X8.732 Y167.876 E5.21773
G1 X8.732 Y12.124 E7.81652
G1 X171.268 Y12.124 E8.15705
G1 X171.268 Y133.004 E6.06646
G1 X170.857 Y132.901 F7800
G1 F1800
G1 X170.857 Y12.435 E6.04569
G1 X170.474 Y12.435 E.01923
G1 X170.474 Y132.746 E6.03791
G1 X170.091 Y132.746 E.01923
M73 P0 R823
G1 X170.091 Y12.435 E6.03791
G1 X169.708 Y12.435 E.01923
G1 X169.708 Y132.746 E6.03791
G1 X169.324 Y132.746 E.01923
G1 X169.325 Y12.435 E6.03791
G1 X168.941 Y12.435 E.01923
G1 X168.941 Y129.746 E5.88735
G1 X168.558 Y129.746 E.01923
G1 X168.558 Y12.435 E5.88735
G1 X168.175 Y12.435 E.01923
G1 X168.175 Y129.746 E5.88735
G1 X167.792 Y129.746 E.01923
G1 X167.792 Y12.435 E5.88735
G1 X167.408 Y12.435 E.01923
G1 X167.408 Y129.746 E5.88735
G1 X167.025 Y129.746 E.01923
G1 X167.025 Y12.435 E5.88735
G1 X166.642 Y12.435 E.01923
G1 X166.642 Y129.746 E5.88735
G1 X166.259 Y129.746 E.01923
G1 X166.259 Y12.435 E5.88735
G1 X165.876 Y12.435 E.01923
G1 X165.876 Y129.746 E5.88735
G1 X165.492 Y129.746 E.01923
G1 X165.492 Y12.435 E5.88735
G1 X165.109 Y12.435 E.01923
G1 X165.109 Y129.746 E5.88735
G1 X164.726 Y129.746 E.01923
G1 X164.726 Y12.435 E5.88735
G1 X164.343 Y12.435 E.01923
M73 P0 R822
G1 X164.343 Y129.746 E5.88735
G1 X163.96 Y129.746 E.01923
G1 X163.96 Y12.435 E5.88735
G1 X163.576 Y12.435 E.01923
G1 X163.576 Y133.138 E6.05761
G1 X163.193 Y133.138 E.01923
G1 X163.193 Y12.435 E6.05761
G1 X162.81 Y12.435 E.01923
G1 X162.81 Y133.138 E6.05761
G1 X162.427 Y133.138 E.01923
G1 X162.427 Y12.435 E6.05761
G1 X162.044 Y12.435 E.01923
G1 X162.044 Y133.138 E6.05761
G1 X161.66 Y133.138 E.01923
G1 X161.66 Y12.435 E6.05761
G1 X161.277 Y12.435 E.01923
G1 X161.277 Y133.138 E6.05761
G1 X160.894 Y133.138 E.01923
G1 X160.894 Y12.435 E6.05761
G1 X160.511 Y12.435 E.01923
G1 X160.511 Y133.138 E6.05761
G1 X160.127 Y133.138 E.01923
G1 X160.127 Y12.435 E6.05761
G1 X159.744 Y12.435 E.01923
G1 X159.744 Y133.138 E6.05761
G1 X159.361 Y133.138 E.01923
G1 X159.361 Y12.435 E6.05761
G1 X158.978 Y12.435 E.01923
M73 P0 R821
G1 X158.978 Y133.138 E6.05761
G1 X158.595 Y133.138 E.01923
G1 X158.595 Y12.435 E6.05761
G1 X158.211 Y12.435 E.01923
G1 X158.211 Y133.138 E6.05761
G1 X157.828 Y133.138 E.01923
G1 X157.828 Y12.435 E6.05761
G1 X157.445 Y12.435 E.01923
G1 X157.445 Y133.138 E6.05761
G1 X157.062 Y133.138 E.01923
G1 X157.062 Y12.435 E6.05761
G1 X156.679 Y12.435 E.01923
G1 X156.679 Y136.531 E6.22788
G1 X156.295 Y136.531 E.01923
G1 X156.295 Y12.435 E6.22788
G1 X155.912 Y12.435 E.01923
G1 X155.912 Y136.531 E6.22788
G1 X155.529 Y136.531 E.01923
G1 X155.529 Y12.435 E6.22788
G1 X155.146 Y12.435 E.01923
G1 X155.146 Y136.531 E6.22788
G1 X154.763 Y136.531 E.01923
G1 X154.763 Y12.435 E6.22788
G1 X154.379 Y12.435 E.01923
G1 X154.379 Y136.531 E6.22788
G1 X153.996 Y136.531 E.01923
G1 X153.996 Y12.435 E6.22788
G1 X153.613 Y12.435 E.01923
G1 X153.613 Y136.531 E6.22788
G1 X153.23 Y136.531 E.01923
M73 P0 R820
G1 X153.23 Y12.435 E6.22788
G1 X152.846 Y12.435 E.01923
G1 X152.846 Y136.531 E6.22788
G1 X152.463 Y136.531 E.01923
G1 X152.463 Y12.435 E6.22788
G1 X152.08 Y12.435 E.01923
G1 X152.08 Y136.531 E6.22788
G1 X151.697 Y136.531 E.01923
G1 X151.697 Y12.435 E6.22788
G1 X151.314 Y12.435 E.01923
G1 X151.314 Y136.531 E6.22788
G1 X150.93 Y136.531 E.01923
G1 X150.93 Y12.435 E6.22788
G1 X150.547 Y12.435 E.01923
G1 X150.547 Y136.531 E6.22788
G1 X150.164 Y136.531 E.01923
G1 X150.164 Y12.435 E6.22788
G1 X149.781 Y12.435 E.01923
G1 X149.781 Y139.924 E6.39814
G1 X149.398 Y139.924 E.01923
