; generated by PrusaSlicer 2.5.0+win64 on 2022-12-07 at 00:25:25 UTC

; 

; external perimeters extrusion width = 1.00mm
; perimeters extrusion width = 1.00mm
; infill extrusion width = 1.00mm
; solid infill extrusion width = 1.00mm
; top infill extrusion width = 1.00mm
; support material extrusion width = 1.00mm
; first layer extrusion width = 0.42mm

M73 P0 R488
M107
;TYPE:Custom
G90 ; use absolute coordinates
M83 ; extruder relative mode
M140 S60 ; set final bed temp
M104 S150 ; set temporary nozzle temp to prevent oozing during homing and auto bed leveling
G4 S10 ; allow partial nozzle warmup
G28 ; home all axisG1 Z50 F240
G1 X7.6 Y10 F3000
M104 S210 ; set final nozzle temp
M190 S60 ; wait for bed temp to stabilize
M109 S210 ; wait for nozzle temp to stabilize
G1 Z0.28 F240
G92 E0
G1 Y140 E10 F1500 ; prime the nozzle
G1 X4 F5000
G92 E0
G1 Y10 E10 F1200 ; prime the nozzle
G92 E0
G21 ; set units to millimeters
G90 ; use absolute coordinates
M83 ; use relative distances for extrusion
; Filament gcode
M107
;LAYER_CHANGE
;Z:0.35
;HEIGHT:0.35
;BEFORE_LAYER_CHANGE
G92 E0
;0.35


G1 E-1 F3600
G1 Z.35 F7800
;AFTER_LAYER_CHANGE
;0.35
G1 X12.781 Y89.598
G1 E1 F2400
;TYPE:Support material interface
;WIDTH:1
G1 F1800
G1 X12.781 Y144.283 E7.35969
G1 X13.027 Y144.283 E.033
G1 X13.027 Y125.617 E2.51213
G1 X13.674 Y125.436 E.0905
G1 X13.674 Y90 E4.76908
G1 X14.567 Y90 E.12014
G1 X14.567 Y125.186 E4.73542
G1 X15.139 Y125.025 E.07995
G1 X15.46 Y125.553 E.08307
G1 X15.46 Y90 E4.78482
G1 X16.352 Y90 E.12014
G1 X16.352 Y127.021 E4.98238
G1 X17.245 Y128.489 E.23122
G1 X17.245 Y90 E5.17994
G1 X18.138 Y90 E.12014
M73 P0 R487
G1 X18.138 Y129.957 E5.3775
G1 X19.03 Y131.424 E.23122
G1 X19.03 Y96.785 E4.66185
G1 X19.923 Y96.785 E.12014
G1 X19.923 Y110.356 E1.82641
G1 X20.816 Y110.356 E.12014
G1 X20.816 Y96.785 E1.82641
G1 X21.708 Y96.785 E.12014
G1 X21.708 Y110.758 E1.88047
G1 E-.7 F3600
;WIPE_START
G1 F6240
G1 X21.708 Y110.238 E-.285
;WIPE_END
G1 E-.015 F3600
G1 X19.923 Y113.347 F7800
G1 E1 F2400
G1 F1800
G1 X19.923 Y127.32 E1.88047
G1 X20.816 Y127.32 E.12014
G1 X20.816 Y113.749 E1.82641
G1 X21.708 Y113.749 E.12014
G1 X21.708 Y127.721 E1.88047
G1 E-.7 F3600
;WIPE_START
G1 F6240
G1 X21.708 Y127.201 E-.285
;WIPE_END
G1 E-.015 F3600
G1 X19.923 Y130.311 F7800
G1 E1 F2400
G1 F1800
G1 X19.923 Y132.892 E.34746
G1 X20.816 Y134.36 E.23122
G1 X20.816 Y130.712 E.49095
G1 X21.708 Y130.712 E.12014
G1 X21.708 Y136.601 E.79256
G1 E-.7 F3600
;WIPE_START
G1 F6240
G1 X21.708 Y136.081 E-.285
;WIPE_END
G1 E-.015 F3600
G1 X24.387 Y134.507 F7800
G1 E1 F2400
G1 F1800
G1 X24.387 Y120.534 E1.88047
G1 X23.494 Y120.534 E.12014
G1 X23.494 Y134.105 E1.82641
G1 X22.601 Y134.105 E.12014
G1 X22.601 Y120.534 E1.82641
G1 X22.146 Y120.534 E.06125
G1 X22.146 Y117.142 E.4566
G1 X22.601 Y117.142 E.06125
G1 X22.601 Y100.178 E2.28301
G1 X23.494 Y100.178 E.12014
G1 X23.494 Y117.142 E2.28301
G1 X24.387 Y117.142 E.12014
G1 X24.387 Y100.178 E2.28301
G1 X25.279 Y100.178 E.12014
G1 X25.279 Y142.473 E5.6922
G1 X24.387 Y141.005 F7800
G1 F1800
G1 X24.387 Y137.498 E.47203
G1 X23.494 Y137.498 E.12014
G1 X23.494 Y139.537 E.27447
G1 E-.7 F3600
;WIPE_START
G1 F6240
G1 X23.494 Y139.017 E-.285
;WIPE_END
G1 E-.015 F3600
G1 X11.311 Y144.94 F7800
G1 E1 F2400
;TYPE:Support material
;WIDTH:0.42
G1 F1800
G1 X13.683 Y144.94 E.11902
G1 X13.683 Y141.94 E.15056
G1 X16.263 Y141.94 E.12947
G1 X16.263 Y150.912 E.45029
G1 X8.732 Y150.912 E.37796
G1 X8.732 Y141.94 E.45029
G1 X11.311 Y141.94 E.12947
G1 X11.311 Y144.888 E.14796
G1 X15.657 Y150.757 F7800
G1 F1800
G1 X15.657 Y142.25 E.42693
G1 X15.274 Y142.25 E.01923
G1 X15.274 Y150.602 E.41914
G1 X14.891 Y150.602 E.01923
G1 X14.891 Y142.25 E.41914
G1 X14.508 Y142.25 E.01923
G1 X14.508 Y150.602 E.41914
G1 X14.124 Y150.602 E.01923
G1 X14.124 Y142.25 E.41914
G1 X13.993 Y142.25 E.00657
G1 X13.993 Y145.25 E.15056
G1 X13.741 Y145.25 E.01266
G1 X13.741 Y150.602 E.26858
G1 X13.358 Y150.602 E.01923
G1 X13.358 Y145.25 E.26858
G1 X12.975 Y145.25 E.01923
G1 X12.975 Y150.602 E.26858
G1 X12.592 Y150.602 E.01923
G1 X12.592 Y145.25 E.26858
G1 X12.208 Y145.25 E.01923
G1 X12.208 Y150.602 E.26858
G1 X11.825 Y150.602 E.01923
G1 X11.825 Y145.25 E.26858
G1 X11.442 Y145.25 E.01923
G1 X11.442 Y150.602 E.26858
G1 X11.059 Y150.602 E.01923
G1 X11.059 Y145.25 E.26858
G1 X11.001 Y145.25 E.00289
G1 X11.001 Y142.25 E.15056
G1 X10.676 Y142.25 E.01634
G1 X10.676 Y150.602 E.41914
G1 X10.292 Y150.602 E.01923
G1 X10.292 Y142.25 E.41914
G1 X9.909 Y142.25 E.01923
G1 X9.909 Y150.602 E.41914
G1 X9.526 Y150.602 E.01923
G1 X9.526 Y142.25 E.41914
G1 X9.143 Y142.25 E.01923
G1 X9.143 Y150.757 E.42693
G1 E-.7 F3600
;WIPE_START
G1 F6240
G1 X9.143 Y150.237 E-.285
;WIPE_END
G1 E-.015 F3600
G1 X26.172 Y165.041 F7800
G1 E1 F2400
;TYPE:Support material interface
;WIDTH:1
G1 F1800
G1 X26.172 Y164.321 E.09687
G1 X27.065 Y164.321 E.12014
G1 X27.065 Y164.639 E.04281
G1 X27.957 Y164.639 E.12014
G1 X27.957 Y164.321 E.04281
G1 X28.85 Y164.321 E.12014
G1 X28.85 Y164.639 E.04281
G1 X29.743 Y164.639 E.12014
G1 X29.743 Y164.321 E.0428
G1 X30.635 Y164.321 E.12014
G1 X30.635 Y164.639 E.0428
G1 X31.528 Y164.639 E.12014
G1 X31.528 Y164.321 E.0428
G1 X32.421 Y164.321 E.12014
G1 X32.421 Y164.639 E.0428
G1 X33.314 Y164.639 E.12014
G1 X33.314 Y164.321 E.0428
G1 X33.962 Y164.321 E.08721
G1 X34.206 Y164.086 E.04572
G1 X34.206 Y165.041 E.12857
G1 E-.7 F3600
;WIPE_START
G1 F6240
G1 X34.206 Y164.521 E-.285
;WIPE_END
G1 E-.015 F3600
G1 X38.67 Y165.041 F7800
G1 E1 F2400
G1 F1800
G1 X38.67 Y123.927 E5.53329
G1 X37.777 Y123.927 E.12014
G1 X37.777 Y164.639 E5.47922
G1 X36.884 Y164.639 E.12014
G1 X36.884 Y123.927 E5.47922
G1 X35.992 Y123.927 E.12014
G1 X35.992 Y164.639 E5.47922
G1 X35.099 Y164.639 E.12014
G1 X35.099 Y117.142 E6.39242
G1 X34.206 Y117.142 E.12014
G1 X34.206 Y156.379 E5.28072
G1 X33.314 Y154.911 E.23122
G1 X33.314 Y117.142 E5.08317
G1 X32.421 Y117.142 E.12014
G1 X32.421 Y153.443 E4.88561
G1 X31.528 Y151.975 E.23122
G1 X31.528 Y147.676 E.57864
G1 X30.635 Y147.676 E.12014
G1 X30.635 Y150.507 E.38108
G1 X29.743 Y149.039 E.23122
G1 X29.743 Y147.676 E.18352
G1 X28.931 Y147.676 E.10919
G1 X28.931 Y144.283 E.4566
G1 X29.743 Y144.283 E.10919
G1 X29.743 Y130.712 E1.82641
G1 X30.635 Y130.712 E.12014
G1 X30.635 Y144.283 E1.82641
G1 X31.528 Y144.283 E.12014
G1 X31.528 Y130.712 E1.82641
G1 X32.324 Y130.712 E.10712
G1 X32.324 Y127.32 E.4566
G1 X31.528 Y127.32 E.10712
G1 X31.528 Y113.749 E1.82641
G1 X30.635 Y113.749 E.12014
G1 X30.635 Y127.32 E1.82641
G1 X29.743 Y127.32 E.12014
G1 X29.743 Y113.749 E1.82641
G1 X28.931 Y113.749 E.10919
G1 X28.931 Y106.963 E.9132
G1 X28.85 Y106.963 E.01095
G1 X28.85 Y147.572 E5.46518
G1 X27.957 Y146.104 E.23122
G1 X27.957 Y123.927 E2.98462
G1 X27.065 Y123.927 E.12014
G1 X27.065 Y144.636 E2.78706
G1 X26.172 Y143.168 E.23122
G1 X26.172 Y123.927 E2.5895
G1 X25.539 Y123.927 E.08522
G1 X25.539 Y120.534 E.4566
G1 X26.172 Y120.534 E.08522
G1 X26.172 Y106.963 E1.82641
G1 X27.065 Y106.963 E.12014
G1 X27.065 Y120.534 E1.82641
G1 X27.957 Y120.534 E.12014
G1 X27.957 Y106.562 E1.88047
G1 E-.7 F3600
;WIPE_START
G1 F6240
G1 X27.957 Y107.082 E-.285
;WIPE_END
G1 E-.015 F3600
G1 X171.268 Y167.876 F7800
G1 E1 F2400
;TYPE:Support material
;WIDTH:0.42
G1 F1800
G1 X36.766 Y167.876 E6.75012
G1 X36.766 Y165.296 E.12947
G1 X39.766 Y165.296 E.15056
G1 X39.766 Y123.271 E2.10908
G1 X36.373 Y123.271 E.17027
G1 X36.373 Y116.485 E.34053
G1 X32.981 Y116.485 E.17027
G1 X32.981 Y113.092 E.17027
G1 X29.588 Y113.092 E.17027
G1 X29.588 Y106.307 E.34053
G1 X26.195 Y106.307 E.17027
G1 X26.195 Y99.522 E.34053
G1 X22.802 Y99.522 E.17027
G1 X22.802 Y96.129 E.17027
G1 X19.41 Y96.129 E.17027
G1 X19.41 Y89.344 E.34053
G1 X11.311 Y89.344 E.40642
G1 X11.311 Y92.344 E.15056
G1 X8.732 Y92.344 E.12947
G1 X8.732 Y12.124 E4.02587
G1 X171.268 Y12.124 E8.15705
G1 X171.268 Y167.824 E7.81392
M73 P0 R486
G1 X170.857 Y167.72 F7800
G1 F1800
G1 X170.857 Y12.435 E7.79315
G1 X170.474 Y12.435 E.01923
G1 X170.474 Y167.565 E7.78536
G1 X170.091 Y167.565 E.01923
G1 X170.091 Y12.435 E7.78536
G1 X169.708 Y12.435 E.01923
G1 X169.708 Y167.565 E7.78536
G1 X169.324 Y167.565 E.01923
G1 X169.324 Y12.435 E7.78536
G1 X168.941 Y12.435 E.01923
G1 X168.941 Y167.565 E7.78536
G1 X168.558 Y167.565 E.01923
G1 X168.558 Y12.435 E7.78536
G1 X168.175 Y12.435 E.01923
G1 X168.175 Y167.565 E7.78536
G1 X167.792 Y167.565 E.01923
G1 X167.792 Y12.435 E7.78536
G1 X167.408 Y12.435 E.01923
G1 X167.408 Y167.565 E7.78536
G1 X167.025 Y167.565 E.01923
M73 P0 R485
G1 X167.025 Y12.435 E7.78536
G1 X166.642 Y12.435 E.01923
G1 X166.642 Y167.565 E7.78536
G1 X166.259 Y167.565 E.01923
G1 X166.259 Y12.435 E7.78536
G1 X165.876 Y12.435 E.01923
G1 X165.876 Y167.565 E7.78536
G1 X165.492 Y167.565 E.01923
G1 X165.492 Y12.435 E7.78536
G1 X165.109 Y12.435 E.01923
G1 X165.109 Y167.565 E7.78536
G1 X164.726 Y167.565 E.01923
G1 X164.726 Y12.435 E7.78536
G1 X164.343 Y12.435 E.01923
G1 X164.343 Y167.565 E7.78536
G1 X163.96 Y167.565 E.01923
G1 X163.96 Y12.435 E7.78536
G1 X163.576 Y12.435 E.01923
G1 X163.576 Y167.565 E7.78536
G1 X163.193 Y167.565 E.01923
G1 X163.193 Y12.435 E7.78536
G1 X162.81 Y12.435 E.01923
G1 X162.81 Y167.565 E7.78536
G1 X162.427 Y167.565 E.01923
M73 P0 R484
G1 X162.427 Y12.435 E7.78536
G1 X162.043 Y12.435 E.01923
G1 X162.043 Y167.565 E7.78536
G1 X161.66 Y167.565 E.01923
G1 X161.66 Y12.435 E7.78536
G1 X161.277 Y12.435 E.01923
G1 X161.277 Y167.565 E7.78536
G1 X160.894 Y167.565 E.01923
G1 X160.894 Y12.435 E7.78536
G1 X160.511 Y12.435 E.01923
G1 X160.511 Y167.565 E7.78536
G1 X160.127 Y167.565 E.01923
G1 X160.127 Y12.435 E7.78536
G1 X159.744 Y12.435 E.01923
G1 X159.744 Y167.565 E7.78536
G1 X159.361 Y167.565 E.01923
G1 X159.361 Y12.435 E7.78536
G1 X158.978 Y12.435 E.01923
G1 X158.978 Y167.565 E7.78536
G1 X158.595 Y167.565 E.01923
G1 X158.595 Y12.435 E7.78536
G1 X158.211 Y12.435 E.01923
M73 P0 R483
G1 X158.211 Y167.565 E7.78536
G1 X157.828 Y167.565 E.01923
G1 X157.828 Y12.435 E7.78536
G1 X157.445 Y12.435 E.01923
G1 X157.445 Y167.565 E7.78536
G1 X157.062 Y167.565 E.01923
G1 X157.062 Y12.435 E7.78536
G1 X156.679 Y12.435 E.01923
G1 X156.679 Y167.565 E7.78536
G1 X156.295 Y167.565 E.01923
G1 X156.295 Y12.435 E7.78536
G1 X155.912 Y12.435 E.01923
M73 P1 R483
G1 X155.912 Y167.565 E7.78536
G1 X155.529 Y167.565 E.01923
G1 X155.529 Y12.435 E7.78536
G1 X155.146 Y12.435 E.01923
G1 X155.146 Y167.565 E7.78536
G1 X154.762 Y167.565 E.01923
G1 X154.762 Y12.435 E7.78536
G1 X154.379 Y12.435 E.01923
G1 X154.379 Y167.565 E7.78536
G1 X153.996 Y167.565 E.01923
G1 X153.996 Y12.435 E7.78536
G1 X153.613 Y12.435 E.01923
M73 P1 R482
G1 X153.613 Y167.565 E7.78536
G1 X153.23 Y167.565 E.01923
G1 X153.23 Y12.435 E7.78536
G1 X152.846 Y12.435 E.01923
G1 X152.846 Y167.565 E7.78536
G1 X152.463 Y167.565 E.01923
G1 X152.463 Y12.435 E7.78536
G1 X152.08 Y12.435 E.01923
G1 X152.08 Y167.565 E7.78536
G1 X151.697 Y167.565 E.01923
G1 X151.697 Y12.435 E7.78536
G1 X151.314 Y12.435 E.01923
G1 X151.314 Y167.565 E7.78536
G1 X150.93 Y167.565 E.01923
G1 X150.93 Y12.435 E7.78536
G1 X150.547 Y12.435 E.01923
G1 X150.547 Y167.565 E7.78536
G1 X150.164 Y167.565 E.01923
G1 X150.164 Y12.435 E7.78536
G1 X149.781 Y12.435 E.01923
G1 X149.781 Y167.565 E7.78536
G1 X149.398 Y167.565 E.01923
M73 P1 R481
G1 X149.398 Y12.435 E7.78536
G1 X149.014 Y12.435 E.01923
G1 X149.014 Y167.565 E7.78536
G1 X148.631 Y167.565 E.01923
G1 X148.631 Y12.435 E7.78536
G1 X148.248 Y12.435 E.01923
G1 X148.248 Y167.565 E7.78536
G1 X147.865 Y167.565 E.01923
G1 X147.865 Y12.435 E7.78536
G1 X147.482 Y12.435 E.01923
G1 X147.481 Y167.565 E7.78536
G1 X147.098 Y167.565 E.01923
G1 X147.098 Y12.435 E7.78536
G1 X146.715 Y12.435 E.01923
G1 X146.715 Y167.565 E7.78536
G1 X146.332 Y167.565 E.01923
G1 X146.332 Y12.435 E7.78536
G1 X145.949 Y12.435 E.01923
G1 X145.949 Y167.565 E7.78536
G1 X145.565 Y167.565 E.01923
G1 X145.565 Y12.435 E7.78536
G1 X145.182 Y12.435 E.01923
M73 P1 R480
G1 X145.182 Y167.565 E7.78536
G1 X144.799 Y167.565 E.01923
G1 X144.799 Y12.435 E7.78536
G1 X144.416 Y12.435 E.01923
G1 X144.416 Y167.565 E7.78536
G1 X144.033 Y167.565 E.01923
G1 X144.033 Y12.435 E7.78536
G1 X143.649 Y12.435 E.01923
G1 X143.649 Y167.565 E7.78536
G1 X143.266 Y167.565 E.01923
G1 X143.266 Y12.435 E7.78536
G1 X142.883 Y12.435 E.01923
G1 X142.883 Y167.565 E7.78536
G1 X142.5 Y167.565 E.01923
G1 X142.5 Y12.435 E7.78536
G1 X142.117 Y12.435 E.01923
G1 X142.117 Y167.565 E7.78536
G1 X141.733 Y167.565 E.01923
G1 X141.733 Y12.435 E7.78536
G1 X141.35 Y12.435 E.01923
G1 X141.35 Y167.565 E7.78536
G1 X140.967 Y167.565 E.01923
G1 X140.967 Y12.435 E7.78536
G1 X140.584 Y12.435 E.01923
M73 P1 R479
G1 X140.584 Y167.565 E7.78536
G1 X140.201 Y167.565 E.01923
G1 X140.201 Y12.435 E7.78536
G1 X139.817 Y12.435 E.01923
G1 X139.817 Y167.565 E7.78536
G1 X139.434 Y167.565 E.01923
G1 X139.434 Y12.435 E7.78536
G1 X139.051 Y12.435 E.01923
G1 X139.051 Y167.565 E7.78536
G1 X138.668 Y167.565 E.01923
G1 X138.668 Y12.435 E7.78536
G1 X138.284 Y12.435 E.01923
G1 X138.284 Y167.565 E7.78536
G1 X137.901 Y167.565 E.01923
G1 X137.901 Y12.435 E7.78536
G1 X137.518 Y12.435 E.01923
G1 X137.518 Y167.565 E7.78536
G1 X137.135 Y167.565 E.01923
G1 X137.135 Y12.435 E7.78536
G1 X136.752 Y12.435 E.01923
G1 X136.752 Y167.565 E7.78536
G1 X136.368 Y167.565 E.01923
M73 P1 R478
G1 X136.368 Y12.435 E7.78536
G1 X135.985 Y12.435 E.01923
G1 X135.985 Y167.565 E7.78536
G1 X135.602 Y167.565 E.01923
G1 X135.602 Y12.435 E7.78536
G1 X135.219 Y12.435 E.01923
G1 X135.219 Y167.565 E7.78536
G1 X134.836 Y167.565 E.01923
G1 X134.836 Y12.435 E7.78536
G1 X134.452 Y12.435 E.01923
M73 P2 R478
G1 X134.452 Y167.565 E7.78536
G1 X134.069 Y167.565 E.01923
G1 X134.069 Y12.435 E7.78536
G1 X133.686 Y12.435 E.01923
G1 X133.686 Y167.565 E7.78536
G1 X133.303 Y167.565 E.01923
G1 X133.303 Y12.435 E7.78536
G1 X132.92 Y12.435 E.01923
G1 X132.92 Y167.565 E7.78536
G1 X132.536 Y167.565 E.01923
G1 X132.536 Y12.435 E7.78536
G1 X132.153 Y12.435 E.01923
G1 X132.153 Y167.565 E7.78536
G1 X131.77 Y167.565 E.01923
M73 P2 R477
G1 X131.77 Y12.435 E7.78536
G1 X131.387 Y12.435 E.01923
G1 X131.387 Y167.565 E7.78536
G1 X131.003 Y167.565 E.01923
G1 X131.003 Y12.435 E7.78536
G1 X130.62 Y12.435 E.01923
G1 X130.62 Y167.565 E7.78536
G1 X130.237 Y167.565 E.01923
G1 X130.237 Y12.435 E7.78536
G1 X129.854 Y12.435 E.01923
G1 X129.854 Y167.565 E7.78536
G1 X129.471 Y167.565 E.01923
G1 X129.471 Y12.435 E7.78536
G1 X129.087 Y12.435 E.01923
G1 X129.087 Y167.565 E7.78536
G1 X128.704 Y167.565 E.01923
G1 X128.704 Y12.435 E7.78536
G1 X128.321 Y12.435 E.01923
G1 X128.321 Y167.565 E7.78536
G1 X127.938 Y167.565 E.01923
G1 X127.938 Y12.435 E7.78536
G1 X127.555 Y12.435 E.01923
M73 P2 R476
G1 X127.555 Y167.565 E7.78536
G1 X127.171 Y167.565 E.01923
G1 X127.171 Y12.435 E7.78536
G1 X126.788 Y12.435 E.01923
G1 X126.788 Y167.565 E7.78536
G1 X126.405 Y167.565 E.01923
G1 X126.405 Y12.435 E7.78536
G1 X126.022 Y12.435 E.01923
G1 X126.022 Y167.565 E7.78536
G1 X125.639 Y167.565 E.01923
G1 X125.639 Y12.435 E7.78536
G1 X125.255 Y12.435 E.01923
G1 X125.255 Y167.565 E7.78536
G1 X124.872 Y167.565 E.01923
G1 X124.872 Y12.435 E7.78536
G1 X124.489 Y12.435 E.01923
G1 X124.489 Y167.565 E7.78536
G1 X124.106 Y167.565 E.01923
G1 X124.106 Y12.435 E7.78536
G1 X123.722 Y12.435 E.01923
G1 X123.722 Y167.565 E7.78536
G1 X123.339 Y167.565 E.01923
G1 X123.339 Y12.435 E7.78536
G1 X122.956 Y12.435 E.01923
M73 P2 R475
G1 X122.956 Y167.565 E7.78536
G1 X122.573 Y167.565 E.01923
G1 X122.573 Y12.435 E7.78536
G1 X122.19 Y12.435 E.01923
G1 X122.19 Y167.565 E7.78536
G1 X121.806 Y167.565 E.01923
G1 X121.806 Y12.435 E7.78536
G1 X121.423 Y12.435 E.01923
G1 X121.423 Y167.565 E7.78536
G1 X121.04 Y167.565 E.01923
G1 X121.04 Y12.435 E7.78536
G1 X120.657 Y12.435 E.01923
G1 X120.657 Y167.565 E7.78536
G1 X120.274 Y167.565 E.01923
G1 X120.274 Y12.435 E7.78536
G1 X119.89 Y12.435 E.01923
G1 X119.89 Y167.565 E7.78536
G1 X119.507 Y167.565 E.01923
G1 X119.507 Y12.435 E7.78536
G1 X119.124 Y12.435 E.01923
G1 X119.124 Y167.565 E7.78536
G1 X118.741 Y167.565 E.01923
M73 P2 R474
G1 X118.741 Y12.435 E7.78536
G1 X118.358 Y12.435 E.01923
G1 X118.358 Y167.565 E7.78536
G1 X117.974 Y167.565 E.01923
