; generated by PrusaSlicer 2.5.0+win64 on 2022-12-07 at 00:25:14 UTC

; 

; external perimeters extrusion width = 1.00mm
; perimeters extrusion width = 1.00mm
; infill extrusion width = 1.00mm
; solid infill extrusion width = 1.00mm
; top infill extrusion width = 1.00mm
; support material extrusion width = 1.00mm
; first layer extrusion width = 0.42mm

M73 P0 R416
M107
;TYPE:Custom
G90 ; use absolute coordinates
M83 ; extruder relative mode
M140 S60 ; set final bed temp
M104 S150 ; set temporary nozzle temp to prevent oozing during homing and auto bed leveling
G4 S10 ; allow partial nozzle warmup
G28 ; home all axisG1 Z50 F240
G1 X7.6 Y10 F3000
M104 S210 ; set final nozzle temp
M190 S60 ; wait for bed temp to stabilize
M109 S210 ; wait for nozzle temp to stabilize
G1 Z0.28 F240
G92 E0
G1 Y140 E10 F1500 ; prime the nozzle
G1 X4 F5000
G92 E0
G1 Y10 E10 F1200 ; prime the nozzle
G92 E0
G21 ; set units to millimeters
G90 ; use absolute coordinates
M83 ; use relative distances for extrusion
; Filament gcode
M107
;LAYER_CHANGE
;Z:0.35
;HEIGHT:0.35
;BEFORE_LAYER_CHANGE
G92 E0
;0.35


G1 E-1 F3600
G1 Z.35 F7800
;AFTER_LAYER_CHANGE
;0.35
G1 X19.03 Y14.959
G1 E1 F2400
;TYPE:Support material interface
;WIDTH:1
G1 F1800
G1 X19.03 Y15.679 E.09687
G1 X19.923 Y15.679 E.12014
G1 X19.923 Y15.361 E.0428
G1 X20.816 Y15.361 E.12014
G1 X20.816 Y15.679 E.0428
G1 X21.708 Y15.679 E.12014
G1 X21.708 Y15.361 E.0428
G1 X22.601 Y15.361 E.12014
G1 X22.601 Y15.679 E.0428
G1 X23.494 Y15.679 E.12014
G1 X23.494 Y15.361 E.0428
G1 X24.387 Y15.361 E.12014
G1 X24.387 Y15.679 E.0428
G1 X25.279 Y15.679 E.12014
G1 X25.279 Y15.361 E.0428
G1 X26.172 Y15.361 E.12014
G1 X26.172 Y15.679 E.0428
G1 X27.065 Y15.679 E.12014
G1 X27.065 Y15.361 E.0428
G1 X27.957 Y15.361 E.12014
G1 X27.957 Y15.679 E.0428
G1 X28.85 Y15.679 E.12014
G1 X28.85 Y15.361 E.0428
G1 X29.743 Y15.361 E.12014
G1 X29.743 Y15.679 E.0428
G1 X30.635 Y15.679 E.12014
G1 X30.635 Y15.361 E.0428
G1 X31.528 Y15.361 E.12014
G1 X31.528 Y15.774 E.05569
G1 X32.268 Y16.485 E.13801
G1 X32.421 Y20.227 E.50412
G1 X32.421 Y15.361 E.65497
G1 X33.314 Y15.361 E.12014
G1 X33.314 Y22.146 E.91321
G1 X34.206 Y22.146 E.12014
G1 X34.206 Y15.361 E.91321
G1 X35.099 Y15.361 E.12014
G1 X35.099 Y22.146 E.91321
G1 X35.717 Y22.146 E.08315
G1 X35.717 Y25.539 E.4566
G1 X35.992 Y25.539 E.03699
G1 X35.992 Y15.361 E1.36981
G1 X36.884 Y15.361 E.12014
G1 X36.884 Y25.539 E1.36981
G1 X37.777 Y25.539 E.12014
G1 X37.777 Y15.361 E1.36981
G1 X38.67 Y15.361 E.12014
G1 X38.67 Y25.539 E1.36981
G1 X39.109 Y25.539 E.05918
G1 X39.109 Y106.964 E10.95843
G1 X39.562 Y106.964 E.06096
G1 X39.562 Y15.361 E12.32824
G1 X40.455 Y15.361 E.12014
G1 X40.455 Y106.964 E12.32824
G1 X41.348 Y106.964 E.12014
G1 X41.348 Y15.361 E12.32824
G1 X42.241 Y15.361 E.12014
G1 X42.241 Y165.041 E20.14453
G1 X41.348 Y165.041 F7800
M73 P0 R415
G1 F1800
G1 X41.348 Y157.854 E.96727
G1 X40.455 Y157.854 E.12014
G1 X40.455 Y164.639 E.91321
G1 X39.562 Y164.639 E.12014
G1 X39.562 Y157.854 E.91321
G1 X39.11 Y157.854 E.06096
G1 X39.11 Y120.534 E5.02261
G1 X38.67 Y120.534 E.05919
G1 X38.67 Y164.639 E5.93582
G1 X37.777 Y164.639 E.12014
G1 X37.777 Y163.949 E.09292
G1 X37.42 Y164.321 E.06947
G1 X36.884 Y164.321 E.07203
G1 X36.884 Y164.639 E.0428
G1 X35.992 Y164.639 E.12014
G1 X35.992 Y164.321 E.0428
G1 X35.099 Y164.321 E.12014
G1 X35.099 Y164.639 E.0428
G1 X34.206 Y164.639 E.12014
G1 X34.206 Y164.321 E.0428
G1 X33.314 Y164.321 E.12014
G1 X33.314 Y164.639 E.0428
G1 X32.421 Y164.639 E.12014
G1 X32.421 Y164.321 E.0428
G1 X31.528 Y164.321 E.12014
G1 X31.528 Y164.639 E.0428
G1 X30.635 Y164.639 E.12014
G1 X30.635 Y164.321 E.04281
G1 X29.743 Y164.321 E.12014
G1 X29.743 Y164.639 E.04281
G1 X28.85 Y164.639 E.12014
G1 X28.85 Y164.321 E.04281
G1 X27.957 Y164.321 E.12014
G1 X27.957 Y164.639 E.04281
G1 X27.065 Y164.639 E.12014
G1 X27.065 Y164.321 E.04281
G1 X26.172 Y164.321 E.12014
G1 X26.172 Y165.041 E.09687
G1 E-.7 F3600
;WIPE_START
G1 F6240
G1 X26.172 Y164.521 E-.285
;WIPE_END
G1 E-.015 F3600
G1 X37.777 Y161.124 F7800
G1 E1 F2400
G1 F1800
G1 X37.777 Y120.534 E5.46276
G1 X36.884 Y120.534 E.12014
G1 X36.884 Y139.281 E2.52302
G1 E-.7 F3600
;WIPE_START
G1 F6240
G1 X36.884 Y138.761 E-.285
;WIPE_END
G1 E-.015 F3600
G1 X59.202 Y165.041 F7800
G1 E1 F2400
G1 F1800
G1 X59.202 Y100.178 E8.72949
G1 X58.309 Y100.178 E.12014
G1 X58.309 Y164.639 E8.67543
G1 X57.416 Y164.639 E.12014
G1 X57.416 Y100.178 E8.67543
G1 X56.524 Y100.178 E.12014
G1 X56.524 Y164.639 E8.67543
G1 X55.631 Y164.639 E.12014
G1 X55.631 Y18.753 E19.63386
G1 X54.738 Y18.753 E.12014
G1 X54.738 Y164.639 E19.63386
G1 X53.846 Y164.639 E.12014
G1 X53.846 Y18.753 E19.63386
G1 X52.953 Y18.753 E.12014
G1 X52.953 Y164.639 E19.63386
G1 X52.06 Y164.639 E.12014
G1 X52.06 Y157.854 E.91321
G1 X51.168 Y157.854 E.12014
G1 X51.168 Y164.639 E.91321
G1 X50.275 Y164.639 E.12014
G1 X50.275 Y157.854 E.91321
G1 X49.382 Y157.854 E.12014
G1 X49.382 Y164.639 E.91321
G1 X48.489 Y164.639 E.12014
G1 X48.489 Y110.356 E7.30563
G1 X47.597 Y110.356 E.12014
G1 X47.597 Y164.639 E7.30563
G1 X46.704 Y164.639 E.12014
G1 X46.704 Y110.356 E7.30563
G1 X45.895 Y110.356 E.10889
G1 X45.895 Y28.931 E10.95843
G1 X45.811 Y28.931 E.01125
G1 X45.811 Y164.639 E18.26406
G1 X44.919 Y164.639 E.12014
G1 X44.919 Y28.931 E18.26406
G1 X44.026 Y28.931 E.12014
G1 X44.026 Y164.639 E18.26406
G1 X43.133 Y164.639 E.12014
M73 P0 R414
G1 X43.133 Y28.931 E18.26406
G1 X42.502 Y28.931 E.08493
G1 X42.502 Y22.146 E.9132
G1 X43.133 Y22.146 E.08493
G1 X43.133 Y15.361 E.91321
G1 X44.026 Y15.361 E.12014
G1 X44.026 Y22.146 E.91321
G1 X44.919 Y22.146 E.12014
G1 X44.919 Y15.361 E.91321
G1 X45.811 Y15.361 E.12014
G1 X45.811 Y22.146 E.91321
G1 X46.704 Y22.146 E.12014
G1 X46.704 Y15.361 E.91321
G1 X47.597 Y15.361 E.12014
G1 X47.597 Y22.146 E.91321
G1 X48.489 Y22.146 E.12014
G1 X48.489 Y15.361 E.91321
G1 X49.382 Y15.361 E.12014
G1 X49.382 Y96.785 E10.95844
G1 X50.275 Y96.785 E.12014
G1 X50.275 Y15.361 E10.95844
G1 X51.168 Y15.361 E.12014
G1 X51.168 Y96.785 E10.95844
G1 X52.06 Y96.785 E.12014
G1 X52.06 Y14.959 E11.0125
G1 E-.7 F3600
;WIPE_START
G1 F6240
G1 X52.06 Y15.479 E-.285
;WIPE_END
G1 E-.015 F3600
G1 X33.314 Y38.708 F7800
G1 E1 F2400
G1 F1800
G1 X33.314 Y42.07 E.45256
G1 X34.206 Y63.914 E2.94219
G1 X34.206 Y39.109 E3.33824
G1 X35.099 Y39.109 E.12014
G1 X35.099 Y95.595 E7.60197
G1 E-.7 F3600
;WIPE_START
G1 F6240
G1 X35.099 Y95.075 E-.285
;WIPE_END
G1 E-.015 F3600
G1 X171.268 Y167.876 F7800
G1 E1 F2400
;TYPE:Support material
;WIDTH:0.42
G1 F1800
G1 X57.122 Y167.876 E5.72853
G1 X57.122 Y165.296 E.12947
G1 X60.122 Y165.296 E.15056
G1 X60.122 Y99.522 E3.30094
G1 X59.622 Y99.522 E.02509
G1 X59.622 Y89.844 E.4857
G1 X56.729 Y89.844 E.14517
G1 X56.729 Y18.097 E3.60067
G1 X53.337 Y18.097 E.17027
G1 X53.337 Y14.704 E.17027
G1 X50.337 Y14.704 E.15056
G1 X50.337 Y12.124 E.12947
G1 X171.268 Y12.124 E6.06906
G1 X171.268 Y167.824 E7.81392
G1 X170.857 Y167.72 F7800
G1 F1800
G1 X170.857 Y12.435 E7.79315
G1 X170.474 Y12.435 E.01923
G1 X170.474 Y167.565 E7.78536
G1 X170.091 Y167.565 E.01923
G1 X170.091 Y12.435 E7.78536
G1 X169.708 Y12.435 E.01923
M73 P0 R413
G1 X169.708 Y167.565 E7.78536
G1 X169.324 Y167.565 E.01923
G1 X169.324 Y12.435 E7.78536
G1 X168.941 Y12.435 E.01923
G1 X168.941 Y167.565 E7.78536
G1 X168.558 Y167.565 E.01923
G1 X168.558 Y12.435 E7.78536
G1 X168.175 Y12.435 E.01923
G1 X168.175 Y167.565 E7.78536
G1 X167.792 Y167.565 E.01923
G1 X167.792 Y12.435 E7.78536
G1 X167.408 Y12.435 E.01923
G1 X167.408 Y167.565 E7.78536
G1 X167.025 Y167.565 E.01923
G1 X167.025 Y12.435 E7.78536
G1 X166.642 Y12.435 E.01923
G1 X166.642 Y167.565 E7.78536
G1 X166.259 Y167.565 E.01923
G1 X166.259 Y12.435 E7.78536
G1 X165.876 Y12.435 E.01923
G1 X165.876 Y167.565 E7.78536
G1 X165.492 Y167.565 E.01923
G1 X165.492 Y12.435 E7.78536
G1 X165.109 Y12.435 E.01923
M73 P0 R412
G1 X165.109 Y167.565 E7.78536
G1 X164.726 Y167.565 E.01923
G1 X164.726 Y12.435 E7.78536
G1 X164.343 Y12.435 E.01923
G1 X164.343 Y167.565 E7.78536
G1 X163.96 Y167.565 E.01923
G1 X163.96 Y12.435 E7.78536
G1 X163.576 Y12.435 E.01923
G1 X163.576 Y167.565 E7.78536
G1 X163.193 Y167.565 E.01923
G1 X163.193 Y12.435 E7.78536
G1 X162.81 Y12.435 E.01923
G1 X162.81 Y167.565 E7.78536
G1 X162.427 Y167.565 E.01923
M73 P1 R412
G1 X162.427 Y12.435 E7.78536
G1 X162.043 Y12.435 E.01923
G1 X162.043 Y167.565 E7.78536
G1 X161.66 Y167.565 E.01923
G1 X161.66 Y12.435 E7.78536
G1 X161.277 Y12.435 E.01923
G1 X161.277 Y167.565 E7.78536
G1 X160.894 Y167.565 E.01923
M73 P1 R411
G1 X160.894 Y12.435 E7.78536
G1 X160.511 Y12.435 E.01923
G1 X160.511 Y167.565 E7.78536
G1 X160.127 Y167.565 E.01923
G1 X160.127 Y12.435 E7.78536
G1 X159.744 Y12.435 E.01923
G1 X159.744 Y167.565 E7.78536
G1 X159.361 Y167.565 E.01923
G1 X159.361 Y12.435 E7.78536
G1 X158.978 Y12.435 E.01923
G1 X158.978 Y167.565 E7.78536
G1 X158.595 Y167.565 E.01923
G1 X158.595 Y12.435 E7.78536
G1 X158.211 Y12.435 E.01923
G1 X158.211 Y167.565 E7.78536
G1 X157.828 Y167.565 E.01923
G1 X157.828 Y12.435 E7.78536
G1 X157.445 Y12.435 E.01923
G1 X157.445 Y167.565 E7.78536
G1 X157.062 Y167.565 E.01923
G1 X157.062 Y12.435 E7.78536
G1 X156.679 Y12.435 E.01923
G1 X156.679 Y167.565 E7.78536
G1 X156.295 Y167.565 E.01923
M73 P1 R410
G1 X156.295 Y12.435 E7.78536
G1 X155.912 Y12.435 E.01923
G1 X155.912 Y167.565 E7.78536
G1 X155.529 Y167.565 E.01923
G1 X155.529 Y12.435 E7.78536
G1 X155.146 Y12.435 E.01923
G1 X155.146 Y167.565 E7.78536
G1 X154.762 Y167.565 E.01923
G1 X154.762 Y12.435 E7.78536
G1 X154.379 Y12.435 E.01923
G1 X154.379 Y167.565 E7.78536
G1 X153.996 Y167.565 E.01923
G1 X153.996 Y12.435 E7.78536
G1 X153.613 Y12.435 E.01923
G1 X153.613 Y167.565 E7.78536
G1 X153.23 Y167.565 E.01923
G1 X153.23 Y12.435 E7.78536
G1 X152.846 Y12.435 E.01923
G1 X152.846 Y167.565 E7.78536
G1 X152.463 Y167.565 E.01923
G1 X152.463 Y12.435 E7.78536
G1 X152.08 Y12.435 E.01923
M73 P1 R409
G1 X152.08 Y167.565 E7.78536
G1 X151.697 Y167.565 E.01923
G1 X151.697 Y12.435 E7.78536
G1 X151.314 Y12.435 E.01923
G1 X151.314 Y167.565 E7.78536
G1 X150.93 Y167.565 E.01923
G1 X150.93 Y12.435 E7.78536
G1 X150.547 Y12.435 E.01923
G1 X150.547 Y167.565 E7.78536
G1 X150.164 Y167.565 E.01923
G1 X150.164 Y12.435 E7.78536
G1 X149.781 Y12.435 E.01923
G1 X149.781 Y167.565 E7.78536
G1 X149.398 Y167.565 E.01923
G1 X149.398 Y12.435 E7.78536
G1 X149.014 Y12.435 E.01923
G1 X149.014 Y167.565 E7.78536
G1 X148.631 Y167.565 E.01923
G1 X148.631 Y12.435 E7.78536
G1 X148.248 Y12.435 E.01923
G1 X148.248 Y167.565 E7.78536
G1 X147.865 Y167.565 E.01923
G1 X147.865 Y12.435 E7.78536
G1 X147.481 Y12.435 E.01923
M73 P1 R408
G1 X147.481 Y167.565 E7.78536
G1 X147.098 Y167.565 E.01923
G1 X147.098 Y12.435 E7.78536
G1 X146.715 Y12.435 E.01923
G1 X146.715 Y167.565 E7.78536
G1 X146.332 Y167.565 E.01923
G1 X146.332 Y12.435 E7.78536
G1 X145.949 Y12.435 E.01923
G1 X145.949 Y167.565 E7.78536
G1 X145.565 Y167.565 E.01923
G1 X145.565 Y12.435 E7.78536
G1 X145.182 Y12.435 E.01923
G1 X145.182 Y167.565 E7.78536
G1 X144.799 Y167.565 E.01923
G1 X144.799 Y12.435 E7.78536
G1 X144.416 Y12.435 E.01923
G1 X144.416 Y167.565 E7.78536
G1 X144.033 Y167.565 E.01923
M73 P2 R408
G1 X144.033 Y12.435 E7.78536
G1 X143.649 Y12.435 E.01923
G1 X143.649 Y167.565 E7.78536
G1 X143.266 Y167.565 E.01923
M73 P2 R407
G1 X143.266 Y12.435 E7.78536
G1 X142.883 Y12.435 E.01923
G1 X142.883 Y167.565 E7.78536
G1 X142.5 Y167.565 E.01923
G1 X142.5 Y12.435 E7.78536
G1 X142.117 Y12.435 E.01923
G1 X142.117 Y167.565 E7.78536
G1 X141.733 Y167.565 E.01923
G1 X141.733 Y12.435 E7.78536
G1 X141.35 Y12.435 E.01923
G1 X141.35 Y167.565 E7.78536
G1 X140.967 Y167.565 E.01923
G1 X140.967 Y12.435 E7.78536
G1 X140.584 Y12.435 E.01923
G1 X140.584 Y167.565 E7.78536
G1 X140.2 Y167.565 E.01923
G1 X140.2 Y12.435 E7.78536
G1 X139.817 Y12.435 E.01923
G1 X139.817 Y167.565 E7.78536
G1 X139.434 Y167.565 E.01923
G1 X139.434 Y12.435 E7.78536
G1 X139.051 Y12.435 E.01923
G1 X139.051 Y167.565 E7.78536
G1 X138.668 Y167.565 E.01923
M73 P2 R406
G1 X138.668 Y12.435 E7.78536
G1 X138.284 Y12.435 E.01923
G1 X138.284 Y167.565 E7.78536
G1 X137.901 Y167.565 E.01923
G1 X137.901 Y12.435 E7.78536
G1 X137.518 Y12.435 E.01923
G1 X137.518 Y167.565 E7.78536
G1 X137.135 Y167.565 E.01923
G1 X137.135 Y12.435 E7.78536
G1 X136.752 Y12.435 E.01923
G1 X136.752 Y167.565 E7.78536
G1 X136.368 Y167.565 E.01923
G1 X136.368 Y12.435 E7.78536
G1 X135.985 Y12.435 E.01923
G1 X135.985 Y167.565 E7.78536
G1 X135.602 Y167.565 E.01923
G1 X135.602 Y12.435 E7.78536
G1 X135.219 Y12.435 E.01923
G1 X135.219 Y167.565 E7.78536
G1 X134.836 Y167.565 E.01923
G1 X134.836 Y12.435 E7.78536
G1 X134.452 Y12.435 E.01923
M73 P2 R405
G1 X134.452 Y167.565 E7.78536
G1 X134.069 Y167.565 E.01923
G1 X134.069 Y12.435 E7.78536
G1 X133.686 Y12.435 E.01923
G1 X133.686 Y167.565 E7.78536
G1 X133.303 Y167.565 E.01923
G1 X133.303 Y12.435 E7.78536
G1 X132.92 Y12.435 E.01923
G1 X132.919 Y167.565 E7.78536
G1 X132.536 Y167.565 E.01923
G1 X132.536 Y12.435 E7.78536
G1 X132.153 Y12.435 E.01923
G1 X132.153 Y167.565 E7.78536
G1 X131.77 Y167.565 E.01923
G1 X131.77 Y12.435 E7.78536
G1 X131.387 Y12.435 E.01923
G1 X131.387 Y167.565 E7.78536
G1 X131.003 Y167.565 E.01923
G1 X131.003 Y12.435 E7.78536
G1 X130.62 Y12.435 E.01923
G1 X130.62 Y167.565 E7.78536
G1 X130.237 Y167.565 E.01923
M73 P2 R404
G1 X130.237 Y12.435 E7.78536
G1 X129.854 Y12.435 E.01923
G1 X129.854 Y167.565 E7.78536
G1 X129.471 Y167.565 E.01923
G1 X129.471 Y12.435 E7.78536
G1 X129.087 Y12.435 E.01923
G1 X129.087 Y167.565 E7.78536
G1 X128.704 Y167.565 E.01923
G1 X128.704 Y12.435 E7.78536
G1 X128.321 Y12.435 E.01923
G1 X128.321 Y167.565 E7.78536
G1 X127.938 Y167.565 E.01923
G1 X127.938 Y12.435 E7.78536
G1 X127.555 Y12.435 E.01923
G1 X127.555 Y167.565 E7.78536
G1 X127.171 Y167.565 E.01923
G1 X127.171 Y12.435 E7.78536
G1 X126.788 Y12.435 E.01923
G1 X126.788 Y167.565 E7.78536
G1 X126.405 Y167.565 E.01923
G1 X126.405 Y12.435 E7.78536
G1 X126.022 Y12.435 E.01923
M73 P3 R404
G1 X126.022 Y167.565 E7.78536
G1 X125.639 Y167.565 E.01923
M73 P3 R403
G1 X125.639 Y12.435 E7.78536
G1 X125.255 Y12.435 E.01923
G1 X125.255 Y167.565 E7.78536
G1 X124.872 Y167.565 E.01923
G1 X124.872 Y12.435 E7.78536
G1 X124.489 Y12.435 E.01923
G1 X124.489 Y167.565 E7.78536
G1 X124.106 Y167.565 E.01923
G1 X124.106 Y12.435 E7.78536
G1 X123.722 Y12.435 E.01923
G1 X123.722 Y167.565 E7.78536
G1 X123.339 Y167.565 E.01923
G1 X123.339 Y12.435 E7.78536
G1 X122.956 Y12.435 E.01923
G1 X122.956 Y167.565 E7.78536
G1 X122.573 Y167.565 E.01923
G1 X122.573 Y12.435 E7.78536
G1 X122.19 Y12.435 E.01923
G1 X122.19 Y167.565 E7.78536
G1 X121.806 Y167.565 E.01923
G1 X121.806 Y12.435 E7.78536
G1 X121.423 Y12.435 E.01923
M73 P3 R402
G1 X121.423 Y167.565 E7.78536
G1 X121.04 Y167.565 E.01923
G1 X121.04 Y12.435 E7.78536
G1 X120.657 Y12.435 E.01923
G1 X120.657 Y167.565 E7.78536
G1 X120.274 Y167.565 E.01923
G1 X120.274 Y12.435 E7.78536
G1 X119.89 Y12.435 E.01923
G1 X119.89 Y167.565 E7.78536
G1 X119.507 Y167.565 E.01923
G1 X119.507 Y12.435 E7.78536
G1 X119.124 Y12.435 E.01923
G1 X119.124 Y167.565 E7.78536
G1 X118.741 Y167.565 E.01923
G1 X118.741 Y12.435 E7.78536
G1 X118.358 Y12.435 E.01923
G1 X118.358 Y167.565 E7.78536
G1 X117.974 Y167.565 E.01923
G1 X117.974 Y12.435 E7.78536
G1 X117.591 Y12.435 E.01923
G1 X117.591 Y167.565 E7.78536
G1 X117.208 Y167.565 E.01923
G1 X117.208 Y12.435 E7.78536
G1 X116.825 Y12.435 E.01923
M73 P3 R401
G1 X116.825 Y167.565 E7.78536
G1 X116.441 Y167.565 E.01923
G1 X116.441 Y12.435 E7.78536
G1 X116.058 Y12.435 E.01923
G1 X116.058 Y167.565 E7.78536
G1 X115.675 Y167.565 E.01923
G1 X115.675 Y12.435 E7.78536
G1 X115.292 Y12.435 E.01923
G1 X115.292 Y167.565 E7.78536
G1 X114.909 Y167.565 E.01923
G1 X114.909 Y12.435 E7.78536
G1 X114.525 Y12.435 E.01923
G1 X114.525 Y167.565 E7.78536
G1 X114.142 Y167.565 E.01923
G1 X114.142 Y12.435 E7.78536
G1 X113.759 Y12.435 E.01923
G1 X113.759 Y167.565 E7.78536
G1 X113.376 Y167.565 E.01923
G1 X113.376 Y12.435 E7.78536
G1 X112.993 Y12.435 E.01923
G1 X112.993 Y167.565 E7.78536
G1 X112.609 Y167.565 E.01923
M73 P3 R400
G1 X112.609 Y12.435 E7.78536
G1 X112.226 Y12.435 E.01923
G1 X112.226 Y167.565 E7.78536
G1 X111.843 Y167.565 E.01923
