; generated by PrusaSlicer 2.5.0+win64 on 2022-12-07 at 00:25:47 UTC

; 

; external perimeters extrusion width = 1.00mm
; perimeters extrusion width = 1.00mm
; infill extrusion width = 1.00mm
; solid infill extrusion width = 1.00mm
; top infill extrusion width = 1.00mm
; support material extrusion width = 1.00mm
; first layer extrusion width = 0.42mm

M73 P0 R363
M107
;TYPE:Custom
G90 ; use absolute coordinates
M83 ; extruder relative mode
M140 S60 ; set final bed temp
M104 S150 ; set temporary nozzle temp to prevent oozing during homing and auto bed leveling
G4 S10 ; allow partial nozzle warmup
G28 ; home all axisG1 Z50 F240
G1 X7.6 Y10 F3000
M104 S210 ; set final nozzle temp
M190 S60 ; wait for bed temp to stabilize
M109 S210 ; wait for nozzle temp to stabilize
G1 Z0.28 F240
G92 E0
G1 Y140 E10 F1500 ; prime the nozzle
G1 X4 F5000
G92 E0
G1 Y10 E10 F1200 ; prime the nozzle
G92 E0
G21 ; set units to millimeters
G90 ; use absolute coordinates
M83 ; use relative distances for extrusion
; Filament gcode
M107
;LAYER_CHANGE
;Z:0.35
;HEIGHT:0.35
;BEFORE_LAYER_CHANGE
G92 E0
;0.35


G1 E-1 F3600
G1 Z.35 F7800
;AFTER_LAYER_CHANGE
;0.35
G1 X171.268 Y164.483
G1 E1 F2400
;TYPE:Support material
;WIDTH:0.42
G1 F1800
G1 X161.403 Y164.483 E.49509
G1 X161.403 Y151.225 E.66536
G1 X171.268 Y151.225 E.49509
G1 X171.268 Y164.431 E.66276
G1 E-.7 F3600
;WIPE_START
G1 F6240
G1 X171.268 Y163.911 E-.285
;WIPE_END
G1 E-.015 F3600
G1 X165.212 Y162.692 F7800
G1 E1 F2400
G1 F1800
G1 X165.177 Y162.834 E.00734
G1 X164.804 Y163.135 E.02406
G1 X165.137 Y164.085 E.05054
G1 X166.323 Y164.085 E.05955
G1 X166.739 Y163.669 E.02952
G1 X166.739 Y162.883 E.03946
G1 X166.672 Y162.816 E.00474
G1 X166.739 Y162.495 E.01646
G1 X166.739 Y161.708 E.0395
G1 X165.489 Y161.557 E.06321
G1 X165.224 Y162.642 E.05601
G1 E-.7 F3600
;WIPE_START
G1 F6240
G1 X165.347 Y162.137 E-.285
;WIPE_END
G1 E-.015 F3600
G1 X170.857 Y164.328 F7800
G1 E1 F2400
G1 F1800
G1 X170.857 Y151.535 E.64199
G1 X170.474 Y151.535 E.01923
G1 X170.474 Y164.173 E.6342
G1 X170.091 Y164.173 E.01923
G1 X170.091 Y151.535 E.6342
G1 X169.708 Y151.535 E.01923
G1 X169.708 Y164.173 E.6342
G1 X169.324 Y164.173 E.01923
G1 X169.324 Y151.535 E.6342
G1 X168.941 Y151.535 E.01923
G1 X168.941 Y164.173 E.6342
G1 X168.558 Y164.173 E.01923
G1 X168.558 Y151.535 E.6342
G1 X168.175 Y151.535 E.01923
G1 X168.175 Y164.173 E.6342
G1 X167.792 Y164.173 E.01923
G1 X167.792 Y151.535 E.6342
G1 X167.408 Y151.535 E.01923
G1 X167.408 Y164.173 E.6342
G1 X167.025 Y164.173 E.01923
G1 X167.025 Y151.535 E.6342
G1 X166.642 Y151.535 E.01923
G1 X166.642 Y161.384 E.49424
G1 X166.259 Y161.337 E.01937
G1 X166.259 Y151.535 E.49192
G1 X165.876 Y151.535 E.01923
G1 X165.876 Y161.291 E.48961
G1 X165.492 Y161.245 E.01937
G1 X165.492 Y151.535 E.4873
G1 X165.109 Y151.535 E.01923
G1 X165.109 Y161.803 E.51528
G1 X164.9 Y162.659 E.04423
G1 X164.726 Y162.799 E.01123
G1 X164.726 Y151.535 E.56529
G1 X164.343 Y151.535 E.01923
G1 X164.343 Y164.173 E.6342
G1 X164.726 Y164.173 E.01923
G1 X164.726 Y163.382 E.03965
G1 X163.96 Y164.328 F7800
G1 F1800
G1 X163.96 Y151.535 E.64199
G1 X163.576 Y151.535 E.01923
G1 X163.576 Y164.173 E.6342
G1 X163.193 Y164.173 E.01923
G1 X163.193 Y151.535 E.6342
G1 X162.81 Y151.535 E.01923
G1 X162.81 Y164.173 E.6342
G1 X162.427 Y164.173 E.01923
G1 X162.427 Y151.535 E.6342
G1 X162.044 Y151.535 E.01923
G1 X162.044 Y164.328 E.64199
G1 E-.7 F3600
;WIPE_START
G1 F6240
G1 X162.044 Y163.808 E-.285
;WIPE_END
G1 E-.015 F3600
G1 X155.142 Y141.74 F7800
G1 E1 F2400
;TYPE:Perimeter
;WIDTH:0.42
G1 F1800
G1 X14.528 Y132.504 E7.07205
G1 X14.528 Y17.182 E5.78752
G1 X165.474 Y17.182 E7.57537
G1 X165.474 Y77.663 E3.0353
G1 X163.515 Y107.017 E1.47643
G1 X155.177 Y141.594 E1.78502
G1 X155.409 Y142.103 F7800
;TYPE:External perimeter
G1 F1800
G1 X14.183 Y132.827 E7.10284
G1 X14.183 Y16.837 E5.82103
M73 P0 R362
G1 X165.819 Y16.837 E7.60998
G1 X165.819 Y77.675 E3.05318
G1 X163.857 Y107.069 E1.47848
G1 X155.445 Y141.957 E1.80107
G1 X154.596 Y141.521 F7800
G1 E-.7 F3600
;WIPE_START
G1 F6240
G1 X154.926 Y141.924 E-.285
;WIPE_END
G1 E-.015 F3600
G1 X165.371 Y17.983 F7800
G1 E1 F2400
;TYPE:Solid infill
;WIDTH:0.420138
G1 F1800
G1 X164.828 Y17.441 E.0385
G1 X164.34 Y17.441 E.0245
G1 X165.216 Y18.316 E.06213
G1 X165.216 Y18.804 E.0245
G1 X163.853 Y17.441 E.09677
G1 X163.365 Y17.441 E.0245
G1 X165.216 Y19.291 E.13142
G1 X165.216 Y19.779 E.0245
G1 X162.877 Y17.441 E.16606
G1 X162.389 Y17.441 E.0245
G1 X165.216 Y20.267 E.20071
G1 X165.216 Y20.755 E.0245
G1 X161.901 Y17.441 E.23535
G1 X161.413 Y17.441 E.0245
G1 X165.216 Y21.243 E.27
G1 X165.216 Y21.731 E.0245
G1 X160.925 Y17.441 E.30464
G1 X160.437 Y17.441 E.0245
G1 X165.216 Y22.219 E.33929
G1 X165.216 Y22.707 E.0245
G1 X159.949 Y17.441 E.37393
G1 X159.461 Y17.441 E.0245
G1 X165.216 Y23.195 E.40858
G1 X165.216 Y23.683 E.0245
G1 X158.973 Y17.441 E.44322
G1 X158.485 Y17.441 E.0245
G1 X165.216 Y24.171 E.47787
G1 X165.216 Y24.659 E.0245
G1 X157.997 Y17.441 E.51251
G1 X157.509 Y17.441 E.0245
G1 X165.216 Y25.147 E.54716
G1 X165.216 Y25.635 E.0245
G1 X157.021 Y17.441 E.5818
G1 X156.533 Y17.441 E.0245
G1 X165.216 Y26.123 E.61645
G1 X165.216 Y26.611 E.0245
G1 X156.045 Y17.441 E.65109
G1 X155.558 Y17.441 E.0245
G1 X165.216 Y27.099 E.68574
G1 X165.216 Y27.586 E.0245
G1 X155.07 Y17.441 E.72038
G1 X154.582 Y17.441 E.0245
G1 X165.216 Y28.074 E.75503
G1 X165.216 Y28.562 E.0245
G1 X154.094 Y17.441 E.78967
G1 X153.606 Y17.441 E.0245
G1 X165.216 Y29.05 E.82432
G1 X165.216 Y29.538 E.0245
G1 X153.118 Y17.441 E.85896
G1 X152.63 Y17.441 E.0245
G1 X165.216 Y30.026 E.8936
G1 X165.216 Y30.514 E.0245
G1 X152.142 Y17.441 E.92825
G1 X151.654 Y17.441 E.0245
G1 X165.216 Y31.002 E.96289
G1 X165.216 Y31.49 E.0245
G1 X151.166 Y17.441 E.99754
G1 X150.678 Y17.441 E.0245
G1 X165.216 Y31.978 E1.03218
G1 X165.216 Y32.466 E.0245
G1 X150.19 Y17.441 E1.06683
G1 X149.702 Y17.441 E.0245
G1 X165.216 Y32.954 E1.10147
G1 X165.216 Y33.442 E.0245
G1 X149.214 Y17.441 E1.13612
G1 X148.726 Y17.441 E.0245
G1 X165.216 Y33.93 E1.17076
G1 X165.216 Y34.418 E.0245
G1 X148.238 Y17.441 E1.20541
G1 X147.75 Y17.441 E.0245
G1 X165.216 Y34.906 E1.24005
G1 X165.216 Y35.394 E.0245
G1 X147.263 Y17.441 E1.2747
G1 X146.775 Y17.441 E.0245
G1 X165.216 Y35.881 E1.30934
G1 X165.216 Y36.369 E.0245
G1 X146.287 Y17.441 E1.34399
G1 X145.799 Y17.441 E.0245
G1 X165.216 Y36.857 E1.37863
G1 X165.216 Y37.345 E.0245
G1 X145.311 Y17.441 E1.41328
G1 X144.823 Y17.441 E.0245
G1 X165.216 Y37.833 E1.44792
G1 X165.216 Y38.321 E.0245
G1 X144.335 Y17.441 E1.48257
G1 X143.847 Y17.441 E.0245
G1 X165.216 Y38.809 E1.51721
G1 X165.216 Y39.297 E.0245
G1 X143.359 Y17.441 E1.55186
G1 X142.871 Y17.441 E.0245
G1 X165.216 Y39.785 E1.5865
G1 X165.216 Y40.273 E.0245
G1 X142.383 Y17.441 E1.62115
G1 X141.895 Y17.441 E.0245
G1 X165.216 Y40.761 E1.65579
G1 X165.216 Y41.249 E.0245
G1 X141.407 Y17.441 E1.69044
G1 X140.919 Y17.441 E.0245
G1 X165.216 Y41.737 E1.72508
G1 X165.216 Y42.225 E.0245
G1 X140.431 Y17.441 E1.75973
G1 X139.943 Y17.441 E.0245
G1 X165.216 Y42.713 E1.79437
G1 X165.216 Y43.201 E.0245
G1 X139.455 Y17.441 E1.82901
G1 X138.967 Y17.441 E.0245
G1 X165.216 Y43.689 E1.86366
G1 X165.216 Y44.177 E.0245
G1 X138.48 Y17.441 E1.8983
G1 X137.992 Y17.441 E.0245
G1 X165.216 Y44.664 E1.93295
G1 X165.216 Y45.152 E.0245
G1 X137.504 Y17.441 E1.96759
G1 X137.016 Y17.441 E.0245
G1 X165.216 Y45.64 E2.00224
G1 X165.216 Y46.128 E.0245
G1 X136.528 Y17.441 E2.03688
G1 X136.04 Y17.441 E.0245
G1 X165.216 Y46.616 E2.07153
G1 X165.216 Y47.104 E.0245
M73 P0 R361
G1 X135.552 Y17.441 E2.10617
G1 X135.064 Y17.441 E.0245
G1 X165.216 Y47.592 E2.14082
G1 X165.216 Y48.08 E.0245
G1 X134.576 Y17.441 E2.17546
G1 X134.088 Y17.441 E.0245
G1 X165.216 Y48.568 E2.21011
G1 X165.216 Y49.056 E.0245
G1 X133.6 Y17.441 E2.24475
G1 X133.112 Y17.441 E.0245
G1 X165.216 Y49.544 E2.2794
G1 X165.216 Y50.032 E.0245
G1 X132.624 Y17.441 E2.31404
G1 X132.136 Y17.441 E.0245
G1 X165.216 Y50.52 E2.34869
G1 X165.216 Y51.008 E.0245
G1 X131.648 Y17.441 E2.38333
G1 X131.16 Y17.441 E.0245
G1 X165.216 Y51.496 E2.41798
G1 X165.216 Y51.984 E.0245
G1 X130.672 Y17.441 E2.45262
G1 X130.185 Y17.441 E.0245
G1 X165.216 Y52.472 E2.48727
G1 X165.216 Y52.959 E.0245
G1 X129.697 Y17.441 E2.52191
G1 X129.209 Y17.441 E.0245
G1 X165.216 Y53.447 E2.55656
G1 X165.216 Y53.935 E.0245
G1 X128.721 Y17.441 E2.5912
G1 X128.233 Y17.441 E.0245
G1 X165.216 Y54.423 E2.62585
G1 X165.216 Y54.911 E.0245
G1 X127.745 Y17.441 E2.66049
G1 X127.257 Y17.441 E.0245
G1 X165.216 Y55.399 E2.69514
G1 X165.216 Y55.887 E.0245
G1 X126.769 Y17.441 E2.72978
G1 X126.281 Y17.441 E.0245
G1 X165.216 Y56.375 E2.76442
G1 X165.216 Y56.863 E.0245
G1 X125.793 Y17.441 E2.79907
G1 X125.305 Y17.441 E.0245
G1 X165.216 Y57.351 E2.83371
G1 X165.216 Y57.839 E.0245
G1 X124.817 Y17.441 E2.86836
G1 X124.329 Y17.441 E.0245
G1 X165.216 Y58.327 E2.903
G1 X165.216 Y58.815 E.0245
G1 X123.841 Y17.441 E2.93765
G1 X123.353 Y17.441 E.0245
G1 X165.216 Y59.303 E2.97229
G1 X165.216 Y59.791 E.0245
G1 X122.865 Y17.441 E3.00694
G1 X122.377 Y17.441 E.0245
G1 X165.216 Y60.279 E3.04158
G1 X165.216 Y60.767 E.0245
G1 X121.89 Y17.441 E3.07623
G1 X121.402 Y17.441 E.0245
G1 X165.216 Y61.254 E3.11087
G1 X165.216 Y61.742 E.0245
G1 X120.914 Y17.441 E3.14552
G1 X120.426 Y17.441 E.0245
G1 X165.216 Y62.23 E3.18016
G1 X165.216 Y62.718 E.0245
G1 X119.938 Y17.441 E3.21481
G1 X119.45 Y17.441 E.0245
M73 P0 R360
G1 X165.216 Y63.206 E3.24945
G1 X165.216 Y63.694 E.0245
G1 X118.962 Y17.441 E3.2841
G1 X118.474 Y17.441 E.0245
G1 X165.216 Y64.182 E3.31874
G1 X165.216 Y64.67 E.0245
G1 X117.986 Y17.441 E3.35339
G1 X117.498 Y17.441 E.0245
G1 X165.216 Y65.158 E3.38803
G1 X165.216 Y65.646 E.0245
G1 X117.01 Y17.441 E3.42268
G1 X116.522 Y17.441 E.0245
G1 X165.216 Y66.134 E3.45732
G1 X165.216 Y66.622 E.0245
G1 X116.034 Y17.441 E3.49197
G1 X115.546 Y17.441 E.0245
G1 X165.216 Y67.11 E3.52661
G1 X165.216 Y67.598 E.0245
G1 X115.058 Y17.441 E3.56126
G1 X114.57 Y17.441 E.0245
G1 X165.216 Y68.086 E3.5959
G1 X165.216 Y68.574 E.0245
G1 X114.082 Y17.441 E3.63055
G1 X113.595 Y17.441 E.0245
G1 X165.216 Y69.062 E3.66519
G1 X165.216 Y69.549 E.0245
G1 X113.107 Y17.441 E3.69983
G1 X112.619 Y17.441 E.0245
G1 X165.216 Y70.037 E3.73448
G1 X165.216 Y70.525 E.0245
G1 X112.131 Y17.441 E3.76912
G1 X111.643 Y17.441 E.0245
G1 X165.216 Y71.013 E3.80377
G1 X165.216 Y71.501 E.0245
G1 X111.155 Y17.441 E3.83841
G1 X110.667 Y17.441 E.0245
G1 X165.216 Y71.989 E3.87306
G1 X165.216 Y72.477 E.0245
M73 P1 R360
G1 X110.179 Y17.441 E3.9077
G1 X109.691 Y17.441 E.0245
G1 X165.216 Y72.965 E3.94235
G1 X165.216 Y73.453 E.0245
G1 X109.203 Y17.441 E3.97699
G1 X108.715 Y17.441 E.0245
G1 X165.216 Y73.941 E4.01164
G1 X165.216 Y74.429 E.0245
G1 X108.227 Y17.441 E4.04628
G1 X107.739 Y17.441 E.0245
M73 P1 R359
G1 X165.216 Y74.917 E4.08093
G1 X165.216 Y75.405 E.0245
G1 X107.251 Y17.441 E4.11557
G1 X106.763 Y17.441 E.0245
G1 X165.216 Y75.893 E4.15022
G1 X165.216 Y76.381 E.0245
G1 X106.275 Y17.441 E4.18486
G1 X105.787 Y17.441 E.0245
G1 X165.216 Y76.869 E4.21951
G1 X165.216 Y77.357 E.0245
G1 X105.3 Y17.441 E4.25415
G1 X104.812 Y17.441 E.0245
G1 X165.204 Y77.833 E4.28795
G1 X165.173 Y78.29 E.02302
G1 X104.324 Y17.441 E4.32043
G1 X103.836 Y17.441 E.0245
G1 X165.143 Y78.747 E4.35291
G1 X165.112 Y79.205 E.02302
G1 X103.348 Y17.441 E4.38538
G1 X102.86 Y17.441 E.0245
G1 X165.082 Y79.662 E4.41786
G1 X165.051 Y80.12 E.02302
G1 X102.372 Y17.441 E4.45034
G1 X101.884 Y17.441 E.0245
G1 X165.02 Y80.577 E4.48282
G1 X164.99 Y81.035 E.02302
G1 X101.396 Y17.441 E4.51529
G1 X100.908 Y17.441 E.0245
G1 X164.959 Y81.492 E4.54777
G1 X164.929 Y81.949 E.02302
G1 X100.42 Y17.441 E4.58025
G1 X99.932 Y17.441 E.0245
G1 X164.898 Y82.407 E4.61273
G1 X164.868 Y82.864 E.02302
G1 X99.444 Y17.441 E4.6452
G1 X98.956 Y17.441 E.0245
G1 X164.837 Y83.322 E4.67768
G1 X164.807 Y83.779 E.02302
G1 X98.468 Y17.441 E4.71016
G1 X97.98 Y17.441 E.0245
M73 P1 R358
G1 X164.776 Y84.236 E4.74264
G1 X164.746 Y84.694 E.02302
G1 X97.492 Y17.441 E4.77511
G1 X97.004 Y17.441 E.0245
G1 X164.715 Y85.151 E4.80759
G1 X164.685 Y85.609 E.02302
G1 X96.517 Y17.441 E4.84007
G1 X96.029 Y17.441 E.0245
G1 X164.654 Y86.066 E4.87255
G1 X164.624 Y86.524 E.02302
G1 X95.541 Y17.441 E4.90502
G1 X95.053 Y17.441 E.0245
G1 X164.593 Y86.981 E4.9375
G1 X164.563 Y87.438 E.02302
G1 X94.565 Y17.441 E4.96998
G1 X94.077 Y17.441 E.0245
G1 X164.532 Y87.896 E5.00246
G1 X164.502 Y88.353 E.02302
G1 X93.589 Y17.441 E5.03493
G1 X93.101 Y17.441 E.0245
G1 X164.471 Y88.811 E5.06741
G1 X164.44 Y89.268 E.02302
G1 X92.613 Y17.441 E5.09989
G1 X92.125 Y17.441 E.0245
G1 X164.41 Y89.725 E5.13237
G1 X164.379 Y90.183 E.02302
G1 X91.637 Y17.441 E5.16484
G1 X91.149 Y17.441 E.0245
G1 X164.349 Y90.64 E5.19732
G1 X164.318 Y91.098 E.02302
G1 X90.661 Y17.441 E5.2298
G1 X90.173 Y17.441 E.0245
G1 X164.288 Y91.555 E5.26228
G1 X164.257 Y92.013 E.02302
G1 X89.685 Y17.441 E5.29475
G1 X89.197 Y17.441 E.0245
M73 P1 R357
G1 X164.227 Y92.47 E5.32723
G1 X164.196 Y92.927 E.02302
G1 X88.709 Y17.441 E5.35971
G1 X88.222 Y17.441 E.0245
G1 X164.166 Y93.385 E5.39219
G1 X164.135 Y93.842 E.02302
G1 X87.734 Y17.441 E5.42466
G1 X87.246 Y17.441 E.0245
G1 X164.105 Y94.3 E5.45714
G1 X164.074 Y94.757 E.02302
G1 X86.758 Y17.441 E5.48962
G1 X86.27 Y17.441 E.0245
G1 X164.044 Y95.214 E5.5221
G1 X164.013 Y95.672 E.02302
G1 X85.782 Y17.441 E5.55457
G1 X85.294 Y17.441 E.0245
G1 X163.983 Y96.129 E5.58705
G1 X163.952 Y96.587 E.02302
G1 X84.806 Y17.441 E5.61953
G1 X84.318 Y17.441 E.0245
G1 X163.922 Y97.044 E5.65201
G1 X163.891 Y97.502 E.02302
G1 X83.83 Y17.441 E5.68448
G1 X83.342 Y17.441 E.0245
G1 X163.861 Y97.959 E5.71696
G1 X163.83 Y98.416 E.02302
G1 X82.854 Y17.441 E5.74944
G1 X82.366 Y17.441 E.0245
G1 X163.799 Y98.874 E5.78192
G1 X163.769 Y99.331 E.02302
G1 X81.878 Y17.441 E5.81439
G1 X81.39 Y17.441 E.0245
M73 P1 R356
G1 X163.738 Y99.789 E5.84687
G1 X163.708 Y100.246 E.02302
G1 X80.902 Y17.441 E5.87935
G1 X80.414 Y17.441 E.0245
G1 X163.677 Y100.703 E5.91183
G1 X163.647 Y101.161 E.02302
G1 X79.927 Y17.441 E5.9443
G1 X79.439 Y17.441 E.0245
G1 X163.616 Y101.618 E5.97678
G1 X163.586 Y102.076 E.02302
G1 X78.951 Y17.441 E6.00926
G1 X78.463 Y17.441 E.0245
M73 P2 R356
G1 X163.555 Y102.533 E6.04174
G1 X163.525 Y102.991 E.02302
G1 X77.975 Y17.441 E6.07421
G1 X77.487 Y17.441 E.0245
G1 X163.494 Y103.448 E6.10669
G1 X163.464 Y103.905 E.02302
G1 X76.999 Y17.441 E6.13917
G1 X76.511 Y17.441 E.0245
G1 X163.433 Y104.363 E6.17165
G1 X163.403 Y104.82 E.02302
G1 X76.023 Y17.441 E6.20412
G1 X75.535 Y17.441 E.0245
G1 X163.372 Y105.278 E6.2366
G1 X163.342 Y105.735 E.02302
G1 X75.047 Y17.441 E6.26908
G1 X74.559 Y17.441 E.0245
G1 X163.311 Y106.192 E6.30156
G1 X163.281 Y106.65 E.02302
M73 P2 R355
G1 X74.071 Y17.441 E6.33403
G1 X73.583 Y17.441 E.0245
G1 X163.232 Y107.089 E6.36522
G1 X163.137 Y107.482 E.0203
G1 X73.095 Y17.441 E6.39313
G1 X72.607 Y17.441 E.0245
G1 X163.042 Y107.875 E6.42105
G1 X162.947 Y108.269 E.0203
G1 X72.119 Y17.441 E6.44896
G1 X71.632 Y17.441 E.0245
G1 X162.853 Y108.662 E6.47687
G1 X162.758 Y109.055 E.0203
G1 X71.144 Y17.441 E6.50479
G1 X70.656 Y17.441 E.0245
G1 X162.663 Y109.448 E6.5327
G1 X162.568 Y109.841 E.0203
G1 X70.168 Y17.441 E6.56061
G1 X69.68 Y17.441 E.0245
G1 X162.473 Y110.234 E6.58853
G1 X162.379 Y110.627 E.0203
G1 X69.192 Y17.441 E6.61644
G1 X68.704 Y17.441 E.0245
G1 X162.284 Y111.02 E6.64436
G1 X162.189 Y111.414 E.0203
G1 X68.216 Y17.441 E6.67227
G1 X67.728 Y17.441 E.0245
M73 P2 R354
G1 X162.094 Y111.807 E6.70018
G1 X161.999 Y112.2 E.0203
G1 X67.24 Y17.441 E6.7281
G1 X66.752 Y17.441 E.0245
G1 X161.905 Y112.593 E6.75601
G1 X161.81 Y112.986 E.0203
G1 X66.264 Y17.441 E6.78392
G1 X65.776 Y17.441 E.0245
G1 X161.715 Y113.379 E6.81184
G1 X161.62 Y113.772 E.0203
G1 X65.288 Y17.441 E6.83975
G1 X64.8 Y17.441 E.0245
G1 X161.525 Y114.166 E6.86766
G1 X161.431 Y114.559 E.0203
G1 X64.312 Y17.441 E6.89558
G1 X63.824 Y17.441 E.0245
G1 X161.336 Y114.952 E6.92349
G1 X161.241 Y115.345 E.0203
G1 X63.337 Y17.441 E6.95141
G1 X62.849 Y17.441 E.0245
G1 X161.146 Y115.738 E6.97932
G1 X161.051 Y116.131 E.0203
G1 X62.361 Y17.441 E7.00723
G1 X61.873 Y17.441 E.0245
