; generated by PrusaSlicer 2.5.0+win64 on 2022-12-07 at 00:25:45 UTC

; 

; external perimeters extrusion width = 1.00mm
; perimeters extrusion width = 1.00mm
; infill extrusion width = 1.00mm
; solid infill extrusion width = 1.00mm
; top infill extrusion width = 1.00mm
; support material extrusion width = 1.00mm
; first layer extrusion width = 0.42mm

M73 P0 R16
M107
;TYPE:Custom
G90 ; use absolute coordinates
M83 ; extruder relative mode
M140 S60 ; set final bed temp
M104 S150 ; set temporary nozzle temp to prevent oozing during homing and auto bed leveling
G4 S10 ; allow partial nozzle warmup
G28 ; home all axisG1 Z50 F240
G1 X7.6 Y10 F3000
M104 S210 ; set final nozzle temp
M190 S60 ; wait for bed temp to stabilize
M109 S210 ; wait for nozzle temp to stabilize
G1 Z0.28 F240
G92 E0
G1 Y140 E10 F1500 ; prime the nozzle
G1 X4 F5000
G92 E0
G1 Y10 E10 F1200 ; prime the nozzle
G92 E0
G21 ; set units to millimeters
G90 ; use absolute coordinates
M83 ; use relative distances for extrusion
; Filament gcode
M107
;LAYER_CHANGE
;Z:0.35
;HEIGHT:0.35
;BEFORE_LAYER_CHANGE
G92 E0
;0.35


G1 E-1 F3600
M73 P1 R16
G1 Z.35 F7800
;AFTER_LAYER_CHANGE
;0.35
G1 X100.873 Y141.783
G1 E1 F2400
;TYPE:Perimeter
;WIDTH:0.42
G1 F1800
G1 X79.69 Y140.392 E1.06539
G1 X83.616 Y37.952 E5.14485
G1 X100.873 Y37.952 E.86608
G1 X100.873 Y141.633 E5.20337
G1 X101.218 Y142.152 F7800
M73 P2 R16
G1 F1800
G1 X79.332 Y140.714 E1.10072
G1 X83.284 Y37.607 E5.17835
G1 X101.218 Y37.607 E.90005
G1 X101.218 Y142.002 E5.23916
G1 X101.563 Y142.52 F7800
M73 P3 R16
G1 F1800
G1 X78.975 Y141.037 E1.13605
G1 X82.952 Y37.262 E5.21186
G1 X101.563 Y37.262 E.93401
G1 X101.563 Y142.37 E5.27495
G1 X101.908 Y142.888 F7800
;TYPE:External perimeter
G1 F1800
G1 X78.617 Y141.359 E1.17137
G1 X82.62 Y36.917 E5.24536
G1 X101.908 Y36.917 E.96798
M73 P4 R16
G1 X101.908 Y142.738 E5.31074
G1 X101.034 Y142.402 F7800
G1 E-.7 F3600
;WIPE_START
G1 F6240
G1 X101.389 Y142.708 E-.285
;WIPE_END
G1 E-.015 F3600
G1 X100.77 Y38.754 F7800
G1 E1 F2400
;TYPE:Solid infill
;WIDTH:0.421037
G1 F1800
G1 X100.225 Y38.21 E.03874
G1 X99.736 Y38.21 E.02463
G1 X100.614 Y39.088 E.06252
G1 X100.614 Y39.578 E.02463
G1 X99.247 Y38.21 E.09734
G1 X98.758 Y38.21 E.02463
G1 X100.614 Y40.067 E.13217
G1 X100.614 Y40.556 E.02463
G1 X98.269 Y38.21 E.16699
G1 X97.779 Y38.21 E.02463
G1 X100.614 Y41.045 E.20182
G1 X100.614 Y41.534 E.02463
G1 X97.29 Y38.21 E.23665
G1 X96.801 Y38.21 E.02463
G1 X100.614 Y42.024 E.27147
G1 X100.614 Y42.513 E.02463
G1 X96.312 Y38.21 E.3063
G1 X95.823 Y38.21 E.02463
G1 X100.614 Y43.002 E.34112
G1 X100.614 Y43.491 E.02463
G1 X95.333 Y38.21 E.37595
G1 X94.844 Y38.21 E.02463
M73 P5 R16
G1 X100.614 Y43.981 E.41077
G1 X100.614 Y44.47 E.02463
G1 X94.355 Y38.21 E.4456
G1 X93.866 Y38.21 E.02463
G1 X100.614 Y44.959 E.48042
G1 X100.614 Y45.448 E.02463
G1 X93.376 Y38.21 E.51525
G1 X92.887 Y38.21 E.02463
G1 X100.614 Y45.937 E.55008
G1 X100.614 Y46.427 E.02463
G1 X92.398 Y38.21 E.5849
G1 X91.909 Y38.21 E.02463
G1 X100.614 Y46.916 E.61973
G1 X100.614 Y47.405 E.02463
G1 X91.42 Y38.21 E.65455
G1 X90.93 Y38.21 E.02463
G1 X100.614 Y47.894 E.68938
G1 X100.614 Y48.383 E.02463
G1 X90.441 Y38.21 E.7242
G1 X89.952 Y38.21 E.02463
G1 X100.614 Y48.873 E.75903
G1 X100.614 Y49.362 E.02463
G1 X89.463 Y38.21 E.79385
G1 X88.974 Y38.21 E.02463
G1 X100.614 Y49.851 E.82868
G1 X100.614 Y50.34 E.02463
G1 X88.484 Y38.21 E.86351
G1 X87.995 Y38.21 E.02463
G1 X100.614 Y50.829 E.89833
G1 X100.614 Y51.319 E.02463
G1 X87.506 Y38.21 E.93316
G1 X87.017 Y38.21 E.02463
G1 X100.614 Y51.808 E.96798
G1 X100.614 Y52.297 E.02463
M73 P5 R15
G1 X86.527 Y38.21 E1.00281
G1 X86.038 Y38.21 E.02463
G1 X100.614 Y52.786 E1.03763
G1 X100.614 Y53.276 E.02463
M73 P6 R15
G1 X85.549 Y38.21 E1.07246
G1 X85.06 Y38.21 E.02463
G1 X100.614 Y53.765 E1.10729
G1 X100.614 Y54.254 E.02463
G1 X84.571 Y38.21 E1.14211
G1 X84.081 Y38.21 E.02463
G1 X100.614 Y54.743 E1.17694
G1 X100.614 Y55.232 E.02463
G1 X83.855 Y38.473 E1.19309
G1 X83.836 Y38.944 E.02373
G1 X100.614 Y55.722 E1.19437
G1 X100.614 Y56.211 E.02463
G1 X83.818 Y39.415 E1.19566
G1 X83.8 Y39.886 E.02373
G1 X100.614 Y56.7 E1.19694
G1 X100.614 Y57.189 E.02463
G1 X83.782 Y40.357 E1.19823
G1 X83.764 Y40.828 E.02373
G1 X100.614 Y57.678 E1.19951
G1 X100.614 Y58.168 E.02463
G1 X83.746 Y41.299 E1.2008
G1 X83.728 Y41.771 E.02373
G1 X100.614 Y58.657 E1.20208
G1 X100.614 Y59.146 E.02463
M73 P7 R15
G1 X83.71 Y42.242 E1.20337
G1 X83.692 Y42.713 E.02373
G1 X100.614 Y59.635 E1.20465
G1 X100.614 Y60.125 E.02463
G1 X83.674 Y43.184 E1.20594
G1 X83.656 Y43.655 E.02373
G1 X100.614 Y60.614 E1.20723
G1 X100.614 Y61.103 E.02463
G1 X83.638 Y44.126 E1.20851
G1 X83.62 Y44.598 E.02373
G1 X100.614 Y61.592 E1.2098
G1 X100.614 Y62.081 E.02463
G1 X83.602 Y45.069 E1.21108
G1 X83.584 Y45.54 E.02373
G1 X100.614 Y62.571 E1.21237
G1 X100.614 Y63.06 E.02463
G1 X83.566 Y46.011 E1.21365
G1 X83.548 Y46.482 E.02373
G1 X100.614 Y63.549 E1.21494
G1 X100.614 Y64.038 E.02463
G1 X83.53 Y46.953 E1.21622
G1 X83.511 Y47.424 E.02373
G1 X100.614 Y64.527 E1.21751
G1 X100.614 Y65.017 E.02463
M73 P8 R15
G1 X83.493 Y47.896 E1.21879
G1 X83.475 Y48.367 E.02373
G1 X100.614 Y65.506 E1.22008
G1 X100.614 Y65.995 E.02463
G1 X83.457 Y48.838 E1.22136
G1 X83.439 Y49.309 E.02373
G1 X100.614 Y66.484 E1.22265
G1 X100.614 Y66.974 E.02463
G1 X83.421 Y49.78 E1.22394
G1 X83.403 Y50.251 E.02373
G1 X100.614 Y67.463 E1.22522
G1 X100.614 Y67.952 E.02463
G1 X83.385 Y50.723 E1.22651
G1 X83.367 Y51.194 E.02373
G1 X100.614 Y68.441 E1.22779
G1 X100.614 Y68.93 E.02463
G1 X83.349 Y51.665 E1.22908
G1 X83.331 Y52.136 E.02373
G1 X100.614 Y69.42 E1.23036
G1 X100.614 Y69.909 E.02463
G1 X83.313 Y52.607 E1.23165
G1 X83.295 Y53.078 E.02373
G1 X100.614 Y70.398 E1.23293
G1 X100.614 Y70.887 E.02463
M73 P9 R15
G1 X83.277 Y53.55 E1.23422
G1 X83.259 Y54.021 E.02373
G1 X100.614 Y71.376 E1.2355
G1 X100.614 Y71.866 E.02463
G1 X83.241 Y54.492 E1.23679
G1 X83.223 Y54.963 E.02373
G1 X100.614 Y72.355 E1.23807
G1 X100.614 Y72.844 E.02463
G1 X83.204 Y55.434 E1.23936
G1 X83.186 Y55.905 E.02373
G1 X100.614 Y73.333 E1.24065
G1 X100.614 Y73.823 E.02463
G1 X83.168 Y56.376 E1.24193
G1 X83.15 Y56.848 E.02373
G1 X100.614 Y74.312 E1.24322
G1 X100.614 Y74.801 E.02463
G1 X83.132 Y57.319 E1.2445
G1 X83.114 Y57.79 E.02373
G1 X100.614 Y75.29 E1.24579
G1 X100.614 Y75.779 E.02463
G1 X83.096 Y58.261 E1.24707
G1 X83.078 Y58.732 E.02373
M73 P10 R15
G1 X100.614 Y76.269 E1.24836
G1 X100.614 Y76.758 E.02463
G1 X83.06 Y59.203 E1.24964
G1 X83.042 Y59.675 E.02373
G1 X100.614 Y77.247 E1.25093
G1 X100.614 Y77.736 E.02463
G1 X83.024 Y60.146 E1.25221
G1 X83.006 Y60.617 E.02373
G1 X100.614 Y78.225 E1.2535
G1 X100.614 Y78.715 E.02463
G1 X82.988 Y61.088 E1.25478
G1 X82.97 Y61.559 E.02373
G1 X100.614 Y79.204 E1.25607
G1 X100.614 Y79.693 E.02463
G1 X82.952 Y62.03 E1.25736
G1 X82.934 Y62.501 E.02373
G1 X100.614 Y80.182 E1.25864
G1 X100.614 Y80.671 E.02463
G1 X82.916 Y62.973 E1.25993
G1 X82.898 Y63.444 E.02373
G1 X100.614 Y81.161 E1.26121
G1 X100.614 Y81.65 E.02463
G1 X82.879 Y63.915 E1.2625
G1 X82.861 Y64.386 E.02373
M73 P11 R15
G1 X100.614 Y82.139 E1.26378
G1 X100.614 Y82.628 E.02463
G1 X82.843 Y64.857 E1.26507
G1 X82.825 Y65.328 E.02373
G1 X100.614 Y83.118 E1.26635
G1 X100.614 Y83.607 E.02463
G1 X82.807 Y65.8 E1.26764
G1 X82.789 Y66.271 E.02373
G1 X100.614 Y84.096 E1.26892
G1 X100.614 Y84.585 E.02463
G1 X82.771 Y66.742 E1.27021
G1 X82.753 Y67.213 E.02373
G1 X100.614 Y85.074 E1.27149
G1 X100.614 Y85.564 E.02463
G1 X82.735 Y67.684 E1.27278
G1 X82.717 Y68.155 E.02373
M73 P11 R14
G1 X100.614 Y86.053 E1.27407
G1 X100.614 Y86.542 E.02463
G1 X82.699 Y68.627 E1.27535
G1 X82.681 Y69.098 E.02373
G1 X100.614 Y87.031 E1.27664
G1 X100.614 Y87.52 E.02463
M73 P12 R14
G1 X82.663 Y69.569 E1.27792
G1 X82.645 Y70.04 E.02373
G1 X100.614 Y88.01 E1.27921
G1 X100.614 Y88.499 E.02463
G1 X82.627 Y70.511 E1.28049
G1 X82.609 Y70.982 E.02373
G1 X100.614 Y88.988 E1.28178
G1 X100.614 Y89.477 E.02463
G1 X82.591 Y71.453 E1.28306
G1 X82.573 Y71.925 E.02373
G1 X100.614 Y89.967 E1.28435
G1 X100.614 Y90.456 E.02463
G1 X82.554 Y72.396 E1.28563
G1 X82.536 Y72.867 E.02373
G1 X100.614 Y90.945 E1.28692
G1 X100.614 Y91.434 E.02463
G1 X82.518 Y73.338 E1.2882
G1 X82.5 Y73.809 E.02373
G1 X100.614 Y91.923 E1.28949
G1 X100.614 Y92.413 E.02463
G1 X82.482 Y74.28 E1.29078
G1 X82.464 Y74.752 E.02373
M73 P13 R14
G1 X100.614 Y92.902 E1.29206
G1 X100.614 Y93.391 E.02463
G1 X82.446 Y75.223 E1.29335
G1 X82.428 Y75.694 E.02373
G1 X100.614 Y93.88 E1.29463
G1 X100.614 Y94.369 E.02463
G1 X82.41 Y76.165 E1.29592
G1 X82.392 Y76.636 E.02373
G1 X100.614 Y94.859 E1.2972
G1 X100.614 Y95.348 E.02463
G1 X82.374 Y77.107 E1.29849
G1 X82.356 Y77.579 E.02373
G1 X100.614 Y95.837 E1.29977
G1 X100.614 Y96.326 E.02463
G1 X82.338 Y78.05 E1.30106
G1 X82.32 Y78.521 E.02373
G1 X100.614 Y96.816 E1.30234
G1 X100.614 Y97.305 E.02463
G1 X82.302 Y78.992 E1.30363
G1 X82.284 Y79.463 E.02373
G1 X100.614 Y97.794 E1.30491
G1 X100.614 Y98.283 E.02463
M73 P14 R14
G1 X82.266 Y79.934 E1.3062
G1 X82.247 Y80.405 E.02373
G1 X100.614 Y98.772 E1.30749
G1 X100.614 Y99.262 E.02463
G1 X82.229 Y80.877 E1.30877
G1 X82.211 Y81.348 E.02373
G1 X100.614 Y99.751 E1.31006
G1 X100.614 Y100.24 E.02463
G1 X82.193 Y81.819 E1.31134
G1 X82.175 Y82.29 E.02373
G1 X100.614 Y100.729 E1.31263
G1 X100.614 Y101.218 E.02463
G1 X82.157 Y82.761 E1.31391
G1 X82.139 Y83.232 E.02373
G1 X100.614 Y101.708 E1.3152
G1 X100.614 Y102.197 E.02463
G1 X82.121 Y83.704 E1.31648
G1 X82.103 Y84.175 E.02373
G1 X100.614 Y102.686 E1.31777
G1 X100.614 Y103.175 E.02463
G1 X82.085 Y84.646 E1.31905
G1 X82.067 Y85.117 E.02373
M73 P15 R14
G1 X100.614 Y103.665 E1.32034
G1 X100.614 Y104.154 E.02463
G1 X82.049 Y85.588 E1.32162
G1 X82.031 Y86.059 E.02373
G1 X100.614 Y104.643 E1.32291
G1 X100.614 Y105.132 E.02463
G1 X82.013 Y86.53 E1.3242
G1 X81.995 Y87.002 E.02373
G1 X100.614 Y105.621 E1.32548
G1 X100.614 Y106.111 E.02463
G1 X81.977 Y87.473 E1.32677
G1 X81.959 Y87.944 E.02373
G1 X100.614 Y106.6 E1.32805
G1 X100.614 Y107.089 E.02463
G1 X81.941 Y88.415 E1.32934
G1 X81.922 Y88.886 E.02373
G1 X100.614 Y107.578 E1.33062
G1 X100.614 Y108.067 E.02463
G1 X81.904 Y89.357 E1.33191
G1 X81.886 Y89.829 E.02373
G1 X100.614 Y108.557 E1.33319
G1 X100.614 Y109.046 E.02463
M73 P16 R14
G1 X81.868 Y90.3 E1.33448
G1 X81.85 Y90.771 E.02373
G1 X100.614 Y109.535 E1.33576
G1 X100.614 Y110.024 E.02463
G1 X81.832 Y91.242 E1.33705
G1 X81.814 Y91.713 E.02373
G1 X100.614 Y110.514 E1.33833
G1 X100.614 Y111.003 E.02463
G1 X81.796 Y92.184 E1.33962
G1 X81.778 Y92.656 E.02373
G1 X100.614 Y111.492 E1.34091
G1 X100.614 Y111.981 E.02463
G1 X81.76 Y93.127 E1.34219
G1 X81.742 Y93.598 E.02373
G1 X100.614 Y112.47 E1.34348
G1 X100.614 Y112.96 E.02463
G1 X81.724 Y94.069 E1.34476
G1 X81.706 Y94.54 E.02373
G1 X100.614 Y113.449 E1.34605
G1 X100.614 Y113.938 E.02463
G1 X81.688 Y95.011 E1.34733
G1 X81.67 Y95.482 E.02373
M73 P17 R14
G1 X100.614 Y114.427 E1.34862
G1 X100.614 Y114.916 E.02463
G1 X81.652 Y95.954 E1.3499
G1 X81.634 Y96.425 E.02373
G1 X100.614 Y115.406 E1.35119
G1 X100.614 Y115.895 E.02463
G1 X81.616 Y96.896 E1.35247
G1 X81.597 Y97.367 E.02373
G1 X100.614 Y116.384 E1.35376
G1 X100.614 Y116.873 E.02463
G1 X81.579 Y97.838 E1.35504
G1 X81.561 Y98.309 E.02373
M73 P17 R13
G1 X100.614 Y117.362 E1.35633
G1 X100.614 Y117.852 E.02463
G1 X81.543 Y98.781 E1.35762
G1 X81.525 Y99.252 E.02373
G1 X100.614 Y118.341 E1.3589
G1 X100.614 Y118.83 E.02463
G1 X81.507 Y99.723 E1.36019
G1 X81.489 Y100.194 E.02373
M73 P18 R13
G1 X100.614 Y119.319 E1.36147
G1 X100.614 Y119.809 E.02463
G1 X81.471 Y100.665 E1.36276
G1 X81.453 Y101.136 E.02373
G1 X100.614 Y120.298 E1.36404
G1 X100.614 Y120.787 E.02463
G1 X81.435 Y101.608 E1.36533
G1 X81.417 Y102.079 E.02373
G1 X100.614 Y121.276 E1.36661
G1 X100.614 Y121.765 E.02463
G1 X81.399 Y102.55 E1.3679
G1 X81.381 Y103.021 E.02373
G1 X100.614 Y122.255 E1.36918
G1 X100.614 Y122.744 E.02463
G1 X81.363 Y103.492 E1.37047
G1 X81.345 Y103.963 E.02373
G1 X100.614 Y123.233 E1.37175
G1 X100.614 Y123.722 E.02463
G1 X81.327 Y104.434 E1.37304
G1 X81.309 Y104.906 E.02373
G1 X100.614 Y124.211 E1.37433
G1 X100.614 Y124.701 E.02463
M73 P19 R13
G1 X81.291 Y105.377 E1.37561
G1 X81.272 Y105.848 E.02373
G1 X100.614 Y125.19 E1.3769
G1 X100.614 Y125.679 E.02463
G1 X81.254 Y106.319 E1.37818
G1 X81.236 Y106.79 E.02373
G1 X100.614 Y126.168 E1.37947
G1 X100.614 Y126.658 E.02463
G1 X81.218 Y107.261 E1.38075
G1 X81.2 Y107.733 E.02373
G1 X100.614 Y127.147 E1.38204
G1 X100.614 Y127.636 E.02463
G1 X81.182 Y108.204 E1.38332
G1 X81.164 Y108.675 E.02373
G1 X100.614 Y128.125 E1.38461
G1 X100.614 Y128.614 E.02463
G1 X81.146 Y109.146 E1.38589
G1 X81.128 Y109.617 E.02373
G1 X100.614 Y129.104 E1.38718
G1 X100.614 Y129.593 E.02463
M73 P20 R13
G1 X81.11 Y110.088 E1.38846
G1 X81.092 Y110.559 E.02373
G1 X100.614 Y130.082 E1.38975
G1 X100.614 Y130.571 E.02463
G1 X81.074 Y111.031 E1.39104
G1 X81.056 Y111.502 E.02373
G1 X100.614 Y131.06 E1.39232
G1 X100.614 Y131.55 E.02463
G1 X81.038 Y111.973 E1.39361
G1 X81.02 Y112.444 E.02373
G1 X100.614 Y132.039 E1.39489
G1 X100.614 Y132.528 E.02463
G1 X81.002 Y112.915 E1.39618
G1 X80.984 Y113.386 E.02373
G1 X100.614 Y133.017 E1.39746
G1 X100.614 Y133.507 E.02463
G1 X80.965 Y113.858 E1.39875
G1 X80.947 Y114.329 E.02373
G1 X100.614 Y133.996 E1.40003
G1 X100.614 Y134.485 E.02463
G1 X80.929 Y114.8 E1.40132
G1 X80.911 Y115.271 E.02373
M73 P21 R13
G1 X100.614 Y134.974 E1.4026
G1 X100.614 Y135.463 E.02463
G1 X80.893 Y115.742 E1.40389
G1 X80.875 Y116.213 E.02373
G1 X100.614 Y135.953 E1.40517
G1 X100.614 Y136.442 E.02463
G1 X80.857 Y116.685 E1.40646
G1 X80.839 Y117.156 E.02373
G1 X100.614 Y136.931 E1.40775
G1 X100.614 Y137.42 E.02463
G1 X80.821 Y117.627 E1.40903
G1 X80.803 Y118.098 E.02373
G1 X100.614 Y137.909 E1.41032
G1 X100.614 Y138.399 E.02463
G1 X80.785 Y118.569 E1.4116
G1 X80.767 Y119.04 E.02373
G1 X100.614 Y138.888 E1.41289
G1 X100.614 Y139.377 E.02463
G1 X80.749 Y119.511 E1.41417
G1 X80.731 Y119.983 E.02373
M73 P22 R13
G1 X100.614 Y139.866 E1.41546
G1 X100.614 Y140.356 E.02463
G1 X80.713 Y120.454 E1.41674
G1 X80.695 Y120.925 E.02373
G1 X100.614 Y140.845 E1.41803
G1 X100.614 Y141.334 E.02463
G1 X80.677 Y121.396 E1.41931
G1 X80.659 Y121.867 E.02373
G1 X100.276 Y141.485 E1.39653
G1 X99.753 Y141.451 E.02641
G1 X80.64 Y122.338 E1.36054
G1 X80.622 Y122.81 E.02373
G1 X99.229 Y141.416 E1.32455
G1 X98.706 Y141.382 E.02641
G1 X80.604 Y123.281 E1.28857
G1 X80.586 Y123.752 E.02373
G1 X98.182 Y141.347 E1.25258
G1 X97.658 Y141.313 E.02641
G1 X80.568 Y124.223 E1.21659
G1 X80.55 Y124.694 E.02373
G1 X97.135 Y141.279 E1.1806
M73 P23 R13
G1 X96.611 Y141.244 E.02641
G1 X80.532 Y125.165 E1.14461
G1 X80.514 Y125.637 E.02373
G1 X96.088 Y141.21 E1.10863
G1 X95.564 Y141.176 E.02641
G1 X80.496 Y126.108 E1.07264
G1 X80.478 Y126.579 E.02373
G1 X95.04 Y141.141 E1.03665
G1 X94.517 Y141.107 E.02641
G1 X80.46 Y127.05 E1.00066
G1 X80.442 Y127.521 E.02373
G1 X93.993 Y141.072 E.96467
G1 X93.47 Y141.038 E.02641
M73 P23 R12
G1 X80.424 Y127.992 E.92869
G1 X80.406 Y128.463 E.02373
G1 X92.946 Y141.004 E.8927
G1 X92.422 Y140.969 E.02641
G1 X80.388 Y128.935 E.85671
G1 X80.37 Y129.406 E.02373
G1 X91.899 Y140.935 E.82072
G1 X91.375 Y140.9 E.02641
G1 X80.352 Y129.877 E.78473
G1 X80.334 Y130.348 E.02373
G1 X90.852 Y140.866 E.74875
G1 X90.328 Y140.832 E.02641
G1 X80.315 Y130.819 E.71276
G1 X80.297 Y131.29 E.02373
G1 X89.804 Y140.797 E.67677
G1 X89.281 Y140.763 E.02641
G1 X80.279 Y131.762 E.64078
G1 X80.261 Y132.233 E.02373
M73 P24 R12
G1 X88.757 Y140.729 E.60479
G1 X88.234 Y140.694 E.02641
G1 X80.243 Y132.704 E.56881
G1 X80.225 Y133.175 E.02373
G1 X87.71 Y140.66 E.53282
G1 X87.186 Y140.625 E.02641
G1 X80.207 Y133.646 E.49683
G1 X80.189 Y134.117 E.02373
G1 X86.663 Y140.591 E.46084
G1 X86.139 Y140.557 E.02641
G1 X80.171 Y134.588 E.42485
G1 X80.153 Y135.06 E.02373
G1 X85.616 Y140.522 E.38887
G1 X85.092 Y140.488 E.02641
G1 X80.135 Y135.531 E.35288
G1 X80.117 Y136.002 E.02373
G1 X84.568 Y140.453 E.31689
G1 X84.045 Y140.419 E.02641
G1 X80.099 Y136.473 E.2809
G1 X80.081 Y136.944 E.02373
G1 X83.521 Y140.385 E.24491
G1 X82.998 Y140.35 E.02641
G1 X80.063 Y137.415 E.20893
