; generated by PrusaSlicer 2.5.0+win64 on 2022-12-07 at 00:14:55 UTC

; 

; external perimeters extrusion width = 1.00mm
; perimeters extrusion width = 1.00mm
; infill extrusion width = 1.00mm
; solid infill extrusion width = 1.00mm
; top infill extrusion width = 1.00mm
; support material extrusion width = 1.00mm
; first layer extrusion width = 0.42mm

M73 P0 R423
M107
;TYPE:Custom
G90 ; use absolute coordinates
M83 ; extruder relative mode
M140 S60 ; set final bed temp
M104 S150 ; set temporary nozzle temp to prevent oozing during homing and auto bed leveling
G4 S10 ; allow partial nozzle warmup
G28 ; home all axisG1 Z50 F240
G1 X7.6 Y10 F3000
M104 S210 ; set final nozzle temp
M190 S60 ; wait for bed temp to stabilize
M109 S210 ; wait for nozzle temp to stabilize
G1 Z0.28 F240
G92 E0
G1 Y140 E10 F1500 ; prime the nozzle
G1 X4 F5000
G92 E0
M73 P0 R422
G1 Y10 E10 F1200 ; prime the nozzle
G92 E0
G21 ; set units to millimeters
G90 ; use absolute coordinates
M83 ; use relative distances for extrusion
; Filament gcode
M107
;LAYER_CHANGE
;Z:0.35
;HEIGHT:0.35
;BEFORE_LAYER_CHANGE
G92 E0
;0.35


G1 E-1 F3600
G1 Z.35 F7800
;AFTER_LAYER_CHANGE
;0.35
G1 X66.343 Y22.548
G1 E1 F2400
;TYPE:Support material interface
;WIDTH:1
G1 F1800
G1 X66.343 Y15.361 E.96727
G1 X67.235 Y15.361 E.12014
G1 X67.235 Y22.146 E.91321
G1 X68.128 Y22.146 E.12014
G1 X68.128 Y15.361 E.91321
G1 X69.021 Y15.361 E.12014
G1 X69.021 Y22.146 E.91321
G1 X69.643 Y22.146 E.08375
G1 X69.643 Y32.324 E1.36981
G1 X69.913 Y32.324 E.0364
G1 X69.913 Y15.361 E2.28301
G1 X70.806 Y15.361 E.12014
G1 X70.806 Y32.324 E2.28301
G1 X71.699 Y32.324 E.12014
G1 X71.699 Y15.361 E2.28301
G1 X72.592 Y15.361 E.12014
G1 X72.592 Y32.324 E2.28301
G1 X73.036 Y32.324 E.05978
G1 X73.036 Y42.502 E1.3698
G1 X73.484 Y42.502 E.06037
G1 X73.484 Y15.361 E3.65282
G1 X74.377 Y15.361 E.12014
G1 X74.377 Y42.502 E3.65282
G1 X75.27 Y42.502 E.12014
G1 X75.27 Y15.361 E3.65282
G1 X76.162 Y15.361 E.12014
G1 X76.162 Y42.502 E3.65282
G1 X76.428 Y42.502 E.03581
G1 X76.428 Y49.288 E.9132
G1 X77.055 Y49.288 E.08434
G1 X77.055 Y15.361 E4.56602
G1 X77.948 Y15.361 E.12014
G1 X77.948 Y49.288 E4.56602
G1 X78.84 Y49.288 E.12014
G1 X78.84 Y15.361 E4.56602
G1 X79.733 Y15.361 E.12014
G1 X79.733 Y59.867 E5.98989
G1 E-.7 F3600
;WIPE_START
G1 F6240
G1 X79.733 Y59.347 E-.285
;WIPE_END
G1 E-.015 F3600
G1 X82.411 Y59.867 F7800
G1 E1 F2400
G1 F1800
G1 X82.411 Y39.109 E2.79368
G1 X81.519 Y39.109 E.12014
G1 X81.519 Y59.466 E2.73961
G1 X80.626 Y59.466 E.12014
G1 X80.626 Y39.109 E2.73961
G1 X79.821 Y39.109 E.1083
G1 X79.821 Y35.717 E.4566
G1 X80.626 Y35.717 E.1083
G1 X80.626 Y15.361 E2.73961
G1 X81.519 Y15.361 E.12014
G1 X81.519 Y35.717 E2.73961
G1 X82.411 Y35.717 E.12014
G1 X82.411 Y14.959 E2.79368
G1 E-.7 F3600
;WIPE_START
G1 F6240
G1 X82.411 Y15.479 E-.285
;WIPE_END
G1 E-.015 F3600
G1 X84.197 Y22.548 F7800
G1 E1 F2400
G1 F1800
G1 X84.197 Y18.401 E.5581
G1 X85.089 Y20.753 E.33858
G1 X85.089 Y22.548 E.24155
G1 E-.7 F3600
;WIPE_START
G1 F6240
G1 X85.089 Y22.028 E-.285
;WIPE_END
G1 E-.015 F3600
G1 X93.124 Y16.08 F7800
G1 E1 F2400
G1 F1800
G1 X93.124 Y15.361 E.09683
G1 X92.231 Y15.361 E.12014
G1 X92.231 Y15.678 E.04276
G1 X91.338 Y15.678 E.12014
G1 X91.338 Y15.361 E.04276
G1 X90.446 Y15.361 E.12014
G1 X90.446 Y15.678 E.04276
G1 X89.553 Y15.678 E.12014
G1 X89.553 Y15.361 E.04276
G1 X88.66 Y15.361 E.12014
G1 X88.66 Y15.678 E.04276
G1 X87.767 Y15.678 E.12014
G1 X87.767 Y15.361 E.04276
G1 X86.875 Y15.361 E.12014
G1 X86.875 Y15.678 E.04276
G1 X85.982 Y15.678 E.12014
G1 X85.982 Y15.361 E.04276
G1 X85.089 Y15.361 E.12014
G1 X85.089 Y15.678 E.04276
G1 X84.5 Y15.678 E.07931
G1 X84.197 Y16.118 E.0719
G1 X84.197 Y15.361 E.10194
G1 X83.304 Y15.361 E.12014
G1 X83.304 Y69.644 E7.30563
G1 X84.197 Y69.644 E.12014
G1 X84.197 Y25.539 E5.93582
G1 X85.089 Y25.539 E.12014
G1 X85.089 Y69.644 E5.93582
G1 X85.982 Y69.644 E.12014
G1 X85.982 Y25.539 E5.93582
G1 X86.607 Y25.539 E.08404
G1 X86.607 Y24.75 E.10611
G1 X86.875 Y25.457 E.10173
G1 X86.875 Y76.429 E6.86002
G1 X87.767 Y76.429 E.12014
G1 X87.767 Y27.809 E6.54348
G1 X88.66 Y30.161 E.33858
G1 X88.66 Y76.429 E6.22694
G1 X89.553 Y76.429 E.12014
G1 X89.553 Y32.513 E5.91039
G1 X90.446 Y34.865 E.33858
G1 X90.446 Y62.858 E3.76744
G1 X91.338 Y62.858 E.12014
G1 X91.338 Y37.217 E3.4509
G1 X92.231 Y39.569 E.33858
G1 X92.231 Y63.26 E3.18842
G1 E-.7 F3600
;WIPE_START
G1 F6240
G1 X92.231 Y62.74 E-.285
;WIPE_END
G1 E-.015 F3600
G1 X90.446 Y65.849 F7800
G1 E1 F2400
G1 F1800
G1 X90.446 Y86.607 E2.79368
G1 X91.338 Y86.607 E.12014
G1 X91.338 Y66.251 E2.73961
G1 X92.231 Y66.251 E.12014
G1 X92.231 Y87.009 E2.79368
G1 E-.7 F3600
;WIPE_START
G1 F6240
G1 X92.231 Y86.489 E-.285
;WIPE_END
G1 E-.015 F3600
G1 X104.729 Y79.42 F7800
G1 E1 F2400
G1 F1800
G1 X104.729 Y120.534 E5.53328
G1 X105.621 Y120.534 E.12014
G1 X105.621 Y79.822 E5.47922
G1 X106.514 Y79.822 E.12014
G1 X106.514 Y120.936 E5.53328
G1 E-.7 F3600
;WIPE_START
G1 F6240
G1 X106.514 Y120.416 E-.285
;WIPE_END
G1 E-.015 F3600
G1 X103.836 Y120.936 F7800
G1 E1 F2400
G1 F1800
G1 X103.836 Y70.145 E6.83557
G1 X102.943 Y67.793 E.33858
G1 X102.943 Y113.749 E6.18485
G1 X102.051 Y113.749 E.12014
G1 X102.051 Y65.441 E6.5014
G1 X101.158 Y63.089 E.33858
M73 P0 R421
G1 X101.158 Y113.749 E6.81794
G1 X100.265 Y113.749 E.12014
G1 X100.265 Y60.737 E7.13448
G1 X99.373 Y58.385 E.33858
G1 X99.373 Y103.571 E6.08122
G1 X98.48 Y103.571 E.12014
G1 X98.48 Y56.033 E6.39777
G1 X97.587 Y53.681 E.33858
G1 X97.587 Y103.571 E6.71431
G1 X96.785 Y103.571 E.10801
G1 X96.785 Y93.393 E1.36981
G1 X96.694 Y93.393 E.01214
G1 X96.694 Y52.68 E5.47922
G1 X95.802 Y52.68 E.12014
G1 X95.802 Y93.393 E5.47922
G1 X94.909 Y93.393 E.12014
G1 X94.909 Y52.68 E5.47922
G1 X94.016 Y52.68 E.12014
G1 X94.016 Y93.393 E5.47922
G1 X93.392 Y93.393 E.08404
G1 X93.392 Y86.607 E.9132
G1 X93.124 Y86.607 E.03611
G1 X93.124 Y41.921 E6.01402
G1 X94.016 Y44.273 E.33858
G1 X94.016 Y49.288 E.67486
G1 X94.909 Y49.288 E.12014
G1 X94.909 Y46.625 E.35832
G1 X95.802 Y48.977 E.33858
G1 X95.802 Y49.689 E.09584
G1 E-.7 F3600
;WIPE_START
G1 F6240
G1 X95.802 Y49.169 E-.285
;WIPE_END
G1 E-.015 F3600
G1 X104.729 Y76.831 F7800
G1 E1 F2400
G1 F1800
G1 X104.729 Y72.497 E.58321
G1 X105.621 Y74.849 E.33858
G1 X105.621 Y76.831 E.26667
G1 E-.7 F3600
;WIPE_START
G1 F6240
G1 X105.621 Y76.311 E-.285
;WIPE_END
G1 E-.015 F3600
G1 X109.192 Y83.126 F7800
G1 E1 F2400
G1 F1800
G1 X109.192 Y106.964 E3.2082
G1 X108.3 Y106.964 E.12014
G1 X108.3 Y81.906 E3.37238
G1 X107.407 Y79.554 E.33858
G1 X107.407 Y106.964 E3.68893
G1 X106.963 Y106.964 E.05976
G1 X106.963 Y110.356 E.4566
G1 X107.407 Y110.356 E.05976
G1 X107.407 Y130.712 E2.73961
G1 X108.3 Y130.712 E.12014
G1 X108.3 Y110.356 E2.73961
G1 X109.192 Y110.356 E.12014
G1 X109.192 Y130.712 E2.73961
G1 X110.085 Y130.712 E.12014
G1 X110.085 Y86.61 E5.93551
G1 X110.978 Y88.962 E.33858
G1 X110.978 Y140.891 E6.98877
G1 X111.87 Y140.891 E.12014
G1 X111.87 Y91.314 E6.67222
G1 X112.763 Y93.666 E.33858
G1 X112.763 Y140.891 E6.35568
G1 X113.656 Y140.891 E.12014
G1 X113.656 Y96.018 E6.03914
G1 X114.548 Y98.37 E.33858
G1 X114.548 Y147.676 E6.63579
G1 X115.441 Y147.676 E.12014
G1 X115.441 Y100.722 E6.31925
G1 X116.179 Y102.665 E.27978
G1 X116.334 Y102.632 E.02135
G1 X116.334 Y147.676 E6.06223
G1 X117.141 Y147.676 E.10861
G1 X117.141 Y157.854 E1.36981
G1 X117.227 Y157.854 E.01153
G1 X117.227 Y102.437 E7.45828
G1 X118.119 Y102.242 E.12298
G1 X118.119 Y157.854 E7.48452
G1 X119.012 Y157.854 E.12014
G1 X119.012 Y93.393 E8.67543
G1 X119.905 Y93.393 E.12014
G1 X119.905 Y157.854 E8.67543
G1 X120.534 Y157.854 E.08464
G1 X120.534 Y161.247 E.4566
G1 X120.797 Y161.247 E.0355
G1 X120.797 Y140.89 E2.73961
G1 X121.69 Y140.89 E.12014
G1 X121.69 Y161.247 E2.73961
G1 X122.583 Y161.247 E.12014
G1 X122.583 Y140.89 E2.73961
G1 X123.475 Y140.89 E.12014
G1 X123.475 Y161.648 E2.79368
G1 E-.7 F3600
;WIPE_START
G1 F6240
G1 X123.475 Y161.128 E-.285
;WIPE_END
G1 E-.015 F3600
G1 X118.119 Y100.745 F7800
G1 E1 F2400
G1 F1800
G1 X118.119 Y92.991 E1.04355
G1 E-.7 F3600
;WIPE_START
G1 F6240
G1 X118.119 Y93.511 E-.285
;WIPE_END
G1 E-.015 F3600
G1 X120.377 Y75.38 F7800
G1 E1 F2400
;TYPE:Support material
;WIDTH:0.42
G1 F1800
G1 X117.797 Y75.38 E.12947
G1 X117.797 Y72.38 E.15056
G1 X115.838 Y72.38 E.09833
G1 X116.04 Y75.38 E.1509
G1 X113.455 Y75.38 E.12976
G1 X112.849 Y66.408 E.45132
G1 X120.377 Y66.408 E.3778
G1 X120.377 Y75.328 E.4477
G1 X119.89 Y75.225 F7800
G1 F1800
G1 X119.89 Y66.718 E.42693
G1 X119.506 Y66.718 E.01923
G1 X119.506 Y75.07 E.41914
G1 X119.123 Y75.07 E.01923
G1 X119.123 Y66.718 E.41914
G1 X118.74 Y66.718 E.01923
G1 X118.74 Y75.07 E.41914
G1 X118.357 Y75.07 E.01923
G1 X118.357 Y66.718 E.41914
G1 X117.974 Y66.718 E.01923
G1 X117.974 Y72.07 E.26858
G1 X117.59 Y72.07 E.01923
G1 X117.59 Y66.718 E.26858
G1 X117.207 Y66.718 E.01923
G1 X117.207 Y72.07 E.26858
G1 X116.824 Y72.07 E.01923
G1 X116.824 Y66.718 E.26858
G1 X116.441 Y66.718 E.01923
G1 X116.441 Y72.07 E.26858
G1 X116.058 Y72.07 E.01923
G1 X116.058 Y66.718 E.26858
G1 X115.674 Y66.718 E.01923
G1 X115.674 Y72.07 E.26858
G1 X115.506 Y72.07 E.00846
G1 X115.674 Y74.566 E.12559
G1 X115.674 Y75.07 E.02525
G1 X115.291 Y75.07 E.01923
G1 X115.291 Y66.718 E.41914
G1 X114.908 Y66.718 E.01923
G1 X114.908 Y75.07 E.41914
G1 X114.525 Y75.07 E.01923
G1 X114.525 Y66.718 E.41914
G1 X114.141 Y66.718 E.01923
G1 X114.141 Y75.07 E.41914
G1 X113.758 Y75.07 E.01923
G1 X113.758 Y66.718 E.41914
G1 X113.375 Y66.718 E.01923
G1 X113.375 Y71.895 E.25983
G1 E-.7 F3600
;WIPE_START
G1 F6240
G1 X113.375 Y71.375 E-.285
;WIPE_END
G1 E-.015 F3600
G1 X116.984 Y15.915 F7800
G1 E1 F2400
M73 P0 R420
G1 F1800
G1 X108.429 Y15.915 E.42937
G1 X108.012 Y16.337 E.02979
G1 X108.046 Y18.915 E.12936
G1 X91.048 Y18.915 E.85303
G1 X91.048 Y16.335 E.12947
G1 X91.835 Y16.335 E.03947
G1 X91.835 Y16.378 E.00219
G1 X92.133 Y16.469 E.01565
G1 X92.223 Y16.335 E.00807
G1 X94.048 Y16.335 E.09163
G1 X94.048 Y14.704 E.08183
G1 X91.048 Y14.704 E.15056
G1 X91.048 Y12.124 E.12947
G1 X116.984 Y12.124 E1.30162
G1 X116.984 Y15.863 E.18763
G1 X116.441 Y15.759 F7800
G1 F1800
G1 X116.441 Y12.435 E.16685
G1 X116.058 Y12.435 E.01923
G1 X116.058 Y15.604 E.15907
G1 X115.674 Y15.604 E.01923
G1 X115.674 Y12.435 E.15907
G1 X115.291 Y12.435 E.01923
G1 X115.291 Y15.604 E.15907
G1 X114.908 Y15.604 E.01923
G1 X114.908 Y12.435 E.15907
G1 X114.525 Y12.435 E.01923
G1 X114.525 Y15.604 E.15907
G1 X114.142 Y15.604 E.01923
G1 X114.142 Y12.435 E.15907
G1 X113.758 Y12.435 E.01923
G1 X113.758 Y15.604 E.15907
G1 X113.375 Y15.604 E.01923
G1 X113.375 Y12.435 E.15907
G1 X112.992 Y12.435 E.01923
G1 X112.992 Y15.604 E.15907
G1 X112.609 Y15.604 E.01923
G1 X112.609 Y12.435 E.15907
G1 X112.225 Y12.435 E.01923
G1 X112.225 Y15.604 E.15907
G1 X111.842 Y15.604 E.01923
G1 X111.842 Y12.435 E.15907
G1 X111.459 Y12.435 E.01923
G1 X111.459 Y15.604 E.15907
G1 X111.076 Y15.604 E.01923
G1 X111.076 Y12.435 E.15907
G1 X110.693 Y12.435 E.01923
G1 X110.693 Y15.604 E.15907
G1 X110.309 Y15.604 E.01923
G1 X110.309 Y12.435 E.15907
G1 X109.926 Y12.435 E.01923
G1 X109.926 Y15.604 E.15907
G1 X109.543 Y15.604 E.01923
G1 X109.543 Y12.435 E.15907
G1 X109.16 Y12.435 E.01923
G1 X109.16 Y15.604 E.15907
G1 X108.777 Y15.604 E.01923
G1 X108.777 Y12.435 E.15907
G1 X108.393 Y12.435 E.01923
G1 X108.393 Y15.604 E.15907
G1 X108.299 Y15.604 E.00474
G1 X108.01 Y15.897 E.02064
G1 X108.01 Y12.435 E.17375
G1 X107.627 Y12.435 E.01923
G1 X107.627 Y18.604 E.30962
G1 X107.244 Y18.604 E.01923
G1 X107.244 Y12.435 E.30962
G1 X106.861 Y12.435 E.01923
G1 X106.861 Y18.604 E.30962
G1 X106.477 Y18.604 E.01923
G1 X106.477 Y12.435 E.30962
G1 X106.094 Y12.435 E.01923
G1 X106.094 Y18.604 E.30962
G1 X105.711 Y18.604 E.01923
G1 X105.711 Y12.435 E.30962
G1 X105.328 Y12.435 E.01923
G1 X105.328 Y18.604 E.30962
G1 X104.944 Y18.604 E.01923
G1 X104.944 Y12.435 E.30962
G1 X104.561 Y12.435 E.01923
G1 X104.561 Y18.604 E.30962
G1 X104.178 Y18.604 E.01923
G1 X104.178 Y12.435 E.30962
G1 X103.795 Y12.435 E.01923
G1 X103.795 Y18.604 E.30962
G1 X103.412 Y18.604 E.01923
G1 X103.412 Y12.435 E.30962
G1 X103.028 Y12.435 E.01923
G1 X103.028 Y18.604 E.30962
G1 X102.645 Y18.604 E.01923
G1 X102.645 Y12.435 E.30962
G1 X102.262 Y12.435 E.01923
G1 X102.262 Y18.604 E.30962
G1 X101.879 Y18.604 E.01923
G1 X101.879 Y12.435 E.30962
G1 X101.496 Y12.435 E.01923
G1 X101.496 Y18.604 E.30962
G1 X101.112 Y18.604 E.01923
G1 X101.112 Y12.435 E.30962
G1 X100.729 Y12.435 E.01923
G1 X100.729 Y18.604 E.30962
G1 X100.346 Y18.604 E.01923
G1 X100.346 Y12.435 E.30962
G1 X99.963 Y12.435 E.01923
G1 X99.963 Y18.604 E.30962
G1 X99.58 Y18.604 E.01923
G1 X99.58 Y12.435 E.30962
G1 X99.196 Y12.435 E.01923
G1 X99.196 Y18.604 E.30962
G1 X98.813 Y18.604 E.01923
G1 X98.813 Y12.435 E.30962
G1 X98.43 Y12.435 E.01923
G1 X98.43 Y18.604 E.30962
G1 X98.047 Y18.604 E.01923
G1 X98.047 Y12.435 E.30962
G1 X97.663 Y12.435 E.01923
G1 X97.663 Y18.604 E.30962
G1 X97.28 Y18.604 E.01923
G1 X97.28 Y12.435 E.30962
G1 X96.897 Y12.435 E.01923
G1 X96.897 Y18.604 E.30962
G1 X96.514 Y18.604 E.01923
G1 X96.514 Y12.435 E.30962
G1 X96.131 Y12.435 E.01923
G1 X96.131 Y18.604 E.30962
G1 X95.747 Y18.604 E.01923
G1 X95.747 Y12.435 E.30962
G1 X95.364 Y12.435 E.01923
G1 X95.364 Y18.604 E.30962
G1 X94.981 Y18.604 E.01923
G1 X94.981 Y12.435 E.30962
G1 X94.598 Y12.435 E.01923
G1 X94.598 Y18.604 E.30962
G1 X94.215 Y18.604 E.01923
G1 X94.215 Y12.435 E.30962
G1 X93.831 Y12.435 E.01923
G1 X93.831 Y14.394 E.09831
G1 X93.448 Y14.394 E.01923
G1 X93.448 Y12.435 E.09831
G1 X93.065 Y12.435 E.01923
G1 X93.065 Y14.394 E.09831
G1 X92.682 Y14.394 E.01923
G1 X92.682 Y12.435 E.09831
G1 X92.299 Y12.435 E.01923
G1 X92.299 Y14.394 E.09831
G1 X91.915 Y14.394 E.01923
G1 X91.915 Y12.435 E.09831
G1 X91.532 Y12.435 E.01923
G1 X91.532 Y14.549 E.1061
G1 E-.7 F3600
;WIPE_START
G1 F6240
G1 X91.532 Y14.029 E-.285
;WIPE_END
G1 E-.015 F3600
G1 X93.831 Y18.759 F7800
G1 E1 F2400
G1 F1800
G1 X93.831 Y16.645 E.1061
G1 X93.448 Y16.645 E.01923
G1 X93.448 Y18.604 E.09831
G1 X93.065 Y18.604 E.01923
G1 X93.065 Y16.645 E.09831
G1 X92.682 Y16.645 E.01923
G1 X92.682 Y18.604 E.09831
G1 X92.299 Y18.604 E.01923
G1 X92.299 Y16.781 E.09151
G1 X92.264 Y16.832 E.00312
G1 X91.915 Y16.727 E.01829
G1 X91.915 Y18.604 E.09421
G1 X91.532 Y18.604 E.01923
G1 X91.532 Y16.49 E.1061
G1 E-.7 F3600
;WIPE_START
G1 F6240
G1 X91.532 Y17.01 E-.285
;WIPE_END
G1 E-.015 F3600
G1 X68.594 Y14.704 F7800
G1 E1 F2400
G1 F1800
G1 X65.594 Y14.704 E.15056
G1 X65.594 Y22.802 E.40642
G1 X68.987 Y22.802 E.17027
G1 X68.987 Y32.981 E.5108
G1 X72.379 Y32.981 E.17027
G1 X72.379 Y43.159 E.5108
G1 X75.772 Y43.159 E.17027
G1 X75.772 Y49.944 E.34053
G1 X79.165 Y49.944 E.17027
G1 X79.165 Y60.122 E.5108
G1 X82.557 Y60.122 E.17027
G1 X82.557 Y70.3 E.5108
G1 X85.95 Y70.3 E.17027
G1 X85.95 Y77.086 E.34053
G1 X89.343 Y77.086 E.17027
G1 X89.343 Y87.264 E.5108
G1 X92.736 Y87.264 E.17027
G1 X92.736 Y94.049 E.34053
G1 X96.128 Y94.049 E.17027
G1 X96.128 Y104.227 E.5108
G1 X99.521 Y104.227 E.17027
G1 X99.521 Y114.405 E.5108
G1 X102.914 Y114.405 E.17027
G1 X102.914 Y121.191 E.34053
G1 X106.306 Y121.191 E.17027
G1 X106.306 Y131.369 E.5108
G1 X109.699 Y131.369 E.17027
G1 X109.699 Y141.547 E.5108
G1 X113.092 Y141.547 E.17027
G1 X113.092 Y148.332 E.34053
G1 X116.484 Y148.332 E.17027
G1 X116.484 Y158.51 E.5108
G1 X119.877 Y158.51 E.17027
G1 X119.877 Y161.903 E.17027
G1 X124.583 Y161.903 E.23616
G1 X124.583 Y158.903 E.15056
G1 X127.163 Y158.903 E.12947
G1 X127.163 Y167.876 E.45029
G1 X42.658 Y167.876 E4.24094
G1 X42.658 Y12.124 E7.81652
G1 X68.594 Y12.124 E1.30162
G1 X68.594 Y14.652 E.12687
G1 E-.7 F3600
;WIPE_START
G1 F6240
G1 X68.594 Y14.132 E-.285
;WIPE_END
G1 E-.015 F3600
G1 X55.916 Y130.556 F7800
G1 E1 F2400
G1 F1800
G1 X55.916 Y154.618 E1.20756
G1 X79.978 Y154.618 E1.20756
G1 X79.978 Y150.912 E.18597
G1 X76.585 Y150.912 E.17027
G1 X76.585 Y140.734 E.5108
G1 X73.192 Y140.734 E.17027
G1 X73.192 Y133.949 E.34053
G1 X69.8 Y133.949 E.17027
G1 X69.8 Y130.556 E.17027
G1 X55.968 Y130.556 E.69417
G1 E-.7 F3600
;WIPE_START
G1 F6240
G1 X56.488 Y130.556 E-.285
;WIPE_END
G1 E-.015 F3600
G1 X52.523 Y110.2 F7800
G1 E1 F2400
G1 F1800
