; generated by PrusaSlicer 2.5.0+win64 on 2022-12-07 at 00:14:50 UTC

; 

; external perimeters extrusion width = 1.00mm
; perimeters extrusion width = 1.00mm
; infill extrusion width = 1.00mm
; solid infill extrusion width = 1.00mm
; top infill extrusion width = 1.00mm
; support material extrusion width = 1.00mm
; first layer extrusion width = 0.42mm

M73 P0 R825
M107
;TYPE:Custom
G90 ; use absolute coordinates
M83 ; extruder relative mode
M140 S60 ; set final bed temp
M104 S150 ; set temporary nozzle temp to prevent oozing during homing and auto bed leveling
G4 S10 ; allow partial nozzle warmup
G28 ; home all axisG1 Z50 F240
G1 X7.6 Y10 F3000
M104 S210 ; set final nozzle temp
M190 S60 ; wait for bed temp to stabilize
M109 S210 ; wait for nozzle temp to stabilize
G1 Z0.28 F240
G92 E0
G1 Y140 E10 F1500 ; prime the nozzle
G1 X4 F5000
G92 E0
G1 Y10 E10 F1200 ; prime the nozzle
G92 E0
G21 ; set units to millimeters
G90 ; use absolute coordinates
M83 ; use relative distances for extrusion
; Filament gcode
M107
;LAYER_CHANGE
;Z:0.35
;HEIGHT:0.35
;BEFORE_LAYER_CHANGE
G92 E0
;0.35


G1 E-1 F3600
G1 Z.35 F7800
;AFTER_LAYER_CHANGE
;0.35
G1 X69.914 Y14.959
G1 E1 F2400
;TYPE:Support material interface
;WIDTH:1
G1 F1800
G1 X69.914 Y28.931 E1.88047
G1 X70.807 Y28.931 E.12014
G1 X70.807 Y15.361 E1.82641
G1 X71.7 Y15.361 E.12014
G1 X71.7 Y28.931 E1.82641
G1 X72.592 Y28.931 E.12014
G1 X72.592 Y15.361 E1.82641
G1 X73.485 Y15.361 E.12014
G1 X73.485 Y39.11 E3.19621
G1 X74.378 Y39.11 E.12014
G1 X74.378 Y15.361 E3.19621
G1 X75.27 Y15.361 E.12014
G1 X75.27 Y39.11 E3.19621
G1 X76.163 Y39.11 E.12014
G1 X76.163 Y15.361 E3.19621
G1 X77.056 Y15.361 E.12014
G1 X77.056 Y49.288 E4.56602
G1 X77.949 Y49.288 E.12014
G1 X77.949 Y15.361 E4.56602
G1 X78.841 Y15.361 E.12014
G1 X78.841 Y49.288 E4.56602
G1 X79.734 Y49.288 E.12014
G1 X79.734 Y15.361 E4.56602
G1 X80.627 Y15.361 E.12014
G1 X80.627 Y59.466 E5.93582
G1 X81.519 Y59.466 E.12014
G1 X81.519 Y15.361 E5.93582
G1 X82.412 Y15.361 E.12014
G1 X82.412 Y59.867 E5.98989
G1 E-.7 F3600
;WIPE_START
G1 F6240
G1 X82.412 Y59.347 E-.285
;WIPE_END
G1 E-.015 F3600
G1 X90.446 Y45.76 F7800
G1 E1 F2400
G1 F1800
G1 X90.446 Y90 E5.954
G1 X91.339 Y90 E.12014
G1 X91.339 Y49.85 E5.40351
G1 X92.232 Y52.628 E.39264
G1 X92.232 Y90 E5.02971
G1 X93.124 Y90 E.12014
G1 X93.124 Y55.405 E4.65591
G1 X94.017 Y58.183 E.39264
G1 X94.017 Y100.178 E5.65191
G1 X94.91 Y100.178 E.12014
G1 X94.91 Y60.96 E5.27811
G1 X95.803 Y63.738 E.39264
G1 X95.803 Y100.178 E4.9043
G1 X96.695 Y100.178 E.12014
G1 X96.695 Y66.515 E4.5305
G1 X97.588 Y69.292 E.39264
G1 X97.588 Y113.749 E5.9831
G1 X98.481 Y113.749 E.12014
G1 X98.481 Y72.07 E5.6093
G1 X99.373 Y74.847 E.39264
G1 X99.373 Y113.749 E5.2355
M73 P0 R824
G1 X100.178 Y113.749 E.10831
G1 X100.178 Y123.927 E1.3698
G1 X100.266 Y123.927 E.01183
G1 X100.266 Y77.625 E6.2315
G1 X101.159 Y80.402 E.39264
G1 X101.159 Y123.927 E5.8577
G1 X102.051 Y123.927 E.12014
G1 X102.051 Y83.18 E5.48389
G1 X102.944 Y85.957 E.39264
G1 X102.944 Y123.927 E5.11009
G1 X103.571 Y123.927 E.08434
G1 X103.571 Y134.105 E1.3698
G1 X103.837 Y134.105 E.0358
G1 X103.837 Y88.735 E6.10609
G1 X104.73 Y91.512 E.39264
G1 X104.729 Y134.105 E5.73229
G1 X105.622 Y134.105 E.12014
G1 X105.622 Y94.29 E5.35849
G1 X106.515 Y97.067 E.39264
G1 X106.515 Y134.105 E4.98468
G1 X106.963 Y134.105 E.06037
G1 X106.963 Y144.283 E1.3698
G1 X107.408 Y144.283 E.05977
G1 X107.408 Y99.845 E5.98069
G1 X108.3 Y102.622 E.39264
G1 X108.3 Y144.283 E5.60688
G1 X109.193 Y144.283 E.12014
G1 X109.193 Y105.4 E5.23308
G1 X110.086 Y108.177 E.39264
G1 X110.086 Y144.283 E4.85928
G1 X110.356 Y144.283 E.0364
G1 X110.356 Y154.461 E1.3698
G1 X110.978 Y154.461 E.08374
G1 X110.978 Y110.955 E5.85528
G1 X111.871 Y113.732 E.39264
G1 X111.871 Y154.461 E5.48148
G1 X112.764 Y154.461 E.12014
G1 X112.764 Y116.51 E5.10767
G1 X113.656 Y119.287 E.39264
G1 X113.656 Y154.461 E4.73387
G1 X113.749 Y154.461 E.01244
G1 X113.749 Y164.639 E1.3698
G1 X114.549 Y164.639 E.10771
G1 X114.549 Y122.065 E5.72987
G1 X115.442 Y124.842 E.39264
G1 X115.442 Y164.639 E5.35607
G1 X116.335 Y164.639 E.12014
G1 X116.335 Y127.62 E4.98227
G1 X117.227 Y130.397 E.39264
G1 X117.227 Y164.639 E4.60846
G1 X118.12 Y164.639 E.12014
G1 X118.12 Y133.174 E4.23466
G1 X119.013 Y135.952 E.39264
G1 X119.013 Y164.639 E3.86086
G1 X119.905 Y164.639 E.12014
G1 X119.905 Y138.729 E3.48706
G1 X120.798 Y141.507 E.39264
G1 X120.798 Y164.639 E3.11325
G1 X121.691 Y164.639 E.12014
G1 X121.691 Y144.284 E2.73945
G1 X122.583 Y147.062 E.39264
G1 X122.583 Y164.639 E2.36565
G1 X123.476 Y164.639 E.12014
G1 X123.476 Y149.839 E1.99184
G1 X124.369 Y152.617 E.39264
G1 X124.369 Y164.639 E1.61804
G1 X125.262 Y164.639 E.12014
G1 X125.262 Y155.394 E1.24424
G1 X126.154 Y158.172 E.39264
G1 X126.154 Y164.639 E.87044
G1 X127.047 Y164.639 E.12014
G1 X127.047 Y160.949 E.49663
G1 X127.94 Y163.727 E.39264
G1 X127.94 Y164.639 E.12283
G1 X128.832 Y164.639 E.12014
G1 X128.832 Y164.322 E.04276
G1 X129.725 Y164.322 E.12014
G1 X129.725 Y164.639 E.04276
G1 X130.618 Y164.639 E.12014
G1 X130.618 Y164.322 E.04276
G1 X131.51 Y164.322 E.12014
G1 X131.51 Y164.639 E.04276
G1 X132.403 Y164.639 E.12014
G1 X132.403 Y164.322 E.04276
G1 X133.296 Y164.322 E.12014
G1 X133.296 Y164.639 E.04276
G1 X134.189 Y164.639 E.12014
G1 X134.189 Y164.322 E.04276
G1 X134.394 Y164.322 E.02767
G1 X135.081 Y164.322 E.09247
G1 X135.081 Y164.639 E.04276
G1 X135.974 Y164.639 E.12014
G1 X135.974 Y164.322 E.04276
G1 X136.867 Y164.322 E.12014
G1 X136.867 Y165.041 E.09683
G1 E-.7 F3600
;WIPE_START
G1 F6240
G1 X136.867 Y164.521 E-.285
;WIPE_END
G1 E-.015 F3600
G1 X160.97 Y66.653 F7800
G1 E1 F2400
G1 F1800
G1 X160.97 Y15.361 E6.90309
G1 X160.077 Y15.361 E.12014
G1 X160.077 Y66.251 E6.84903
G1 X159.184 Y66.251 E.12014
G1 X159.184 Y15.361 E6.84903
G1 X158.291 Y15.361 E.12014
G1 X158.291 Y15.891 E.07139
G1 X158.079 Y15.678 E.04048
G1 X157.399 Y15.678 E.09152
G1 X157.399 Y15.361 E.04276
G1 X156.506 Y15.361 E.12014
G1 X156.506 Y15.678 E.04276
G1 X155.613 Y15.678 E.12014
G1 X155.613 Y15.361 E.04276
G1 X154.721 Y15.361 E.12014
G1 X154.721 Y15.678 E.04276
G1 X153.828 Y15.678 E.12014
G1 X153.828 Y15.361 E.04276
G1 X152.935 Y15.361 E.12014
G1 X152.935 Y15.678 E.04276
G1 X152.043 Y15.678 E.12014
G1 X152.043 Y15.361 E.04276
G1 X151.15 Y15.361 E.12014
G1 X151.15 Y15.678 E.04276
G1 X150.257 Y15.678 E.12014
G1 X150.257 Y15.361 E.04276
G1 X149.364 Y15.361 E.12014
G1 X149.364 Y15.678 E.04276
G1 X148.472 Y15.678 E.12014
G1 X148.472 Y15.361 E.04276
G1 X147.579 Y15.361 E.12014
G1 X147.579 Y15.678 E.04276
G1 X146.686 Y15.678 E.12014
G1 X146.686 Y15.361 E.04276
G1 X145.794 Y15.361 E.12014
G1 X145.794 Y15.678 E.04276
G1 X144.901 Y15.678 E.12014
G1 X144.901 Y15.361 E.04276
G1 X144.008 Y15.361 E.12014
G1 X144.008 Y15.678 E.04276
G1 X143.116 Y15.678 E.12014
G1 X143.116 Y15.361 E.04276
G1 X142.223 Y15.361 E.12014
G1 X142.223 Y15.678 E.04276
G1 X141.33 Y15.678 E.12014
G1 X141.33 Y15.361 E.04276
G1 X140.437 Y15.361 E.12014
G1 X140.437 Y15.678 E.04276
G1 X139.545 Y15.678 E.12014
G1 X139.545 Y15.361 E.04276
G1 X138.652 Y15.361 E.12014
G1 X138.652 Y15.678 E.04276
G1 X137.759 Y15.678 E.12014
G1 X137.759 Y15.361 E.04276
G1 X136.867 Y15.361 E.12014
G1 X136.867 Y15.678 E.04276
G1 X135.974 Y15.678 E.12014
G1 X135.974 Y15.361 E.04276
G1 X135.081 Y15.361 E.12014
G1 X135.081 Y15.678 E.04276
G1 X134.189 Y15.678 E.12014
G1 X134.189 Y15.361 E.04276
G1 X133.296 Y15.361 E.12014
G1 X133.296 Y15.678 E.04276
G1 X132.403 Y15.678 E.12014
G1 X132.403 Y15.361 E.04276
G1 X131.51 Y15.361 E.12014
G1 X131.51 Y15.678 E.04276
G1 X130.618 Y15.678 E.12014
G1 X130.618 Y15.361 E.04276
G1 X129.725 Y15.361 E.12014
G1 X129.725 Y15.678 E.04276
G1 X128.832 Y15.678 E.12014
G1 X128.832 Y15.361 E.04276
G1 X127.94 Y15.361 E.12014
G1 X127.94 Y15.678 E.04276
G1 X127.047 Y15.678 E.12014
G1 X127.047 Y15.361 E.04276
G1 X126.154 Y15.361 E.12014
G1 X126.154 Y15.678 E.04276
G1 X125.262 Y15.678 E.12014
G1 X125.262 Y15.361 E.04276
G1 X124.369 Y15.361 E.12014
G1 X124.369 Y15.678 E.04276
G1 X123.476 Y15.678 E.12014
G1 X123.476 Y15.361 E.04276
G1 X122.583 Y15.361 E.12014
G1 X122.583 Y15.678 E.04276
G1 X121.691 Y15.678 E.12014
G1 X121.691 Y15.361 E.04276
G1 X120.798 Y15.361 E.12014
G1 X120.798 Y15.678 E.04276
G1 X120.293 Y15.87 E.07273
G1 X119.905 Y16.217 E.07002
G1 X119.905 Y15.361 E.11525
G1 X119.013 Y15.361 E.12014
G1 X119.013 Y17.018 E.22304
G1 X118.12 Y17.819 E.16141
G1 X118.12 Y15.361 E.33083
G1 X117.227 Y15.361 E.12014
G1 X117.227 Y18.62 E.43861
G1 X116.335 Y19.421 E.16141
G1 X116.335 Y15.361 E.5464
G1 X115.442 Y15.361 E.12014
G1 X115.442 Y20.221 E.65418
G1 X114.549 Y21.022 E.16141
G1 X114.549 Y15.361 E.76197
G1 X113.656 Y15.361 E.12014
G1 X113.656 Y21.823 E.86976
G1 X112.764 Y22.624 E.16141
G1 X112.764 Y15.361 E.97754
G1 X111.871 Y15.361 E.12014
G1 X111.871 Y23.425 E1.08533
G1 X110.978 Y24.226 E.16141
G1 X110.978 Y15.361 E1.19312
G1 X110.086 Y15.361 E.12014
G1 X110.086 Y22.146 E.91321
G1 X109.193 Y22.146 E.12014
G1 X109.193 Y15.361 E.91321
G1 X108.3 Y15.361 E.12014
G1 X108.3 Y22.146 E.91321
G1 X107.408 Y22.146 E.12014
G1 X107.408 Y15.361 E.91321
G1 X106.515 Y15.361 E.12014
G1 X106.515 Y22.146 E.91321
G1 X105.622 Y22.146 E.12014
G1 X105.622 Y15.361 E.91321
G1 X104.73 Y15.361 E.12014
G1 X104.73 Y22.146 E.91321
G1 X103.837 Y22.146 E.12014
G1 X103.837 Y15.361 E.91321
G1 X102.944 Y15.361 E.12014
G1 X102.944 Y22.146 E.91321
G1 X102.051 Y22.146 E.12014
G1 X102.051 Y15.361 E.91321
G1 X101.159 Y15.361 E.12014
G1 X101.159 Y22.146 E.91321
G1 X100.266 Y22.146 E.12014
G1 X100.266 Y15.361 E.91321
G1 X99.373 Y15.361 E.12014
G1 X99.373 Y22.146 E.91321
G1 X98.481 Y22.146 E.12014
G1 X98.481 Y15.361 E.91321
G1 X97.588 Y15.361 E.12014
G1 X97.588 Y22.146 E.91321
G1 X96.695 Y22.146 E.12014
G1 X96.695 Y15.361 E.91321
G1 X95.803 Y15.361 E.12014
G1 X95.803 Y22.146 E.91321
G1 X94.91 Y22.146 E.12014
G1 X94.91 Y15.361 E.91321
G1 X94.017 Y15.361 E.12014
G1 X94.017 Y22.146 E.91321
G1 X93.124 Y22.146 E.12014
M73 P0 R823
G1 X93.124 Y15.361 E.91321
G1 X92.232 Y15.361 E.12014
G1 X92.232 Y22.146 E.91321
G1 X91.339 Y22.146 E.12014
G1 X91.339 Y15.361 E.91321
G1 X90.446 Y15.361 E.12014
G1 X90.446 Y22.146 E.91321
G1 X89.554 Y22.146 E.12014
G1 X89.554 Y15.361 E.91321
G1 X88.661 Y15.361 E.12014
G1 X88.661 Y22.146 E.91321
G1 X87.768 Y22.146 E.12014
G1 X87.768 Y15.361 E.91321
G1 X86.876 Y15.361 E.12014
G1 X86.876 Y22.146 E.91321
G1 X85.983 Y22.146 E.12014
G1 X85.983 Y15.361 E.91321
G1 X85.09 Y15.361 E.12014
G1 X85.09 Y22.146 E.91321
G1 X84.197 Y22.146 E.12014
G1 X84.197 Y15.361 E.91321
G1 X83.305 Y15.361 E.12014
G1 X83.305 Y69.644 E7.30563
G1 X84.197 Y69.644 E.12014
G1 X84.197 Y28.931 E5.47922
G1 X85.09 Y28.931 E.12014
G1 X85.09 Y69.644 E5.47922
G1 X85.983 Y69.644 E.12014
G1 X85.983 Y28.931 E5.47922
G1 X86.607 Y28.931 E.08405
G1 X86.607 Y39.109 E1.3698
G1 X86.876 Y39.109 E.03609
G1 X86.876 Y79.822 E5.47922
G1 X87.768 Y79.822 E.12014
G1 X87.768 Y39.109 E5.47922
G1 X88.661 Y39.109 E.12014
G1 X88.661 Y79.822 E5.47922
G1 X89.554 Y79.822 E.12014
G1 X89.554 Y39.109 E5.47922
G1 X90.446 Y39.109 E.12014
G1 X90.446 Y42.722 E.48619
G1 X91.339 Y41.885 E.16467
G1 X91.339 Y39.109 E.37358
G1 X92.232 Y39.109 E.12014
G1 X92.232 Y41.049 E.26097
G1 X93.124 Y40.244 E.16178
G1 X93.124 Y39.109 E.15263
G1 X93.393 Y39.109 E.03611
G1 X93.393 Y35.717 E.4566
G1 X94.017 Y35.717 E.08404
G1 X94.017 Y39.443 E.50145
G1 X94.91 Y38.642 E.16141
G1 X94.91 Y35.717 E.39366
G1 X95.803 Y35.717 E.12014
G1 X95.803 Y37.841 E.28587
G1 X96.695 Y37.04 E.16141
G1 X96.695 Y35.717 E.17809
G1 X96.785 Y35.717 E.01214
G1 X96.785 Y32.324 E.4566
G1 X97.588 Y32.324 E.10801
G1 X97.588 Y36.239 E.5269
G1 X98.481 Y35.438 E.16141
G1 X98.481 Y32.324 E.41912
G1 X99.373 Y32.324 E.12014
G1 X99.373 Y34.637 E.31133
G1 X100.266 Y33.836 E.16141
G1 X100.266 Y28.931 E.66015
G1 X101.159 Y28.931 E.12014
G1 X101.159 Y33.036 E.55236
G1 X102.051 Y32.235 E.16141
G1 X102.051 Y28.931 E.44457
G1 X102.944 Y28.931 E.12014
G1 X102.944 Y31.434 E.33679
G1 X103.837 Y30.633 E.16141
G1 X103.837 Y28.931 E.229
G1 X104.73 Y28.931 E.12014
G1 X104.73 Y29.832 E.12121
G1 X105.622 Y29.031 E.16141
G1 X105.622 Y28.53 E.06749
G1 E-.7 F3600
;WIPE_START
G1 F6240
G1 X105.622 Y29.031 E-.27485
G1 X105.608 Y29.044 E-.01015
;WIPE_END
G1 E-.015 F3600
G1 X107.408 Y25.137 F7800
G1 E1 F2400
G1 F1800
G1 X107.408 Y27.429 E.30852
G1 X108.3 Y26.629 E.16141
G1 X108.3 Y25.539 E.14667
G1 X109.193 Y25.539 E.12014
G1 X109.193 Y26.367 E.11152
G1 E-.7 F3600
;WIPE_START
G1 F6240
G1 X109.193 Y25.847 E-.285
;WIPE_END
G1 E-.015 F3600
G1 X71.987 Y14.704 F7800
G1 E1 F2400
;TYPE:Support material
;WIDTH:0.42
G1 F1800
G1 X68.987 Y14.704 E.15056
G1 X68.987 Y29.588 E.74695
G1 X72.38 Y29.588 E.17027
G1 X72.38 Y39.766 E.5108
G1 X75.773 Y39.766 E.17027
G1 X75.773 Y49.944 E.5108
G1 X79.165 Y49.944 E.17027
G1 X79.165 Y60.122 E.5108
G1 X82.558 Y60.122 E.17027
G1 X82.558 Y70.3 E.5108
G1 X85.951 Y70.3 E.17027
G1 X85.951 Y80.478 E.5108
G1 X89.344 Y80.478 E.17027
G1 X89.344 Y90.656 E.5108
G1 X92.736 Y90.656 E.17027
G1 X92.736 Y100.835 E.5108
G1 X96.129 Y100.835 E.17027
G1 X96.129 Y114.405 E.68106
G1 X99.522 Y114.405 E.17027
G1 X99.522 Y124.583 E.5108
G1 X102.914 Y124.583 E.17027
G1 X102.914 Y134.762 E.5108
G1 X106.307 Y134.762 E.17027
G1 X106.307 Y144.94 E.5108
G1 X109.7 Y144.94 E.17027
G1 X109.7 Y155.118 E.5108
G1 X113.092 Y155.118 E.17027
G1 X113.092 Y165.296 E.5108
G1 X116.092 Y165.296 E.15056
G1 X116.092 Y167.876 E.12947
G1 X15.517 Y167.876 E5.04747
G1 X15.517 Y12.124 E7.81652
G1 X71.987 Y12.124 E2.83401
G1 X71.987 Y14.652 E.12687
G1 E-.7 F3600
;WIPE_START
G1 F6240
G1 X71.987 Y14.132 E-.285
;WIPE_END
G1 E-.015 F3600
G1 X115.675 Y167.72 F7800
G1 E1 F2400
G1 F1800
G1 X115.675 Y165.606 E.1061
G1 X115.292 Y165.606 E.01923
G1 X115.292 Y167.565 E.09831
G1 X114.909 Y167.565 E.01923
G1 X114.909 Y165.606 E.09831
G1 X114.525 Y165.606 E.01923
G1 X114.525 Y167.565 E.09831
G1 X114.142 Y167.565 E.01923
G1 X114.142 Y165.606 E.09831
G1 X113.759 Y165.606 E.01923
G1 X113.759 Y167.565 E.09831
G1 X113.376 Y167.565 E.01923
G1 X113.376 Y165.606 E.09831
G1 X112.993 Y165.606 E.01923
G1 X112.993 Y167.565 E.09831
G1 X112.609 Y167.565 E.01923
G1 X112.609 Y155.428 E.60911
G1 X112.226 Y155.428 E.01923
G1 X112.226 Y167.565 E.60911
G1 X111.843 Y167.565 E.01923
G1 X111.843 Y155.428 E.60911
G1 X111.46 Y155.428 E.01923
G1 X111.46 Y167.565 E.60911
G1 X111.077 Y167.565 E.01923
G1 X111.077 Y155.428 E.60911
G1 X110.693 Y155.428 E.01923
G1 X110.693 Y167.565 E.60911
G1 X110.31 Y167.565 E.01923
G1 X110.31 Y155.428 E.60911
G1 X109.927 Y155.428 E.01923
G1 X109.927 Y167.565 E.60911
G1 X109.544 Y167.565 E.01923
G1 X109.544 Y155.428 E.60911
G1 X109.389 Y155.428 E.00775
G1 X109.389 Y145.25 E.5108
G1 X109.161 Y145.25 E.01148
G1 X109.161 Y167.565 E1.11991
G1 X108.777 Y167.565 E.01923
G1 X108.777 Y145.25 E1.11991
G1 X108.394 Y145.25 E.01923
G1 X108.394 Y167.565 E1.11991
G1 X108.011 Y167.565 E.01923
G1 X108.011 Y145.25 E1.11991
G1 X107.628 Y145.25 E.01923
G1 X107.628 Y167.565 E1.11991
G1 X107.244 Y167.565 E.01923
G1 X107.244 Y145.25 E1.11991
G1 X106.861 Y145.25 E.01923
G1 X106.861 Y167.565 E1.11991
G1 X106.478 Y167.565 E.01923
G1 X106.478 Y145.25 E1.11991
G1 X106.095 Y145.25 E.01923
G1 X106.095 Y167.565 E1.11991
G1 X105.712 Y167.565 E.01923
G1 X105.712 Y135.072 E1.63071
G1 X105.328 Y135.072 E.01923
G1 X105.328 Y167.565 E1.63071
G1 X104.945 Y167.565 E.01923
G1 X104.945 Y135.072 E1.63071
G1 X104.562 Y135.072 E.01923
G1 X104.562 Y167.565 E1.63071
G1 X104.179 Y167.565 E.01923
G1 X104.179 Y135.072 E1.63071
G1 X103.796 Y135.072 E.01923
G1 X103.796 Y167.565 E1.63071
G1 X103.412 Y167.565 E.01923
M73 P0 R822
G1 X103.412 Y135.072 E1.63071
G1 X103.029 Y135.072 E.01923
G1 X103.029 Y167.565 E1.63071
G1 X102.646 Y167.565 E.01923
G1 X102.646 Y135.072 E1.63071
G1 X102.604 Y135.072 E.00211
G1 X102.604 Y124.894 E.5108
G1 X102.263 Y124.894 E.01712
G1 X102.263 Y167.565 E2.1415
G1 X101.88 Y167.565 E.01923
G1 X101.88 Y124.894 E2.1415
G1 X101.496 Y124.894 E.01923
G1 X101.496 Y167.565 E2.1415
G1 X101.113 Y167.565 E.01923
G1 X101.113 Y124.894 E2.1415
G1 X100.73 Y124.894 E.01923
G1 X100.73 Y167.565 E2.1415
