; generated by PrusaSlicer 2.5.0+win64 on 2022-12-07 at 00:15:02 UTC

; 

; external perimeters extrusion width = 1.00mm
; perimeters extrusion width = 1.00mm
; infill extrusion width = 1.00mm
; solid infill extrusion width = 1.00mm
; top infill extrusion width = 1.00mm
; support material extrusion width = 1.00mm
; first layer extrusion width = 0.42mm

M73 P0 R318
M107
;TYPE:Custom
G90 ; use absolute coordinates
M83 ; extruder relative mode
M140 S60 ; set final bed temp
M104 S150 ; set temporary nozzle temp to prevent oozing during homing and auto bed leveling
G4 S10 ; allow partial nozzle warmup
G28 ; home all axisG1 Z50 F240
G1 X7.6 Y10 F3000
M104 S210 ; set final nozzle temp
M190 S60 ; wait for bed temp to stabilize
M109 S210 ; wait for nozzle temp to stabilize
G1 Z0.28 F240
G92 E0
G1 Y140 E10 F1500 ; prime the nozzle
G1 X4 F5000
G92 E0
M73 P0 R317
G1 Y10 E10 F1200 ; prime the nozzle
G92 E0
G21 ; set units to millimeters
G90 ; use absolute coordinates
M83 ; use relative distances for extrusion
; Filament gcode
M107
;LAYER_CHANGE
;Z:0.35
;HEIGHT:0.35
;BEFORE_LAYER_CHANGE
G92 E0
;0.35


G1 E-1 F3600
G1 Z.35 F7800
;AFTER_LAYER_CHANGE
;0.35
G1 X161.09 Y35.331
G1 E1 F2400
;TYPE:Support material
;WIDTH:0.42
G1 F1800
G1 X138.461 Y35.331 E1.13569
G1 X143.568 Y29.841 E.37629
G1 X143.197 Y28.988 E.04669
G1 X120.562 Y28.988 E1.13594
G1 X120.291 Y29.106 E.01485
G1 X120.259 Y29.14 E.00231
G1 X119.781 Y28.695 E.03281
G1 X70.022 Y82.19 E3.66654
G1 X21.434 Y125.839 E3.27789
G1 X21.311 Y126.115 E.01517
G1 X21.311 Y130.326 E.21134
G1 X15.517 Y130.326 E.29077
G1 X15.517 Y106.89 E1.17616
G1 X18.91 Y106.89 E.17027
G1 X18.91 Y96.712 E.5108
G1 X25.695 Y96.712 E.34053
G1 X25.695 Y93.32 E.17027
G1 X29.088 Y93.32 E.17027
G1 X29.088 Y89.927 E.17027
G1 X32.481 Y89.927 E.17027
G1 X32.481 Y83.141 E.34053
G1 X39.266 Y83.141 E.34053
G1 X39.266 Y79.749 E.17027
G1 X42.659 Y79.749 E.17027
G1 X42.659 Y76.356 E.17027
G1 X46.051 Y76.356 E.17027
G1 X46.051 Y72.963 E.17027
G1 X49.444 Y72.963 E.17027
G1 X49.444 Y69.571 E.17027
G1 X52.837 Y69.571 E.17027
G1 X52.837 Y66.178 E.17027
G1 X56.229 Y66.178 E.17027
G1 X56.229 Y62.785 E.17027
G1 X59.622 Y62.785 E.17027
G1 X59.622 Y59.393 E.17027
G1 X66.408 Y59.393 E.34053
G1 X66.408 Y56 E.17027
G1 X69.8 Y56 E.17027
G1 X69.8 Y52.607 E.17027
G1 X76.586 Y52.607 E.34053
G1 X76.586 Y49.214 E.17027
G1 X79.978 Y49.214 E.17027
G1 X79.978 Y45.822 E.17027
G1 X83.371 Y45.822 E.17027
G1 X83.371 Y42.429 E.17027
G1 X86.764 Y42.429 E.17027
G1 X86.764 Y39.036 E.17027
G1 X90.156 Y39.036 E.17027
G1 X90.156 Y35.644 E.17027
G1 X93.549 Y35.644 E.17027
G1 X93.549 Y32.251 E.17027
G1 X100.335 Y32.251 E.34053
G1 X100.335 Y28.858 E.17027
G1 X103.727 Y28.858 E.17027
G1 X103.727 Y25.466 E.17027
G1 X161.09 Y25.466 E2.87881
G1 X161.09 Y35.279 E.4925
G1 X160.511 Y35.176 F7800
G1 F1800
G1 X160.511 Y25.776 E.47173
G1 X160.127 Y25.776 E.01923
G1 X160.127 Y35.02 E.46394
G1 X159.744 Y35.02 E.01923
G1 X159.744 Y25.776 E.46394
G1 X159.361 Y25.776 E.01923
G1 X159.361 Y35.02 E.46394
G1 X158.978 Y35.02 E.01923
G1 X158.978 Y25.776 E.46394
G1 X158.595 Y25.776 E.01923
G1 X158.595 Y35.02 E.46394
G1 X158.211 Y35.02 E.01923
G1 X158.211 Y25.776 E.46394
G1 X157.828 Y25.776 E.01923
G1 X157.828 Y35.02 E.46394
G1 X157.445 Y35.02 E.01923
G1 X157.445 Y25.776 E.46394
G1 X157.062 Y25.776 E.01923
G1 X157.062 Y35.02 E.46394
G1 X156.679 Y35.02 E.01923
G1 X156.679 Y25.776 E.46394
G1 X156.295 Y25.776 E.01923
G1 X156.295 Y35.02 E.46394
G1 X155.912 Y35.02 E.01923
G1 X155.912 Y25.776 E.46394
G1 X155.529 Y25.776 E.01923
G1 X155.529 Y35.02 E.46394
G1 X155.146 Y35.02 E.01923
G1 X155.146 Y25.776 E.46394
G1 X154.762 Y25.776 E.01923
G1 X154.762 Y35.02 E.46394
G1 X154.379 Y35.02 E.01923
G1 X154.379 Y25.776 E.46394
G1 X153.996 Y25.776 E.01923
G1 X153.996 Y35.02 E.46394
G1 X153.613 Y35.02 E.01923
G1 X153.613 Y25.776 E.46394
G1 X153.23 Y25.776 E.01923
G1 X153.23 Y35.02 E.46394
G1 X152.846 Y35.02 E.01923
G1 X152.846 Y25.776 E.46394
G1 X152.463 Y25.776 E.01923
G1 X152.463 Y35.02 E.46394
G1 X152.08 Y35.02 E.01923
G1 X152.08 Y25.776 E.46394
G1 X151.697 Y25.776 E.01923
G1 X151.697 Y35.02 E.46394
G1 X151.314 Y35.02 E.01923
G1 X151.314 Y25.776 E.46394
G1 X150.93 Y25.776 E.01923
G1 X150.93 Y35.02 E.46394
G1 X150.547 Y35.02 E.01923
G1 X150.547 Y25.776 E.46394
G1 X150.164 Y25.776 E.01923
G1 X150.164 Y35.02 E.46394
G1 X149.781 Y35.02 E.01923
G1 X149.781 Y25.776 E.46394
G1 X149.398 Y25.776 E.01923
G1 X149.398 Y35.02 E.46394
G1 X149.014 Y35.02 E.01923
G1 X149.014 Y25.776 E.46394
G1 X148.631 Y25.776 E.01923
G1 X148.631 Y35.02 E.46394
G1 X148.248 Y35.02 E.01923
G1 X148.248 Y25.776 E.46394
G1 X147.865 Y25.776 E.01923
G1 X147.865 Y35.02 E.46394
G1 X147.482 Y35.02 E.01923
G1 X147.482 Y25.776 E.46394
G1 X147.098 Y25.776 E.01923
G1 X147.098 Y35.02 E.46394
G1 X146.715 Y35.02 E.01923
G1 X146.715 Y25.776 E.46394
G1 X146.332 Y25.776 E.01923
G1 X146.332 Y35.02 E.46394
G1 X145.949 Y35.02 E.01923
G1 X145.949 Y25.776 E.46394
G1 X145.565 Y25.776 E.01923
G1 X145.565 Y35.02 E.46394
G1 X145.182 Y35.02 E.01923
G1 X145.182 Y25.776 E.46394
G1 X144.799 Y25.776 E.01923
G1 X144.799 Y35.02 E.46394
G1 X144.416 Y35.02 E.01923
G1 X144.416 Y25.776 E.46394
G1 X144.033 Y25.776 E.01923
G1 X144.033 Y35.02 E.46394
G1 X143.649 Y35.02 E.01923
G1 X143.649 Y30.21 E.24143
G1 X143.266 Y30.622 E.02823
G1 X143.266 Y35.02 E.22076
G1 X142.883 Y35.02 E.01923
G1 X142.883 Y31.033 E.20009
G1 X142.5 Y31.445 E.02823
G1 X142.5 Y35.02 E.17942
G1 X142.117 Y35.02 E.01923
G1 X142.117 Y31.857 E.15875
G1 X141.733 Y32.269 E.02823
G1 X141.733 Y35.02 E.13808
G1 X141.35 Y35.02 E.01923
G1 X141.35 Y32.681 E.11741
G1 X140.967 Y33.093 E.02823
G1 X140.967 Y35.02 E.09674
G1 X140.584 Y35.02 E.01923
G1 X140.584 Y33.505 E.07607
G1 X140.201 Y33.916 E.02823
G1 X140.201 Y35.02 E.0554
G1 X139.817 Y35.02 E.01923
G1 X139.817 Y34.328 E.03473
G1 X139.434 Y34.74 E.02823
G1 X139.434 Y35.176 E.02185
G1 X143.649 Y29.639 F7800
G1 F1800
G1 X143.649 Y25.776 E.19389
G1 X143.266 Y25.776 E.01923
G1 X143.266 Y28.678 E.14564
G1 X142.883 Y28.678 E.01923
G1 X142.883 Y25.776 E.14564
G1 X142.5 Y25.776 E.01923
G1 X142.5 Y28.678 E.14564
G1 X142.117 Y28.678 E.01923
G1 X142.117 Y25.776 E.14564
G1 X141.733 Y25.776 E.01923
G1 X141.733 Y28.678 E.14564
G1 X141.35 Y28.678 E.01923
G1 X141.35 Y25.776 E.14564
G1 X140.967 Y25.776 E.01923
G1 X140.967 Y28.678 E.14564
G1 X140.584 Y28.678 E.01923
G1 X140.584 Y25.776 E.14564
G1 X140.201 Y25.776 E.01923
G1 X140.201 Y28.678 E.14564
G1 X139.817 Y28.678 E.01923
G1 X139.817 Y25.776 E.14564
G1 X139.434 Y25.776 E.01923
G1 X139.434 Y28.678 E.14564
G1 X139.051 Y28.678 E.01923
G1 X139.051 Y25.776 E.14564
G1 X138.668 Y25.776 E.01923
G1 X138.668 Y28.678 E.14564
G1 X138.284 Y28.678 E.01923
G1 X138.284 Y25.776 E.14564
G1 X137.901 Y25.776 E.01923
G1 X137.901 Y28.678 E.14564
G1 X137.518 Y28.678 E.01923
G1 X137.518 Y25.776 E.14564
G1 X137.135 Y25.776 E.01923
G1 X137.135 Y28.678 E.14564
G1 X136.752 Y28.678 E.01923
G1 X136.752 Y25.776 E.14564
G1 X136.368 Y25.776 E.01923
G1 X136.368 Y28.678 E.14564
G1 X135.985 Y28.678 E.01923
G1 X135.985 Y25.776 E.14564
G1 X135.602 Y25.776 E.01923
G1 X135.602 Y28.678 E.14564
G1 X135.219 Y28.678 E.01923
G1 X135.219 Y25.776 E.14564
G1 X134.836 Y25.776 E.01923
G1 X134.836 Y28.678 E.14564
G1 X134.452 Y28.678 E.01923
G1 X134.452 Y25.776 E.14564
G1 X134.069 Y25.776 E.01923
G1 X134.069 Y28.678 E.14564
G1 X133.686 Y28.678 E.01923
G1 X133.686 Y25.776 E.14564
G1 X133.303 Y25.776 E.01923
G1 X133.303 Y28.678 E.14564
G1 X132.92 Y28.678 E.01923
G1 X132.92 Y25.776 E.14564
G1 X132.536 Y25.776 E.01923
G1 X132.536 Y28.678 E.14564
G1 X132.153 Y28.678 E.01923
G1 X132.153 Y25.776 E.14564
G1 X131.77 Y25.776 E.01923
G1 X131.77 Y28.678 E.14564
G1 X131.387 Y28.678 E.01923
G1 X131.387 Y25.776 E.14564
G1 X131.003 Y25.776 E.01923
G1 X131.003 Y28.678 E.14564
G1 X130.62 Y28.678 E.01923
G1 X130.62 Y25.776 E.14564
G1 X130.237 Y25.776 E.01923
G1 X130.237 Y28.678 E.14564
G1 X129.854 Y28.678 E.01923
G1 X129.854 Y25.776 E.14564
G1 X129.471 Y25.776 E.01923
G1 X129.471 Y28.678 E.14564
G1 X129.087 Y28.678 E.01923
G1 X129.087 Y25.776 E.14564
G1 X128.704 Y25.776 E.01923
G1 X128.704 Y28.678 E.14564
G1 X128.321 Y28.678 E.01923
G1 X128.321 Y25.776 E.14564
G1 X127.938 Y25.776 E.01923
G1 X127.938 Y28.678 E.14564
G1 X127.555 Y28.678 E.01923
G1 X127.555 Y25.776 E.14564
G1 X127.171 Y25.776 E.01923
G1 X127.171 Y28.678 E.14564
G1 X126.788 Y28.678 E.01923
G1 X126.788 Y25.776 E.14564
G1 X126.405 Y25.776 E.01923
G1 X126.405 Y28.678 E.14564
G1 X126.022 Y28.678 E.01923
G1 X126.022 Y25.776 E.14564
G1 X125.639 Y25.776 E.01923
G1 X125.639 Y28.678 E.14564
G1 X125.255 Y28.678 E.01923
G1 X125.255 Y25.776 E.14564
G1 X124.872 Y25.776 E.01923
G1 X124.872 Y28.678 E.14564
G1 X124.489 Y28.678 E.01923
G1 X124.489 Y25.776 E.14564
G1 X124.106 Y25.776 E.01923
G1 X124.106 Y28.678 E.14564
G1 X123.722 Y28.678 E.01923
G1 X123.722 Y25.776 E.14564
G1 X123.339 Y25.776 E.01923
G1 X123.339 Y28.678 E.14564
G1 X122.956 Y28.678 E.01923
G1 X122.956 Y25.776 E.14564
G1 X122.573 Y25.776 E.01923
G1 X122.573 Y28.678 E.14564
G1 X122.19 Y28.678 E.01923
G1 X122.19 Y25.776 E.14564
G1 X121.806 Y25.776 E.01923
G1 X121.806 Y28.678 E.14564
G1 X121.423 Y28.678 E.01923
G1 X121.423 Y25.776 E.14564
G1 X121.04 Y25.776 E.01923
G1 X121.04 Y28.678 E.14564
G1 X120.657 Y28.678 E.01923
G1 X120.657 Y25.776 E.14564
G1 X120.274 Y25.776 E.01923
G1 X120.274 Y28.73 E.14823
G1 X119.89 Y28.373 E.02626
G1 X119.89 Y25.776 E.13035
G1 X119.507 Y25.776 E.01923
G1 X119.507 Y28.533 E.13838
G1 X119.124 Y28.945 E.02824
G1 X119.124 Y25.776 E.15905
G1 X118.741 Y25.776 E.01923
G1 X118.741 Y29.357 E.17973
G1 X118.358 Y29.769 E.02824
G1 X118.358 Y25.776 E.20041
G1 X117.974 Y25.776 E.01923
G1 X117.974 Y30.181 E.22108
G1 X117.591 Y30.593 E.02824
G1 X117.591 Y25.776 E.24176
G1 X117.208 Y25.776 E.01923
G1 X117.208 Y31.005 E.26244
G1 X116.825 Y31.417 E.02824
G1 X116.825 Y25.776 E.28312
G1 X116.441 Y25.776 E.01923
G1 X116.441 Y31.829 E.30379
G1 X116.058 Y32.241 E.02824
G1 X116.058 Y25.776 E.32447
G1 X115.675 Y25.776 E.01923
G1 X115.675 Y32.653 E.34514
G1 X115.292 Y33.065 E.02824
G1 X115.292 Y25.776 E.36582
G1 X114.909 Y25.776 E.01923
M73 P0 R316
G1 X114.909 Y33.477 E.38649
G1 X114.525 Y33.889 E.02824
G1 X114.525 Y25.776 E.40717
G1 X114.142 Y25.776 E.01923
G1 X114.142 Y34.301 E.42784
G1 X113.759 Y34.713 E.02824
G1 X113.759 Y25.776 E.44852
G1 X113.376 Y25.776 E.01923
G1 X113.376 Y35.125 E.46919
G1 X112.993 Y35.537 E.02824
G1 X112.993 Y25.776 E.48987
G1 X112.609 Y25.776 E.01923
G1 X112.609 Y35.949 E.51054
G1 X112.226 Y36.361 E.02824
G1 X112.226 Y25.776 E.53122
G1 X111.843 Y25.776 E.01923
G1 X111.843 Y36.773 E.55189
G1 X111.46 Y37.185 E.02824
G1 X111.46 Y25.776 E.57256
G1 X111.077 Y25.776 E.01923
G1 X111.077 Y37.597 E.59324
G1 X110.693 Y38.009 E.02824
G1 X110.693 Y25.776 E.61391
G1 X110.31 Y25.776 E.01923
G1 X110.31 Y38.421 E.63459
G1 X109.927 Y38.833 E.02824
G1 X109.927 Y25.776 E.65526
G1 X109.544 Y25.776 E.01923
G1 X109.544 Y39.245 E.67594
G1 X109.161 Y39.657 E.02824
G1 X109.161 Y25.776 E.69661
G1 X108.777 Y25.776 E.01923
G1 X108.777 Y40.069 E.71729
G1 X108.394 Y40.481 E.02824
G1 X108.394 Y25.776 E.73796
G1 X108.011 Y25.776 E.01923
G1 X108.011 Y40.892 E.75864
G1 X107.628 Y41.304 E.02824
G1 X107.628 Y25.776 E.77931
G1 X107.244 Y25.776 E.01923
G1 X107.244 Y41.716 E.79999
G1 X106.861 Y42.128 E.02824
G1 X106.861 Y25.776 E.82066
G1 X106.478 Y25.776 E.01923
G1 X106.478 Y42.54 E.84134
G1 X106.095 Y42.952 E.02824
G1 X106.095 Y25.776 E.86201
G1 X105.712 Y25.776 E.01923
G1 X105.712 Y43.364 E.88268
G1 X105.328 Y43.776 E.02824
G1 X105.328 Y25.776 E.90336
G1 X104.945 Y25.776 E.01923
G1 X104.945 Y44.188 E.92403
G1 X104.562 Y44.6 E.02824
G1 X104.562 Y25.776 E.94471
G1 X104.179 Y25.776 E.01923
G1 X104.179 Y45.012 E.96538
G1 X103.796 Y45.424 E.02824
G1 X103.796 Y29.169 E.81579
G1 X103.412 Y29.169 E.01923
G1 X103.412 Y45.836 E.83647
G1 X103.029 Y46.248 E.02824
G1 X103.029 Y29.169 E.85714
G1 X102.646 Y29.169 E.01923
G1 X102.646 Y46.66 E.87782
G1 X102.263 Y47.072 E.02824
G1 X102.263 Y29.169 E.89849
G1 X101.88 Y29.169 E.01923
G1 X101.88 Y47.484 E.91917
G1 X101.496 Y47.896 E.02824
G1 X101.496 Y29.169 E.93984
G1 X101.113 Y29.169 E.01923
G1 X101.113 Y48.308 E.96052
G1 X100.73 Y48.72 E.02824
G1 X100.73 Y29.169 E.98119
G1 X100.645 Y29.169 E.00426
G1 X100.645 Y32.561 E.17027
G1 X100.347 Y32.561 E.01497
G1 X100.347 Y49.132 E.8316
G1 X99.963 Y49.544 E.02824
G1 X99.963 Y32.561 E.85228
G1 X99.58 Y32.561 E.01923
G1 X99.58 Y49.956 E.87296
G1 X99.197 Y50.368 E.02824
G1 X99.197 Y32.561 E.89363
G1 X98.814 Y32.561 E.01923
G1 X98.814 Y50.78 E.91431
G1 X98.431 Y51.192 E.02824
G1 X98.431 Y32.561 E.93498
G1 X98.047 Y32.561 E.01923
G1 X98.047 Y51.604 E.95566
G1 X97.664 Y52.016 E.02824
G1 X97.664 Y32.561 E.97634
G1 X97.281 Y32.561 E.01923
G1 X97.281 Y52.428 E.99701
G1 X96.898 Y52.84 E.02824
G1 X96.898 Y32.561 E1.01769
G1 X96.515 Y32.561 E.01923
G1 X96.515 Y53.252 E1.03836
G1 X96.131 Y53.664 E.02824
G1 X96.131 Y32.561 E1.05904
G1 X95.748 Y32.561 E.01923
G1 X95.748 Y54.076 E1.07972
G1 X95.365 Y54.488 E.02824
G1 X95.365 Y32.561 E1.10039
G1 X94.982 Y32.561 E.01923
G1 X94.982 Y54.9 E1.12107
G1 X94.599 Y55.312 E.02824
G1 X94.599 Y32.561 E1.14174
G1 X94.215 Y32.561 E.01923
G1 X94.215 Y55.724 E1.16242
G1 X93.832 Y56.136 E.02824
G1 X93.832 Y35.954 E1.01283
G1 X93.449 Y35.954 E.01923
G1 X93.449 Y56.548 E1.03351
G1 X93.066 Y56.96 E.02824
G1 X93.066 Y35.954 E1.05419
G1 X92.682 Y35.954 E.01923
G1 X92.682 Y57.372 E1.07487
G1 X92.299 Y57.784 E.02824
G1 X92.299 Y35.954 E1.09555
G1 X91.916 Y35.954 E.01923
G1 X91.916 Y58.196 E1.11622
G1 X91.533 Y58.608 E.02824
G1 X91.533 Y35.954 E1.1369
G1 X91.15 Y35.954 E.01923
G1 X91.15 Y59.02 E1.15758
G1 X90.766 Y59.432 E.02824
G1 X90.766 Y35.954 E1.17826
G1 X90.467 Y35.954 E.01503
G1 X90.467 Y39.347 E.17027
G1 X90.383 Y39.347 E.0042
G1 X90.383 Y59.844 E1.02867
G1 X90 Y60.256 E.02824
G1 X90 Y39.347 E1.04935
G1 X89.617 Y39.347 E.01923
G1 X89.617 Y60.668 E1.07002
G1 X89.234 Y61.08 E.02824
G1 X89.234 Y39.347 E1.0907
G1 X88.85 Y39.347 E.01923
G1 X88.85 Y61.492 E1.11138
G1 X88.467 Y61.904 E.02824
G1 X88.467 Y39.347 E1.13206
G1 X88.084 Y39.347 E.01923
G1 X88.084 Y62.316 E1.15274
G1 X87.701 Y62.728 E.02824
G1 X87.701 Y39.347 E1.17341
G1 X87.318 Y39.347 E.01923
G1 X87.318 Y63.14 E1.19409
G1 X86.934 Y63.552 E.02824
G1 X86.934 Y42.739 E1.0445
G1 X86.551 Y42.739 E.01923
G1 X86.551 Y63.964 E1.06518
G1 X86.168 Y64.376 E.02824
G1 X86.168 Y42.739 E1.08586
G1 X85.785 Y42.739 E.01923
G1 X85.785 Y64.788 E1.10654
G1 X85.401 Y65.2 E.02824
G1 X85.401 Y42.739 E1.12721
G1 X85.018 Y42.739 E.01923
G1 X85.018 Y65.612 E1.14789
G1 X84.635 Y66.024 E.02824
G1 X84.635 Y42.739 E1.16857
G1 X84.252 Y42.739 E.01923
G1 X84.252 Y66.436 E1.18925
G1 X83.869 Y66.848 E.02824
G1 X83.869 Y42.739 E1.20993
G1 X83.681 Y42.739 E.00939
G1 X83.681 Y46.132 E.17027
G1 X83.485 Y46.132 E.00984
G1 X83.485 Y67.26 E1.06034
G1 X83.102 Y67.672 E.02824
G1 X83.102 Y46.132 E1.08101
G1 X82.719 Y46.132 E.01923
G1 X82.719 Y68.084 E1.10169
G1 X82.336 Y68.496 E.02824
G1 X82.336 Y46.132 E1.12237
G1 X81.953 Y46.132 E.01923
G1 X81.953 Y68.908 E1.14305
G1 X81.569 Y69.32 E.02824
G1 X81.569 Y46.132 E1.16373
G1 X81.186 Y46.132 E.01923
M73 P0 R315
G1 X81.186 Y69.732 E1.1844
G1 X80.803 Y70.144 E.02824
G1 X80.803 Y46.132 E1.20508
G1 X80.42 Y46.132 E.01923
G1 X80.42 Y70.556 E1.22575
G1 X80.037 Y70.968 E.02824
G1 X80.037 Y49.525 E1.07616
G1 X79.653 Y49.525 E.01923
G1 X79.653 Y71.38 E1.09684
G1 X79.27 Y71.792 E.02824
G1 X79.27 Y49.525 E1.11751
G1 X78.887 Y49.525 E.01923
G1 X78.887 Y72.204 E1.13819
G1 X78.504 Y72.616 E.02824
G1 X78.504 Y49.525 E1.15887
G1 X78.12 Y49.525 E.01923
G1 X78.12 Y73.028 E1.17954
G1 X77.737 Y73.44 E.02824
G1 X77.737 Y49.525 E1.20022
G1 X77.354 Y49.525 E.01923
G1 X77.354 Y73.852 E1.22089
G1 X76.971 Y74.264 E.02824
G1 X76.971 Y49.525 E1.24157
G1 X76.896 Y49.525 E.00375
G1 X76.896 Y52.918 E.17027
G1 X76.588 Y52.918 E.01548
G1 X76.588 Y74.676 E1.09198
G1 X76.204 Y75.088 E.02824
G1 X76.204 Y52.918 E1.11265
G1 X75.821 Y52.918 E.01923
G1 X75.821 Y75.5 E1.13333
G1 X75.438 Y75.912 E.02824
G1 X75.438 Y52.918 E1.154
G1 X75.055 Y52.918 E.01923
