; generated by PrusaSlicer 2.5.0+win64 on 2022-12-07 at 00:15:00 UTC

; 

; external perimeters extrusion width = 1.00mm
; perimeters extrusion width = 1.00mm
; infill extrusion width = 1.00mm
; solid infill extrusion width = 1.00mm
; top infill extrusion width = 1.00mm
; support material extrusion width = 1.00mm
; first layer extrusion width = 0.42mm

M73 P0 R188
M107
;TYPE:Custom
G90 ; use absolute coordinates
M83 ; extruder relative mode
M140 S60 ; set final bed temp
M104 S150 ; set temporary nozzle temp to prevent oozing during homing and auto bed leveling
G4 S10 ; allow partial nozzle warmup
G28 ; home all axisG1 Z50 F240
G1 X7.6 Y10 F3000
M104 S210 ; set final nozzle temp
M190 S60 ; wait for bed temp to stabilize
M109 S210 ; wait for nozzle temp to stabilize
G1 Z0.28 F240
G92 E0
G1 Y140 E10 F1500 ; prime the nozzle
G1 X4 F5000
G92 E0
G1 Y10 E10 F1200 ; prime the nozzle
G92 E0
G21 ; set units to millimeters
G90 ; use absolute coordinates
M83 ; use relative distances for extrusion
; Filament gcode
M107
;LAYER_CHANGE
;Z:0.35
;HEIGHT:0.35
;BEFORE_LAYER_CHANGE
G92 E0
;0.35


G1 E-1 F3600
M73 P0 R187
G1 Z.35 F7800
;AFTER_LAYER_CHANGE
;0.35
G1 X161.355 Y93.426
G1 E1 F2400
;TYPE:Support material
;WIDTH:0.42
G1 F1800
G1 X157.423 Y93.426 E.19734
G1 X157.423 Y86.215 E.3619
G1 X156.581 Y85.84 E.04625
G1 X119.302 Y119.329 E2.51494
G1 X111.833 Y127.353 E.55018
G1 X110.778 Y127.353 E.05294
G1 X110.778 Y123.961 E.17027
G1 X107.072 Y123.961 E.18597
G1 X107.072 Y130.746 E.34053
G1 X103.679 Y130.746 E.17027
G1 X103.679 Y135.16 E.22152
G1 X102.014 Y136.656 E.11236
G1 X102.363 Y137.568 E.04901
G1 X103.679 Y137.568 E.06605
G1 X103.679 Y140.924 E.16843
G1 X63.28 Y140.924 E2.02749
G1 X63.28 Y131.059 E.49509
G1 X87.029 Y131.059 E1.19186
G1 X87.029 Y120.881 E.5108
G1 X90.421 Y120.881 E.17027
G1 X90.421 Y117.488 E.17027
G1 X93.814 Y117.488 E.17027
G1 X93.814 Y114.096 E.17027
G1 X103.992 Y114.096 E.5108
G1 X103.992 Y103.917 E.5108
G1 X107.385 Y103.917 E.17027
G1 X107.385 Y100.525 E.17027
G1 X110.778 Y100.525 E.17027
G1 X110.778 Y93.739 E.34053
G1 X114.17 Y93.739 E.17027
G1 X114.17 Y90.347 E.17027
G1 X120.956 Y90.347 E.34053
G1 X120.956 Y86.954 E.17027
G1 X127.741 Y86.954 E.34053
G1 X127.741 Y83.561 E.17027
G1 X131.134 Y83.561 E.17027
G1 X131.134 Y80.169 E.17027
G1 X134.527 Y80.169 E.17027
G1 X134.527 Y76.776 E.17027
G1 X137.919 Y76.776 E.17027
G1 X137.919 Y73.383 E.17027
G1 X141.312 Y73.383 E.17027
G1 X141.312 Y69.99 E.17027
G1 X144.705 Y69.99 E.17027
G1 X144.705 Y66.598 E.17027
G1 X151.49 Y66.598 E.34053
G1 X151.49 Y56.42 E.5108
G1 X161.355 Y56.42 E.49509
G1 X161.355 Y93.375 E1.85462
G1 X160.776 Y93.271 F7800
G1 F1800
G1 X160.776 Y56.73 E1.83385
G1 X160.392 Y56.73 E.01923
G1 X160.392 Y93.116 E1.82607
G1 X160.009 Y93.116 E.01923
G1 X160.009 Y56.73 E1.82607
G1 X159.626 Y56.73 E.01923
G1 X159.626 Y93.116 E1.82607
G1 X159.243 Y93.116 E.01923
G1 X159.243 Y56.73 E1.82607
G1 X158.86 Y56.73 E.01923
G1 X158.86 Y93.116 E1.82607
G1 X158.476 Y93.116 E.01923
G1 X158.476 Y56.73 E1.82607
G1 X158.093 Y56.73 E.01923
G1 X158.093 Y93.116 E1.82607
G1 X157.733 Y93.116 E.01806
G1 X157.733 Y86.014 E.35643
G1 X157.71 Y86.003 E.00129
G1 X157.71 Y56.73 E1.46911
G1 X157.327 Y56.73 E.01923
G1 X157.327 Y85.833 E1.46054
G1 X156.944 Y85.662 E.02106
G1 X156.944 Y56.73 E1.45196
G1 X156.56 Y56.73 E.01923
G1 X156.56 Y85.491 E1.44339
G1 X156.524 Y85.474 E.00201
G1 X156.177 Y85.786 E.02338
G1 X156.177 Y56.73 E1.45819
G1 X155.794 Y56.73 E.01923
G1 X155.794 Y86.13 E1.47547
G1 X155.411 Y86.474 E.02585
G1 X155.411 Y56.73 E1.49275
G1 X155.027 Y56.73 E.01923
G1 X155.027 Y86.819 E1.51003
G1 X154.644 Y87.163 E.02585
G1 X154.644 Y56.73 E1.5273
G1 X154.261 Y56.73 E.01923
G1 X154.261 Y87.507 E1.54458
G1 X153.878 Y87.851 E.02585
G1 X153.878 Y56.73 E1.56186
G1 X153.495 Y56.73 E.01923
G1 X153.495 Y88.196 E1.57914
G1 X153.111 Y88.54 E.02585
G1 X153.111 Y56.73 E1.59641
G1 X152.728 Y56.73 E.01923
G1 X152.728 Y88.884 E1.61369
G1 X152.345 Y89.228 E.02585
G1 X152.345 Y56.73 E1.63096
G1 X151.962 Y56.73 E.01923
G1 X151.962 Y89.573 E1.64824
G1 X151.579 Y89.917 E.02585
G1 X151.579 Y66.908 E1.15471
G1 X151.195 Y66.908 E.01923
G1 X151.195 Y90.261 E1.17199
G1 X150.812 Y90.605 E.02585
G1 X150.812 Y66.908 E1.18926
G1 X150.429 Y66.908 E.01923
G1 X150.429 Y90.949 E1.20654
G1 X150.046 Y91.294 E.02585
G1 X150.046 Y66.908 E1.22381
G1 X149.663 Y66.908 E.01923
G1 X149.663 Y91.638 E1.24109
G1 X149.279 Y91.982 E.02585
G1 X149.279 Y66.908 E1.25836
G1 X148.896 Y66.908 E.01923
G1 X148.896 Y92.326 E1.27563
G1 X148.513 Y92.67 E.02585
G1 X148.513 Y66.908 E1.29291
G1 X148.13 Y66.908 E.01923
G1 X148.13 Y93.015 E1.31018
G1 X147.746 Y93.359 E.02585
G1 X147.746 Y66.908 E1.32746
G1 X147.363 Y66.908 E.01923
G1 X147.363 Y93.703 E1.34473
G1 X146.98 Y94.047 E.02585
G1 X146.98 Y66.908 E1.36201
G1 X146.597 Y66.908 E.01923
G1 X146.597 Y94.392 E1.37928
G1 X146.214 Y94.736 E.02585
G1 X146.214 Y66.908 E1.39655
G1 X145.83 Y66.908 E.01923
M73 P0 R186
G1 X145.83 Y95.08 E1.41383
G1 X145.447 Y95.424 E.02585
G1 X145.447 Y66.908 E1.4311
G1 X145.064 Y66.908 E.01923
G1 X145.064 Y95.768 E1.44838
G1 X144.681 Y96.113 E.02585
G1 X144.681 Y70.301 E1.29539
G1 X144.298 Y70.301 E.01923
G1 X144.298 Y96.457 E1.31266
G1 X143.914 Y96.801 E.02585
G1 X143.914 Y70.301 E1.32993
G1 X143.531 Y70.301 E.01923
G1 X143.531 Y97.145 E1.34721
G1 X143.148 Y97.489 E.02585
G1 X143.148 Y70.301 E1.36448
G1 X142.765 Y70.301 E.01923
G1 X142.765 Y97.834 E1.38176
G1 X142.382 Y98.178 E.02585
G1 X142.382 Y70.301 E1.39903
G1 X141.998 Y70.301 E.01923
G1 X141.998 Y98.522 E1.41631
G1 X141.615 Y98.866 E.02585
G1 X141.615 Y73.694 E1.26331
G1 X141.232 Y73.694 E.01923
G1 X141.232 Y99.21 E1.28059
G1 X140.849 Y99.555 E.02585
G1 X140.849 Y73.694 E1.29786
G1 X140.465 Y73.694 E.01923
G1 X140.465 Y99.899 E1.31514
G1 X140.082 Y100.243 E.02585
G1 X140.082 Y73.694 E1.33241
G1 X139.699 Y73.694 E.01923
G1 X139.699 Y100.587 E1.34969
G1 X139.316 Y100.931 E.02585
G1 X139.316 Y73.694 E1.36696
G1 X138.933 Y73.694 E.01923
G1 X138.933 Y101.276 E1.38423
G1 X138.549 Y101.62 E.02585
G1 X138.549 Y73.694 E1.40151
G1 X138.23 Y73.694 E.01605
G1 X138.23 Y77.086 E.17027
G1 X138.166 Y77.086 E.00318
G1 X138.166 Y101.964 E1.24852
G1 X137.783 Y102.309 E.02586
G1 X137.783 Y77.086 E1.26581
G1 X137.4 Y77.086 E.01923
G1 X137.4 Y102.653 E1.28309
G1 X137.017 Y102.997 E.02586
G1 X137.017 Y77.086 E1.30038
G1 X136.633 Y77.086 E.01923
G1 X136.633 Y103.342 E1.31766
G1 X136.25 Y103.686 E.02586
G1 X136.25 Y77.086 E1.33495
G1 X135.867 Y77.086 E.01923
G1 X135.867 Y104.031 E1.35223
G1 X135.484 Y104.375 E.02586
G1 X135.484 Y77.086 E1.36952
G1 X135.101 Y77.086 E.01923
G1 X135.101 Y104.719 E1.3868
G1 X134.717 Y105.064 E.02586
G1 X134.717 Y80.479 E1.23382
G1 X134.334 Y80.479 E.01923
G1 X134.334 Y105.408 E1.2511
G1 X133.951 Y105.753 E.02586
G1 X133.951 Y80.479 E1.26839
G1 X133.568 Y80.479 E.01923
G1 X133.568 Y106.097 E1.28567
G1 X133.185 Y106.442 E.02586
G1 X133.185 Y80.479 E1.30296
G1 X132.801 Y80.479 E.01923
G1 X132.801 Y106.786 E1.32024
G1 X132.418 Y107.13 E.02586
G1 X132.418 Y80.479 E1.33753
G1 X132.035 Y80.479 E.01923
G1 X132.035 Y107.475 E1.35481
G1 X131.652 Y107.819 E.02586
G1 X131.652 Y80.479 E1.37209
G1 X131.444 Y80.479 E.01041
G1 X131.444 Y83.872 E.17027
G1 X131.268 Y83.872 E.00882
G1 X131.268 Y108.164 E1.21911
G1 X130.885 Y108.508 E.02586
G1 X130.885 Y83.872 E1.2364
G1 X130.502 Y83.872 E.01923
G1 X130.502 Y108.852 E1.25368
G1 X130.119 Y109.197 E.02586
G1 X130.119 Y83.872 E1.27097
G1 X129.736 Y83.872 E.01923
G1 X129.736 Y109.541 E1.28824
G1 X129.352 Y109.885 E.02585
G1 X129.352 Y83.872 E1.30552
G1 X128.969 Y83.872 E.01923
G1 X128.969 Y110.229 E1.32279
G1 X128.586 Y110.574 E.02585
G1 X128.586 Y83.872 E1.34007
G1 X128.203 Y83.872 E.01923
M73 P1 R186
G1 X128.203 Y110.918 E1.35734
G1 X127.82 Y111.262 E.02585
G1 X127.82 Y87.264 E1.20435
G1 X127.436 Y87.264 E.01923
G1 X127.436 Y111.606 E1.22163
G1 X127.053 Y111.951 E.02585
G1 X127.053 Y87.264 E1.2389
G1 X126.67 Y87.264 E.01923
G1 X126.67 Y112.295 E1.25618
G1 X126.287 Y112.639 E.02585
G1 X126.287 Y87.264 E1.27345
G1 X125.904 Y87.264 E.01923
G1 X125.904 Y112.983 E1.29073
G1 X125.52 Y113.327 E.02585
G1 X125.52 Y87.264 E1.308
G1 X125.137 Y87.264 E.01923
G1 X125.137 Y113.672 E1.32527
G1 X124.754 Y114.016 E.02585
G1 X124.754 Y87.264 E1.34255
G1 X124.371 Y87.264 E.01923
G1 X124.371 Y114.36 E1.35982
G1 X123.987 Y114.704 E.02585
G1 X123.987 Y87.264 E1.3771
G1 X123.604 Y87.264 E.01923
G1 X123.604 Y115.048 E1.39437
G1 X123.221 Y115.393 E.02585
G1 X123.221 Y87.264 E1.41165
G1 X122.838 Y87.264 E.01923
G1 X122.838 Y115.737 E1.42892
G1 X122.455 Y116.081 E.02585
G1 X122.455 Y87.264 E1.44619
G1 X122.071 Y87.264 E.01923
G1 X122.071 Y116.425 E1.46347
G1 X121.688 Y116.769 E.02585
M73 P1 R185
G1 X121.688 Y87.264 E1.48074
G1 X121.305 Y87.264 E.01923
G1 X121.305 Y117.114 E1.49801
G1 X120.922 Y117.458 E.02585
G1 X120.922 Y90.657 E1.34502
G1 X120.539 Y90.657 E.01923
G1 X120.539 Y117.802 E1.36229
G1 X120.155 Y118.146 E.02585
G1 X120.155 Y90.657 E1.37957
G1 X119.772 Y90.657 E.01923
G1 X119.772 Y118.49 E1.39684
G1 X119.389 Y118.835 E.02585
G1 X119.389 Y90.657 E1.41411
G1 X119.006 Y90.657 E.01923
G1 X119.006 Y119.191 E1.43198
G1 X118.623 Y119.602 E.02823
G1 X118.623 Y90.657 E1.45265
G1 X118.239 Y90.657 E.01923
G1 X118.239 Y120.014 E1.47332
G1 X117.856 Y120.426 E.02823
G1 X117.856 Y90.657 E1.49399
G1 X117.473 Y90.657 E.01923
G1 X117.473 Y120.838 E1.51465
G1 X117.09 Y121.25 E.02823
G1 X117.09 Y90.657 E1.53532
G1 X116.706 Y90.657 E.01923
G1 X116.706 Y121.661 E1.55599
G1 X116.323 Y122.073 E.02823
G1 X116.323 Y90.657 E1.57666
G1 X115.94 Y90.657 E.01923
G1 X115.94 Y122.485 E1.59732
G1 X115.557 Y122.897 E.02823
G1 X115.557 Y90.657 E1.61799
G1 X115.174 Y90.657 E.01923
G1 X115.174 Y123.309 E1.63866
G1 X114.79 Y123.721 E.02823
G1 X114.79 Y90.657 E1.65933
G1 X114.481 Y90.657 E.01554
G1 X114.481 Y94.05 E.17027
G1 X114.407 Y94.05 E.00369
G1 X114.407 Y124.131 E1.50966
G1 X114.024 Y124.541 E.02818
G1 X114.024 Y94.05 E1.53025
G1 X113.641 Y94.05 E.01923
G1 X113.641 Y124.952 E1.55086
G1 X113.258 Y125.364 E.02825
G1 X113.258 Y94.05 E1.57156
G1 X112.874 Y94.05 E.01923
G1 X112.874 Y125.777 E1.59225
G1 X112.491 Y126.189 E.02825
G1 X112.491 Y94.05 E1.61294
G1 X112.108 Y94.05 E.01923
G1 X112.108 Y126.601 E1.63364
G1 X111.725 Y127.014 E.02825
G1 X111.725 Y94.05 E1.65433
G1 X111.342 Y94.05 E.01923
G1 X111.342 Y127.043 E1.6558
G1 X111.088 Y127.043 E.01272
G1 X111.088 Y123.65 E.17027
G1 X110.958 Y123.65 E.00651
G1 X110.958 Y100.835 E1.145
G1 X110.575 Y100.835 E.01923
G1 X110.575 Y123.65 E1.145
G1 X110.192 Y123.65 E.01923
G1 X110.192 Y100.835 E1.145
G1 X109.809 Y100.835 E.01923
G1 X109.809 Y123.65 E1.145
G1 X109.425 Y123.65 E.01923
G1 X109.425 Y100.835 E1.145
G1 X109.042 Y100.835 E.01923
G1 X109.042 Y123.65 E1.145
G1 X108.659 Y123.65 E.01923
G1 X108.659 Y100.835 E1.145
G1 X108.276 Y100.835 E.01923
G1 X108.276 Y123.65 E1.145
G1 X107.893 Y123.65 E.01923
G1 X107.893 Y100.835 E1.145
G1 X107.695 Y100.835 E.0099
G1 X107.695 Y104.228 E.17027
G1 X107.509 Y104.228 E.00933
G1 X107.509 Y123.65 E.97474
G1 X107.126 Y123.65 E.01923
G1 X107.126 Y104.228 E.97474
G1 X106.743 Y104.228 E.01923
G1 X106.743 Y130.436 E1.31527
G1 X106.36 Y130.436 E.01923
G1 X106.36 Y104.228 E1.31527
G1 X105.977 Y104.228 E.01923
G1 X105.977 Y130.436 E1.31527
G1 X105.593 Y130.436 E.01923
G1 X105.593 Y104.228 E1.31527
G1 X105.21 Y104.228 E.01923
G1 X105.21 Y130.436 E1.31527
G1 X104.827 Y130.436 E.01923
G1 X104.827 Y104.228 E1.31527
G1 X104.444 Y104.228 E.01923
G1 X104.444 Y130.436 E1.31527
G1 X104.061 Y130.436 E.01923
G1 X104.061 Y114.406 E.80447
G1 X103.677 Y114.406 E.01923
G1 X103.677 Y130.436 E.80447
G1 X103.369 Y130.436 E.01548
G1 X103.369 Y135.022 E.23015
G1 X103.294 Y135.089 E.00505
G1 X103.294 Y114.406 E1.03799
G1 X102.911 Y114.406 E.01923
G1 X102.911 Y135.433 E1.05527
G1 X102.528 Y135.777 E.02585
G1 X102.528 Y114.406 E1.07255
G1 X102.144 Y114.406 E.01923
G1 X102.144 Y136.33 E1.10029
G1 X103.294 Y140.769 F7800
G1 F1800
G1 X103.294 Y137.879 E.14506
G1 X102.911 Y137.879 E.01923
G1 X102.911 Y140.614 E.13727
G1 X102.528 Y140.614 E.01923
G1 X102.528 Y137.879 E.13727
G1 X102.15 Y137.879 E.01897
G1 X102.144 Y137.865 E.00073
G1 X102.144 Y140.614 E.13796
G1 X101.761 Y140.614 E.01923
G1 X101.761 Y114.406 E1.31527
G1 X101.378 Y114.406 E.01923
G1 X101.378 Y140.614 E1.31527
G1 X100.995 Y140.614 E.01923
G1 X100.995 Y114.406 E1.31527
G1 X100.612 Y114.406 E.01923
G1 X100.612 Y140.614 E1.31527
G1 X100.228 Y140.614 E.01923
G1 X100.228 Y114.406 E1.31527
G1 X99.845 Y114.406 E.01923
G1 X99.845 Y140.614 E1.31527
G1 X99.462 Y140.614 E.01923
G1 X99.462 Y114.406 E1.31527
G1 X99.079 Y114.406 E.01923
G1 X99.079 Y140.614 E1.31527
G1 X98.696 Y140.614 E.01923
G1 X98.696 Y114.406 E1.31527
G1 X98.312 Y114.406 E.01923
M73 P1 R184
G1 X98.312 Y140.614 E1.31527
G1 X97.929 Y140.614 E.01923
G1 X97.929 Y114.406 E1.31527
G1 X97.546 Y114.406 E.01923
G1 X97.546 Y140.614 E1.31527
G1 X97.163 Y140.614 E.01923
G1 X97.163 Y114.406 E1.31527
G1 X96.78 Y114.406 E.01923
G1 X96.78 Y140.614 E1.31527
G1 X96.396 Y140.614 E.01923
G1 X96.396 Y114.406 E1.31527
G1 X96.013 Y114.406 E.01923
G1 X96.013 Y140.614 E1.31527
G1 X95.63 Y140.614 E.01923
G1 X95.63 Y114.406 E1.31527
G1 X95.247 Y114.406 E.01923
G1 X95.247 Y140.614 E1.31527
G1 X94.863 Y140.614 E.01923
G1 X94.863 Y114.406 E1.31527
G1 X94.48 Y114.406 E.01923
G1 X94.48 Y140.614 E1.31527
G1 X94.097 Y140.614 E.01923
G1 X94.097 Y117.799 E1.145
G1 X93.714 Y117.799 E.01923
G1 X93.714 Y140.614 E1.145
G1 X93.331 Y140.614 E.01923
G1 X93.331 Y117.799 E1.145
G1 X92.947 Y117.799 E.01923
G1 X92.947 Y140.614 E1.145
G1 X92.564 Y140.614 E.01923
G1 X92.564 Y117.799 E1.145
G1 X92.181 Y117.799 E.01923
G1 X92.181 Y140.614 E1.145
G1 X91.798 Y140.614 E.01923
G1 X91.798 Y117.799 E1.145
G1 X91.415 Y117.799 E.01923
G1 X91.415 Y140.614 E1.145
G1 X91.031 Y140.614 E.01923
G1 X91.031 Y117.799 E1.145
G1 X90.732 Y117.799 E.01503
G1 X90.732 Y121.191 E.17027
G1 X90.648 Y121.191 E.0042
G1 X90.648 Y140.614 E.97474
G1 X90.265 Y140.614 E.01923
G1 X90.265 Y121.191 E.97474
G1 X89.882 Y121.191 E.01923
G1 X89.882 Y140.614 E.97474
G1 X89.499 Y140.614 E.01923
G1 X89.499 Y121.191 E.97474
G1 X89.115 Y121.191 E.01923
G1 X89.115 Y140.614 E.97474
G1 X88.732 Y140.614 E.01923
G1 X88.732 Y121.191 E.97474
G1 X88.349 Y121.191 E.01923
G1 X88.349 Y140.614 E.97474
G1 X87.966 Y140.614 E.01923
G1 X87.966 Y121.191 E.97474
G1 X87.583 Y121.191 E.01923
G1 X87.583 Y140.614 E.97474
G1 X87.199 Y140.614 E.01923
G1 X87.199 Y131.369 E.46394
G1 X86.816 Y131.369 E.01923
G1 X86.816 Y140.614 E.46394
G1 X86.433 Y140.614 E.01923
G1 X86.433 Y131.369 E.46394
G1 X86.05 Y131.369 E.01923
G1 X86.05 Y140.614 E.46394
G1 X85.666 Y140.614 E.01923
G1 X85.666 Y131.369 E.46394
G1 X85.283 Y131.369 E.01923
G1 X85.283 Y140.614 E.46394
G1 X84.9 Y140.614 E.01923
G1 X84.9 Y131.369 E.46394
G1 X84.517 Y131.369 E.01923
G1 X84.517 Y140.614 E.46394
G1 X84.134 Y140.614 E.01923
G1 X84.134 Y131.369 E.46394
G1 X83.75 Y131.369 E.01923
G1 X83.75 Y140.614 E.46394
G1 X83.367 Y140.614 E.01923
G1 X83.367 Y131.369 E.46394
G1 X82.984 Y131.369 E.01923
G1 X82.984 Y140.614 E.46394
G1 X82.601 Y140.614 E.01923
G1 X82.601 Y131.369 E.46394
G1 X82.218 Y131.369 E.01923
G1 X82.218 Y140.614 E.46394
G1 X81.834 Y140.614 E.01923
G1 X81.834 Y131.369 E.46394
G1 X81.451 Y131.369 E.01923
G1 X81.451 Y140.614 E.46394
G1 X81.068 Y140.614 E.01923
G1 X81.068 Y131.369 E.46394
G1 X80.685 Y131.369 E.01923
G1 X80.685 Y140.614 E.46394
G1 X80.302 Y140.614 E.01923
G1 X80.302 Y131.369 E.46394
G1 X79.918 Y131.369 E.01923
G1 X79.918 Y140.614 E.46394
G1 X79.535 Y140.614 E.01923
G1 X79.535 Y131.369 E.46394
G1 X79.152 Y131.369 E.01923
G1 X79.152 Y140.614 E.46394
G1 X78.769 Y140.614 E.01923
G1 X78.769 Y131.369 E.46394
G1 X78.385 Y131.369 E.01923
G1 X78.385 Y140.614 E.46394
G1 X78.002 Y140.614 E.01923
G1 X78.002 Y131.369 E.46394
G1 X77.619 Y131.369 E.01923
G1 X77.619 Y140.614 E.46394
G1 X77.236 Y140.614 E.01923
G1 X77.236 Y131.369 E.46394
G1 X76.853 Y131.369 E.01923
G1 X76.853 Y140.614 E.46394
G1 X76.469 Y140.614 E.01923
G1 X76.469 Y131.369 E.46394
G1 X76.086 Y131.369 E.01923
