; generated by PrusaSlicer 2.5.0+win64 on 2022-12-07 at 00:15:07 UTC

; 

; external perimeters extrusion width = 1.00mm
; perimeters extrusion width = 1.00mm
; infill extrusion width = 1.00mm
; solid infill extrusion width = 1.00mm
; top infill extrusion width = 1.00mm
; support material extrusion width = 1.00mm
; first layer extrusion width = 0.42mm

M73 P0 R132
M107
;TYPE:Custom
G90 ; use absolute coordinates
M83 ; extruder relative mode
M140 S60 ; set final bed temp
M104 S150 ; set temporary nozzle temp to prevent oozing during homing and auto bed leveling
G4 S10 ; allow partial nozzle warmup
G28 ; home all axisG1 Z50 F240
G1 X7.6 Y10 F3000
M104 S210 ; set final nozzle temp
M190 S60 ; wait for bed temp to stabilize
M109 S210 ; wait for nozzle temp to stabilize
G1 Z0.28 F240
G92 E0
G1 Y140 E10 F1500 ; prime the nozzle
G1 X4 F5000
G92 E0
G1 Y10 E10 F1200 ; prime the nozzle
G92 E0
G21 ; set units to millimeters
G90 ; use absolute coordinates
M83 ; use relative distances for extrusion
; Filament gcode
M107
;LAYER_CHANGE
;Z:0.35
;HEIGHT:0.35
;BEFORE_LAYER_CHANGE
G92 E0
;0.35


G1 E-1 F3600
G1 Z.35 F7800
;AFTER_LAYER_CHANGE
;0.35
G1 X103.145 Y48.865
G1 E1 F2400
;TYPE:Support material
;WIDTH:0.42
M73 P0 R131
G1 F1800
G1 X99.752 Y48.865 E.17027
G1 X99.752 Y52.257 E.17027
G1 X86.181 Y52.257 E.68106
G1 X86.181 Y62.436 E.5108
G1 X82.788 Y62.436 E.17027
G1 X82.788 Y65.828 E.17027
G1 X69.53 Y65.828 E.66536
G1 X69.53 Y55.963 E.49509
G1 X72.923 Y55.963 E.17027
G1 X72.923 Y52.57 E.17027
G1 X83.101 Y52.57 E.5108
G1 X83.101 Y42.392 E.5108
G1 X86.494 Y42.392 E.17027
G1 X86.494 Y39 E.17027
G1 X89.887 Y39 E.17027
G1 X89.887 Y35.607 E.17027
G1 X103.145 Y35.607 E.66536
G1 X103.145 Y48.813 E.66276
G1 X102.759 Y48.71 F7800
G1 F1800
G1 X102.759 Y35.917 E.64199
G1 X102.376 Y35.917 E.01923
G1 X102.376 Y48.554 E.6342
G1 X101.993 Y48.554 E.01923
G1 X101.993 Y35.917 E.6342
G1 X101.61 Y35.917 E.01923
G1 X101.61 Y48.554 E.6342
G1 X101.226 Y48.554 E.01923
G1 X101.226 Y35.917 E.6342
G1 X100.843 Y35.917 E.01923
G1 X100.843 Y48.554 E.6342
G1 X100.46 Y48.554 E.01923
G1 X100.46 Y35.917 E.6342
G1 X100.077 Y35.917 E.01923
G1 X100.077 Y48.554 E.6342
G1 X99.694 Y48.554 E.01923
G1 X99.694 Y35.917 E.6342
G1 X99.31 Y35.917 E.01923
G1 X99.31 Y51.947 E.80447
G1 X98.927 Y51.947 E.01923
G1 X98.927 Y35.917 E.80447
G1 X98.544 Y35.917 E.01923
G1 X98.544 Y51.947 E.80447
G1 X98.161 Y51.947 E.01923
G1 X98.161 Y35.917 E.80447
G1 X97.778 Y35.917 E.01923
G1 X97.778 Y51.947 E.80447
G1 X97.394 Y51.947 E.01923
G1 X97.394 Y35.917 E.80447
G1 X97.011 Y35.917 E.01923
G1 X97.011 Y51.947 E.80447
G1 X96.628 Y51.947 E.01923
G1 X96.628 Y35.917 E.80447
G1 X96.245 Y35.917 E.01923
G1 X96.245 Y51.947 E.80447
G1 X95.862 Y51.947 E.01923
G1 X95.862 Y35.917 E.80447
G1 X95.478 Y35.917 E.01923
G1 X95.478 Y51.947 E.80447
G1 X95.095 Y51.947 E.01923
G1 X95.095 Y35.917 E.80447
G1 X94.712 Y35.917 E.01923
G1 X94.712 Y51.947 E.80447
G1 X94.329 Y51.947 E.01923
G1 X94.329 Y35.917 E.80447
G1 X93.945 Y35.917 E.01923
G1 X93.945 Y51.947 E.80447
G1 X93.562 Y51.947 E.01923
G1 X93.562 Y35.917 E.80447
G1 X93.179 Y35.917 E.01923
G1 X93.179 Y51.947 E.80447
G1 X92.796 Y51.947 E.01923
G1 X92.796 Y35.917 E.80447
G1 X92.413 Y35.917 E.01923
G1 X92.413 Y51.947 E.80447
G1 X92.029 Y51.947 E.01923
G1 X92.029 Y35.917 E.80447
G1 X91.646 Y35.917 E.01923
G1 X91.646 Y51.947 E.80447
G1 X91.263 Y51.947 E.01923
G1 X91.263 Y35.917 E.80447
G1 X90.88 Y35.917 E.01923
G1 X90.88 Y51.947 E.80447
G1 X90.497 Y51.947 E.01923
G1 X90.497 Y35.917 E.80447
G1 X90.197 Y35.917 E.01503
G1 X90.197 Y39.31 E.17027
G1 X90.113 Y39.31 E.0042
G1 X90.113 Y51.947 E.6342
G1 X89.73 Y51.947 E.01923
G1 X89.73 Y39.31 E.6342
G1 X89.347 Y39.31 E.01923
G1 X89.347 Y51.947 E.6342
G1 X88.964 Y51.947 E.01923
G1 X88.964 Y39.31 E.6342
G1 X88.581 Y39.31 E.01923
G1 X88.581 Y51.947 E.6342
G1 X88.197 Y51.947 E.01923
G1 X88.197 Y39.31 E.6342
G1 X87.814 Y39.31 E.01923
G1 X87.814 Y51.947 E.6342
G1 X87.431 Y51.947 E.01923
G1 X87.431 Y39.31 E.6342
G1 X87.048 Y39.31 E.01923
G1 X87.048 Y51.947 E.6342
G1 X86.665 Y51.947 E.01923
G1 X86.665 Y42.703 E.46394
G1 X86.281 Y42.703 E.01923
G1 X86.281 Y51.947 E.46394
G1 X85.898 Y51.947 E.01923
G1 X85.898 Y42.703 E.46394
G1 X85.515 Y42.703 E.01923
G1 X85.515 Y62.125 E.97474
G1 X85.132 Y62.125 E.01923
G1 X85.132 Y42.703 E.97474
G1 X84.748 Y42.703 E.01923
G1 X84.748 Y62.125 E.97474
G1 X84.365 Y62.125 E.01923
G1 X84.365 Y42.703 E.97474
G1 X83.982 Y42.703 E.01923
G1 X83.982 Y62.125 E.97474
G1 X83.599 Y62.125 E.01923
G1 X83.599 Y42.703 E.97474
G1 X83.412 Y42.703 E.00939
G1 X83.412 Y52.881 E.5108
G1 X83.216 Y52.881 E.00984
G1 X83.216 Y62.125 E.46394
G1 X82.832 Y62.125 E.01923
G1 X82.832 Y52.881 E.46394
G1 X82.449 Y52.881 E.01923
G1 X82.449 Y65.518 E.6342
G1 X82.066 Y65.518 E.01923
G1 X82.066 Y52.881 E.6342
G1 X81.683 Y52.881 E.01923
G1 X81.683 Y65.518 E.6342
G1 X81.3 Y65.518 E.01923
G1 X81.3 Y52.881 E.6342
G1 X80.916 Y52.881 E.01923
G1 X80.916 Y65.518 E.6342
G1 X80.533 Y65.518 E.01923
G1 X80.533 Y52.881 E.6342
G1 X80.15 Y52.881 E.01923
G1 X80.15 Y65.518 E.6342
G1 X79.767 Y65.518 E.01923
G1 X79.767 Y52.881 E.6342
G1 X79.384 Y52.881 E.01923
G1 X79.384 Y65.518 E.6342
G1 X79 Y65.518 E.01923
G1 X79 Y52.881 E.6342
G1 X78.617 Y52.881 E.01923
G1 X78.617 Y65.518 E.6342
G1 X78.234 Y65.518 E.01923
G1 X78.234 Y52.881 E.6342
G1 X77.851 Y52.881 E.01923
G1 X77.851 Y65.518 E.6342
G1 X77.467 Y65.518 E.01923
G1 X77.467 Y52.881 E.6342
G1 X77.084 Y52.881 E.01923
G1 X77.084 Y65.518 E.6342
G1 X76.701 Y65.518 E.01923
G1 X76.701 Y52.881 E.6342
G1 X76.318 Y52.881 E.01923
G1 X76.318 Y65.518 E.6342
G1 X75.935 Y65.518 E.01923
G1 X75.935 Y52.881 E.6342
G1 X75.551 Y52.881 E.01923
G1 X75.551 Y65.518 E.6342
G1 X75.168 Y65.518 E.01923
G1 X75.168 Y52.881 E.6342
G1 X74.785 Y52.881 E.01923
G1 X74.785 Y65.518 E.6342
G1 X74.402 Y65.518 E.01923
G1 X74.402 Y52.881 E.6342
G1 X74.019 Y52.881 E.01923
G1 X74.019 Y65.518 E.6342
G1 X73.635 Y65.518 E.01923
G1 X73.635 Y52.881 E.6342
G1 X73.252 Y52.881 E.01923
G1 X73.252 Y65.518 E.6342
G1 X72.869 Y65.518 E.01923
G1 X72.869 Y56.273 E.46394
G1 X72.486 Y56.273 E.01923
G1 X72.486 Y65.518 E.46394
G1 X72.103 Y65.518 E.01923
G1 X72.103 Y56.273 E.46394
G1 X71.719 Y56.273 E.01923
G1 X71.719 Y65.518 E.46394
G1 X71.336 Y65.518 E.01923
G1 X71.336 Y56.273 E.46394
G1 X70.953 Y56.273 E.01923
G1 X70.953 Y65.518 E.46394
G1 X70.57 Y65.518 E.01923
G1 X70.57 Y56.273 E.46394
G1 X70.186 Y56.273 E.01923
G1 X70.186 Y65.673 E.47173
G1 E-.7 F3600
;WIPE_START
G1 F6240
G1 X70.186 Y65.153 E-.285
;WIPE_END
G1 E-.015 F3600
G1 X37.115 Y136.151 F7800
G1 E1 F2400
;TYPE:Perimeter
;WIDTH:0.42
G1 F1800
G1 X37.115 Y115.984 E1.0121
G1 X118.87 Y42.532 E5.51565
G1 X141.347 Y42.532 E1.12802
G1 X37.227 Y136.051 E7.02362
G1 X36.77 Y136.924 F7800
;TYPE:External perimeter
M73 P0 R130
G1 F1800
G1 X36.77 Y115.83 E1.05862
G1 X118.738 Y42.188 E5.53
G1 X142.247 Y42.188 E1.17982
G1 X36.882 Y136.824 E7.10761
M73 P1 R130
G1 X37.006 Y135.952 F7800
G1 E-.7 F3600
;WIPE_START
G1 F6240
G1 X36.879 Y136.304 E-.285
;WIPE_END
G1 E-.015 F3600
G1 X140.406 Y42.636 F7800
G1 E1 F2400
;TYPE:Solid infill
;WIDTH:0.420366
G1 F1800
G1 X140.614 Y42.843 E.01472
G1 X140.356 Y43.074 E.01737
G1 X140.073 Y42.791 E.02011
G1 X139.585 Y42.791 E.02453
G1 X140.099 Y43.305 E.03653
G1 X139.842 Y43.536 E.01737
G1 X139.097 Y42.791 E.05294
G1 X138.609 Y42.791 E.02453
G1 X139.585 Y43.767 E.06936
G1 X139.328 Y43.998 E.01737
G1 X138.12 Y42.791 E.08577
G1 X137.632 Y42.791 E.02453
G1 X139.07 Y44.229 E.10219
G1 X138.813 Y44.46 E.01737
G1 X137.144 Y42.791 E.1186
G1 X136.656 Y42.791 E.02453
G1 X138.556 Y44.691 E.13502
G1 X138.299 Y44.922 E.01737
G1 X136.167 Y42.791 E.15143
G1 X135.679 Y42.791 E.02453
G1 X138.041 Y45.153 E.16785
G1 X137.784 Y45.385 E.01737
G1 X135.191 Y42.791 E.18426
G1 X134.703 Y42.791 E.02453
G1 X137.527 Y45.616 E.20068
G1 X137.27 Y45.847 E.01737
G1 X134.214 Y42.791 E.21709
G1 X133.726 Y42.791 E.02453
G1 X137.013 Y46.078 E.2335
G1 X136.755 Y46.309 E.01737
G1 X133.238 Y42.791 E.24992
G1 X132.749 Y42.791 E.02453
G1 X136.498 Y46.54 E.26633
G1 X136.241 Y46.771 E.01737
G1 X132.261 Y42.791 E.28275
G1 X131.773 Y42.791 E.02453
G1 X135.984 Y47.002 E.29916
G1 X135.726 Y47.233 E.01737
G1 X131.285 Y42.791 E.31558
G1 X130.796 Y42.791 E.02453
G1 X135.469 Y47.464 E.33199
G1 X135.212 Y47.695 E.01737
G1 X130.308 Y42.791 E.34841
G1 X129.82 Y42.791 E.02453
G1 X134.955 Y47.926 E.36482
G1 X134.697 Y48.157 E.01737
G1 X129.332 Y42.791 E.38124
G1 X128.843 Y42.791 E.02453
G1 X134.44 Y48.388 E.39765
G1 X134.183 Y48.619 E.01737
G1 X128.355 Y42.791 E.41407
G1 X127.867 Y42.791 E.02453
G1 X133.926 Y48.85 E.43048
G1 X133.669 Y49.081 E.01737
G1 X127.379 Y42.791 E.4469
G1 X126.89 Y42.791 E.02453
G1 X133.411 Y49.312 E.46331
G1 X133.154 Y49.543 E.01737
G1 X126.402 Y42.791 E.47973
G1 X125.914 Y42.791 E.02453
G1 X132.897 Y49.774 E.49614
G1 X132.64 Y50.005 E.01737
G1 X125.425 Y42.791 E.51256
G1 X124.937 Y42.791 E.02453
G1 X132.382 Y50.236 E.52897
G1 X132.125 Y50.467 E.01737
G1 X124.449 Y42.791 E.54539
G1 X123.961 Y42.791 E.02453
G1 X131.868 Y50.698 E.5618
G1 X131.611 Y50.929 E.01737
G1 X123.472 Y42.791 E.57822
G1 X122.984 Y42.791 E.02453
G1 X131.354 Y51.16 E.59463
G1 X131.096 Y51.391 E.01737
G1 X122.496 Y42.791 E.61105
G1 X122.008 Y42.791 E.02453
G1 X130.839 Y51.623 E.62746
G1 X130.582 Y51.854 E.01737
G1 X121.519 Y42.791 E.64388
G1 X121.031 Y42.791 E.02453
G1 X130.325 Y52.085 E.66029
G1 X130.067 Y52.316 E.01737
G1 X120.543 Y42.791 E.67671
G1 X120.055 Y42.791 E.02453
G1 X129.81 Y52.547 E.69312
G1 X129.553 Y52.778 E.01737
G1 X119.566 Y42.791 E.70954
G1 X119.078 Y42.791 E.02453
G1 X129.296 Y53.009 E.72595
G1 X129.038 Y53.24 E.01737
G1 X118.769 Y42.971 E.72961
G1 X118.512 Y43.202 E.01737
G1 X128.781 Y53.471 E.72961
G1 X128.524 Y53.702 E.01737
G1 X118.255 Y43.433 E.72961
G1 X117.998 Y43.664 E.01737
G1 X128.267 Y53.933 E.7296
G1 X128.01 Y54.164 E.01737
G1 X117.741 Y43.895 E.7296
G1 X117.483 Y44.126 E.01737
G1 X127.752 Y54.395 E.7296
G1 X127.495 Y54.626 E.01737
G1 X117.226 Y44.357 E.7296
G1 X116.969 Y44.588 E.01737
G1 X127.238 Y54.857 E.72959
G1 X126.981 Y55.088 E.01737
G1 X116.712 Y44.819 E.72959
G1 X116.455 Y45.05 E.01737
G1 X126.723 Y55.319 E.72959
G1 X126.466 Y55.55 E.01737
G1 X116.197 Y45.281 E.72959
G1 X115.94 Y45.512 E.01737
G1 X126.209 Y55.781 E.72958
G1 X125.952 Y56.012 E.01737
G1 X115.683 Y45.743 E.72958
G1 X115.426 Y45.975 E.01737
G1 X125.694 Y56.243 E.72958
G1 X125.437 Y56.474 E.01737
G1 X115.169 Y46.206 E.72958
G1 X114.911 Y46.437 E.01737
G1 X125.18 Y56.705 E.72957
G1 X124.923 Y56.936 E.01737
G1 X114.654 Y46.668 E.72957
G1 X114.397 Y46.899 E.01737
G1 X124.666 Y57.167 E.72957
G1 X124.408 Y57.398 E.01737
G1 X114.14 Y47.13 E.72957
G1 X113.883 Y47.361 E.01737
G1 X124.151 Y57.629 E.72956
G1 X123.894 Y57.86 E.01737
G1 X113.625 Y47.592 E.72956
G1 X113.368 Y47.823 E.01737
G1 X123.637 Y58.092 E.72956
G1 X123.379 Y58.323 E.01737
G1 X113.111 Y48.054 E.72956
G1 X112.854 Y48.285 E.01737
G1 X123.122 Y58.554 E.72956
G1 X122.865 Y58.785 E.01737
G1 X112.597 Y48.516 E.72955
G1 X112.339 Y48.747 E.01737
G1 X122.608 Y59.016 E.72955
G1 X122.351 Y59.247 E.01737
G1 X112.082 Y48.978 E.72955
G1 X111.825 Y49.21 E.01737
G1 X122.093 Y59.478 E.72955
G1 X121.836 Y59.709 E.01737
G1 X111.568 Y49.441 E.72954
G1 X111.311 Y49.672 E.01737
G1 X121.579 Y59.94 E.72954
G1 X121.322 Y60.171 E.01737
G1 X111.053 Y49.903 E.72954
G1 X110.796 Y50.134 E.01737
G1 X121.064 Y60.402 E.72954
G1 X120.807 Y60.633 E.01737
G1 X110.539 Y50.365 E.72953
G1 X110.282 Y50.596 E.01737
G1 X120.55 Y60.864 E.72953
G1 X120.293 Y61.095 E.01737
G1 X110.025 Y50.827 E.72953
G1 X109.768 Y51.058 E.01737
G1 X120.035 Y61.326 E.72953
G1 X119.778 Y61.557 E.01737
G1 X109.51 Y51.289 E.72952
G1 X109.253 Y51.52 E.01737
G1 X119.521 Y61.788 E.72952
G1 X119.264 Y62.019 E.01737
G1 X108.996 Y51.751 E.72952
G1 X108.739 Y51.982 E.01737
G1 X119.007 Y62.25 E.72952
G1 X118.749 Y62.481 E.01737
G1 X108.482 Y52.213 E.72951
G1 X108.224 Y52.445 E.01737
G1 X118.492 Y62.712 E.72951
G1 X118.235 Y62.943 E.01737
G1 X107.967 Y52.676 E.72951
G1 X107.71 Y52.907 E.01737
G1 X117.978 Y63.174 E.72951
G1 X117.72 Y63.405 E.01737
G1 X107.453 Y53.138 E.7295
G1 X107.196 Y53.369 E.01737
G1 X117.463 Y63.636 E.7295
G1 X117.206 Y63.867 E.01737
G1 X106.938 Y53.6 E.7295
G1 X106.681 Y53.831 E.01737
G1 X116.949 Y64.098 E.7295
G1 X116.691 Y64.329 E.01737
G1 X106.424 Y54.062 E.72949
G1 X106.167 Y54.293 E.01737
G1 X116.434 Y64.561 E.72949
G1 X116.177 Y64.792 E.01737
G1 X105.91 Y54.524 E.72949
G1 X105.652 Y54.755 E.01737
G1 X115.92 Y65.023 E.72949
G1 X115.663 Y65.254 E.01737
G1 X105.395 Y54.986 E.72948
G1 X105.138 Y55.217 E.01737
G1 X115.405 Y65.485 E.72948
G1 X115.148 Y65.716 E.01737
G1 X104.881 Y55.448 E.72948
G1 X104.624 Y55.68 E.01737
G1 X114.891 Y65.947 E.72948
G1 X114.634 Y66.178 E.01737
G1 X104.366 Y55.911 E.72947
G1 X104.109 Y56.142 E.01737
G1 X114.376 Y66.409 E.72947
G1 X114.119 Y66.64 E.01737
G1 X103.852 Y56.373 E.72947
G1 X103.595 Y56.604 E.01737
G1 X113.862 Y66.871 E.72947
G1 X113.605 Y67.102 E.01737
G1 X103.338 Y56.835 E.72946
G1 X103.08 Y57.066 E.01737
G1 X113.348 Y67.333 E.72946
G1 X113.09 Y67.564 E.01737
G1 X102.823 Y57.297 E.72946
G1 X102.566 Y57.528 E.01737
G1 X112.833 Y67.795 E.72946
G1 X112.576 Y68.026 E.01737
M73 P1 R129
G1 X102.309 Y57.759 E.72945
G1 X102.052 Y57.99 E.01737
G1 X112.319 Y68.257 E.72945
G1 X112.061 Y68.488 E.01737
G1 X101.795 Y58.221 E.72945
G1 X101.537 Y58.452 E.01737
G1 X111.804 Y68.719 E.72945
G1 X111.547 Y68.95 E.01737
G1 X101.28 Y58.683 E.72944
G1 X101.023 Y58.915 E.01737
G1 X111.29 Y69.181 E.72944
G1 X111.032 Y69.412 E.01737
G1 X100.766 Y59.146 E.72944
G1 X100.509 Y59.377 E.01737
G1 X110.775 Y69.643 E.72944
G1 X110.518 Y69.874 E.01737
G1 X100.251 Y59.608 E.72943
G1 X99.994 Y59.839 E.01737
G1 X110.261 Y70.105 E.72943
G1 X110.004 Y70.336 E.01737
G1 X99.737 Y60.07 E.72943
G1 X99.48 Y60.301 E.01737
G1 X109.746 Y70.567 E.72943
G1 X109.489 Y70.799 E.01737
G1 X99.223 Y60.532 E.72942
G1 X98.965 Y60.763 E.01737
G1 X109.232 Y71.03 E.72942
G1 X108.975 Y71.261 E.01737
G1 X98.708 Y60.994 E.72942
G1 X98.451 Y61.225 E.01737
G1 X108.717 Y71.492 E.72942
G1 X108.46 Y71.723 E.01737
G1 X98.194 Y61.456 E.72941
G1 X97.937 Y61.687 E.01737
G1 X108.203 Y71.954 E.72941
G1 X107.946 Y72.185 E.01737
G1 X97.679 Y61.918 E.72941
G1 X97.422 Y62.149 E.01737
G1 X107.689 Y72.416 E.72941
G1 X107.431 Y72.647 E.01737
G1 X97.165 Y62.381 E.7294
G1 X96.908 Y62.612 E.01737
G1 X107.174 Y72.878 E.7294
G1 X106.917 Y73.109 E.01737
G1 X96.651 Y62.843 E.7294
G1 X96.393 Y63.074 E.01737
G1 X106.66 Y73.34 E.7294
G1 X106.402 Y73.571 E.01737
G1 X96.136 Y63.305 E.72939
G1 X95.879 Y63.536 E.01737
G1 X106.145 Y73.802 E.72939
G1 X105.888 Y74.033 E.01737
G1 X95.622 Y63.767 E.72939
G1 X95.365 Y63.998 E.01737
G1 X105.631 Y74.264 E.72939
G1 X105.373 Y74.495 E.01737
G1 X95.108 Y64.229 E.72938
G1 X94.85 Y64.46 E.01737
G1 X105.116 Y74.726 E.72938
G1 X104.859 Y74.957 E.01737
G1 X94.593 Y64.691 E.72938
G1 X94.336 Y64.922 E.01737
G1 X104.602 Y75.188 E.72938
G1 X104.345 Y75.419 E.01737
G1 X94.079 Y65.153 E.72937
G1 X93.822 Y65.384 E.01737
G1 X104.087 Y75.65 E.72937
G1 X103.83 Y75.881 E.01737
G1 X93.564 Y65.616 E.72937
G1 X93.307 Y65.847 E.01737
G1 X103.573 Y76.112 E.72937
G1 X103.316 Y76.343 E.01737
G1 X93.05 Y66.078 E.72936
G1 X92.793 Y66.309 E.01737
G1 X103.058 Y76.574 E.72936
G1 X102.801 Y76.805 E.01737
G1 X92.536 Y66.54 E.72936
G1 X92.278 Y66.771 E.01737
G1 X102.544 Y77.036 E.72936
G1 X102.287 Y77.268 E.01737
G1 X92.021 Y67.002 E.72935
G1 X91.764 Y67.233 E.01737
G1 X102.029 Y77.499 E.72935
G1 X101.772 Y77.73 E.01737
G1 X91.507 Y67.464 E.72935
G1 X91.25 Y67.695 E.01737
G1 X101.515 Y77.961 E.72935
G1 X101.258 Y78.192 E.01737
G1 X90.992 Y67.926 E.72934
G1 X90.735 Y68.157 E.01737
G1 X101.001 Y78.423 E.72934
G1 X100.743 Y78.654 E.01737
G1 X90.478 Y68.388 E.72934
G1 X90.221 Y68.619 E.01737
G1 X100.486 Y78.885 E.72934
G1 X100.229 Y79.116 E.01737
G1 X89.964 Y68.851 E.72933
M73 P2 R129
G1 X89.706 Y69.082 E.01737
G1 X99.972 Y79.347 E.72933
G1 X99.714 Y79.578 E.01737
G1 X89.449 Y69.313 E.72933
G1 X89.192 Y69.544 E.01737
G1 X99.457 Y79.809 E.72933
G1 X99.2 Y80.04 E.01737
