; generated by PrusaSlicer 2.5.0+win64 on 2022-12-07 at 00:15:37 UTC

; 

; external perimeters extrusion width = 1.00mm
; perimeters extrusion width = 1.00mm
; infill extrusion width = 1.00mm
; solid infill extrusion width = 1.00mm
; top infill extrusion width = 1.00mm
; support material extrusion width = 1.00mm
; first layer extrusion width = 0.42mm

M73 P0 R170
M107
;TYPE:Custom
G90 ; use absolute coordinates
M83 ; extruder relative mode
M140 S60 ; set final bed temp
M104 S150 ; set temporary nozzle temp to prevent oozing during homing and auto bed leveling
G4 S10 ; allow partial nozzle warmup
G28 ; home all axisG1 Z50 F240
G1 X7.6 Y10 F3000
M104 S210 ; set final nozzle temp
M190 S60 ; wait for bed temp to stabilize
M109 S210 ; wait for nozzle temp to stabilize
G1 Z0.28 F240
G92 E0
G1 Y140 E10 F1500 ; prime the nozzle
G1 X4 F5000
G92 E0
G1 Y10 E10 F1200 ; prime the nozzle
G92 E0
G21 ; set units to millimeters
G90 ; use absolute coordinates
M83 ; use relative distances for extrusion
; Filament gcode
M107
;LAYER_CHANGE
;Z:0.35
;HEIGHT:0.35
;BEFORE_LAYER_CHANGE
G92 E0
;0.35


G1 E-1 F3600
G1 Z.35 F7800
;AFTER_LAYER_CHANGE
;0.35
G1 X79.21 Y162.82
G1 E1 F2400
;TYPE:Perimeter
;WIDTH:0.42
G1 F1800
G1 X65.4 Y162.82 E.69307
G1 X72.864 Y17.18 E7.3187
G1 X86.691 Y17.18 E.69396
G1 X79.218 Y162.671 E7.31122
G1 X79.538 Y163.165 F7800
;TYPE:External perimeter
G1 F1800
G1 X65.037 Y163.165 E.72773
G1 X72.536 Y16.835 E7.35336
G1 X87.054 Y16.835 E.72862
G1 X79.546 Y163.015 E7.34588
G1 X78.664 Y162.679 F7800
M73 P0 R169
G1 E-.7 F3600
;WIPE_START
G1 F6240
G1 X79.026 Y163.021 E-.285
;WIPE_END
G1 E-.015 F3600
G1 X85.885 Y17.283 F7800
G1 E1 F2400
;TYPE:Solid infill
;WIDTH:0.420531
G1 F1800
G1 X86.401 Y17.799 E.03665
G1 X86.377 Y18.263 E.02338
G1 X85.552 Y17.438 E.05864
G1 X85.063 Y17.438 E.02455
G1 X86.353 Y18.728 E.09167
G1 X86.329 Y19.192 E.02338
G1 X84.575 Y17.438 E.1247
G1 X84.086 Y17.438 E.02455
G1 X86.305 Y19.657 E.15772
G1 X86.281 Y20.122 E.02338
G1 X83.598 Y17.438 E.19075
G1 X83.109 Y17.438 E.02455
G1 X86.257 Y20.586 E.22378
G1 X86.233 Y21.051 E.02338
G1 X82.621 Y17.438 E.2568
G1 X82.132 Y17.438 E.02455
G1 X86.21 Y21.516 E.28983
G1 X86.186 Y21.98 E.02338
G1 X81.644 Y17.438 E.32286
G1 X81.155 Y17.438 E.02455
G1 X86.162 Y22.445 E.35589
G1 X86.138 Y22.91 E.02338
G1 X80.667 Y17.438 E.38891
G1 X80.178 Y17.438 E.02455
G1 X86.114 Y23.374 E.42194
G1 X86.09 Y23.839 E.02338
G1 X79.69 Y17.438 E.45497
G1 X79.201 Y17.438 E.02455
G1 X86.066 Y24.303 E.488
G1 X86.043 Y24.768 E.02338
G1 X78.713 Y17.438 E.52102
G1 X78.224 Y17.438 E.02455
G1 X86.019 Y25.233 E.55405
G1 X85.995 Y25.697 E.02338
G1 X77.736 Y17.438 E.58708
G1 X77.247 Y17.438 E.02455
G1 X85.971 Y26.162 E.6201
G1 X85.947 Y26.627 E.02338
G1 X76.759 Y17.438 E.65313
G1 X76.27 Y17.438 E.02455
G1 X85.923 Y27.091 E.68616
G1 X85.899 Y27.556 E.02338
G1 X75.782 Y17.438 E.71919
G1 X75.293 Y17.438 E.02455
G1 X85.875 Y28.02 E.75221
G1 X85.852 Y28.485 E.02338
G1 X74.805 Y17.438 E.78524
G1 X74.316 Y17.438 E.02455
G1 X85.828 Y28.95 E.81827
G1 X85.804 Y29.414 E.02338
G1 X73.828 Y17.438 E.8513
G1 X73.339 Y17.438 E.02455
G1 X85.78 Y29.879 E.88432
G1 X85.756 Y30.344 E.02338
G1 X73.097 Y17.684 E.89987
G1 X73.073 Y18.149 E.02339
G1 X85.732 Y30.808 E.89987
G1 X85.708 Y31.273 E.02338
G1 X73.049 Y18.614 E.89986
G1 X73.025 Y19.078 E.02339
G1 X85.685 Y31.738 E.89986
G1 X85.661 Y32.202 E.02338
G1 X73.001 Y19.543 E.89985
G1 X72.978 Y20.008 E.02339
G1 X85.637 Y32.667 E.89985
G1 X85.613 Y33.131 E.02338
G1 X72.954 Y20.472 E.89985
G1 X72.93 Y20.937 E.02339
G1 X85.589 Y33.596 E.89984
G1 X85.565 Y34.061 E.02338
G1 X72.906 Y21.402 E.89984
G1 X72.882 Y21.866 E.02339
G1 X85.541 Y34.525 E.89984
G1 X85.517 Y34.99 E.02338
G1 X72.859 Y22.331 E.89983
G1 X72.835 Y22.796 E.02339
G1 X85.494 Y35.455 E.89983
G1 X85.47 Y35.919 E.02338
G1 X72.811 Y23.26 E.89982
G1 X72.787 Y23.725 E.02339
G1 X85.446 Y36.384 E.89982
G1 X85.422 Y36.848 E.02338
G1 X72.763 Y24.19 E.89982
G1 X72.739 Y24.654 E.02339
G1 X85.398 Y37.313 E.89981
G1 X85.374 Y37.778 E.02338
G1 X72.716 Y25.119 E.89981
G1 X72.692 Y25.584 E.02339
G1 X85.35 Y38.242 E.89981
G1 X85.327 Y38.707 E.02338
G1 X72.668 Y26.048 E.8998
G1 X72.644 Y26.513 E.02339
G1 X85.303 Y39.172 E.8998
G1 X85.279 Y39.636 E.02338
G1 X72.62 Y26.978 E.89979
G1 X72.597 Y27.443 E.02339
G1 X85.255 Y40.101 E.89979
G1 X85.231 Y40.566 E.02338
G1 X72.573 Y27.907 E.89979
G1 X72.549 Y28.372 E.02339
G1 X85.207 Y41.03 E.89978
G1 X85.183 Y41.495 E.02338
G1 X72.525 Y28.837 E.89978
G1 X72.501 Y29.301 E.02339
G1 X85.159 Y41.959 E.89977
G1 X85.136 Y42.424 E.02338
G1 X72.478 Y29.766 E.89977
G1 X72.454 Y30.231 E.02339
G1 X85.112 Y42.889 E.89977
G1 X85.088 Y43.353 E.02338
G1 X72.43 Y30.695 E.89976
G1 X72.406 Y31.16 E.02339
G1 X85.064 Y43.818 E.89976
G1 X85.04 Y44.283 E.02338
G1 X72.382 Y31.625 E.89976
G1 X72.358 Y32.089 E.02339
G1 X85.016 Y44.747 E.89975
G1 X84.992 Y45.212 E.02338
G1 X72.335 Y32.554 E.89975
G1 X72.311 Y33.019 E.02339
G1 X84.969 Y45.676 E.89974
G1 X84.945 Y46.141 E.02338
G1 X72.287 Y33.483 E.89974
G1 X72.263 Y33.948 E.02339
G1 X84.921 Y46.606 E.89974
G1 X84.897 Y47.07 E.02338
G1 X72.239 Y34.413 E.89973
G1 X72.216 Y34.878 E.02339
G1 X84.873 Y47.535 E.89973
G1 X84.849 Y48 E.02338
G1 X72.192 Y35.342 E.89972
G1 X72.168 Y35.807 E.02339
G1 X84.825 Y48.464 E.89972
G1 X84.801 Y48.929 E.02338
G1 X72.144 Y36.272 E.89972
G1 X72.12 Y36.736 E.02339
G1 X84.778 Y49.393 E.89971
G1 X84.754 Y49.858 E.02338
G1 X72.097 Y37.201 E.89971
G1 X72.073 Y37.666 E.02339
G1 X84.73 Y50.323 E.89971
G1 X84.706 Y50.787 E.02338
G1 X72.049 Y38.13 E.8997
G1 X72.025 Y38.595 E.02339
G1 X84.682 Y51.252 E.8997
G1 X84.658 Y51.717 E.02338
G1 X72.001 Y39.06 E.89969
G1 X71.977 Y39.524 E.02339
G1 X84.634 Y52.181 E.89969
G1 X84.611 Y52.646 E.02338
G1 X71.954 Y39.989 E.89969
G1 X71.93 Y40.454 E.02339
G1 X84.587 Y53.111 E.89968
G1 X84.563 Y53.575 E.02338
G1 X71.906 Y40.918 E.89968
G1 X71.882 Y41.383 E.02339
G1 X84.539 Y54.04 E.89967
G1 X84.515 Y54.504 E.02338
G1 X71.858 Y41.848 E.89967
G1 X71.835 Y42.312 E.02339
G1 X84.491 Y54.969 E.89967
G1 X84.467 Y55.434 E.02338
G1 X71.811 Y42.777 E.89966
G1 X71.787 Y43.242 E.02339
G1 X84.443 Y55.898 E.89966
G1 X84.42 Y56.363 E.02338
G1 X71.763 Y43.707 E.89966
G1 X71.739 Y44.171 E.02339
G1 X84.396 Y56.828 E.89965
G1 X84.372 Y57.292 E.02338
G1 X71.716 Y44.636 E.89965
G1 X71.692 Y45.101 E.02339
G1 X84.348 Y57.757 E.89964
G1 X84.324 Y58.221 E.02338
G1 X71.668 Y45.565 E.89964
G1 X71.644 Y46.03 E.02339
G1 X84.3 Y58.686 E.89964
G1 X84.276 Y59.151 E.02338
G1 X71.62 Y46.495 E.89963
G1 X71.596 Y46.959 E.02339
G1 X84.253 Y59.615 E.89963
G1 X84.229 Y60.08 E.02338
G1 X71.573 Y47.424 E.89962
G1 X71.549 Y47.889 E.02339
G1 X84.205 Y60.545 E.89962
G1 X84.181 Y61.009 E.02338
G1 X71.525 Y48.353 E.89962
G1 X71.501 Y48.818 E.02339
G1 X84.157 Y61.474 E.89961
G1 X84.133 Y61.939 E.02338
M73 P0 R168
G1 X71.477 Y49.283 E.89961
G1 X71.454 Y49.747 E.02339
G1 X84.109 Y62.403 E.89961
G1 X84.085 Y62.868 E.02338
G1 X71.43 Y50.212 E.8996
G1 X71.406 Y50.677 E.02339
G1 X84.062 Y63.332 E.8996
G1 X84.038 Y63.797 E.02338
G1 X71.382 Y51.141 E.89959
G1 X71.358 Y51.606 E.02339
G1 X84.014 Y64.262 E.89959
G1 X83.99 Y64.726 E.02338
G1 X71.335 Y52.071 E.89959
G1 X71.311 Y52.536 E.02339
G1 X83.966 Y65.191 E.89958
G1 X83.942 Y65.656 E.02338
G1 X71.287 Y53 E.89958
G1 X71.263 Y53.465 E.02339
G1 X83.918 Y66.12 E.89958
G1 X83.895 Y66.585 E.02338
G1 X71.239 Y53.93 E.89957
G1 X71.215 Y54.394 E.02339
G1 X83.871 Y67.049 E.89957
G1 X83.847 Y67.514 E.02338
G1 X71.192 Y54.859 E.89956
G1 X71.168 Y55.324 E.02339
G1 X83.823 Y67.979 E.89956
G1 X83.799 Y68.443 E.02338
G1 X71.144 Y55.788 E.89956
G1 X71.12 Y56.253 E.02339
G1 X83.775 Y68.908 E.89955
G1 X83.751 Y69.373 E.02338
M73 P1 R168
G1 X71.096 Y56.718 E.89955
G1 X71.073 Y57.182 E.02339
G1 X83.727 Y69.837 E.89954
G1 X83.704 Y70.302 E.02338
G1 X71.049 Y57.647 E.89954
G1 X71.025 Y58.112 E.02339
G1 X83.68 Y70.767 E.89954
G1 X83.656 Y71.231 E.02338
G1 X71.001 Y58.576 E.89953
G1 X70.977 Y59.041 E.02339
G1 X83.632 Y71.696 E.89953
G1 X83.608 Y72.16 E.02338
G1 X70.954 Y59.506 E.89953
G1 X70.93 Y59.971 E.02339
G1 X83.584 Y72.625 E.89952
G1 X83.56 Y73.09 E.02338
G1 X70.906 Y60.435 E.89952
G1 X70.882 Y60.9 E.02339
G1 X83.537 Y73.554 E.89951
G1 X83.513 Y74.019 E.02338
G1 X70.858 Y61.365 E.89951
G1 X70.834 Y61.829 E.02339
G1 X83.489 Y74.484 E.89951
G1 X83.465 Y74.948 E.02338
G1 X70.811 Y62.294 E.8995
G1 X70.787 Y62.759 E.02339
G1 X83.441 Y75.413 E.8995
G1 X83.417 Y75.877 E.02338
G1 X70.763 Y63.223 E.89949
G1 X70.739 Y63.688 E.02339
G1 X83.393 Y76.342 E.89949
G1 X83.369 Y76.807 E.02338
G1 X70.715 Y64.153 E.89949
G1 X70.692 Y64.617 E.02339
G1 X83.346 Y77.271 E.89948
G1 X83.322 Y77.736 E.02338
G1 X70.668 Y65.082 E.89948
G1 X70.644 Y65.547 E.02339
G1 X83.298 Y78.201 E.89948
G1 X83.274 Y78.665 E.02338
G1 X70.62 Y66.011 E.89947
G1 X70.596 Y66.476 E.02339
G1 X83.25 Y79.13 E.89947
G1 X83.226 Y79.595 E.02338
G1 X70.573 Y66.941 E.89946
G1 X70.549 Y67.405 E.02339
G1 X83.202 Y80.059 E.89946
G1 X83.179 Y80.524 E.02338
G1 X70.525 Y67.87 E.89946
G1 X70.501 Y68.335 E.02339
G1 X83.155 Y80.988 E.89945
G1 X83.131 Y81.453 E.02338
G1 X70.477 Y68.8 E.89945
G1 X70.453 Y69.264 E.02339
G1 X83.107 Y81.918 E.89944
G1 X83.083 Y82.382 E.02338
G1 X70.43 Y69.729 E.89944
G1 X70.406 Y70.194 E.02339
G1 X83.059 Y82.847 E.89944
G1 X83.035 Y83.312 E.02338
G1 X70.382 Y70.658 E.89943
G1 X70.358 Y71.123 E.02339
G1 X83.011 Y83.776 E.89943
G1 X82.988 Y84.241 E.02338
G1 X70.334 Y71.588 E.89943
G1 X70.311 Y72.052 E.02339
G1 X82.964 Y84.705 E.89942
G1 X82.94 Y85.17 E.02338
G1 X70.287 Y72.517 E.89942
G1 X70.263 Y72.982 E.02339
G1 X82.916 Y85.635 E.89941
G1 X82.892 Y86.099 E.02338
G1 X70.239 Y73.446 E.89941
G1 X70.215 Y73.911 E.02339
G1 X82.868 Y86.564 E.89941
G1 X82.844 Y87.029 E.02338
G1 X70.192 Y74.376 E.8994
G1 X70.168 Y74.84 E.02339
G1 X82.821 Y87.493 E.8994
G1 X82.797 Y87.958 E.02338
G1 X70.144 Y75.305 E.8994
G1 X70.12 Y75.77 E.02339
G1 X82.773 Y88.423 E.89939
G1 X82.749 Y88.887 E.02338
G1 X70.096 Y76.234 E.89939
G1 X70.072 Y76.699 E.02339
G1 X82.725 Y89.352 E.89938
G1 X82.701 Y89.816 E.02338
G1 X70.049 Y77.164 E.89938
G1 X70.025 Y77.629 E.02339
G1 X82.677 Y90.281 E.89938
G1 X82.653 Y90.746 E.02338
G1 X70.001 Y78.093 E.89937
G1 X69.977 Y78.558 E.02339
G1 X82.63 Y91.21 E.89937
G1 X82.606 Y91.675 E.02338
G1 X69.953 Y79.023 E.89936
G1 X69.93 Y79.487 E.02339
G1 X82.582 Y92.14 E.89936
G1 X82.558 Y92.604 E.02338
G1 X69.906 Y79.952 E.89936
G1 X69.882 Y80.417 E.02339
G1 X82.534 Y93.069 E.89935
G1 X82.51 Y93.533 E.02338
G1 X69.858 Y80.881 E.89935
G1 X69.834 Y81.346 E.02339
G1 X82.486 Y93.998 E.89935
G1 X82.463 Y94.463 E.02338
G1 X69.811 Y81.811 E.89934
G1 X69.787 Y82.275 E.02339
G1 X82.439 Y94.927 E.89934
G1 X82.415 Y95.392 E.02338
G1 X69.763 Y82.74 E.89933
G1 X69.739 Y83.205 E.02339
G1 X82.391 Y95.857 E.89933
G1 X82.367 Y96.321 E.02338
G1 X69.715 Y83.669 E.89933
G1 X69.691 Y84.134 E.02339
G1 X82.343 Y96.786 E.89932
G1 X82.319 Y97.251 E.02338
G1 X69.668 Y84.599 E.89932
G1 X69.644 Y85.064 E.02339
G1 X82.295 Y97.715 E.89931
G1 X82.272 Y98.18 E.02338
G1 X69.62 Y85.528 E.89931
G1 X69.596 Y85.993 E.02339
G1 X82.248 Y98.644 E.89931
G1 X82.224 Y99.109 E.02338
G1 X69.572 Y86.458 E.8993
G1 X69.549 Y86.922 E.02339
G1 X82.2 Y99.574 E.8993
G1 X82.176 Y100.038 E.02338
G1 X69.525 Y87.387 E.8993
G1 X69.501 Y87.852 E.02339
G1 X82.152 Y100.503 E.89929
G1 X82.128 Y100.968 E.02338
G1 X69.477 Y88.316 E.89929
G1 X69.453 Y88.781 E.02339
G1 X82.105 Y101.432 E.89928
G1 X82.081 Y101.897 E.02338
G1 X69.43 Y89.246 E.89928
G1 X69.406 Y89.71 E.02339
G1 X82.057 Y102.361 E.89928
G1 X82.033 Y102.826 E.02338
G1 X69.382 Y90.175 E.89927
G1 X69.358 Y90.64 E.02339
G1 X82.009 Y103.291 E.89927
G1 X81.985 Y103.755 E.02338
G1 X69.334 Y91.104 E.89926
G1 X69.31 Y91.569 E.02339
G1 X81.961 Y104.22 E.89926
G1 X81.938 Y104.685 E.02338
M73 P1 R167
G1 X69.287 Y92.034 E.89926
G1 X69.263 Y92.498 E.02339
G1 X81.914 Y105.149 E.89925
G1 X81.89 Y105.614 E.02338
G1 X69.239 Y92.963 E.89925
G1 X69.215 Y93.428 E.02339
G1 X81.866 Y106.079 E.89925
G1 X81.842 Y106.543 E.02338
G1 X69.191 Y93.893 E.89924
G1 X69.168 Y94.357 E.02339
G1 X81.818 Y107.008 E.89924
G1 X81.794 Y107.472 E.02338
G1 X69.144 Y94.822 E.89923
G1 X69.12 Y95.287 E.02339
G1 X81.77 Y107.937 E.89923
G1 X81.747 Y108.402 E.02338
G1 X69.096 Y95.751 E.89923
G1 X69.072 Y96.216 E.02339
G1 X81.723 Y108.866 E.89922
G1 X81.699 Y109.331 E.02338
G1 X69.049 Y96.681 E.89922
G1 X69.025 Y97.145 E.02339
G1 X81.675 Y109.796 E.89922
G1 X81.651 Y110.26 E.02338
G1 X69.001 Y97.61 E.89921
G1 X68.977 Y98.075 E.02339
G1 X81.627 Y110.725 E.89921
G1 X81.603 Y111.189 E.02338
G1 X68.953 Y98.539 E.8992
G1 X68.929 Y99.004 E.02339
G1 X81.58 Y111.654 E.8992
G1 X81.556 Y112.119 E.02338
G1 X68.906 Y99.469 E.8992
G1 X68.882 Y99.933 E.02339
G1 X81.532 Y112.583 E.89919
G1 X81.508 Y113.048 E.02338
G1 X68.858 Y100.398 E.89919
G1 X68.834 Y100.863 E.02339
G1 X81.484 Y113.513 E.89918
G1 X81.46 Y113.977 E.02338
G1 X68.81 Y101.327 E.89918
G1 X68.787 Y101.792 E.02339
G1 X81.436 Y114.442 E.89918
G1 X81.412 Y114.907 E.02338
G1 X68.763 Y102.257 E.89917
G1 X68.739 Y102.722 E.02339
G1 X81.389 Y115.371 E.89917
G1 X81.365 Y115.836 E.02338
G1 X68.715 Y103.186 E.89917
G1 X68.691 Y103.651 E.02339
G1 X81.341 Y116.3 E.89916
G1 X81.317 Y116.765 E.02338
G1 X68.668 Y104.116 E.89916
G1 X68.644 Y104.58 E.02339
G1 X81.293 Y117.23 E.89915
G1 X81.269 Y117.694 E.02338
G1 X68.62 Y105.045 E.89915
G1 X68.596 Y105.51 E.02339
G1 X81.245 Y118.159 E.89915
G1 X81.222 Y118.624 E.02338
G1 X68.572 Y105.974 E.89914
G1 X68.548 Y106.439 E.02339
G1 X81.198 Y119.088 E.89914
G1 X81.174 Y119.553 E.02338
G1 X68.525 Y106.904 E.89913
G1 X68.501 Y107.368 E.02339
G1 X81.15 Y120.017 E.89913
G1 X81.126 Y120.482 E.02338
G1 X68.477 Y107.833 E.89913
G1 X68.453 Y108.298 E.02339
G1 X81.102 Y120.947 E.89912
G1 X81.078 Y121.411 E.02338
G1 X68.429 Y108.762 E.89912
G1 X68.406 Y109.227 E.02339
G1 X81.054 Y121.876 E.89912
G1 X81.031 Y122.341 E.02338
G1 X68.382 Y109.692 E.89911
G1 X68.358 Y110.157 E.02339
G1 X81.007 Y122.805 E.89911
G1 X80.983 Y123.27 E.02338
G1 X68.334 Y110.621 E.8991
G1 X68.31 Y111.086 E.02339
G1 X80.959 Y123.735 E.8991
G1 X80.935 Y124.199 E.02338
G1 X68.287 Y111.551 E.8991
G1 X68.263 Y112.015 E.02339
G1 X80.911 Y124.664 E.89909
G1 X80.887 Y125.128 E.02338
G1 X68.239 Y112.48 E.89909
G1 X68.215 Y112.945 E.02339
G1 X80.864 Y125.593 E.89908
G1 X80.84 Y126.058 E.02338
G1 X68.191 Y113.409 E.89908
G1 X68.167 Y113.874 E.02339
G1 X80.816 Y126.522 E.89908
G1 X80.792 Y126.987 E.02338
G1 X68.144 Y114.339 E.89907
G1 X68.12 Y114.803 E.02339
G1 X80.768 Y127.452 E.89907
G1 X80.744 Y127.916 E.02338
G1 X68.096 Y115.268 E.89907
G1 X68.072 Y115.733 E.02339
G1 X80.72 Y128.381 E.89906
G1 X80.696 Y128.845 E.02338
G1 X68.048 Y116.197 E.89906
G1 X68.025 Y116.662 E.02339
G1 X80.673 Y129.31 E.89905
G1 X80.649 Y129.775 E.02338
G1 X68.001 Y117.127 E.89905
G1 X67.977 Y117.591 E.02339
G1 X80.625 Y130.239 E.89905
G1 X80.601 Y130.704 E.02338
G1 X67.953 Y118.056 E.89904
G1 X67.929 Y118.521 E.02339
G1 X80.577 Y131.169 E.89904
G1 X80.553 Y131.633 E.02338
G1 X67.906 Y118.986 E.89903
G1 X67.882 Y119.45 E.02339
G1 X80.529 Y132.098 E.89903
G1 X80.506 Y132.562 E.02338
G1 X67.858 Y119.915 E.89903
G1 X67.834 Y120.38 E.02339
G1 X80.482 Y133.027 E.89902
G1 X80.458 Y133.492 E.02338
G1 X67.81 Y120.844 E.89902
G1 X67.786 Y121.309 E.02339
G1 X80.434 Y133.956 E.89902
G1 X80.41 Y134.421 E.02338
G1 X67.763 Y121.774 E.89901
G1 X67.739 Y122.238 E.02339
G1 X80.386 Y134.886 E.89901
G1 X80.362 Y135.35 E.02338
G1 X67.715 Y122.703 E.899
G1 X67.691 Y123.168 E.02339
G1 X80.338 Y135.815 E.899
G1 X80.315 Y136.28 E.02338
G1 X67.667 Y123.632 E.899
G1 X67.644 Y124.097 E.02339
G1 X80.291 Y136.744 E.89899
G1 X80.267 Y137.209 E.02338
G1 X67.62 Y124.562 E.89899
G1 X67.596 Y125.026 E.02339
G1 X80.243 Y137.673 E.89899
G1 X80.219 Y138.138 E.02338
G1 X67.572 Y125.491 E.89898
G1 X67.548 Y125.956 E.02339
G1 X80.195 Y138.603 E.89898
G1 X80.171 Y139.067 E.02338
G1 X67.525 Y126.42 E.89897
G1 X67.501 Y126.885 E.02339
G1 X80.148 Y139.532 E.89897
G1 X80.124 Y139.997 E.02338
G1 X67.477 Y127.35 E.89897
G1 X67.453 Y127.815 E.02339
