; generated by PrusaSlicer 2.5.0+win64 on 2022-12-07 at 00:15:53 UTC

; 

; external perimeters extrusion width = 1.00mm
; perimeters extrusion width = 1.00mm
; infill extrusion width = 1.00mm
; solid infill extrusion width = 1.00mm
; top infill extrusion width = 1.00mm
; support material extrusion width = 1.00mm
; first layer extrusion width = 0.42mm

M73 P0 R175
M107
;TYPE:Custom
G90 ; use absolute coordinates
M83 ; extruder relative mode
M140 S60 ; set final bed temp
M104 S150 ; set temporary nozzle temp to prevent oozing during homing and auto bed leveling
G4 S10 ; allow partial nozzle warmup
G28 ; home all axisG1 Z50 F240
G1 X7.6 Y10 F3000
M104 S210 ; set final nozzle temp
M190 S60 ; wait for bed temp to stabilize
M109 S210 ; wait for nozzle temp to stabilize
G1 Z0.28 F240
G92 E0
G1 Y140 E10 F1500 ; prime the nozzle
G1 X4 F5000
G92 E0
G1 Y10 E10 F1200 ; prime the nozzle
G92 E0
G21 ; set units to millimeters
G90 ; use absolute coordinates
M83 ; use relative distances for extrusion
; Filament gcode
M107
;LAYER_CHANGE
;Z:0.35
;HEIGHT:0.35
;BEFORE_LAYER_CHANGE
G92 E0
;0.35


G1 E-1 F3600
G1 Z.35 F7800
;AFTER_LAYER_CHANGE
;0.35
G1 X59.285 Y17.18
G1 E1 F2400
;TYPE:Perimeter
;WIDTH:0.42
G1 F1800
G1 X73.516 Y17.18 E.71415
G1 X95.447 Y118.017 E5.17895
G1 X98.936 Y162.82 E2.25528
G1 X84.996 Y162.82 E.6996
M73 P0 R174
G1 X81.662 Y120.04 E2.15348
G1 X59.317 Y17.326 E5.27535
G1 X58.857 Y16.835 F7800
;TYPE:External perimeter
G1 F1800
G1 X73.794 Y16.835 E.74958
G1 X95.789 Y117.967 E5.19408
G1 X99.309 Y163.165 E2.27517
G1 X84.677 Y163.165 E.73432
G1 X81.325 Y120.113 E2.16714
G1 X58.889 Y16.981 E5.29683
G1 X59.751 Y17.283 F7800
G1 E-.7 F3600
;WIPE_START
G1 F6240
G1 X59.409 Y16.976 E-.285
;WIPE_END
G1 E-.015 F3600
G1 X73.627 Y18.18 F7800
G1 E1 F2400
;TYPE:Solid infill
;WIDTH:0.420507
G1 F1800
G1 X72.886 Y17.438 E.0527
G1 X72.397 Y17.438 E.02455
G1 X73.56 Y18.601 E.08264
G1 X73.696 Y19.225 E.03211
G1 X71.909 Y17.438 E.12701
G1 X71.42 Y17.438 E.02455
G1 X73.832 Y19.849 E.17138
G1 X73.967 Y20.474 E.03211
G1 X70.932 Y17.438 E.21575
G1 X70.444 Y17.438 E.02455
G1 X74.103 Y21.098 E.26012
G1 X74.239 Y21.722 E.03211
G1 X69.955 Y17.438 E.30449
G1 X69.467 Y17.438 E.02455
G1 X74.375 Y22.346 E.34886
G1 X74.51 Y22.97 E.03211
G1 X68.978 Y17.438 E.39322
G1 X68.49 Y17.438 E.02455
G1 X74.646 Y23.595 E.43759
G1 X74.782 Y24.219 E.03211
G1 X68.001 Y17.438 E.48196
G1 X67.513 Y17.438 E.02455
G1 X74.918 Y24.843 E.52633
G1 X75.053 Y25.467 E.03211
G1 X67.024 Y17.438 E.5707
G1 X66.536 Y17.438 E.02455
G1 X75.189 Y26.092 E.61507
G1 X75.325 Y26.716 E.03211
G1 X66.047 Y17.438 E.65944
G1 X65.559 Y17.438 E.02455
G1 X75.461 Y27.34 E.70381
G1 X75.597 Y27.964 E.03211
G1 X65.07 Y17.438 E.74818
G1 X64.582 Y17.438 E.02455
G1 X75.732 Y28.589 E.79255
G1 X75.868 Y29.213 E.03211
G1 X64.093 Y17.438 E.83691
G1 X63.605 Y17.438 E.02455
G1 X76.004 Y29.837 E.88128
G1 X76.14 Y30.461 E.03211
G1 X63.117 Y17.438 E.92565
G1 X62.628 Y17.438 E.02455
G1 X76.275 Y31.085 E.97002
G1 X76.411 Y31.71 E.03211
G1 X62.14 Y17.438 E1.01439
G1 X61.651 Y17.438 E.02455
G1 X76.547 Y32.334 E1.05876
G1 X76.683 Y32.958 E.03211
G1 X61.163 Y17.438 E1.10313
G1 X60.674 Y17.438 E.02455
G1 X76.818 Y33.582 E1.1475
G1 X76.954 Y34.207 E.03211
G1 X60.186 Y17.438 E1.19187
G1 X59.697 Y17.438 E.02455
G1 X77.09 Y34.831 E1.23624
G1 X77.226 Y35.455 E.03211
G1 X59.717 Y17.946 E1.24449
G1 X59.853 Y18.571 E.03211
G1 X77.362 Y36.079 E1.24449
G1 X77.497 Y36.704 E.03211
G1 X59.989 Y19.195 E1.24448
G1 X60.124 Y19.819 E.03211
G1 X77.633 Y37.328 E1.24448
G1 X77.769 Y37.952 E.03211
G1 X60.26 Y20.443 E1.24448
G1 X60.396 Y21.068 E.03211
G1 X77.905 Y38.576 E1.24448
G1 X78.04 Y39.2 E.03211
G1 X60.532 Y21.692 E1.24447
G1 X60.668 Y22.316 E.03211
G1 X78.176 Y39.825 E1.24447
G1 X78.312 Y40.449 E.03211
G1 X60.803 Y22.94 E1.24447
G1 X60.939 Y23.565 E.03211
G1 X78.448 Y41.073 E1.24447
G1 X78.583 Y41.697 E.03211
G1 X61.075 Y24.189 E1.24447
G1 X61.211 Y24.813 E.03211
G1 X78.719 Y42.322 E1.24446
G1 X78.855 Y42.946 E.03211
G1 X61.347 Y25.437 E1.24446
G1 X61.482 Y26.062 E.03211
G1 X78.991 Y43.57 E1.24446
G1 X79.126 Y44.194 E.03211
G1 X61.618 Y26.686 E1.24446
G1 X61.754 Y27.31 E.03211
G1 X79.262 Y44.819 E1.24446
G1 X79.398 Y45.443 E.03211
G1 X61.89 Y27.934 E1.24445
G1 X62.026 Y28.559 E.03211
G1 X79.534 Y46.067 E1.24445
G1 X79.67 Y46.691 E.03211
G1 X62.161 Y29.183 E1.24445
G1 X62.297 Y29.807 E.03211
G1 X79.805 Y47.315 E1.24445
G1 X79.941 Y47.94 E.03211
G1 X62.433 Y30.432 E1.24445
G1 X62.569 Y31.056 E.03211
G1 X80.077 Y48.564 E1.24444
G1 X80.213 Y49.188 E.03211
G1 X62.704 Y31.68 E1.24444
G1 X62.84 Y32.304 E.03211
G1 X80.348 Y49.812 E1.24444
G1 X80.484 Y50.437 E.03211
G1 X62.976 Y32.929 E1.24444
G1 X63.112 Y33.553 E.03211
G1 X80.62 Y51.061 E1.24443
G1 X80.756 Y51.685 E.03211
G1 X63.248 Y34.177 E1.24443
G1 X63.383 Y34.801 E.03211
G1 X80.891 Y52.309 E1.24443
G1 X81.027 Y52.934 E.03211
G1 X63.519 Y35.426 E1.24443
G1 X63.655 Y36.05 E.03211
G1 X81.163 Y53.558 E1.24443
G1 X81.299 Y54.182 E.03211
G1 X63.791 Y36.674 E1.24442
G1 X63.927 Y37.298 E.03211
G1 X81.435 Y54.806 E1.24442
G1 X81.57 Y55.43 E.03211
G1 X64.062 Y37.923 E1.24442
G1 X64.198 Y38.547 E.03211
M73 P0 R173
G1 X81.706 Y56.055 E1.24442
G1 X81.842 Y56.679 E.03211
G1 X64.334 Y39.171 E1.24442
G1 X64.47 Y39.795 E.03211
G1 X81.978 Y57.303 E1.24441
G1 X82.113 Y57.927 E.03211
G1 X64.606 Y40.42 E1.24441
G1 X64.741 Y41.044 E.03211
G1 X82.249 Y58.552 E1.24441
G1 X82.385 Y59.176 E.03211
G1 X64.877 Y41.668 E1.24441
G1 X65.013 Y42.292 E.03211
G1 X82.521 Y59.8 E1.2444
G1 X82.656 Y60.424 E.03211
G1 X65.149 Y42.917 E1.2444
G1 X65.285 Y43.541 E.03211
G1 X82.792 Y61.049 E1.2444
G1 X82.928 Y61.673 E.03211
G1 X65.42 Y44.165 E1.2444
G1 X65.556 Y44.789 E.03211
G1 X83.064 Y62.297 E1.2444
G1 X83.199 Y62.921 E.03211
G1 X65.692 Y45.414 E1.24439
G1 X65.828 Y46.038 E.03211
G1 X83.335 Y63.545 E1.24439
G1 X83.471 Y64.17 E.03211
G1 X65.964 Y46.662 E1.24439
G1 X66.099 Y47.287 E.03211
G1 X83.607 Y64.794 E1.24439
G1 X83.743 Y65.418 E.03211
G1 X66.235 Y47.911 E1.24439
G1 X66.371 Y48.535 E.03211
G1 X83.878 Y66.042 E1.24438
G1 X84.014 Y66.667 E.03211
G1 X66.507 Y49.159 E1.24438
G1 X66.643 Y49.784 E.03211
G1 X84.15 Y67.291 E1.24438
G1 X84.286 Y67.915 E.03211
G1 X66.778 Y50.408 E1.24438
G1 X66.914 Y51.032 E.03211
G1 X84.421 Y68.539 E1.24438
G1 X84.557 Y69.164 E.03211
G1 X67.05 Y51.656 E1.24437
G1 X67.186 Y52.281 E.03211
G1 X84.693 Y69.788 E1.24437
G1 X84.829 Y70.412 E.03211
G1 X67.322 Y52.905 E1.24437
G1 X67.457 Y53.529 E.03211
G1 X84.964 Y71.036 E1.24437
G1 X85.1 Y71.66 E.03211
G1 X67.593 Y54.153 E1.24436
G1 X67.729 Y54.778 E.03211
G1 X85.236 Y72.285 E1.24436
G1 X85.372 Y72.909 E.03211
G1 X67.865 Y55.402 E1.24436
G1 X68.001 Y56.026 E.03211
G1 X85.508 Y73.533 E1.24436
G1 X85.643 Y74.157 E.03211
G1 X68.136 Y56.65 E1.24436
G1 X68.272 Y57.275 E.03211
G1 X85.779 Y74.782 E1.24435
G1 X85.915 Y75.406 E.03211
M73 P1 R173
G1 X68.408 Y57.899 E1.24435
G1 X68.544 Y58.523 E.03211
G1 X86.051 Y76.03 E1.24435
G1 X86.186 Y76.654 E.03211
G1 X68.68 Y59.147 E1.24435
G1 X68.815 Y59.772 E.03211
G1 X86.322 Y77.279 E1.24435
G1 X86.458 Y77.903 E.03211
G1 X68.951 Y60.396 E1.24434
G1 X69.087 Y61.02 E.03211
G1 X86.594 Y78.527 E1.24434
G1 X86.729 Y79.151 E.03211
G1 X69.223 Y61.645 E1.24434
G1 X69.359 Y62.269 E.03211
G1 X86.865 Y79.775 E1.24434
G1 X87.001 Y80.4 E.03211
G1 X69.494 Y62.893 E1.24434
G1 X69.63 Y63.517 E.03211
G1 X87.137 Y81.024 E1.24433
G1 X87.273 Y81.648 E.03211
G1 X69.766 Y64.142 E1.24433
G1 X69.902 Y64.766 E.03211
G1 X87.408 Y82.272 E1.24433
G1 X87.544 Y82.897 E.03211
G1 X70.038 Y65.39 E1.24433
G1 X70.173 Y66.014 E.03211
G1 X87.68 Y83.521 E1.24432
G1 X87.816 Y84.145 E.03211
G1 X70.309 Y66.639 E1.24432
G1 X70.445 Y67.263 E.03211
G1 X87.951 Y84.769 E1.24432
G1 X88.087 Y85.394 E.03211
G1 X70.581 Y67.887 E1.24432
G1 X70.716 Y68.511 E.03211
G1 X88.223 Y86.018 E1.24432
G1 X88.359 Y86.642 E.03211
G1 X70.852 Y69.136 E1.24431
G1 X70.988 Y69.76 E.03211
G1 X88.494 Y87.266 E1.24431
G1 X88.63 Y87.89 E.03211
G1 X71.124 Y70.384 E1.24431
G1 X71.26 Y71.008 E.03211
G1 X88.766 Y88.515 E1.24431
G1 X88.902 Y89.139 E.03211
G1 X71.395 Y71.633 E1.24431
G1 X71.531 Y72.257 E.03211
G1 X89.037 Y89.763 E1.2443
G1 X89.173 Y90.387 E.03211
G1 X71.667 Y72.881 E1.2443
G1 X71.803 Y73.505 E.03211
G1 X89.309 Y91.012 E1.2443
G1 X89.445 Y91.636 E.03211
G1 X71.939 Y74.13 E1.2443
G1 X72.074 Y74.754 E.03211
G1 X89.581 Y92.26 E1.24429
G1 X89.716 Y92.884 E.03211
G1 X72.21 Y75.378 E1.24429
G1 X72.346 Y76.003 E.03211
G1 X89.852 Y93.509 E1.24429
G1 X89.988 Y94.133 E.03211
G1 X72.482 Y76.627 E1.24429
G1 X72.618 Y77.251 E.03211
G1 X90.124 Y94.757 E1.24429
G1 X90.259 Y95.381 E.03211
G1 X72.753 Y77.875 E1.24428
G1 X72.889 Y78.5 E.03211
G1 X90.395 Y96.005 E1.24428
G1 X90.531 Y96.63 E.03211
G1 X73.025 Y79.124 E1.24428
G1 X73.161 Y79.748 E.03211
G1 X90.667 Y97.254 E1.24428
G1 X90.802 Y97.878 E.03211
G1 X73.297 Y80.372 E1.24428
G1 X73.432 Y80.997 E.03211
M73 P1 R172
G1 X90.938 Y98.502 E1.24427
G1 X91.074 Y99.127 E.03211
G1 X73.568 Y81.621 E1.24427
G1 X73.704 Y82.245 E.03211
G1 X91.21 Y99.751 E1.24427
G1 X91.346 Y100.375 E.03211
G1 X73.84 Y82.869 E1.24427
G1 X73.976 Y83.494 E.03211
G1 X91.481 Y100.999 E1.24427
G1 X91.617 Y101.624 E.03211
G1 X74.111 Y84.118 E1.24426
G1 X74.247 Y84.742 E.03211
G1 X91.753 Y102.248 E1.24426
G1 X91.889 Y102.872 E.03211
G1 X74.383 Y85.366 E1.24426
G1 X74.519 Y85.991 E.03211
G1 X92.024 Y103.496 E1.24426
G1 X92.16 Y104.12 E.03211
G1 X74.655 Y86.615 E1.24425
G1 X74.79 Y87.239 E.03211
G1 X92.296 Y104.745 E1.24425
G1 X92.432 Y105.369 E.03211
G1 X74.926 Y87.863 E1.24425
G1 X75.062 Y88.488 E.03211
G1 X92.567 Y105.993 E1.24425
G1 X92.703 Y106.617 E.03211
G1 X75.198 Y89.112 E1.24425
G1 X75.334 Y89.736 E.03211
G1 X92.839 Y107.242 E1.24424
G1 X92.975 Y107.866 E.03211
G1 X75.469 Y90.36 E1.24424
G1 X75.605 Y90.985 E.03211
G1 X93.11 Y108.49 E1.24424
G1 X93.246 Y109.114 E.03211
G1 X75.741 Y91.609 E1.24424
G1 X75.877 Y92.233 E.03211
G1 X93.382 Y109.739 E1.24424
G1 X93.518 Y110.363 E.03211
G1 X76.013 Y92.858 E1.24423
G1 X76.148 Y93.482 E.03211
G1 X93.654 Y110.987 E1.24423
G1 X93.789 Y111.611 E.03211
G1 X76.284 Y94.106 E1.24423
G1 X76.42 Y94.73 E.03211
G1 X93.925 Y112.235 E1.24423
G1 X94.061 Y112.86 E.03211
G1 X76.556 Y95.355 E1.24422
G1 X76.692 Y95.979 E.03211
G1 X94.197 Y113.484 E1.24422
G1 X94.332 Y114.108 E.03211
G1 X76.827 Y96.603 E1.24422
G1 X76.963 Y97.227 E.03211
G1 X94.468 Y114.732 E1.24422
G1 X94.604 Y115.357 E.03211
G1 X77.099 Y97.852 E1.24422
G1 X77.235 Y98.476 E.03211
G1 X94.74 Y115.981 E1.24421
G1 X94.875 Y116.605 E.03211
G1 X77.371 Y99.1 E1.24421
G1 X77.506 Y99.724 E.03211
G1 X95.011 Y117.229 E1.24421
G1 X95.147 Y117.854 E.03211
G1 X77.642 Y100.349 E1.24421
G1 X77.778 Y100.973 E.03211
G1 X95.219 Y118.414 E1.23966
G1 X95.26 Y118.943 E.0267
G1 X77.914 Y101.597 E1.23294
G1 X78.05 Y102.221 E.03211
G1 X95.301 Y119.473 E1.22622
G1 X95.342 Y120.003 E.0267
G1 X78.185 Y102.846 E1.2195
G1 X78.321 Y103.47 E.03211
G1 X95.384 Y120.533 E1.21278
G1 X95.425 Y121.062 E.0267
G1 X78.457 Y104.094 E1.20606
G1 X78.593 Y104.718 E.03211
G1 X95.466 Y121.592 E1.19933
G1 X95.507 Y122.122 E.0267
G1 X78.728 Y105.343 E1.19261
G1 X78.864 Y105.967 E.03211
G1 X95.549 Y122.651 E1.18589
G1 X95.59 Y123.181 E.0267
G1 X79 Y106.591 E1.17917
G1 X79.136 Y107.216 E.03211
G1 X95.631 Y123.711 E1.17245
G1 X95.672 Y124.241 E.0267
G1 X79.272 Y107.84 E1.16573
G1 X79.407 Y108.464 E.03211
G1 X95.714 Y124.77 E1.15901
G1 X95.755 Y125.3 E.0267
G1 X79.543 Y109.088 E1.15229
G1 X79.679 Y109.713 E.03211
G1 X95.796 Y125.83 E1.14557
G1 X95.837 Y126.359 E.0267
G1 X79.815 Y110.337 E1.13885
G1 X79.951 Y110.961 E.03211
G1 X95.879 Y126.889 E1.13213
G1 X95.92 Y127.419 E.0267
G1 X80.086 Y111.585 E1.12541
G1 X80.222 Y112.21 E.03211
G1 X95.961 Y127.949 E1.11869
G1 X96.002 Y128.478 E.0267
G1 X80.358 Y112.834 E1.11197
G1 X80.494 Y113.458 E.03211
G1 X96.044 Y129.008 E1.10525
G1 X96.085 Y129.538 E.0267
G1 X80.63 Y114.082 E1.09853
G1 X80.765 Y114.707 E.03211
G1 X96.126 Y130.067 E1.09181
G1 X96.167 Y130.597 E.0267
G1 X80.901 Y115.331 E1.08509
G1 X81.037 Y115.955 E.03211
G1 X96.209 Y131.127 E1.07837
G1 X96.25 Y131.657 E.0267
G1 X81.173 Y116.579 E1.07165
G1 X81.309 Y117.204 E.03211
G1 X96.291 Y132.186 E1.06493
G1 X96.332 Y132.716 E.0267
G1 X81.444 Y117.828 E1.05821
G1 X81.58 Y118.452 E.03211
G1 X96.374 Y133.246 E1.05149
G1 X96.415 Y133.775 E.0267
G1 X81.716 Y119.076 E1.04476
G1 X81.852 Y119.701 E.03211
G1 X96.456 Y134.305 E1.03804
G1 X96.497 Y134.835 E.0267
G1 X81.944 Y120.281 E1.03445
G1 X81.985 Y120.811 E.0267
G1 X96.539 Y135.364 E1.03446
G1 X96.58 Y135.894 E.0267
G1 X82.026 Y121.34 E1.03446
G1 X82.067 Y121.87 E.0267
G1 X96.621 Y136.424 E1.03446
G1 X96.662 Y136.954 E.0267
G1 X82.109 Y122.4 E1.03446
G1 X82.15 Y122.929 E.0267
G1 X96.704 Y137.483 E1.03446
G1 X96.745 Y138.013 E.0267
G1 X82.191 Y123.459 E1.03446
G1 X82.232 Y123.989 E.0267
G1 X96.786 Y138.543 E1.03446
G1 X96.827 Y139.072 E.0267
M73 P1 R171
G1 X82.273 Y124.519 E1.03446
G1 X82.315 Y125.048 E.0267
G1 X96.869 Y139.602 E1.03446
G1 X96.91 Y140.132 E.0267
G1 X82.356 Y125.578 E1.03446
G1 X82.397 Y126.108 E.0267
G1 X96.951 Y140.662 E1.03446
G1 X96.992 Y141.191 E.0267
G1 X82.438 Y126.637 E1.03446
G1 X82.48 Y127.167 E.0267
G1 X97.034 Y141.721 E1.03446
G1 X97.075 Y142.251 E.0267
G1 X82.521 Y127.697 E1.03446
G1 X82.562 Y128.226 E.0267
G1 X97.116 Y142.78 E1.03447
G1 X97.157 Y143.31 E.0267
G1 X82.603 Y128.756 E1.03447
G1 X82.645 Y129.286 E.0267
G1 X97.199 Y143.84 E1.03447
G1 X97.24 Y144.37 E.0267
G1 X82.686 Y129.816 E1.03447
G1 X82.727 Y130.345 E.0267
G1 X97.281 Y144.899 E1.03447
G1 X97.322 Y145.429 E.0267
G1 X82.768 Y130.875 E1.03447
G1 X82.81 Y131.405 E.0267
G1 X97.364 Y145.959 E1.03447
G1 X97.405 Y146.488 E.0267
G1 X82.851 Y131.934 E1.03447
G1 X82.892 Y132.464 E.0267
G1 X97.446 Y147.018 E1.03447
G1 X97.487 Y147.548 E.0267
M73 P2 R171
G1 X82.933 Y132.994 E1.03447
G1 X82.974 Y133.523 E.0267
G1 X97.529 Y148.078 E1.03447
G1 X97.57 Y148.607 E.0267
G1 X83.016 Y134.053 E1.03447
G1 X83.057 Y134.583 E.0267
G1 X97.611 Y149.137 E1.03447
G1 X97.652 Y149.667 E.0267
G1 X83.098 Y135.113 E1.03447
G1 X83.139 Y135.642 E.0267
G1 X97.694 Y150.196 E1.03447
G1 X97.735 Y150.726 E.0267
G1 X83.181 Y136.172 E1.03448
G1 X83.222 Y136.702 E.0267
G1 X97.776 Y151.256 E1.03448
G1 X97.817 Y151.785 E.0267
G1 X83.263 Y137.231 E1.03448
G1 X83.304 Y137.761 E.0267
G1 X97.859 Y152.315 E1.03448
G1 X97.9 Y152.845 E.0267
G1 X83.346 Y138.291 E1.03448
G1 X83.387 Y138.82 E.0267
G1 X97.941 Y153.375 E1.03448
G1 X97.982 Y153.904 E.0267
G1 X83.428 Y139.35 E1.03448
G1 X83.469 Y139.88 E.0267
G1 X98.023 Y154.434 E1.03448
G1 X98.065 Y154.964 E.0267
G1 X83.511 Y140.41 E1.03448
G1 X83.552 Y140.939 E.0267
G1 X98.106 Y155.493 E1.03448
G1 X98.147 Y156.023 E.0267
G1 X83.593 Y141.469 E1.03448
G1 X83.634 Y141.999 E.0267
G1 X98.188 Y156.553 E1.03448
G1 X98.23 Y157.083 E.0267
G1 X83.675 Y142.528 E1.03448
G1 X83.717 Y143.058 E.0267
G1 X98.271 Y157.612 E1.03448
G1 X98.312 Y158.142 E.0267
G1 X83.758 Y143.588 E1.03448
G1 X83.799 Y144.117 E.0267
G1 X98.353 Y158.672 E1.03449
G1 X98.395 Y159.201 E.0267
G1 X83.84 Y144.647 E1.03449
G1 X83.882 Y145.177 E.0267
G1 X98.436 Y159.731 E1.03449
G1 X98.477 Y160.261 E.0267
G1 X83.923 Y145.707 E1.03449
G1 X83.964 Y146.236 E.0267
G1 X98.518 Y160.791 E1.03449
G1 X98.56 Y161.32 E.0267
G1 X84.005 Y146.766 E1.03449
G1 X84.047 Y147.296 E.0267
G1 X98.601 Y161.85 E1.03449
G1 X98.642 Y162.38 E.0267
G1 X84.088 Y147.825 E1.03449
G1 X84.129 Y148.355 E.0267
G1 X98.336 Y162.562 E1.00978
G1 X97.847 Y162.562 E.02455
G1 X84.17 Y148.885 E.97213
G1 X84.212 Y149.414 E.0267
G1 X97.359 Y162.562 E.93448
G1 X96.87 Y162.562 E.02455
G1 X84.253 Y149.944 E.89683
G1 X84.294 Y150.474 E.0267
G1 X96.382 Y162.562 E.85918
G1 X95.893 Y162.562 E.02455
G1 X84.335 Y151.004 E.82153
G1 X84.377 Y151.533 E.0267
G1 X95.405 Y162.562 E.78388
G1 X94.917 Y162.562 E.02455
G1 X84.418 Y152.063 E.74623
G1 X84.459 Y152.593 E.0267
G1 X94.428 Y162.562 E.70858
G1 X93.94 Y162.562 E.02455
G1 X84.5 Y153.122 E.67093
G1 X84.541 Y153.652 E.0267
G1 X93.451 Y162.562 E.63328
G1 X92.963 Y162.562 E.02455
G1 X84.583 Y154.182 E.59563
G1 X84.624 Y154.711 E.0267
