; generated by PrusaSlicer 2.5.0+win64 on 2022-12-07 at 00:15:57 UTC

; 

; external perimeters extrusion width = 1.00mm
; perimeters extrusion width = 1.00mm
; infill extrusion width = 1.00mm
; solid infill extrusion width = 1.00mm
; top infill extrusion width = 1.00mm
; support material extrusion width = 1.00mm
; first layer extrusion width = 0.42mm

M73 P0 R170
M107
;TYPE:Custom
G90 ; use absolute coordinates
M83 ; extruder relative mode
M140 S60 ; set final bed temp
M104 S150 ; set temporary nozzle temp to prevent oozing during homing and auto bed leveling
G4 S10 ; allow partial nozzle warmup
G28 ; home all axisG1 Z50 F240
G1 X7.6 Y10 F3000
M104 S210 ; set final nozzle temp
M190 S60 ; wait for bed temp to stabilize
M109 S210 ; wait for nozzle temp to stabilize
G1 Z0.28 F240
G92 E0
G1 Y140 E10 F1500 ; prime the nozzle
G1 X4 F5000
G92 E0
G1 Y10 E10 F1200 ; prime the nozzle
G92 E0
G21 ; set units to millimeters
G90 ; use absolute coordinates
M83 ; use relative distances for extrusion
; Filament gcode
M107
;LAYER_CHANGE
;Z:0.35
;HEIGHT:0.35
;BEFORE_LAYER_CHANGE
G92 E0
;0.35


G1 E-1 F3600
G1 Z.35 F7800
;AFTER_LAYER_CHANGE
;0.35
G1 X80.615 Y162.82
G1 E1 F2400
;TYPE:Perimeter
;WIDTH:0.42
G1 F1800
G1 X69.271 Y17.18 E7.33122
G1 X83.222 Y17.18 E.70012
G1 X94.562 Y162.82 E7.3312
G1 X80.765 Y162.82 E.69241
G1 X80.296 Y163.165 F7800
;TYPE:External perimeter
G1 F1800
G1 X68.899 Y16.835 E7.36594
G1 X83.541 Y16.835 E.73484
G1 X94.934 Y163.165 E7.36592
G1 X80.446 Y163.165 E.72713
G1 X80.251 Y162.166 F7800
G1 E-.7 F3600
;WIPE_START
G1 F6240
G1 X80.405 Y162.647 E-.285
;WIPE_END
G1 E-.015 F3600
G1 X83.185 Y18.041 F7800
G1 E1 F2400
;TYPE:Solid infill
;WIDTH:0.420299
G1 F1800
G1 X82.582 Y17.439 E.04283
G1 X82.094 Y17.439 E.02452
G1 X83.058 Y18.402 E.06844
G1 X83.099 Y18.931 E.02667
G1 X81.606 Y17.439 E.10605
G1 X81.118 Y17.439 E.02452
G1 X83.14 Y19.461 E.14365
G1 X83.181 Y19.99 E.02667
G1 X80.63 Y17.439 E.18126
G1 X80.141 Y17.439 E.02452
G1 X83.223 Y20.52 E.21886
G1 X83.264 Y21.049 E.02667
G1 X79.653 Y17.439 E.25647
G1 X79.165 Y17.439 E.02452
G1 X83.305 Y21.578 E.29408
G1 X83.346 Y22.108 E.02667
G1 X78.677 Y17.439 E.33168
G1 X78.189 Y17.439 E.02452
G1 X83.387 Y22.637 E.36929
G1 X83.429 Y23.167 E.02667
G1 X77.701 Y17.439 E.40689
G1 X77.212 Y17.439 E.02452
G1 X83.47 Y23.696 E.4445
G1 X83.511 Y24.225 E.02667
G1 X76.724 Y17.439 E.4821
G1 X76.236 Y17.439 E.02452
G1 X83.552 Y24.755 E.51971
G1 X83.594 Y25.284 E.02667
G1 X75.748 Y17.439 E.55731
G1 X75.26 Y17.439 E.02452
G1 X83.635 Y25.813 E.59492
G1 X83.676 Y26.343 E.02667
G1 X74.772 Y17.439 E.63252
G1 X74.283 Y17.439 E.02452
G1 X83.717 Y26.872 E.67013
G1 X83.758 Y27.402 E.02667
G1 X73.795 Y17.439 E.70773
G1 X73.307 Y17.439 E.02452
G1 X83.8 Y27.931 E.74534
G1 X83.841 Y28.46 E.02667
G1 X72.819 Y17.439 E.78294
G1 X72.331 Y17.439 E.02452
G1 X83.882 Y28.99 E.82055
G1 X83.923 Y29.519 E.02667
G1 X71.843 Y17.439 E.85815
G1 X71.354 Y17.439 E.02452
M73 P0 R169
G1 X83.964 Y30.049 E.89576
G1 X84.006 Y30.578 E.02667
G1 X70.866 Y17.439 E.93336
G1 X70.378 Y17.439 E.02452
G1 X84.047 Y31.107 E.97097
G1 X84.088 Y31.637 E.02667
G1 X69.89 Y17.439 E1.00857
G1 X69.551 Y17.439 E.01702
G1 X69.564 Y17.6 E.00816
G1 X84.129 Y32.166 E1.03468
G1 X84.171 Y32.696 E.02667
G1 X69.605 Y18.13 E1.03468
G1 X69.646 Y18.659 E.02667
G1 X84.212 Y33.225 E1.03467
G1 X84.253 Y33.754 E.02667
G1 X69.687 Y19.189 E1.03467
G1 X69.729 Y19.718 E.02667
G1 X84.294 Y34.284 E1.03467
G1 X84.335 Y34.813 E.02667
G1 X69.77 Y20.247 E1.03467
G1 X69.811 Y20.777 E.02667
G1 X84.377 Y35.342 E1.03467
G1 X84.418 Y35.872 E.02667
G1 X69.852 Y21.306 E1.03467
G1 X69.894 Y21.836 E.02667
G1 X84.459 Y36.401 E1.03467
G1 X84.5 Y36.931 E.02667
G1 X69.935 Y22.365 E1.03467
G1 X69.976 Y22.894 E.02667
G1 X84.542 Y37.46 E1.03467
G1 X84.583 Y37.989 E.02667
G1 X70.017 Y23.424 E1.03467
G1 X70.058 Y23.953 E.02667
G1 X84.624 Y38.519 E1.03466
G1 X84.665 Y39.048 E.02667
G1 X70.1 Y24.483 E1.03466
G1 X70.141 Y25.012 E.02667
G1 X84.706 Y39.578 E1.03466
G1 X84.748 Y40.107 E.02667
G1 X70.182 Y25.541 E1.03466
G1 X70.223 Y26.071 E.02667
G1 X84.789 Y40.636 E1.03466
G1 X84.83 Y41.166 E.02667
G1 X70.265 Y26.6 E1.03466
G1 X70.306 Y27.13 E.02667
G1 X84.871 Y41.695 E1.03466
G1 X84.913 Y42.225 E.02667
G1 X70.347 Y27.659 E1.03466
G1 X70.388 Y28.188 E.02667
G1 X84.954 Y42.754 E1.03466
G1 X84.995 Y43.283 E.02667
G1 X70.43 Y28.718 E1.03466
G1 X70.471 Y29.247 E.02667
G1 X85.036 Y43.813 E1.03465
G1 X85.077 Y44.342 E.02667
G1 X70.512 Y29.777 E1.03465
G1 X70.553 Y30.306 E.02667
G1 X85.119 Y44.871 E1.03465
G1 X85.16 Y45.401 E.02667
G1 X70.594 Y30.835 E1.03465
G1 X70.636 Y31.365 E.02667
G1 X85.201 Y45.93 E1.03465
G1 X85.242 Y46.46 E.02667
G1 X70.677 Y31.894 E1.03465
G1 X70.718 Y32.424 E.02667
G1 X85.283 Y46.989 E1.03465
G1 X85.325 Y47.518 E.02667
G1 X70.759 Y32.953 E1.03465
G1 X70.801 Y33.483 E.02667
G1 X85.366 Y48.048 E1.03465
G1 X85.407 Y48.577 E.02667
G1 X70.842 Y34.012 E1.03464
G1 X70.883 Y34.541 E.02667
G1 X85.448 Y49.107 E1.03464
G1 X85.49 Y49.636 E.02667
G1 X70.924 Y35.071 E1.03464
G1 X70.966 Y35.6 E.02667
G1 X85.531 Y50.165 E1.03464
G1 X85.572 Y50.695 E.02667
G1 X71.007 Y36.13 E1.03464
G1 X71.048 Y36.659 E.02667
G1 X85.613 Y51.224 E1.03464
G1 X85.654 Y51.754 E.02667
G1 X71.089 Y37.188 E1.03464
G1 X71.13 Y37.718 E.02667
G1 X85.696 Y52.283 E1.03464
G1 X85.737 Y52.812 E.02667
G1 X71.172 Y38.247 E1.03464
G1 X71.213 Y38.777 E.02667
G1 X85.778 Y53.342 E1.03464
G1 X85.819 Y53.871 E.02667
G1 X71.254 Y39.306 E1.03463
G1 X71.295 Y39.835 E.02667
G1 X85.861 Y54.4 E1.03463
G1 X85.902 Y54.93 E.02667
G1 X71.337 Y40.365 E1.03463
G1 X71.378 Y40.894 E.02667
G1 X85.943 Y55.459 E1.03463
G1 X85.984 Y55.989 E.02667
G1 X71.419 Y41.424 E1.03463
G1 X71.46 Y41.953 E.02667
G1 X86.025 Y56.518 E1.03463
G1 X86.067 Y57.047 E.02667
G1 X71.502 Y42.482 E1.03463
G1 X71.543 Y43.012 E.02667
G1 X86.108 Y57.577 E1.03463
G1 X86.149 Y58.106 E.02667
G1 X71.584 Y43.541 E1.03463
G1 X71.625 Y44.071 E.02667
G1 X86.19 Y58.636 E1.03463
G1 X86.231 Y59.165 E.02667
G1 X71.667 Y44.6 E1.03462
G1 X71.708 Y45.129 E.02667
G1 X86.273 Y59.694 E1.03462
G1 X86.314 Y60.224 E.02667
G1 X71.749 Y45.659 E1.03462
G1 X71.79 Y46.188 E.02667
G1 X86.355 Y60.753 E1.03462
G1 X86.396 Y61.282 E.02667
G1 X71.831 Y46.718 E1.03462
G1 X71.873 Y47.247 E.02667
G1 X86.438 Y61.812 E1.03462
G1 X86.479 Y62.341 E.02667
G1 X71.914 Y47.776 E1.03462
G1 X71.955 Y48.306 E.02667
G1 X86.52 Y62.871 E1.03462
G1 X86.561 Y63.4 E.02667
G1 X71.996 Y48.835 E1.03462
G1 X72.038 Y49.365 E.02667
G1 X86.602 Y63.929 E1.03461
G1 X86.644 Y64.459 E.02667
G1 X72.079 Y49.894 E1.03461
G1 X72.12 Y50.423 E.02667
G1 X86.685 Y64.988 E1.03461
G1 X86.726 Y65.518 E.02667
G1 X72.161 Y50.953 E1.03461
G1 X72.203 Y51.482 E.02667
G1 X86.767 Y66.047 E1.03461
G1 X86.809 Y66.576 E.02667
G1 X72.244 Y52.012 E1.03461
G1 X72.285 Y52.541 E.02667
G1 X86.85 Y67.106 E1.03461
G1 X86.891 Y67.635 E.02667
G1 X72.326 Y53.07 E1.03461
G1 X72.367 Y53.6 E.02667
G1 X86.932 Y68.165 E1.03461
G1 X86.973 Y68.694 E.02667
G1 X72.409 Y54.129 E1.03461
G1 X72.45 Y54.659 E.02667
G1 X87.015 Y69.223 E1.0346
G1 X87.056 Y69.753 E.02667
G1 X72.491 Y55.188 E1.0346
G1 X72.532 Y55.717 E.02667
G1 X87.097 Y70.282 E1.0346
G1 X87.138 Y70.811 E.02667
M73 P1 R169
G1 X72.574 Y56.247 E1.0346
G1 X72.615 Y56.776 E.02667
G1 X87.18 Y71.341 E1.0346
G1 X87.221 Y71.87 E.02667
G1 X72.656 Y57.306 E1.0346
G1 X72.697 Y57.835 E.02667
M73 P1 R168
G1 X87.262 Y72.4 E1.0346
G1 X87.303 Y72.929 E.02667
G1 X72.739 Y58.364 E1.0346
G1 X72.78 Y58.894 E.02667
G1 X87.344 Y73.458 E1.0346
G1 X87.386 Y73.988 E.02667
G1 X72.821 Y59.423 E1.0346
G1 X72.862 Y59.953 E.02667
G1 X87.427 Y74.517 E1.03459
G1 X87.468 Y75.047 E.02667
G1 X72.904 Y60.482 E1.03459
G1 X72.945 Y61.011 E.02667
G1 X87.509 Y75.576 E1.03459
G1 X87.55 Y76.105 E.02667
G1 X72.986 Y61.541 E1.03459
G1 X73.027 Y62.07 E.02667
G1 X87.592 Y76.635 E1.03459
G1 X87.633 Y77.164 E.02667
G1 X73.068 Y62.6 E1.03459
G1 X73.11 Y63.129 E.02667
G1 X87.674 Y77.694 E1.03459
G1 X87.715 Y78.223 E.02667
G1 X73.151 Y63.658 E1.03459
G1 X73.192 Y64.188 E.02667
G1 X87.757 Y78.752 E1.03459
G1 X87.798 Y79.282 E.02667
G1 X73.233 Y64.717 E1.03458
G1 X73.275 Y65.247 E.02667
G1 X87.839 Y79.811 E1.03458
G1 X87.88 Y80.34 E.02667
G1 X73.316 Y65.776 E1.03458
G1 X73.357 Y66.305 E.02667
G1 X87.921 Y80.87 E1.03458
G1 X87.963 Y81.399 E.02667
G1 X73.398 Y66.835 E1.03458
G1 X73.44 Y67.364 E.02667
G1 X88.004 Y81.929 E1.03458
G1 X88.045 Y82.458 E.02667
G1 X73.481 Y67.894 E1.03458
G1 X73.522 Y68.423 E.02667
G1 X88.086 Y82.987 E1.03458
G1 X88.128 Y83.517 E.02667
G1 X73.563 Y68.952 E1.03458
G1 X73.604 Y69.482 E.02667
G1 X88.169 Y84.046 E1.03458
G1 X88.21 Y84.576 E.02667
G1 X73.646 Y70.011 E1.03457
G1 X73.687 Y70.541 E.02667
G1 X88.251 Y85.105 E1.03457
G1 X88.292 Y85.634 E.02667
G1 X73.728 Y71.07 E1.03457
G1 X73.769 Y71.599 E.02667
G1 X88.334 Y86.164 E1.03457
G1 X88.375 Y86.693 E.02667
G1 X73.811 Y72.129 E1.03457
G1 X73.852 Y72.658 E.02667
G1 X88.416 Y87.222 E1.03457
G1 X88.457 Y87.752 E.02667
G1 X73.893 Y73.188 E1.03457
G1 X73.934 Y73.717 E.02667
G1 X88.498 Y88.281 E1.03457
G1 X88.54 Y88.811 E.02667
G1 X73.976 Y74.246 E1.03457
G1 X74.017 Y74.776 E.02667
G1 X88.581 Y89.34 E1.03456
G1 X88.622 Y89.869 E.02667
G1 X74.058 Y75.305 E1.03456
G1 X74.099 Y75.835 E.02667
G1 X88.663 Y90.399 E1.03456
G1 X88.705 Y90.928 E.02667
G1 X74.14 Y76.364 E1.03456
G1 X74.182 Y76.893 E.02667
G1 X88.746 Y91.458 E1.03456
G1 X88.787 Y91.987 E.02667
G1 X74.223 Y77.423 E1.03456
G1 X74.264 Y77.952 E.02667
G1 X88.828 Y92.516 E1.03456
G1 X88.869 Y93.046 E.02667
G1 X74.305 Y78.482 E1.03456
G1 X74.347 Y79.011 E.02667
G1 X88.911 Y93.575 E1.03456
G1 X88.952 Y94.105 E.02667
G1 X74.388 Y79.541 E1.03456
G1 X74.429 Y80.07 E.02667
G1 X88.993 Y94.634 E1.03455
G1 X89.034 Y95.163 E.02667
G1 X74.47 Y80.599 E1.03455
G1 X74.512 Y81.129 E.02667
G1 X89.076 Y95.693 E1.03455
G1 X89.117 Y96.222 E.02667
G1 X74.553 Y81.658 E1.03455
G1 X74.594 Y82.188 E.02667
G1 X89.158 Y96.751 E1.03455
G1 X89.199 Y97.281 E.02667
G1 X74.635 Y82.717 E1.03455
G1 X74.677 Y83.246 E.02667
G1 X89.24 Y97.81 E1.03455
G1 X89.282 Y98.34 E.02667
G1 X74.718 Y83.776 E1.03455
G1 X74.759 Y84.305 E.02667
G1 X89.323 Y98.869 E1.03455
G1 X89.364 Y99.398 E.02667
G1 X74.8 Y84.835 E1.03455
G1 X74.841 Y85.364 E.02667
G1 X89.405 Y99.928 E1.03454
G1 X89.447 Y100.457 E.02667
G1 X74.883 Y85.893 E1.03454
G1 X74.924 Y86.423 E.02667
G1 X89.488 Y100.987 E1.03454
G1 X89.529 Y101.516 E.02667
G1 X74.965 Y86.952 E1.03454
G1 X75.006 Y87.482 E.02667
G1 X89.57 Y102.045 E1.03454
G1 X89.611 Y102.575 E.02667
G1 X75.048 Y88.011 E1.03454
G1 X75.089 Y88.54 E.02667
G1 X89.653 Y103.104 E1.03454
G1 X89.694 Y103.634 E.02667
G1 X75.13 Y89.07 E1.03454
G1 X75.171 Y89.599 E.02667
G1 X89.735 Y104.163 E1.03454
G1 X89.776 Y104.692 E.02667
G1 X75.213 Y90.129 E1.03453
G1 X75.254 Y90.658 E.02667
G1 X89.817 Y105.222 E1.03453
G1 X89.859 Y105.751 E.02667
G1 X75.295 Y91.187 E1.03453
G1 X75.336 Y91.717 E.02667
G1 X89.9 Y106.28 E1.03453
G1 X89.941 Y106.81 E.02667
G1 X75.377 Y92.246 E1.03453
G1 X75.419 Y92.776 E.02667
G1 X89.982 Y107.339 E1.03453
G1 X90.024 Y107.869 E.02667
G1 X75.46 Y93.305 E1.03453
G1 X75.501 Y93.834 E.02667
G1 X90.065 Y108.398 E1.03453
G1 X90.106 Y108.927 E.02667
G1 X75.542 Y94.364 E1.03453
G1 X75.584 Y94.893 E.02667
G1 X90.147 Y109.457 E1.03453
G1 X90.188 Y109.986 E.02667
G1 X75.625 Y95.423 E1.03452
G1 X75.666 Y95.952 E.02667
G1 X90.23 Y110.516 E1.03452
G1 X90.271 Y111.045 E.02667
G1 X75.707 Y96.481 E1.03452
G1 X75.749 Y97.011 E.02667
G1 X90.312 Y111.574 E1.03452
G1 X90.353 Y112.104 E.02667
G1 X75.79 Y97.54 E1.03452
G1 X75.831 Y98.07 E.02667
G1 X90.395 Y112.633 E1.03452
G1 X90.436 Y113.162 E.02667
G1 X75.872 Y98.599 E1.03452
G1 X75.914 Y99.128 E.02667
G1 X90.477 Y113.692 E1.03452
G1 X90.518 Y114.221 E.02667
G1 X75.955 Y99.658 E1.03452
G1 X75.996 Y100.187 E.02667
M73 P1 R167
G1 X90.559 Y114.751 E1.03452
G1 X90.601 Y115.28 E.02667
G1 X76.037 Y100.717 E1.03451
G1 X76.078 Y101.246 E.02667
G1 X90.642 Y115.809 E1.03451
G1 X90.683 Y116.339 E.02667
G1 X76.12 Y101.775 E1.03451
G1 X76.161 Y102.305 E.02667
G1 X90.724 Y116.868 E1.03451
G1 X90.766 Y117.398 E.02667
G1 X76.202 Y102.834 E1.03451
G1 X76.243 Y103.364 E.02667
G1 X90.807 Y117.927 E1.03451
G1 X90.848 Y118.456 E.02667
G1 X76.285 Y103.893 E1.03451
G1 X76.326 Y104.422 E.02667
G1 X90.889 Y118.986 E1.03451
G1 X90.93 Y119.515 E.02667
G1 X76.367 Y104.952 E1.03451
G1 X76.408 Y105.481 E.02667
G1 X90.972 Y120.045 E1.0345
G1 X91.013 Y120.574 E.02667
G1 X76.45 Y106.011 E1.0345
G1 X76.491 Y106.54 E.02667
G1 X91.054 Y121.103 E1.0345
G1 X91.095 Y121.633 E.02667
G1 X76.532 Y107.069 E1.0345
G1 X76.573 Y107.599 E.02667
G1 X91.136 Y122.162 E1.0345
G1 X91.178 Y122.691 E.02667
G1 X76.614 Y108.128 E1.0345
G1 X76.656 Y108.658 E.02667
G1 X91.219 Y123.221 E1.0345
G1 X91.26 Y123.75 E.02667
G1 X76.697 Y109.187 E1.0345
G1 X76.738 Y109.716 E.02667
G1 X91.301 Y124.28 E1.0345
G1 X91.343 Y124.809 E.02667
G1 X76.779 Y110.246 E1.0345
G1 X76.821 Y110.775 E.02667
G1 X91.384 Y125.338 E1.03449
G1 X91.425 Y125.868 E.02667
G1 X76.862 Y111.305 E1.03449
G1 X76.903 Y111.834 E.02667
G1 X91.466 Y126.397 E1.03449
G1 X91.507 Y126.927 E.02667
G1 X76.944 Y112.363 E1.03449
G1 X76.986 Y112.893 E.02667
G1 X91.549 Y127.456 E1.03449
G1 X91.59 Y127.985 E.02667
G1 X77.027 Y113.422 E1.03449
G1 X77.068 Y113.952 E.02667
G1 X91.631 Y128.515 E1.03449
G1 X91.672 Y129.044 E.02667
G1 X77.109 Y114.481 E1.03449
G1 X77.15 Y115.01 E.02667
G1 X91.714 Y129.574 E1.03449
G1 X91.755 Y130.103 E.02667
G1 X77.192 Y115.54 E1.03449
G1 X77.233 Y116.069 E.02667
G1 X91.796 Y130.632 E1.03448
G1 X91.837 Y131.162 E.02667
G1 X77.274 Y116.599 E1.03448
G1 X77.315 Y117.128 E.02667
G1 X91.878 Y131.691 E1.03448
G1 X91.92 Y132.22 E.02667
G1 X77.357 Y117.657 E1.03448
G1 X77.398 Y118.187 E.02667
G1 X91.961 Y132.75 E1.03448
G1 X92.002 Y133.279 E.02667
G1 X77.439 Y118.716 E1.03448
G1 X77.48 Y119.246 E.02667
G1 X92.043 Y133.809 E1.03448
G1 X92.084 Y134.338 E.02667
G1 X77.522 Y119.775 E1.03448
G1 X77.563 Y120.304 E.02667
G1 X92.126 Y134.867 E1.03448
G1 X92.167 Y135.397 E.02667
G1 X77.604 Y120.834 E1.03447
G1 X77.645 Y121.363 E.02667
G1 X92.208 Y135.926 E1.03447
G1 X92.249 Y136.456 E.02667
G1 X77.687 Y121.893 E1.03447
G1 X77.728 Y122.422 E.02667
G1 X92.291 Y136.985 E1.03447
G1 X92.332 Y137.514 E.02667
G1 X77.769 Y122.952 E1.03447
G1 X77.81 Y123.481 E.02667
G1 X92.373 Y138.044 E1.03447
G1 X92.414 Y138.573 E.02667
G1 X77.851 Y124.01 E1.03447
G1 X77.893 Y124.54 E.02667
G1 X92.455 Y139.102 E1.03447
G1 X92.497 Y139.632 E.02667
G1 X77.934 Y125.069 E1.03447
G1 X77.975 Y125.599 E.02667
G1 X92.538 Y140.161 E1.03447
G1 X92.579 Y140.691 E.02667
G1 X78.016 Y126.128 E1.03446
G1 X78.058 Y126.657 E.02667
G1 X92.62 Y141.22 E1.03446
G1 X92.662 Y141.749 E.02667
G1 X78.099 Y127.187 E1.03446
G1 X78.14 Y127.716 E.02667
G1 X92.703 Y142.279 E1.03446
G1 X92.744 Y142.808 E.02667
G1 X78.181 Y128.246 E1.03446
G1 X78.223 Y128.775 E.02667
M73 P2 R167
G1 X92.785 Y143.338 E1.03446
G1 X92.826 Y143.867 E.02667
G1 X78.264 Y129.304 E1.03446
G1 X78.305 Y129.834 E.02667
G1 X92.868 Y144.396 E1.03446
G1 X92.909 Y144.926 E.02667
G1 X78.346 Y130.363 E1.03446
G1 X78.387 Y130.893 E.02667
G1 X92.95 Y145.455 E1.03446
G1 X92.991 Y145.985 E.02667
G1 X78.429 Y131.422 E1.03445
G1 X78.47 Y131.951 E.02667
G1 X93.033 Y146.514 E1.03445
G1 X93.074 Y147.043 E.02667
G1 X78.511 Y132.481 E1.03445
G1 X78.552 Y133.01 E.02667
G1 X93.115 Y147.573 E1.03445
G1 X93.156 Y148.102 E.02667
G1 X78.594 Y133.54 E1.03445
G1 X78.635 Y134.069 E.02667
G1 X93.197 Y148.631 E1.03445
G1 X93.239 Y149.161 E.02667
G1 X78.676 Y134.598 E1.03445
G1 X78.717 Y135.128 E.02667
G1 X93.28 Y149.69 E1.03445
G1 X93.321 Y150.22 E.02667
G1 X78.759 Y135.657 E1.03445
G1 X78.8 Y136.187 E.02667
G1 X93.362 Y150.749 E1.03444
G1 X93.403 Y151.278 E.02667
G1 X78.841 Y136.716 E1.03444
G1 X78.882 Y137.245 E.02667
G1 X93.445 Y151.808 E1.03444
G1 X93.486 Y152.337 E.02667
G1 X78.923 Y137.775 E1.03444
G1 X78.965 Y138.304 E.02667
G1 X93.527 Y152.867 E1.03444
G1 X93.568 Y153.396 E.02667
G1 X79.006 Y138.834 E1.03444
G1 X79.047 Y139.363 E.02667
G1 X93.61 Y153.925 E1.03444
G1 X93.651 Y154.455 E.02667
