; generated by PrusaSlicer 2.5.0+win64 on 2022-12-07 at 00:16:22 UTC

; 

; external perimeters extrusion width = 1.00mm
; perimeters extrusion width = 1.00mm
; infill extrusion width = 1.00mm
; solid infill extrusion width = 1.00mm
; top infill extrusion width = 1.00mm
; support material extrusion width = 1.00mm
; first layer extrusion width = 0.42mm

M73 P0 R1
M107
;TYPE:Custom
G90 ; use absolute coordinates
M83 ; extruder relative mode
M140 S60 ; set final bed temp
M104 S150 ; set temporary nozzle temp to prevent oozing during homing and auto bed leveling
G4 S10 ; allow partial nozzle warmup
G28 ; home all axisG1 Z50 F240
G1 X7.6 Y10 F3000
M104 S210 ; set final nozzle temp
M190 S60 ; wait for bed temp to stabilize
M109 S210 ; wait for nozzle temp to stabilize
G1 Z0.28 F240
G92 E0
G1 Y140 E10 F1500 ; prime the nozzle
G1 X4 F5000
G92 E0
M73 P4 R1
G1 Y10 E10 F1200 ; prime the nozzle
G92 E0
G21 ; set units to millimeters
G90 ; use absolute coordinates
M83 ; use relative distances for extrusion
; Filament gcode
M107
;LAYER_CHANGE
;Z:0.35
;HEIGHT:0.35
;BEFORE_LAYER_CHANGE
G92 E0
;0.35


G1 E-1 F3600
M73 P10 R1
G1 Z.35 F7800
;AFTER_LAYER_CHANGE
;0.35
G1 X93.147 Y100.125
G1 E1 F2400
;TYPE:Support material
;WIDTH:0.42
M73 P11 R1
G1 F1800
G1 X83.282 Y100.125 E.49509
G1 X83.282 Y76.689 E1.17616
M73 P12 R1
G1 X93.147 Y76.689 E.49509
G1 X93.147 Y100.073 E1.17356
M73 P13 R1
G1 E-.7 F3600
;WIPE_START
G1 F6240
G1 X93.147 Y99.553 E-.285
;WIPE_END
G1 E-.015 F3600
G1 X88.084 Y96.531 F7800
G1 E1 F2400
M73 P14 R1
G1 F1800
G1 X88.084 Y97.517 E.0495
G1 X88.5 Y97.933 E.02952
G1 X89.13 Y97.933 E.03165
G1 X89.556 Y97.429 E.0331
G1 X89.384 Y96.421 E.05132
G1 X88.135 Y96.527 E.0629
G1 E-.7 F3600
;WIPE_START
G1 F6240
G1 X88.654 Y96.483 E-.285
;WIPE_END
G1 E-.015 F3600
G1 X92.594 Y99.97 F7800
G1 E1 F2400
G1 F1800
G1 X92.594 Y76.999 E1.15279
G1 X92.21 Y76.999 E.01923
M73 P15 R1
G1 X92.21 Y99.815 E1.145
G1 X91.827 Y99.815 E.01923
M73 P16 R1
G1 X91.827 Y76.999 E1.145
G1 X91.444 Y76.999 E.01923
G1 X91.444 Y99.815 E1.145
G1 X91.061 Y99.815 E.01923
M73 P17 R1
G1 X91.061 Y76.999 E1.145
G1 X90.677 Y76.999 E.01923
M73 P18 R1
G1 X90.677 Y99.815 E1.145
G1 X90.294 Y99.815 E.01923
G1 X90.294 Y76.999 E1.145
G1 X89.911 Y76.999 E.01923
M73 P19 R1
G1 X89.911 Y99.815 E1.145
G1 X89.528 Y99.815 E.01923
M73 P20 R1
G1 X89.528 Y97.944 E.09389
G1 X89.275 Y98.244 E.0197
G1 X89.145 Y98.244 E.00652
G1 X89.145 Y99.815 E.07884
G1 X88.761 Y99.815 E.01923
G1 X88.761 Y98.244 E.07884
G1 X88.378 Y98.244 E.01923
G1 X88.378 Y99.815 E.07884
G1 X87.995 Y99.815 E.01923
G1 X87.995 Y97.867 E.09772
G1 X87.774 Y97.646 E.01572
G1 X87.774 Y96.246 E.07027
G1 X87.995 Y96.227 E.01115
G1 X87.995 Y76.999 E.96496
G1 X87.612 Y76.999 E.01923
M73 P21 R1
G1 X87.612 Y99.815 E1.145
G1 X87.229 Y99.815 E.01923
M73 P22 R1
G1 X87.229 Y76.999 E1.145
G1 X86.845 Y76.999 E.01923
G1 X86.845 Y99.815 E1.145
G1 X86.462 Y99.815 E.01923
M73 P23 R1
G1 X86.462 Y76.999 E1.145
G1 X86.079 Y76.999 E.01923
M73 P24 R1
G1 X86.079 Y99.815 E1.145
G1 X85.696 Y99.815 E.01923
M73 P25 R1
G1 X85.696 Y76.999 E1.145
G1 X85.313 Y76.999 E.01923
G1 X85.313 Y99.815 E1.145
G1 X84.929 Y99.815 E.01923
M73 P26 R1
G1 X84.929 Y76.999 E1.145
G1 X84.546 Y76.999 E.01923
M73 P27 R1
G1 X84.546 Y99.815 E1.145
G1 X84.163 Y99.815 E.01923
G1 X84.163 Y76.999 E1.145
G1 X83.78 Y76.999 E.01923
M73 P28 R1
G1 X83.78 Y99.97 E1.15279
G1 E-.7 F3600
;WIPE_START
M73 P29 R1
G1 F6240
G1 X83.78 Y99.45 E-.285
;WIPE_END
G1 E-.015 F3600
G1 X89.528 Y96.339 F7800
G1 E1 F2400
G1 F1800
G1 X89.528 Y76.999 E.97057
G1 X89.145 Y76.999 E.01923
M73 P30 R1
G1 X89.145 Y96.13 E.96008
G1 X88.761 Y96.162 E.0193
G1 X88.761 Y76.999 E.96171
G1 X88.378 Y76.999 E.01923
M73 P31 R1
G1 X88.378 Y96.35 E.97115
M106 S255
;LAYER_CHANGE
;Z:1.06538
;HEIGHT:0.715385
;BEFORE_LAYER_CHANGE
G92 E0
;1.06538


G1 E-.7 F3600
;WIPE_START
G1 F6240
M73 P32 R1
G1 X88.378 Y95.83 E-.285
;WIPE_END
G1 E-.015 F3600
G1 Z1.065 F7800
;AFTER_LAYER_CHANGE
;1.06538
M104 S205 ; set temperature
G1 X89.857 Y96.708
G1 E1 F2400
;WIDTH:1
G1 F1486.236
G1 X89.857 Y79.979 E4.21177
G1 X86.572 Y79.979 E.82714
G1 X86.572 Y96.835 E4.24374
M73 P33 R1
G1 X87.794 Y96.835 E.30763
G1 X87.794 Y96.054 E.19653
G1 X89.626 Y95.9 E.46278
G1 X89.785 Y96.835 E.23887
G1 X89.857 Y96.835 E.01829
G1 X89.474 Y93.496 F7800
G1 F1486.236
M73 P34 R1
G1 X87.357 Y93.496 E.53304
G1 X87.357 Y90.103 E.85415
G1 X89.072 Y90.103 E.4319
G1 X89.072 Y86.711 E.85415
G1 X87.357 Y86.711 E.4319
G1 X87.357 Y83.318 E.85415
G1 X89.474 Y83.318 E.53304
;LAYER_CHANGE
;Z:1.78077
;HEIGHT:0.715385
;BEFORE_LAYER_CHANGE
G92 E0
;1.78077


G1 E-.7 F3600
;WIPE_START
G1 F6240
G1 X88.954 Y83.318 E-.285
;WIPE_END
G1 E-.015 F3600
G1 Z1.781 F7800
;AFTER_LAYER_CHANGE
;1.78077
G1 X89.474 Y83.318
G1 E1 F2400
G1 F1486.236
M73 P35 R1
G1 X87.357 Y83.318 E.53304
G1 X87.357 Y86.711 E.85415
G1 X89.072 Y86.711 E.4319
G1 X89.072 Y90.103 E.85415
G1 X87.357 Y90.103 E.4319
G1 X87.357 Y93.496 E.85415
G1 X89.474 Y93.496 E.53304
G1 X89.857 Y96.708 F7800
G1 F1486.236
G1 X89.857 Y79.979 E4.21177
G1 X86.572 Y79.979 E.82714
M73 P36 R1
G1 X86.572 Y96.835 E4.24374
G1 X87.794 Y96.835 E.30763
M73 P37 R1
G1 X87.794 Y95.827 E.2537
G1 X89.626 Y95.673 E.46278
G1 X89.823 Y96.835 E.29686
G1 X89.857 Y96.835 E.00857
;LAYER_CHANGE
;Z:2.49615
;HEIGHT:0.715385
;BEFORE_LAYER_CHANGE
G92 E0
;2.49615


G1 E-.7 F3600
;WIPE_START
G1 F6240
G1 X89.823 Y96.835 E-.01865
G1 X89.742 Y96.356 E-.26635
;WIPE_END
G1 E-.015 F3600
G1 Z2.496 F7800
;AFTER_LAYER_CHANGE
;2.49615
G1 X89.857 Y96.708
G1 E1 F2400
G1 F1486.236
G1 X89.857 Y79.979 E4.21177
G1 X86.572 Y79.979 E.82714
M73 P38 R1
G1 X86.572 Y96.835 E4.24374
G1 X87.794 Y96.835 E.30763
M73 P39 R1
G1 X87.794 Y95.714 E.28228
G1 X89.626 Y95.559 E.46278
G1 X89.843 Y96.835 E.32585
G1 X89.857 Y96.835 E.0037
G1 X89.474 Y93.496 F7800
G1 F1486.236
G1 X87.357 Y93.496 E.53304
G1 X87.357 Y90.103 E.85415
G1 X89.072 Y90.103 E.4319
G1 X89.072 Y86.711 E.85415
G1 X87.357 Y86.711 E.4319
G1 X87.357 Y83.318 E.85415
M73 P40 R1
G1 X89.474 Y83.318 E.53304
;LAYER_CHANGE
;Z:3.21154
;HEIGHT:0.715385
;BEFORE_LAYER_CHANGE
G92 E0
;3.21154


G1 E-.7 F3600
;WIPE_START
G1 F6240
G1 X88.954 Y83.318 E-.285
;WIPE_END
G1 E-.015 F3600
G1 Z3.212 F7800
;AFTER_LAYER_CHANGE
;3.21154
G1 X89.474 Y83.318
G1 E1 F2400
G1 F1486.236
G1 X87.357 Y83.318 E.53304
G1 X87.357 Y86.711 E.85415
G1 X89.072 Y86.711 E.4319
G1 X89.072 Y90.103 E.85415
G1 X87.357 Y90.103 E.4319
G1 X87.357 Y93.496 E.85415
M73 P41 R1
G1 X89.474 Y93.496 E.53304
G1 X89.857 Y96.567 F7800
G1 F1486.236
G1 X89.857 Y79.979 E4.17637
G1 X86.572 Y79.979 E.82714
M73 P42 R1
G1 X86.572 Y96.835 E4.24374
G1 X87.794 Y96.835 E.30763
G1 X87.794 Y95.487 E.33945
G1 X89.626 Y95.332 E.46278
G1 X89.857 Y96.694 E.34793
;LAYER_CHANGE
;Z:3.92692
;HEIGHT:0.715384
;BEFORE_LAYER_CHANGE
G92 E0
;3.92692


G1 E-.7 F3600
;WIPE_START
M73 P43 R1
G1 F6240
G1 X89.77 Y96.182 E-.285
;WIPE_END
G1 E-.015 F3600
G1 Z3.927 F7800
;AFTER_LAYER_CHANGE
;3.92692
G1 X89.857 Y96.454
G1 E1 F2400
G1 F1486.236
G1 X89.857 Y79.979 E4.14778
G1 X86.572 Y79.979 E.82714
G1 X86.572 Y96.835 E4.24374
M73 P44 R1
G1 X87.794 Y96.835 E.30763
G1 X87.794 Y95.373 E.36803
G1 X89.626 Y95.218 E.46278
G1 X89.857 Y96.581 E.34793
G1 X89.474 Y93.496 F7800
G1 F1486.236
M73 P45 R1
G1 X87.357 Y93.496 E.53304
G1 X87.357 Y90.103 E.85415
G1 X89.072 Y90.103 E.4319
G1 X89.072 Y86.711 E.85415
G1 X87.357 Y86.711 E.4319
G1 X87.357 Y83.318 E.85415
G1 X89.474 Y83.318 E.53304
;LAYER_CHANGE
;Z:4.64231
;HEIGHT:0.715385
;BEFORE_LAYER_CHANGE
G92 E0
;4.64231


G1 E-.7 F3600
;WIPE_START
G1 F6240
G1 X88.954 Y83.318 E-.285
;WIPE_END
G1 E-.015 F3600
G1 Z4.642 F7800
;AFTER_LAYER_CHANGE
;4.64231
G1 X89.474 Y83.318
G1 E1 F2400
M73 P46 R1
G1 F1486.236
G1 X87.357 Y83.318 E.53304
G1 X87.357 Y86.711 E.85415
G1 X89.072 Y86.711 E.4319
G1 X89.072 Y90.103 E.85415
G1 X87.357 Y90.103 E.4319
G1 X87.357 Y93.496 E.85415
G1 X89.474 Y93.496 E.53304
G1 X89.857 Y96.34 F7800
G1 F1486.236
G1 X89.857 Y79.979 E4.1192
G1 X86.572 Y79.979 E.82714
M73 P47 R1
G1 X86.572 Y96.835 E4.24374
G1 X87.794 Y96.835 E.30763
M73 P48 R1
G1 X87.794 Y95.26 E.39662
G1 X89.626 Y95.105 E.46278
G1 X89.857 Y96.467 E.34793
;LAYER_CHANGE
;Z:5.35769
;HEIGHT:0.715384
;BEFORE_LAYER_CHANGE
G92 E0
;5.35769


G1 E-.7 F3600
;WIPE_START
G1 F6240
G1 X89.77 Y95.955 E-.285
;WIPE_END
G1 E-.015 F3600
G1 Z5.358 F7800
;AFTER_LAYER_CHANGE
;5.35769
G1 X89.857 Y96.113
G1 E1 F2400
G1 F1486.236
G1 X89.857 Y79.979 E4.06203
G1 X86.572 Y79.979 E.82714
M73 P49 R0
G1 X86.572 Y96.835 E4.24374
G1 X87.794 Y96.835 E.30763
M73 P50 R0
G1 X87.794 Y95.033 E.45379
G1 X89.626 Y94.878 E.46278
G1 X89.857 Y96.24 E.34793
G1 X89.474 Y93.496 F7800
G1 F1486.236
G1 X87.357 Y93.496 E.53304
G1 X87.357 Y90.103 E.85415
G1 X89.072 Y90.103 E.4319
G1 X89.072 Y86.711 E.85415
G1 X87.357 Y86.711 E.4319
G1 X87.357 Y83.318 E.85415
M73 P51 R0
G1 X89.474 Y83.318 E.53304
;LAYER_CHANGE
;Z:6.07308
;HEIGHT:0.715384
;BEFORE_LAYER_CHANGE
G92 E0
;6.07308


G1 E-.7 F3600
;WIPE_START
G1 F6240
G1 X88.954 Y83.318 E-.285
;WIPE_END
G1 E-.015 F3600
G1 Z6.073 F7800
;AFTER_LAYER_CHANGE
;6.07308
G1 X89.474 Y83.318
G1 E1 F2400
G1 F1486.236
G1 X87.357 Y83.318 E.53304
G1 X87.357 Y86.711 E.85415
G1 X89.072 Y86.711 E.4319
G1 X89.072 Y90.103 E.85415
G1 X87.357 Y90.103 E.4319
G1 X87.357 Y93.496 E.85415
M73 P52 R0
G1 X89.474 Y93.496 E.53304
G1 X89.857 Y96 F7800
G1 F1486.236
G1 X89.857 Y79.979 E4.03345
G1 X86.572 Y79.979 E.82714
G1 X86.572 Y96.835 E4.24374
M73 P53 R0
G1 X87.794 Y96.835 E.30763
G1 X87.794 Y94.919 E.48237
G1 X89.626 Y94.764 E.46278
G1 X89.857 Y96.127 E.34793
;LAYER_CHANGE
;Z:6.78846
;HEIGHT:0.715385
;BEFORE_LAYER_CHANGE
G92 E0
;6.78846


G1 E-.7 F3600
;WIPE_START
M73 P54 R0
G1 F6240
G1 X89.77 Y95.614 E-.285
;WIPE_END
G1 E-.015 F3600
G1 Z6.788 F7800
;AFTER_LAYER_CHANGE
;6.78846
G1 X89.857 Y95.773
G1 E1 F2400
G1 F1486.236
G1 X89.857 Y79.979 E3.97628
G1 X86.572 Y79.979 E.82714
G1 X86.572 Y96.835 E4.24374
G1 X87.794 Y96.835 E.30763
M73 P55 R0
G1 X87.794 Y94.692 E.53954
G1 X89.626 Y94.537 E.46278
G1 X89.857 Y95.9 E.34793
G1 X89.474 Y93.496 F7800
G1 F1486.236
G1 X87.357 Y93.496 E.53304
G1 X87.357 Y90.103 E.85415
M73 P56 R0
G1 X89.072 Y90.103 E.4319
G1 X89.072 Y86.711 E.85415
G1 X87.357 Y86.711 E.4319
G1 X87.357 Y83.318 E.85415
G1 X89.474 Y83.318 E.53304
;LAYER_CHANGE
;Z:7.50385
;HEIGHT:0.715384
;BEFORE_LAYER_CHANGE
G92 E0
;7.50385


G1 E-.7 F3600
;WIPE_START
G1 F6240
G1 X88.954 Y83.318 E-.285
;WIPE_END
G1 E-.015 F3600
G1 Z7.504 F7800
;AFTER_LAYER_CHANGE
;7.50385
G1 X89.474 Y83.318
G1 E1 F2400
G1 F1486.236
M73 P57 R0
G1 X87.357 Y83.318 E.53304
G1 X87.357 Y86.711 E.85415
G1 X89.072 Y86.711 E.4319
G1 X89.072 Y90.103 E.85415
G1 X87.357 Y90.103 E.4319
G1 X87.357 Y93.496 E.85415
G1 X89.474 Y93.496 E.53304
G1 X89.857 Y95.659 F7800
G1 F1486.236
G1 X89.857 Y79.979 E3.9477
G1 X86.572 Y79.979 E.82714
M73 P58 R0
G1 X86.572 Y96.835 E4.24374
G1 X87.794 Y96.835 E.30763
M73 P59 R0
G1 X87.794 Y94.578 E.56812
G1 X89.626 Y94.424 E.46278
G1 X89.857 Y95.786 E.34793
;LAYER_CHANGE
;Z:8.21923
;HEIGHT:0.715384
;BEFORE_LAYER_CHANGE
G92 E0
;8.21923


G1 E-.7 F3600
;WIPE_START
G1 F6240
G1 X89.77 Y95.274 E-.285
;WIPE_END
G1 E-.015 F3600
G1 Z8.219 F7800
;AFTER_LAYER_CHANGE
;8.21923
G1 X89.465 Y95.282
G1 E1 F2400
;TYPE:Support material interface
G1 F1486.236
G1 X89.465 Y90.103 E1.30376
G1 X88.572 Y90.103 E.22475
G1 X88.572 Y93.34 E.81493
M73 P60 R0
G1 X87.848 Y93.384 E.1827
G1 X87.848 Y96.889 E.88236
G1 X87.679 Y96.889 E.04238
G1 X87.679 Y90.103 E1.70831
G1 X86.787 Y90.103 E.22475
G1 X86.787 Y97.29 E1.80945
G1 X89.857 Y89.157 F7800
;TYPE:Support material
G1 F1486.236
M73 P61 R0
G1 X86.572 Y89.157 E.82714
G1 X86.572 Y79.979 E2.31069
G1 X89.857 Y79.979 E.82714
G1 X89.857 Y89.03 E2.27872
G1 X89.474 Y86.711 F7800
M73 P62 R0
G1 F1486.236
G1 X87.357 Y86.711 E.53304
G1 X87.357 Y83.318 E.85415
G1 X89.474 Y83.318 E.53304
;LAYER_CHANGE
;Z:8.93462
;HEIGHT:0.715384
;BEFORE_LAYER_CHANGE
G92 E0
;8.93462


G1 E-.7 F3600
;WIPE_START
G1 F6240
G1 X88.954 Y83.318 E-.285
;WIPE_END
G1 E-.015 F3600
G1 Z8.935 F7800
;AFTER_LAYER_CHANGE
;8.93462
G1 X89.474 Y83.318
G1 E1 F2400
G1 F1486.236
G1 X87.357 Y83.318 E.53304
G1 X87.357 Y86.711 E.85415
G1 X89.474 Y86.711 E.53304
G1 X89.857 Y89.03 F7800
M73 P63 R0
G1 F1486.236
G1 X89.857 Y79.979 E2.27872
G1 X86.572 Y79.979 E.82714
G1 X86.572 Y89.157 E2.31069
G1 X89.857 Y89.157 E.82714
G1 E-.7 F3600
;WIPE_START
M73 P64 R0
G1 F6240
G1 X89.337 Y89.157 E-.285
;WIPE_END
G1 E-.015 F3600
G1 X89.465 Y95.282 F7800
G1 E1 F2400
;TYPE:Support material interface
G1 F1486.236
G1 X89.465 Y90.103 E1.30376
G1 X88.572 Y90.103 E.22475
G1 X88.572 Y93.34 E.81493
G1 X87.848 Y93.384 E.1827
G1 X87.848 Y96.889 E.88236
G1 X87.679 Y96.889 E.04238
G1 X87.679 Y90.103 E1.70831
G1 X86.787 Y90.103 E.22475
M73 P65 R0
G1 X86.787 Y97.29 E1.80945
;LAYER_CHANGE
;Z:9.65
;HEIGHT:0.715384
;BEFORE_LAYER_CHANGE
G92 E0
;9.65


G1 E-.7 F3600
;WIPE_START
G1 F6240
G1 X86.787 Y96.77 E-.285
;WIPE_END
G1 E-.015 F3600
G1 Z9.65 F7800
;AFTER_LAYER_CHANGE
;9.65
G1 X86.787 Y97.29
G1 E1 F2400
G1 F1486.236
G1 X86.787 Y86.711 E2.6636
G1 X87.679 Y86.711 E.22475
M73 P66 R0
G1 X87.679 Y96.889 E2.56247
G1 X87.848 Y96.889 E.04238
G1 X87.848 Y93.384 E.88236
G1 X88.572 Y93.34 E.1827
G1 X88.572 Y86.711 E1.66909
G1 X89.465 Y86.711 E.22475
M73 P67 R0
G1 X89.465 Y95.282 E2.15791
G1 X89.857 Y85.764 F7800
;TYPE:Support material
G1 F1486.236
G1 X86.572 Y85.764 E.82714
G1 X86.572 Y79.979 E1.45654
G1 X89.857 Y79.979 E.82714
M73 P68 R0
G1 X89.857 Y85.637 E1.42457
G1 X89.474 Y83.318 F7800
G1 F1486.236
G1 X86.955 Y83.318 E.63418
;LAYER_CHANGE
;Z:10.15
;HEIGHT:0.5
;BEFORE_LAYER_CHANGE
G92 E0
;10.15


G1 E-.7 F3600
;WIPE_START
G1 F6240
G1 X87.475 Y83.318 E-.285
;WIPE_END
G1 E-.015 F3600
G1 Z10.15 F7800
;AFTER_LAYER_CHANGE
;10.15
G1 X86.974 Y83.318
G1 E1 F2400
G1 F2016.357
G1 X89.456 Y83.318 E.46058
G1 X89.857 Y85.63 F7800
G1 F2016.357
M73 P69 R0
G1 X89.857 Y79.979 E1.04875
G1 X86.572 Y79.979 E.60967
G1 X86.572 Y85.764 E1.0736
G1 X89.857 Y85.764 E.60967
G1 E-.7 F3600
;WIPE_START
G1 F6240
G1 X89.337 Y85.764 E-.285
;WIPE_END
G1 E-.015 F3600
G1 X89.465 Y93.439 F7800
G1 E1 F2400
;TYPE:Support material interface
G1 F2016.357
G1 X89.465 Y86.711 E1.24852
G1 X88.572 Y86.711 E.16566
M73 P70 R0
G1 X88.572 Y91.497 E.88821
G1 X87.848 Y91.541 E.13466
G1 X87.848 Y93.496 E.36285
G1 X87.679 Y93.496 E.03124
G1 X87.679 Y86.711 E1.25918
G1 X86.787 Y86.711 E.16566
G1 X86.787 Y93.898 E1.33373
;LAYER_CHANGE
;Z:10.35
;HEIGHT:0.200001
;BEFORE_LAYER_CHANGE
G92 E0
;10.35


G1 E-.7 F3600
;WIPE_START
G1 F6240
M73 P71 R0
G1 X86.787 Y93.378 E-.285
;WIPE_END
G1 E-.015 F3600
G1 Z10.35 F7800
;AFTER_LAYER_CHANGE
;10.35
G1 X89.067 Y96.95
G1 E1 F2400
;TYPE:External perimeter
;WIDTH:0.957301
;HEIGHT:0.5
G1 F1800
G1 X88.973 Y95.397 E.27495
;LAYER_CHANGE
;Z:10.65
;HEIGHT:0.299999
;BEFORE_LAYER_CHANGE
G92 E0
;10.65


G1 E-.7 F3600
;WIPE_START
G1 F6240
G1 X89.004 Y95.916 E-.285
;WIPE_END
G1 E-.015 F3600
G1 Z10.65 F7800
;AFTER_LAYER_CHANGE
;10.65
G1 X86.787 Y93.898
G1 E1 F2400
;TYPE:Support material interface
;WIDTH:1
;HEIGHT:0.5
G1 F900
G1 X86.787 Y83.318 E1.96331
G1 X87.679 Y83.318 E.16566
M73 P72 R0
G1 X87.679 Y93.496 E1.88877
G1 X87.848 Y93.496 E.03124
G1 X87.848 Y89.697 E.70491
G1 X88.572 Y89.654 E.13466
M73 P73 R0
G1 X88.572 Y83.318 E1.17574
G1 X89.465 Y83.318 E.16566
G1 X89.465 Y91.595 E1.53604
G1 X89.857 Y82.372 F7800
;TYPE:Support material
M73 P74 R0
G1 F900
G1 X86.572 Y82.372 E.60967
G1 X86.572 Y79.979 E.44401
G1 X89.857 Y79.979 E.60967
G1 X89.857 Y82.238 E.41916
;LAYER_CHANGE
;Z:10.85
;HEIGHT:0.200001
;BEFORE_LAYER_CHANGE
G92 E0
;10.85


G1 E-.7 F3600
;WIPE_START
M73 P75 R0
G1 F6240
G1 X89.857 Y81.718 E-.285
;WIPE_END
G1 E-.015 F3600
G1 Z10.85 F7800
;AFTER_LAYER_CHANGE
;10.85
G1 X88.973 Y93.554
G1 E1 F2400
;TYPE:External perimeter
;WIDTH:0.957301
;HEIGHT:0.5
G1 F900
G1 X89.172 Y96.845 E.58265
;LAYER_CHANGE
;Z:11.15
;HEIGHT:0.299999
;BEFORE_LAYER_CHANGE
G92 E0
;11.15


G1 E-.7 F3600
;WIPE_START
G1 F6240
G1 X89.141 Y96.326 E-.285
;WIPE_END
G1 E-.015 F3600
G1 Z11.15 F7800
;AFTER_LAYER_CHANGE
;11.15
G1 X86.787 Y90.505
G1 E1 F2400
;TYPE:Support material interface
;WIDTH:1
;HEIGHT:0.5
G1 F900
