; generated by PrusaSlicer 2.5.0+win64 on 2022-12-07 at 00:16:18 UTC

; 

; external perimeters extrusion width = 1.00mm
; perimeters extrusion width = 1.00mm
; infill extrusion width = 1.00mm
; solid infill extrusion width = 1.00mm
; top infill extrusion width = 1.00mm
; support material extrusion width = 1.00mm
; first layer extrusion width = 0.42mm

M73 P0 R743
M107
;TYPE:Custom
G90 ; use absolute coordinates
M83 ; extruder relative mode
M140 S60 ; set final bed temp
M104 S150 ; set temporary nozzle temp to prevent oozing during homing and auto bed leveling
G4 S10 ; allow partial nozzle warmup
G28 ; home all axisG1 Z50 F240
G1 X7.6 Y10 F3000
M104 S210 ; set final nozzle temp
M190 S60 ; wait for bed temp to stabilize
M109 S210 ; wait for nozzle temp to stabilize
G1 Z0.28 F240
G92 E0
G1 Y140 E10 F1500 ; prime the nozzle
G1 X4 F5000
G92 E0
G1 Y10 E10 F1200 ; prime the nozzle
G92 E0
G21 ; set units to millimeters
G90 ; use absolute coordinates
M83 ; use relative distances for extrusion
; Filament gcode
M107
;LAYER_CHANGE
;Z:0.35
;HEIGHT:0.35
;BEFORE_LAYER_CHANGE
G92 E0
;0.35


G1 E-1 F3600
G1 Z.35 F7800
;AFTER_LAYER_CHANGE
;0.35
G1 X96.54 Y15.916
G1 E1 F2400
;TYPE:Support material
;WIDTH:0.42
G1 F1800
G1 X88.114 Y15.916 E.42287
G1 X87.694 Y16.362 E.03074
G1 X96.271 Y163.698 E7.40672
G1 X96.681 Y164.086 E.02837
G1 X112.331 Y164.086 E.7854
G1 X112.752 Y163.641 E.03074
G1 X104.195 Y16.303 E7.40671
G1 X103.785 Y15.916 E.02832
G1 X100.246 Y15.916 E.17763
G1 X100.246 Y12.124 E.19029
G1 X123.682 Y12.124 E1.17616
G1 X123.682 Y35.873 E1.19186
G1 X127.074 Y35.873 E.17027
G1 X127.074 Y52.837 E.85133
G1 X130.467 Y52.837 E.17027
G1 X130.467 Y76.586 E1.19186
G1 X133.86 Y76.586 E.17027
G1 X133.86 Y90.156 E.68106
G1 X137.252 Y90.156 E.17027
G1 X137.252 Y117.298 E1.36213
G1 X140.645 Y117.298 E.17027
G1 X140.645 Y130.869 E.68106
G1 X144.038 Y130.869 E.17027
M73 P0 R742
G1 X144.038 Y154.618 E1.19186
G1 X147.431 Y154.618 E.17027
G1 X147.431 Y167.876 E.66536
G1 X28.999 Y167.876 E5.9436
G1 X28.999 Y12.124 E7.81652
G1 X96.54 Y12.124 E3.38961
G1 X96.54 Y15.864 E.18769
G1 E-.7 F3600
;WIPE_START
G1 F6240
G1 X96.54 Y15.344 E-.285
;WIPE_END
G1 E-.015 F3600
G1 X59.22 Y106.807 F7800
G1 E1 F2400
G1 F1800
G1 X59.22 Y110.2 E.17027
G1 X52.435 Y110.2 E.34053
G1 X52.435 Y151.225 E2.05889
G1 X66.006 Y151.225 E.68106
G1 X66.006 Y154.618 E.17027
G1 X76.497 Y154.618 E.5265
G1 X76.497 Y144.44 E.5108
G1 X83.282 Y144.44 E.34053
G1 X83.282 Y133.949 E.5265
G1 X79.889 Y133.949 E.17027
G1 X79.889 Y127.163 E.34053
G1 X76.497 Y127.163 E.17027
G1 X76.497 Y123.771 E.17027
G1 X73.104 Y123.771 E.17027
G1 X73.104 Y116.985 E.34053
G1 X69.711 Y116.985 E.17027
G1 X69.711 Y113.592 E.17027
G1 X66.319 Y113.592 E.17027
G1 X66.319 Y110.2 E.17027
G1 X62.926 Y110.2 E.17027
G1 X62.926 Y106.807 E.17027
G1 X59.272 Y106.807 E.18337
G1 E-.7 F3600
;WIPE_START
G1 F6240
G1 X59.792 Y106.807 E-.285
;WIPE_END
G1 E-.015 F3600
G1 X42.257 Y25.382 F7800
G1 E1 F2400
G1 F1800
G1 X42.257 Y29.088 E.18597
G1 X45.65 Y29.088 E.17027
G1 X45.65 Y32.481 E.17027
G1 X49.042 Y32.481 E.17027
G1 X49.042 Y35.873 E.17027
G1 X52.435 Y35.873 E.17027
G1 X52.435 Y39.266 E.17027
G1 X55.828 Y39.266 E.17027
G1 X55.828 Y42.659 E.17027
G1 X59.22 Y42.659 E.17027
G1 X59.22 Y46.051 E.17027
G1 X62.613 Y46.051 E.17027
G1 X62.613 Y49.444 E.17027
G1 X66.319 Y49.444 E.18597
G1 X66.319 Y42.346 E.35623
G1 X62.926 Y42.346 E.17027
G1 X62.926 Y25.382 E.85133
G1 X42.309 Y25.382 E1.0347
G1 E-.7 F3600
;WIPE_START
G1 F6240
G1 X42.829 Y25.382 E-.285
;WIPE_END
G1 E-.015 F3600
G1 X147.009 Y167.72 F7800
G1 E1 F2400
G1 F1800
G1 X147.009 Y154.928 E.64199
G1 X146.626 Y154.928 E.01923
G1 X146.626 Y167.565 E.6342
G1 X146.243 Y167.565 E.01923
G1 X146.243 Y154.928 E.6342
G1 X145.86 Y154.928 E.01923
G1 X145.86 Y167.565 E.6342
G1 X145.477 Y167.565 E.01923
G1 X145.477 Y154.928 E.6342
G1 X145.093 Y154.928 E.01923
G1 X145.093 Y167.565 E.6342
G1 X144.71 Y167.565 E.01923
G1 X144.71 Y154.928 E.6342
G1 X144.327 Y154.928 E.01923
G1 X144.327 Y167.565 E.6342
G1 X143.944 Y167.565 E.01923
G1 X143.944 Y154.928 E.6342
G1 X143.727 Y154.928 E.01085
G1 X143.727 Y131.179 E1.19186
G1 X143.56 Y131.179 E.00838
G1 X143.56 Y167.565 E1.82606
G1 X143.177 Y167.565 E.01923
G1 X143.177 Y131.179 E1.82606
G1 X142.794 Y131.179 E.01923
G1 X142.794 Y167.565 E1.82606
G1 X142.411 Y167.565 E.01923
G1 X142.411 Y131.179 E1.82606
G1 X142.028 Y131.179 E.01923
G1 X142.028 Y167.565 E1.82606
G1 X141.644 Y167.565 E.01923
G1 X141.644 Y131.179 E1.82606
G1 X141.261 Y131.179 E.01923
G1 X141.261 Y167.565 E1.82606
G1 X140.878 Y167.565 E.01923
G1 X140.878 Y131.179 E1.82606
G1 X140.495 Y131.179 E.01923
G1 X140.495 Y167.565 E1.82606
G1 X140.112 Y167.565 E.01923
G1 X140.112 Y117.608 E2.50713
G1 X139.728 Y117.608 E.01923
G1 X139.728 Y167.565 E2.50713
G1 X139.345 Y167.565 E.01923
G1 X139.345 Y117.608 E2.50713
G1 X138.962 Y117.608 E.01923
G1 X138.962 Y167.565 E2.50713
G1 X138.579 Y167.565 E.01923
G1 X138.579 Y117.608 E2.50713
G1 X138.196 Y117.608 E.01923
G1 X138.196 Y167.565 E2.50713
G1 X137.812 Y167.565 E.01923
G1 X137.812 Y117.608 E2.50713
G1 X137.429 Y117.608 E.01923
G1 X137.429 Y167.565 E2.50713
G1 X137.046 Y167.565 E.01923
G1 X137.046 Y117.608 E2.50713
G1 X136.942 Y117.608 E.00521
G1 X136.942 Y90.467 E1.36213
G1 X136.663 Y90.467 E.01402
M73 P0 R741
G1 X136.663 Y167.565 E3.86925
G1 X136.279 Y167.565 E.01923
G1 X136.279 Y90.467 E3.86925
G1 X135.896 Y90.467 E.01923
G1 X135.896 Y167.565 E3.86925
G1 X135.513 Y167.565 E.01923
G1 X135.513 Y90.467 E3.86925
G1 X135.13 Y90.467 E.01923
G1 X135.13 Y167.565 E3.86925
G1 X134.747 Y167.565 E.01923
G1 X134.747 Y90.467 E3.86925
G1 X134.363 Y90.467 E.01923
G1 X134.363 Y167.565 E3.86925
G1 X133.98 Y167.565 E.01923
G1 X133.98 Y90.467 E3.86925
G1 X133.597 Y90.467 E.01923
G1 X133.597 Y167.565 E3.86925
G1 X133.214 Y167.565 E.01923
G1 X133.214 Y76.896 E4.55032
G1 X132.831 Y76.896 E.01923
G1 X132.831 Y167.565 E4.55032
G1 X132.447 Y167.565 E.01923
G1 X132.447 Y76.896 E4.55032
G1 X132.064 Y76.896 E.01923
G1 X132.064 Y167.565 E4.55032
G1 X131.681 Y167.565 E.01923
G1 X131.681 Y76.896 E4.55032
G1 X131.298 Y76.896 E.01923
G1 X131.298 Y167.565 E4.55032
G1 X130.915 Y167.565 E.01923
G1 X130.915 Y76.896 E4.55032
G1 X130.531 Y76.896 E.01923
G1 X130.531 Y167.565 E4.55032
G1 X130.148 Y167.565 E.01923
G1 X130.148 Y53.147 E5.74218
G1 X129.765 Y53.147 E.01923
G1 X129.765 Y167.565 E5.74218
G1 X129.382 Y167.565 E.01923
G1 X129.382 Y53.147 E5.74218
G1 X128.999 Y53.147 E.01923
M73 P0 R740
G1 X128.999 Y167.565 E5.74218
G1 X128.615 Y167.565 E.01923
G1 X128.615 Y53.147 E5.74218
G1 X128.232 Y53.147 E.01923
G1 X128.232 Y167.565 E5.74218
G1 X127.849 Y167.565 E.01923
G1 X127.849 Y53.147 E5.74218
G1 X127.466 Y53.147 E.01923
G1 X127.466 Y167.565 E5.74218
G1 X127.082 Y167.565 E.01923
G1 X127.082 Y53.147 E5.74218
G1 X126.764 Y53.147 E.01599
G1 X126.764 Y36.184 E.85133
G1 X126.699 Y36.184 E.00325
G1 X126.699 Y167.565 E6.5935
G1 X126.316 Y167.565 E.01923
G1 X126.316 Y36.184 E6.5935
G1 X125.933 Y36.184 E.01923
G1 X125.933 Y167.565 E6.5935
G1 X125.55 Y167.565 E.01923
G1 X125.55 Y36.184 E6.5935
G1 X125.166 Y36.184 E.01923
G1 X125.166 Y167.565 E6.5935
G1 X124.783 Y167.565 E.01923
G1 X124.783 Y36.184 E6.5935
G1 X124.4 Y36.184 E.01923
G1 X124.4 Y167.565 E6.5935
G1 X124.017 Y167.565 E.01923
G1 X124.017 Y36.184 E6.5935
G1 X123.634 Y36.184 E.01923
G1 X123.634 Y167.565 E6.5935
G1 X123.25 Y167.565 E.01923
M73 P0 R739
G1 X123.25 Y12.435 E7.78536
G1 X122.867 Y12.435 E.01923
G1 X122.867 Y167.565 E7.78536
G1 X122.484 Y167.565 E.01923
G1 X122.484 Y12.435 E7.78536
G1 X122.101 Y12.435 E.01923
G1 X122.101 Y167.565 E7.78536
G1 X121.718 Y167.565 E.01923
G1 X121.718 Y12.435 E7.78536
G1 X121.334 Y12.435 E.01923
G1 X121.334 Y167.565 E7.78536
G1 X120.951 Y167.565 E.01923
G1 X120.951 Y12.435 E7.78536
G1 X120.568 Y12.435 E.01923
G1 X120.568 Y167.565 E7.78536
G1 X120.185 Y167.565 E.01923
G1 X120.185 Y12.435 E7.78536
G1 X119.801 Y12.435 E.01923
G1 X119.801 Y167.565 E7.78536
G1 X119.418 Y167.565 E.01923
G1 X119.418 Y12.435 E7.78536
G1 X119.035 Y12.435 E.01923
M73 P0 R738
G1 X119.035 Y167.565 E7.78536
G1 X118.652 Y167.565 E.01923
G1 X118.652 Y12.435 E7.78536
G1 X118.269 Y12.435 E.01923
G1 X118.269 Y167.565 E7.78536
G1 X117.885 Y167.565 E.01923
G1 X117.885 Y12.435 E7.78536
G1 X117.502 Y12.435 E.01923
G1 X117.502 Y167.565 E7.78536
G1 X117.119 Y167.565 E.01923
G1 X117.119 Y12.435 E7.78536
G1 X116.736 Y12.435 E.01923
G1 X116.736 Y167.565 E7.78536
G1 X116.353 Y167.565 E.01923
G1 X116.353 Y12.435 E7.78536
G1 X115.969 Y12.435 E.01923
G1 X115.969 Y167.565 E7.78536
G1 X115.586 Y167.565 E.01923
G1 X115.586 Y12.435 E7.78536
G1 X115.203 Y12.435 E.01923
G1 X115.203 Y167.565 E7.78536
G1 X114.82 Y167.565 E.01923
G1 X114.82 Y12.435 E7.78536
G1 X114.437 Y12.435 E.01923
M73 P0 R737
G1 X114.437 Y167.565 E7.78536
G1 X114.053 Y167.565 E.01923
G1 X114.053 Y12.435 E7.78536
G1 X113.67 Y12.435 E.01923
G1 X113.67 Y167.565 E7.78536
G1 X113.287 Y167.565 E.01923
G1 X113.287 Y12.435 E7.78536
G1 X112.904 Y12.435 E.01923
G1 X112.904 Y160.908 E7.45126
G1 X112.52 Y154.314 E.33148
G1 X112.52 Y12.435 E7.12033
G1 X112.137 Y12.435 E.01923
G1 X112.137 Y147.72 E6.78941
G1 X111.754 Y141.126 E.33148
G1 X111.754 Y12.435 E6.45848
G1 X111.371 Y12.435 E.01923
G1 X111.371 Y134.532 E6.12756
G1 X110.988 Y127.938 E.33148
G1 X110.988 Y12.435 E5.79663
G1 X110.604 Y12.435 E.01923
G1 X110.604 Y121.342 E5.46561
G1 X110.221 Y114.741 E.33186
G1 X110.221 Y12.435 E5.13431
G1 X109.838 Y12.435 E.01923
M73 P0 R736
G1 X109.838 Y108.139 E4.80301
G1 X109.455 Y101.538 E.33186
G1 X109.455 Y12.435 E4.47171
G1 X109.072 Y12.435 E.01923
G1 X109.072 Y94.936 E4.14041
G1 X108.688 Y88.335 E.33186
G1 X108.688 Y12.435 E3.80911
G1 X108.305 Y12.435 E.01923
G1 X108.305 Y81.735 E3.47791
G1 X107.922 Y75.139 E.3316
G1 X107.922 Y12.435 E3.14686
G1 X107.539 Y12.435 E.01923
G1 X107.539 Y68.543 E2.81582
G1 X107.156 Y61.946 E.3316
G1 X107.156 Y12.435 E2.48477
G1 X106.772 Y12.435 E.01923
G1 X106.772 Y55.35 E2.15373
G1 X106.389 Y48.753 E.3316
G1 X106.389 Y12.435 E1.82269
G1 X106.006 Y12.435 E.01923
G1 X106.006 Y42.159 E1.49175
G1 X105.623 Y35.567 E.33141
G1 X105.623 Y12.435 E1.1609
G1 X105.239 Y12.435 E.01923
G1 X105.239 Y28.971 E.8299
G1 X104.856 Y22.35 E.33287
G1 X104.856 Y12.435 E.49759
G1 X104.473 Y12.435 E.01923
G1 X104.473 Y16.139 E.18588
G1 X104.09 Y15.777 E.02644
G1 X104.09 Y12.435 E.16773
G1 X103.707 Y12.435 E.01923
G1 X103.707 Y15.606 E.15913
G1 X103.323 Y15.606 E.01923
G1 X103.323 Y12.435 E.15913
G1 X102.94 Y12.435 E.01923
G1 X102.94 Y15.606 E.15913
G1 X102.557 Y15.606 E.01923
G1 X102.557 Y12.435 E.15913
G1 X102.174 Y12.435 E.01923
G1 X102.174 Y15.606 E.15913
G1 X101.791 Y15.606 E.01923
G1 X101.791 Y12.435 E.15913
G1 X101.407 Y12.435 E.01923
G1 X101.407 Y15.606 E.15913
G1 X101.024 Y15.606 E.01923
G1 X101.024 Y12.435 E.15913
G1 X100.641 Y12.435 E.01923
G1 X100.641 Y15.761 E.16692
G1 E-.7 F3600
;WIPE_START
G1 F6240
G1 X100.641 Y15.241 E-.285
;WIPE_END
G1 E-.015 F3600
G1 X112.904 Y167.72 F7800
G1 E1 F2400
G1 F1800
G1 X112.904 Y163.932 E.19015
G1 X112.52 Y164.338 E.02802
G1 X112.52 Y167.565 E.16198
G1 X112.137 Y167.565 E.01923
G1 X112.137 Y164.396 E.15903
G1 X111.754 Y164.396 E.01923
G1 X111.754 Y167.565 E.15903
G1 X111.371 Y167.565 E.01923
G1 X111.371 Y164.396 E.15903
G1 X110.988 Y164.396 E.01923
G1 X110.988 Y167.565 E.15903
G1 X110.604 Y167.565 E.01923
G1 X110.604 Y164.396 E.15903
G1 X110.221 Y164.396 E.01923
G1 X110.221 Y167.565 E.15903
G1 X109.838 Y167.565 E.01923
G1 X109.838 Y164.396 E.15903
G1 X109.455 Y164.396 E.01923
G1 X109.455 Y167.565 E.15903
G1 X109.072 Y167.565 E.01923
G1 X109.072 Y164.396 E.15903
G1 X108.688 Y164.396 E.01923
G1 X108.688 Y167.565 E.15903
G1 X108.305 Y167.565 E.01923
G1 X108.305 Y164.396 E.15903
G1 X107.922 Y164.396 E.01923
G1 X107.922 Y167.565 E.15903
G1 X107.539 Y167.565 E.01923
G1 X107.539 Y164.396 E.15903
G1 X107.156 Y164.396 E.01923
G1 X107.156 Y167.565 E.15903
G1 X106.772 Y167.565 E.01923
G1 X106.772 Y164.396 E.15903
G1 X106.389 Y164.396 E.01923
G1 X106.389 Y167.565 E.15903
G1 X106.006 Y167.565 E.01923
G1 X106.006 Y164.396 E.15903
G1 X105.623 Y164.396 E.01923
G1 X105.623 Y167.565 E.15903
G1 X105.239 Y167.565 E.01923
G1 X105.239 Y164.396 E.15903
G1 X104.856 Y164.396 E.01923
G1 X104.856 Y167.565 E.15903
G1 X104.473 Y167.565 E.01923
G1 X104.473 Y164.396 E.15903
G1 X104.09 Y164.396 E.01923
G1 X104.09 Y167.565 E.15903
G1 X103.707 Y167.565 E.01923
G1 X103.707 Y164.396 E.15903
G1 X103.323 Y164.396 E.01923
G1 X103.323 Y167.565 E.15903
G1 X102.94 Y167.565 E.01923
G1 X102.94 Y164.396 E.15903
G1 X102.557 Y164.396 E.01923
G1 X102.557 Y167.565 E.15903
G1 X102.174 Y167.565 E.01923
G1 X102.174 Y164.396 E.15903
G1 X101.791 Y164.396 E.01923
G1 X101.791 Y167.565 E.15903
G1 X101.407 Y167.565 E.01923
G1 X101.407 Y164.396 E.15903
G1 X101.024 Y164.396 E.01923
G1 X101.024 Y167.565 E.15903
G1 X100.641 Y167.565 E.01923
G1 X100.641 Y164.396 E.15903
G1 X100.258 Y164.396 E.01923
G1 X100.258 Y167.565 E.15903
G1 X99.875 Y167.565 E.01923
G1 X99.875 Y164.396 E.15903
G1 X99.491 Y164.396 E.01923
G1 X99.491 Y167.565 E.15903
G1 X99.108 Y167.565 E.01923
G1 X99.108 Y164.396 E.15903
G1 X98.725 Y164.396 E.01923
G1 X98.725 Y167.565 E.15903
G1 X98.342 Y167.565 E.01923
G1 X98.342 Y164.396 E.15903
G1 X97.958 Y164.396 E.01923
G1 X97.958 Y167.565 E.15903
G1 X97.575 Y167.565 E.01923
G1 X97.575 Y164.396 E.15903
G1 X97.192 Y164.396 E.01923
G1 X97.192 Y167.565 E.15903
G1 X96.809 Y167.565 E.01923
G1 X96.809 Y164.396 E.15903
G1 X96.558 Y164.396 E.0126
G1 X96.426 Y164.271 E.00913
G1 X96.426 Y167.565 E.16531
G1 X96.042 Y167.565 E.01923
G1 X96.042 Y163.909 E.1835
G1 X95.968 Y163.838 E.00516
G1 X95.659 Y158.507 E.26799
G1 X95.659 Y167.565 E.45458
G1 X95.276 Y167.565 E.01923
G1 X95.276 Y151.925 E.78491
G1 X94.893 Y145.356 E.33023
G1 X94.893 Y167.565 E1.11458
G1 X94.51 Y167.565 E.01923
G1 X94.51 Y138.784 E1.44443
G1 X94.126 Y132.202 E.33086
G1 X94.126 Y167.565 E1.77472
G1 X93.743 Y167.565 E.01923
G1 X93.743 Y125.618 E2.10514
G1 X93.36 Y119.036 E.33088
G1 X93.36 Y167.565 E2.43546
G1 X92.977 Y167.565 E.01923
G1 X92.977 Y112.454 E2.76579
G1 X92.594 Y105.872 E.33088
G1 X92.594 Y167.565 E3.09611
G1 X92.21 Y167.565 E.01923
G1 X92.21 Y99.29 E3.42643
G1 X91.827 Y92.706 E.33102
G1 X91.827 Y167.565 E3.7569
G1 X91.444 Y167.565 E.01923
G1 X91.444 Y86.121 E4.08735
G1 X91.061 Y79.538 E.33096
M73 P1 R736
G1 X91.061 Y167.565 E4.41775
G1 X90.678 Y167.565 E.01923
M73 P1 R735
G1 X90.678 Y72.959 E4.7479
G1 X90.294 Y66.381 E.33068
G1 X90.294 Y167.565 E5.07801
G1 X89.911 Y167.565 E.01923
G1 X89.911 Y59.803 E5.40815
G1 X89.528 Y53.224 E.33072
G1 X89.528 Y167.565 E5.73831
G1 X89.145 Y167.565 E.01923
G1 X89.145 Y46.645 E6.0685
G1 X88.761 Y40.059 E.3311
G1 X88.761 Y167.565 E6.39904
G1 X88.378 Y167.565 E.01923
G1 X88.378 Y33.472 E6.72958
G1 X87.995 Y26.886 E.3311
G1 X87.995 Y167.565 E7.06012
G1 X87.612 Y167.565 E.01923
G1 X87.612 Y20.3 E7.39065
G1 X87.376 Y16.246 E.20379
G1 X87.612 Y15.996 E.01725
G1 X87.612 Y12.435 E.17872
G1 X87.995 Y12.435 E.01923
G1 X87.995 Y15.606 E.15913
G1 X88.378 Y15.606 E.01923
G1 X88.378 Y12.435 E.15913
G1 X88.761 Y12.435 E.01923
G1 X88.761 Y15.606 E.15913
G1 X89.145 Y15.606 E.01923
G1 X89.145 Y12.435 E.15913
G1 X89.528 Y12.435 E.01923
G1 X89.528 Y15.606 E.15913
G1 X89.911 Y15.606 E.01923
G1 X89.911 Y12.435 E.15913
G1 X90.294 Y12.435 E.01923
G1 X90.294 Y15.606 E.15913
G1 X90.678 Y15.606 E.01923
G1 X90.678 Y12.435 E.15913
G1 X91.061 Y12.435 E.01923
G1 X91.061 Y15.606 E.15913
G1 X91.444 Y15.606 E.01923
G1 X91.444 Y12.435 E.15913
G1 X91.827 Y12.435 E.01923
G1 X91.827 Y15.606 E.15913
G1 X92.21 Y15.606 E.01923
G1 X92.21 Y12.435 E.15913
G1 X92.594 Y12.435 E.01923
G1 X92.594 Y15.606 E.15913
G1 X92.977 Y15.606 E.01923
G1 X92.977 Y12.435 E.15913
G1 X93.36 Y12.435 E.01923
G1 X93.36 Y15.606 E.15913
G1 X93.743 Y15.606 E.01923
G1 X93.743 Y12.435 E.15913
G1 X94.126 Y12.435 E.01923
G1 X94.126 Y15.606 E.15913
G1 X94.51 Y15.606 E.01923
G1 X94.51 Y12.435 E.15913
G1 X94.893 Y12.435 E.01923
G1 X94.893 Y15.606 E.15913
G1 X95.276 Y15.606 E.01923
G1 X95.276 Y12.435 E.15913
G1 X95.659 Y12.435 E.01923
G1 X95.659 Y15.606 E.15913
