; generated by PrusaSlicer 2.5.0+win64 on 2022-12-07 at 00:15:58 UTC

; 

; external perimeters extrusion width = 1.00mm
; perimeters extrusion width = 1.00mm
; infill extrusion width = 1.00mm
; solid infill extrusion width = 1.00mm
; top infill extrusion width = 1.00mm
; support material extrusion width = 1.00mm
; first layer extrusion width = 0.42mm

M73 P0 R376
M107
;TYPE:Custom
G90 ; use absolute coordinates
M83 ; extruder relative mode
M140 S60 ; set final bed temp
M104 S150 ; set temporary nozzle temp to prevent oozing during homing and auto bed leveling
G4 S10 ; allow partial nozzle warmup
G28 ; home all axisG1 Z50 F240
G1 X7.6 Y10 F3000
M104 S210 ; set final nozzle temp
M190 S60 ; wait for bed temp to stabilize
M109 S210 ; wait for nozzle temp to stabilize
G1 Z0.28 F240
G92 E0
G1 Y140 E10 F1500 ; prime the nozzle
G1 X4 F5000
G92 E0
G1 Y10 E10 F1200 ; prime the nozzle
G92 E0
G21 ; set units to millimeters
G90 ; use absolute coordinates
M83 ; use relative distances for extrusion
; Filament gcode
M107
;LAYER_CHANGE
;Z:0.35
;HEIGHT:0.35
;BEFORE_LAYER_CHANGE
G92 E0
;0.35


G1 E-1 F3600
M73 P0 R375
G1 Z.35 F7800
;AFTER_LAYER_CHANGE
;0.35
G1 X150.257 Y113.347
G1 E1 F2400
;TYPE:Support material interface
;WIDTH:1
G1 F1800
G1 X150.257 Y120.534 E.96727
G1 X149.364 Y120.534 E.12014
G1 X149.364 Y113.749 E.91321
G1 X148.472 Y113.749 E.12014
G1 X148.472 Y120.534 E.91321
G1 X147.676 Y120.534 E.10711
G1 X147.676 Y123.927 E.4566
G1 X148.472 Y123.927 E.10711
G1 X148.472 Y133.048 E1.22749
G1 X149.364 Y133.546 E.1376
G1 X149.364 Y123.927 E1.29456
G1 X150.257 Y123.927 E.12014
G1 X150.257 Y134.044 E1.36163
G1 X151.15 Y134.543 E.1376
G1 X151.15 Y113.749 E2.7985
G1 X152.043 Y113.749 E.12014
G1 X152.043 Y135.041 E2.86557
G1 X152.935 Y135.539 E.1376
G1 X152.935 Y113.749 E2.93264
G1 X153.828 Y113.749 E.12014
G1 X153.828 Y136.038 E2.99971
G1 X154.721 Y136.536 E.1376
G1 X154.721 Y117.142 E2.61017
G1 X155.613 Y117.142 E.12014
G1 X155.613 Y137.034 E2.67724
G1 X156.506 Y137.533 E.1376
G1 X156.506 Y117.142 E2.74431
G1 X157.399 Y117.142 E.12014
G1 X157.399 Y138.491 E2.8733
G1 X158.291 Y139.687 F7800
G1 F1800
G1 X158.291 Y117.142 E3.03419
G1 X159.184 Y117.142 E.12014
G1 X159.184 Y151.069 E4.56602
G1 X160.077 Y151.069 E.12014
G1 X160.077 Y117.142 E4.56602
G1 X160.97 Y117.142 E.12014
G1 X160.97 Y151.47 E4.62008
G1 E-.7 F3600
;WIPE_START
G1 F6240
G1 X160.97 Y150.95 E-.285
;WIPE_END
G1 E-.015 F3600
G1 X117.227 Y160.845 F7800
G1 E1 F2400
G1 F1800
G1 X117.227 Y164.639 E.51067
G1 X118.12 Y164.639 E.12014
G1 X118.12 Y161.247 E.45661
G1 X119.013 Y161.247 E.12014
G1 X119.013 Y164.639 E.45661
G1 X119.905 Y164.639 E.12014
G1 X119.905 Y161.247 E.45661
G1 X120.534 Y161.247 E.08464
G1 X120.534 Y147.676 E1.82641
G1 X120.798 Y147.676 E.0355
G1 X120.798 Y164.639 E2.28301
G1 X121.691 Y164.639 E.12014
G1 X121.691 Y147.676 E2.28301
G1 X122.583 Y147.676 E.12014
G1 X122.583 Y164.639 E2.28301
G1 X123.476 Y164.639 E.12014
G1 X123.476 Y147.676 E2.28301
G1 X123.927 Y147.676 E.06067
G1 X123.927 Y137.498 E1.3698
G1 X124.369 Y137.498 E.05947
G1 X124.369 Y164.639 E3.65282
G1 X125.262 Y164.639 E.12014
G1 X125.262 Y137.498 E3.65282
G1 X126.154 Y137.498 E.12014
G1 X126.154 Y164.639 E3.65282
G1 X127.047 Y164.639 E.12014
G1 X127.047 Y137.498 E3.65282
G1 X127.32 Y137.498 E.0367
G1 X127.32 Y130.712 E.9132
G1 X127.94 Y130.712 E.08344
G1 X127.94 Y164.639 E4.56602
G1 X128.832 Y164.639 E.12014
G1 X128.832 Y130.712 E4.56602
G1 X129.725 Y130.712 E.12014
G1 X129.725 Y165.041 E4.62008
G1 E-.7 F3600
;WIPE_START
G1 F6240
G1 X129.725 Y164.521 E-.285
;WIPE_END
G1 E-.015 F3600
G1 X141.564 Y163.411 F7800
G1 E1 F2400
;TYPE:Support material
;WIDTH:0.42
G1 F1800
G1 X141.981 Y164.083 E.03968
G1 X144.127 Y164.083 E.10771
G1 X144.127 Y167.876 E.19032
G1 X135.154 Y167.876 E.45029
G1 X135.154 Y165.296 E.12947
G1 X138.154 Y165.296 E.15056
G1 X138.154 Y163.663 E.08193
G1 X137.302 Y163.663 E.04278
G1 X137.248 Y163.577 E.00508
G1 X136.946 Y163.663 E.01577
G1 X135.154 Y163.663 E.08994
G1 X135.154 Y161.083 E.12947
G1 X142.722 Y161.083 E.37978
G1 X141.587 Y163.365 E.12787
G1 X143.649 Y167.72 F7800
G1 F1800
G1 X143.649 Y164.394 E.16695
G1 X143.266 Y164.394 E.01923
G1 X143.266 Y167.565 E.15916
G1 X142.883 Y167.565 E.01923
G1 X142.883 Y164.394 E.15916
G1 X142.5 Y164.394 E.01923
G1 X142.5 Y167.565 E.15916
G1 X142.117 Y167.565 E.01923
G1 X142.117 Y164.394 E.15916
G1 X141.808 Y164.394 E.0155
G1 X141.733 Y164.274 E.00709
G1 X141.733 Y167.565 E.16519
G1 X141.35 Y167.565 E.01923
G1 X141.35 Y161.394 E.30972
G1 X141.733 Y161.394 E.01923
G1 X141.733 Y162.374 E.04918
G1 X142.117 Y161.603 E.04319
G1 X142.117 Y161.239 E.0183
G1 X140.967 Y167.72 F7800
G1 F1800
G1 X140.967 Y161.394 E.3175
G1 X140.584 Y161.394 E.01923
G1 X140.584 Y167.565 E.30972
G1 X140.201 Y167.565 E.01923
G1 X140.201 Y161.394 E.30972
G1 X139.817 Y161.394 E.01923
G1 X139.817 Y167.565 E.30972
G1 X139.434 Y167.565 E.01923
G1 X139.434 Y161.394 E.30972
G1 X139.051 Y161.394 E.01923
G1 X139.051 Y167.565 E.30972
G1 X138.668 Y167.565 E.01923
G1 X138.668 Y161.394 E.30972
G1 X138.284 Y161.394 E.01923
G1 X138.284 Y163.353 E.09831
G1 X137.901 Y163.353 E.01923
G1 X137.901 Y161.394 E.09831
G1 X137.518 Y161.394 E.01923
G1 X137.518 Y163.353 E.09831
G1 X137.475 Y163.353 E.00218
G1 X137.389 Y163.215 E.00817
G1 X137.135 Y163.287 E.01326
G1 X137.135 Y161.394 E.095
G1 X136.752 Y161.394 E.01923
G1 X136.752 Y163.353 E.09831
G1 X136.368 Y163.353 E.01923
G1 X136.368 Y161.394 E.09831
G1 X135.985 Y161.394 E.01923
G1 X135.985 Y163.353 E.09831
G1 X135.602 Y163.353 E.01923
G1 X135.602 Y161.239 E.1061
G1 E-.7 F3600
;WIPE_START
G1 F6240
G1 X135.602 Y161.759 E-.285
;WIPE_END
G1 E-.015 F3600
G1 X138.284 Y167.72 F7800
G1 E1 F2400
G1 F1800
G1 X138.284 Y165.606 E.1061
G1 X137.901 Y165.606 E.01923
G1 X137.901 Y167.565 E.09831
G1 X137.518 Y167.565 E.01923
G1 X137.518 Y165.606 E.09831
G1 X137.135 Y165.606 E.01923
G1 X137.135 Y167.565 E.09831
G1 X136.752 Y167.565 E.01923
G1 X136.752 Y165.606 E.09831
G1 X136.368 Y165.606 E.01923
G1 X136.368 Y167.565 E.09831
G1 X135.985 Y167.565 E.01923
G1 X135.985 Y165.606 E.09831
G1 X135.602 Y165.606 E.01923
G1 X135.602 Y167.72 E.1061
G1 E-.7 F3600
;WIPE_START
G1 F6240
G1 X135.602 Y167.2 E-.285
;WIPE_END
G1 E-.015 F3600
G1 X136.867 Y163.918 F7800
G1 E1 F2400
;TYPE:Support material interface
;WIDTH:1
G1 F1800
G1 X136.867 Y164.639 E.09709
G1 X135.974 Y164.639 E.12014
G1 X135.974 Y164.32 E.04302
G1 X135.081 Y164.32 E.12014
G1 X135.081 Y164.639 E.04302
G1 X134.189 Y164.639 E.12014
G1 X134.189 Y164.32 E.04302
G1 X133.296 Y164.32 E.12014
G1 X133.296 Y164.639 E.04302
G1 X132.403 Y164.639 E.12014
G1 X132.403 Y164.32 E.04302
G1 X131.685 Y164.32 E.09662
G1 X131.51 Y164.038 E.04466
G1 X131.51 Y164.639 E.08099
G1 X130.618 Y164.639 E.12014
G1 X130.618 Y130.712 E4.56602
G1 X130.712 Y130.712 E.01273
G1 X130.712 Y120.534 E1.3698
G1 X131.51 Y120.534 E.10741
G1 X131.51 Y161.596 E5.52625
G1 X132.403 Y159.801 E.26981
G1 X132.403 Y120.534 E5.28466
G1 X133.296 Y120.534 E.12014
G1 X133.296 Y155.069 E4.64785
G1 X134.189 Y152.949 E.30956
G1 X134.189 Y113.749 E5.27575
G1 X135.081 Y113.749 E.12014
G1 X135.081 Y150.615 E4.96155
G1 X135.974 Y148.28 E.33639
G1 X135.974 Y113.749 E4.64734
G1 X136.867 Y113.749 E.12014
G1 X136.867 Y145.945 E4.33313
G1 X137.759 Y143.611 E.33639
G1 X137.759 Y110.356 E4.47552
G1 X138.652 Y110.356 E.12014
G1 X138.652 Y141.276 E4.16132
G1 X139.545 Y138.941 E.33639
G1 X139.545 Y110.356 E3.84711
G1 X140.437 Y110.356 E.12014
G1 X140.437 Y137.732 E3.68428
G1 E-.7 F3600
;WIPE_START
G1 F6240
G1 X140.437 Y137.212 E-.285
;WIPE_END
G1 E-.015 F3600
G1 X143.116 Y133.213 F7800
G1 E1 F2400
G1 F1800
G1 X143.116 Y120.534 E1.70634
G1 X142.223 Y120.534 E.12014
G1 X142.223 Y132.992 E1.67654
G1 X142.194 Y132.998 E.00395
G1 X141.635 Y133.476 E.09906
G1 X141.33 Y134.272 E.11473
G1 X141.33 Y120.534 E1.84889
G1 X140.89 Y120.534 E.05917
G1 X140.89 Y117.142 E.4566
G1 X141.33 Y117.142 E.05917
G1 X141.33 Y110.356 E.91321
G1 X142.223 Y110.356 E.12014
G1 X142.223 Y117.142 E.91321
G1 X143.116 Y117.142 E.12014
G1 X143.116 Y110.356 E.91321
G1 X144.008 Y110.356 E.12014
G1 X144.008 Y132.613 E2.99541
G1 X144.901 Y132.424 E.12281
G1 X144.901 Y110.356 E2.96994
G1 X145.794 Y110.356 E.12014
G1 X145.794 Y132.235 E2.94447
G1 X146.405 Y132.105 E.08409
G1 X146.686 Y132.148 E.03832
G1 X146.686 Y110.356 E2.93277
G1 X147.579 Y110.356 E.12014
M73 P0 R374
G1 X147.579 Y133.009 E3.04874
G1 E-.7 F3600
;WIPE_START
G1 F6240
G1 X147.579 Y132.489 E-.285
;WIPE_END
G1 E-.015 F3600
G1 X164.483 Y119.485 F7800
G1 E1 F2400
;TYPE:Support material
;WIDTH:0.42
G1 F1800
G1 X161.903 Y119.485 E.12947
G1 X161.903 Y116.485 E.15056
G1 X155.118 Y116.485 E.34053
G1 X155.118 Y113.092 E.17027
G1 X148.332 Y113.092 E.34053
G1 X148.332 Y109.7 E.17027
G1 X136.841 Y109.7 E.57669
G1 X136.841 Y113.092 E.17027
G1 X133.449 Y113.092 E.17027
G1 X133.449 Y119.878 E.34053
G1 X130.056 Y119.878 E.17027
G1 X130.056 Y130.056 E.5108
G1 X126.663 Y130.056 E.17027
G1 X126.663 Y136.841 E.34053
G1 X123.271 Y136.841 E.17027
G1 X123.271 Y147.019 E.5108
G1 X119.878 Y147.019 E.17027
G1 X119.878 Y160.59 E.68106
G1 X116.485 Y160.59 E.17027
G1 X116.485 Y165.296 E.23616
G1 X119.485 Y165.296 E.15056
G1 X119.485 Y167.876 E.12947
G1 X76.586 Y167.876 E2.15295
G1 X76.586 Y157.698 E.5108
G1 X66.408 Y157.698 E.5108
G1 X66.408 Y140.734 E.85133
G1 X63.015 Y140.734 E.17027
G1 X63.015 Y113.592 E1.36213
G1 X59.622 Y113.592 E.17027
G1 X59.622 Y86.451 E1.36213
G1 X56.229 Y86.451 E.17027
G1 X56.229 Y76.273 E.5108
G1 X52.524 Y76.273 E.18597
G1 X52.524 Y96.629 E1.02159
G1 X49.131 Y96.629 E.17027
G1 X49.131 Y116.985 E1.02159
G1 X45.738 Y116.985 E.17027
G1 X45.738 Y167.876 E2.55399
G1 X15.517 Y167.876 E1.51669
G1 X15.517 Y12.124 E7.81652
G1 X164.483 Y12.124 E7.47599
G1 X164.483 Y119.433 E5.3854
G1 X163.96 Y119.33 F7800
G1 F1800
G1 X163.96 Y12.435 E5.36463
G1 X163.576 Y12.435 E.01923
G1 X163.576 Y119.175 E5.35684
G1 X163.193 Y119.175 E.01923
G1 X163.193 Y12.435 E5.35684
G1 X162.81 Y12.435 E.01923
G1 X162.81 Y119.175 E5.35684
G1 X162.427 Y119.175 E.01923
G1 X162.427 Y12.435 E5.35684
G1 X162.043 Y12.435 E.01923
G1 X162.043 Y116.175 E5.20628
G1 X161.66 Y116.175 E.01923
G1 X161.66 Y12.435 E5.20628
G1 X161.277 Y12.435 E.01923
G1 X161.277 Y116.175 E5.20628
G1 X160.894 Y116.175 E.01923
G1 X160.894 Y12.435 E5.20628
G1 X160.511 Y12.435 E.01923
M73 P0 R373
G1 X160.511 Y116.175 E5.20628
G1 X160.127 Y116.175 E.01923
G1 X160.127 Y12.435 E5.20628
G1 X159.744 Y12.435 E.01923
G1 X159.744 Y116.175 E5.20628
G1 X159.361 Y116.175 E.01923
G1 X159.361 Y12.435 E5.20628
G1 X158.978 Y12.435 E.01923
G1 X158.978 Y116.175 E5.20628
G1 X158.595 Y116.175 E.01923
G1 X158.595 Y12.435 E5.20628
G1 X158.211 Y12.435 E.01923
G1 X158.211 Y116.175 E5.20628
G1 X157.828 Y116.175 E.01923
G1 X157.828 Y12.435 E5.20628
G1 X157.445 Y12.435 E.01923
G1 X157.445 Y116.175 E5.20628
G1 X157.062 Y116.175 E.01923
G1 X157.062 Y12.435 E5.20628
G1 X156.679 Y12.435 E.01923
G1 X156.679 Y116.175 E5.20628
G1 X156.295 Y116.175 E.01923
G1 X156.295 Y12.435 E5.20628
G1 X155.912 Y12.435 E.01923
G1 X155.912 Y116.175 E5.20628
G1 X155.529 Y116.175 E.01923
G1 X155.529 Y12.435 E5.20628
G1 X155.146 Y12.435 E.01923
G1 X155.146 Y112.782 E5.03602
G1 X154.762 Y112.782 E.01923
G1 X154.762 Y12.435 E5.03602
G1 X154.379 Y12.435 E.01923
G1 X154.379 Y112.782 E5.03602
G1 X153.996 Y112.782 E.01923
M73 P0 R372
G1 X153.996 Y12.435 E5.03602
G1 X153.613 Y12.435 E.01923
G1 X153.613 Y112.782 E5.03602
G1 X153.23 Y112.782 E.01923
G1 X153.23 Y12.435 E5.03602
G1 X152.846 Y12.435 E.01923
G1 X152.846 Y112.782 E5.03602
G1 X152.463 Y112.782 E.01923
G1 X152.463 Y12.435 E5.03602
G1 X152.08 Y12.435 E.01923
G1 X152.08 Y112.782 E5.03602
G1 X151.697 Y112.782 E.01923
G1 X151.697 Y12.435 E5.03602
G1 X151.314 Y12.435 E.01923
G1 X151.314 Y112.782 E5.03602
G1 X150.93 Y112.782 E.01923
G1 X150.93 Y12.435 E5.03602
G1 X150.547 Y12.435 E.01923
G1 X150.547 Y112.782 E5.03602
G1 X150.164 Y112.782 E.01923
M73 P1 R372
G1 X150.164 Y12.435 E5.03602
G1 X149.781 Y12.435 E.01923
G1 X149.781 Y112.782 E5.03602
G1 X149.398 Y112.782 E.01923
G1 X149.398 Y12.435 E5.03602
G1 X149.014 Y12.435 E.01923
G1 X149.014 Y112.782 E5.03602
G1 X148.643 Y112.782 E.01865
G1 X148.631 Y12.435 E5.03602
G1 X148.248 Y12.435 E.01923
G1 X148.248 Y109.389 E4.86575
G1 X147.865 Y109.389 E.01923
G1 X147.865 Y12.435 E4.86575
G1 X147.482 Y12.435 E.01923
M73 P1 R371
G1 X147.481 Y109.389 E4.86575
G1 X147.098 Y109.389 E.01923
G1 X147.098 Y12.435 E4.86575
G1 X146.715 Y12.435 E.01923
G1 X146.715 Y109.389 E4.86575
G1 X146.332 Y109.389 E.01923
G1 X146.332 Y12.435 E4.86575
G1 X145.949 Y12.435 E.01923
G1 X145.949 Y109.389 E4.86575
G1 X145.565 Y109.389 E.01923
G1 X145.565 Y12.435 E4.86575
G1 X145.182 Y12.435 E.01923
G1 X145.182 Y109.389 E4.86575
G1 X144.799 Y109.389 E.01923
G1 X144.799 Y12.435 E4.86575
G1 X144.416 Y12.435 E.01923
G1 X144.416 Y109.389 E4.86575
G1 X144.033 Y109.389 E.01923
G1 X144.033 Y12.435 E4.86575
G1 X143.649 Y12.435 E.01923
G1 X143.649 Y109.389 E4.86575
G1 X143.266 Y109.389 E.01923
G1 X143.266 Y12.435 E4.86575
G1 X142.883 Y12.435 E.01923
G1 X142.883 Y109.389 E4.86575
G1 X142.5 Y109.389 E.01923
G1 X142.5 Y12.435 E4.86575
G1 X142.117 Y12.435 E.01923
G1 X142.117 Y109.389 E4.86575
G1 X141.733 Y109.389 E.01923
G1 X141.733 Y12.435 E4.86575
G1 X141.35 Y12.435 E.01923
G1 X141.35 Y109.389 E4.86575
G1 X140.967 Y109.389 E.01923
G1 X140.967 Y12.435 E4.86575
G1 X140.584 Y12.435 E.01923
G1 X140.584 Y109.389 E4.86575
G1 X140.201 Y109.389 E.01923
M73 P1 R370
G1 X140.201 Y12.435 E4.86575
G1 X139.817 Y12.435 E.01923
G1 X139.817 Y109.389 E4.86575
G1 X139.434 Y109.389 E.01923
G1 X139.434 Y12.435 E4.86575
G1 X139.051 Y12.435 E.01923
G1 X139.051 Y109.389 E4.86575
G1 X138.668 Y109.389 E.01923
G1 X138.668 Y12.435 E4.86575
G1 X138.284 Y12.435 E.01923
G1 X138.284 Y109.389 E4.86575
G1 X137.901 Y109.389 E.01923
G1 X137.901 Y12.435 E4.86575
G1 X137.518 Y12.435 E.01923
G1 X137.518 Y109.389 E4.86575
G1 X137.135 Y109.389 E.01923
G1 X137.135 Y12.435 E4.86575
G1 X136.752 Y12.435 E.01923
G1 X136.752 Y109.389 E4.86575
G1 X136.531 Y109.389 E.01108
G1 X136.531 Y112.782 E.17027
G1 X136.368 Y112.782 E.00816
G1 X136.368 Y12.435 E5.03602
G1 X135.985 Y12.435 E.01923
G1 X135.985 Y112.782 E5.03602
G1 X135.602 Y112.782 E.01923
G1 X135.602 Y12.435 E5.03602
G1 X135.219 Y12.435 E.01923
G1 X135.219 Y112.782 E5.03602
G1 X134.836 Y112.782 E.01923
G1 X134.836 Y12.435 E5.03602
G1 X134.452 Y12.435 E.01923
G1 X134.452 Y112.782 E5.03602
G1 X134.069 Y112.782 E.01923
G1 X134.069 Y12.435 E5.03602
G1 X133.686 Y12.435 E.01923
G1 X133.686 Y112.782 E5.03602
G1 X133.303 Y112.782 E.01923
M73 P1 R369
G1 X133.303 Y12.435 E5.03602
G1 X132.92 Y12.435 E.01923
G1 X132.92 Y119.567 E5.37655
G1 X132.536 Y119.567 E.01923
G1 X132.536 Y12.435 E5.37655
G1 X132.153 Y12.435 E.01923
G1 X132.153 Y119.567 E5.37655
G1 X131.77 Y119.567 E.01923
G1 X131.77 Y12.435 E5.37655
G1 X131.387 Y12.435 E.01923
G1 X131.387 Y119.567 E5.37655
G1 X131.003 Y119.567 E.01923
G1 X131.003 Y12.435 E5.37655
G1 X130.62 Y12.435 E.01923
G1 X130.62 Y119.567 E5.37655
G1 X130.237 Y119.567 E.01923
G1 X130.237 Y12.435 E5.37655
G1 X129.854 Y12.435 E.01923
G1 X129.854 Y119.567 E5.37655
G1 X129.746 Y119.567 E.00544
G1 X129.746 Y129.746 E.5108
G1 X129.471 Y129.746 E.0138
G1 X129.471 Y12.435 E5.88735
G1 X129.087 Y12.435 E.01923
G1 X129.087 Y129.746 E5.88735
G1 X128.704 Y129.746 E.01923
G1 X128.704 Y12.435 E5.88735
G1 X128.321 Y12.435 E.01923
G1 X128.321 Y129.746 E5.88735
G1 X127.938 Y129.746 E.01923
G1 X127.938 Y12.435 E5.88735
G1 X127.555 Y12.435 E.01923
G1 X127.555 Y129.746 E5.88735
G1 X127.171 Y129.746 E.01923
M73 P1 R368
G1 X127.171 Y12.435 E5.88735
G1 X126.788 Y12.435 E.01923
G1 X126.788 Y129.746 E5.88735
G1 X126.405 Y129.746 E.01923
G1 X126.405 Y12.435 E5.88735
G1 X126.022 Y12.435 E.01923
G1 X126.022 Y136.531 E6.22788
G1 X125.639 Y136.531 E.01923
G1 X125.639 Y12.435 E6.22788
G1 X125.255 Y12.435 E.01923
M73 P2 R368
G1 X125.255 Y136.531 E6.22788
G1 X124.872 Y136.531 E.01923
G1 X124.872 Y12.435 E6.22788
G1 X124.489 Y12.435 E.01923
G1 X124.489 Y136.531 E6.22788
G1 X124.106 Y136.531 E.01923
G1 X124.106 Y12.435 E6.22788
