; generated by PrusaSlicer 2.5.0+win64 on 2022-12-07 at 00:25:49 UTC

; 

; external perimeters extrusion width = 1.00mm
; perimeters extrusion width = 1.00mm
; infill extrusion width = 1.00mm
; solid infill extrusion width = 1.00mm
; top infill extrusion width = 1.00mm
; support material extrusion width = 1.00mm
; first layer extrusion width = 0.42mm

M73 P0 R569
M107
;TYPE:Custom
G90 ; use absolute coordinates
M83 ; extruder relative mode
M140 S60 ; set final bed temp
M104 S150 ; set temporary nozzle temp to prevent oozing during homing and auto bed leveling
G4 S10 ; allow partial nozzle warmup
G28 ; home all axisG1 Z50 F240
G1 X7.6 Y10 F3000
M104 S210 ; set final nozzle temp
M190 S60 ; wait for bed temp to stabilize
M109 S210 ; wait for nozzle temp to stabilize
G1 Z0.28 F240
G92 E0
G1 Y140 E10 F1500 ; prime the nozzle
G1 X4 F5000
G92 E0
G1 Y10 E10 F1200 ; prime the nozzle
G92 E0
G21 ; set units to millimeters
G90 ; use absolute coordinates
M83 ; use relative distances for extrusion
; Filament gcode
M107
;LAYER_CHANGE
;Z:0.35
;HEIGHT:0.35
;BEFORE_LAYER_CHANGE
G92 E0
;0.35


G1 E-1 F3600
G1 Z.35 F7800
;AFTER_LAYER_CHANGE
;0.35
G1 X151.15 Y19.157
G1 E1 F2400
;TYPE:Support material interface
;WIDTH:1
G1 F1800
G1 X151.15 Y11.969 E.96727
G1 X152.043 Y11.969 E.12014
G1 X152.043 Y18.755 E.91321
G1 X152.935 Y18.755 E.12014
G1 X152.935 Y11.969 E.91321
G1 X153.828 Y11.969 E.12014
G1 X153.828 Y18.755 E.91321
G1 X154.461 Y18.755 E.08523
G1 X154.461 Y25.54 E.9132
G1 X154.721 Y25.54 E.03491
G1 X154.721 Y11.969 E1.82641
G1 X155.613 Y11.969 E.12014
G1 X155.613 Y25.54 E1.82641
G1 X156.506 Y25.54 E.12014
G1 X156.506 Y11.969 E1.82641
G1 X157.399 Y11.969 E.12014
G1 X157.399 Y25.54 E1.82641
G1 X157.854 Y25.54 E.06127
G1 X157.854 Y32.326 E.9132
G1 X158.291 Y32.326 E.05888
G1 X158.291 Y11.969 E2.73961
G1 X159.184 Y11.969 E.12014
G1 X159.184 Y32.727 E2.79368
G1 E-.7 F3600
;WIPE_START
G1 F6240
G1 X159.184 Y32.207 E-.285
;WIPE_END
G1 E-.015 F3600
G1 X167.218 Y39.513 F7800
G1 E1 F2400
G1 F1800
G1 X167.218 Y26.797 E1.71129
G1 X166.326 Y27.018 E.12375
G1 X166.326 Y39.111 E1.62755
M73 P0 R568
G1 X165.433 Y39.111 E.12014
G1 X165.433 Y27.238 E1.59787
G1 X165.203 Y27.295 E.03184
G1 X164.54 Y26.035 E.19164
G1 X164.54 Y35.718 E1.30324
G1 X163.648 Y35.718 E.12014
G1 X163.648 Y24.338 E1.53159
G1 X162.755 Y22.641 E.25803
G1 X162.755 Y35.718 E1.75995
G1 X161.862 Y35.718 E.12014
G1 X161.862 Y20.945 E1.9883
G1 X160.97 Y19.248 E.25803
G1 X160.97 Y32.326 E1.76006
G1 X160.077 Y32.326 E.12014
G1 X160.077 Y16.688 E2.10453
G1 E-.7 F3600
;WIPE_START
G1 F6240
G1 X160.077 Y17.208 E-.285
;WIPE_END
G1 E-.015 F3600
G1 X160.077 Y14.63 F7800
G1 E1 F2400
G1 F1800
G1 X160.077 Y11.969 E.35804
G1 X160.97 Y11.969 E.12014
G1 X160.97 Y14.177 E.29714
G1 X161.862 Y14.177 E.12014
G1 X161.862 Y11.969 E.29708
G1 X162.755 Y11.969 E.12014
G1 X162.755 Y14.167 E.29577
G1 X163.648 Y14.167 E.12014
G1 X163.648 Y11.969 E.29574
G1 X164.54 Y11.969 E.12014
G1 X164.54 Y14.568 E.34978
G1 X164.593 Y15.08 F7800
;TYPE:Support material
;WIDTH:0.42
G1 F1800
G1 X164.847 Y15.563 E.02739
G1 X164.166 Y15.374 E.03549
G1 X164.166 Y14.823 E.02762
G1 X164.749 Y14.823 E.02923
G1 X164.62 Y15.036 E.01248
G1 E-.7 F3600
;WIPE_START
G1 F6240
G1 X164.749 Y14.823 E-.13634
G1 X164.477 Y14.823 E-.14866
;WIPE_END
G1 E-.015 F3600
G1 X171.268 Y21.098 F7800
G1 E1 F2400
G1 F1800
G1 X168.689 Y21.098 E.12947
G1 X168.689 Y18.098 E.15056
G1 X166.746 Y18.098 E.09749
G1 X166.746 Y21.098 E.15056
G1 X164.166 Y21.098 E.12947
G1 X164.166 Y16.075 E.25208
G1 X164.883 Y15.898 E.03704
G1 X164.886 Y15.638 E.01309
G1 X166.087 Y17.919 E.12935
G1 X167.166 Y17.652 E.0558
G1 X167.166 Y14.809 E.14266
G1 X166.75 Y14.393 E.02954
G1 X165.296 Y14.394 E.07296
G1 X165.296 Y12.126 E.11384
G1 X171.268 Y12.126 E.29974
G1 X171.268 Y21.047 E.4477
G1 X170.857 Y20.943 F7800
G1 F1800
G1 X170.857 Y12.436 E.42693
G1 X170.474 Y12.436 E.01923
G1 X170.474 Y20.788 E.41914
G1 X170.091 Y20.788 E.01923
G1 X170.091 Y12.436 E.41914
G1 X169.708 Y12.436 E.01923
G1 X169.708 Y20.788 E.41914
G1 X169.324 Y20.788 E.01923
G1 X169.324 Y12.436 E.41914
G1 X168.941 Y12.436 E.01923
G1 X168.941 Y17.788 E.26858
G1 X168.558 Y17.788 E.01923
G1 X168.558 Y12.436 E.26858
G1 X168.175 Y12.436 E.01923
G1 X168.175 Y17.788 E.26858
G1 X167.792 Y17.788 E.01923
G1 X167.792 Y12.436 E.26858
G1 X167.408 Y12.436 E.01923
G1 X167.408 Y14.613 E.10923
G1 X167.025 Y14.23 E.02718
G1 X167.025 Y12.436 E.09002
G1 X166.642 Y12.436 E.01923
G1 X166.642 Y14.083 E.08265
G1 X166.259 Y14.083 E.01923
G1 X166.259 Y12.436 E.08267
G1 X165.876 Y12.436 E.01923
G1 X165.876 Y14.239 E.09047
G1 E-.7 F3600
;WIPE_START
G1 F6240
G1 X165.876 Y13.719 E-.285
;WIPE_END
G1 E-.015 F3600
G1 X166.259 Y20.943 F7800
G1 E1 F2400
G1 F1800
G1 X166.259 Y18.196 E.13788
G1 X165.925 Y18.278 E.01726
G1 X165.876 Y18.184 E.00532
G1 X165.876 Y20.788 E.13067
G1 X165.492 Y20.788 E.01923
G1 X165.492 Y17.456 E.16722
G1 X165.109 Y16.728 E.0413
G1 X165.109 Y20.788 E.20377
G1 X164.726 Y20.788 E.01923
G1 X164.726 Y16.097 E.23542
G1 E-.7 F3600
;WIPE_START
G1 F6240
G1 X164.726 Y16.617 E-.285
;WIPE_END
G1 E-.015 F3600
G1 X153.412 Y11.313 F7800
G1 E1 F2400
G1 F1800
G1 X150.412 Y11.313 E.15056
G1 X150.412 Y19.411 E.40642
G1 X153.805 Y19.411 E.17027
G1 X153.805 Y26.197 E.34053
G1 X157.198 Y26.197 E.17027
G1 X157.198 Y32.982 E.34053
G1 X160.59 Y32.982 E.17027
G1 X160.59 Y36.375 E.17027
G1 X163.983 Y36.375 E.17027
G1 X163.983 Y39.767 E.17027
G1 X168.689 Y39.767 E.23616
G1 X168.689 Y36.767 E.15056
G1 X171.268 Y36.767 E.12947
G1 X171.268 Y171.27 E6.75012
G1 X8.732 Y171.27 E8.15705
G1 X8.732 Y12.126 E7.98679
G1 X116.985 Y12.126 E5.4328
G1 X116.985 Y35.875 E1.19186
G1 X120.378 Y35.875 E.17027
G1 X120.378 Y73.194 E1.87292
G1 X124.083 Y73.194 E.18597
G1 X124.083 Y8.733 E3.23505
G1 X153.412 Y8.733 E1.47189
G1 X153.412 Y11.261 E.12687
G1 E-.7 F3600
;WIPE_START
G1 F6240
G1 X153.412 Y10.741 E-.285
;WIPE_END
G1 E-.015 F3600
G1 X116.985 Y93.238 F7800
G1 E1 F2400
G1 F1800
G1 X116.985 Y100.336 E.35623
G1 X120.378 Y100.336 E.17027
G1 X120.378 Y127.478 E1.36213
G1 X124.083 Y127.478 E.18597
G1 X124.083 Y93.238 E1.71836
G1 X117.037 Y93.238 E.35364
G1 E-.7 F3600
;WIPE_START
G1 F6240
G1 X117.557 Y93.238 E-.285
;WIPE_END
G1 E-.015 F3600
G1 X170.857 Y171.115 F7800
G1 E1 F2400
G1 F1800
G1 X170.857 Y37.078 E6.72676
G1 X170.474 Y37.078 E.01923
G1 X170.474 Y170.959 E6.71897
G1 X170.091 Y170.959 E.01923
G1 X170.091 Y37.078 E6.71897
G1 X169.708 Y37.078 E.01923
G1 X169.708 Y170.959 E6.71897
G1 X169.324 Y170.959 E.01923
M73 P0 R567
G1 X169.324 Y37.078 E6.71897
G1 X168.999 Y37.078 E.01634
G1 X168.999 Y40.078 E.15056
G1 X168.941 Y40.078 E.00289
G1 X168.941 Y170.959 E6.56841
G1 X168.558 Y170.959 E.01923
G1 X168.558 Y40.078 E6.56841
G1 X168.175 Y40.078 E.01923
G1 X168.175 Y170.959 E6.56841
G1 X167.792 Y170.959 E.01923
G1 X167.792 Y40.078 E6.56841
G1 X167.408 Y40.078 E.01923
G1 X167.408 Y170.959 E6.56841
G1 X167.025 Y170.959 E.01923
G1 X167.025 Y40.078 E6.56841
G1 X166.642 Y40.078 E.01923
G1 X166.642 Y170.959 E6.56841
G1 X166.259 Y170.959 E.01923
G1 X166.259 Y40.078 E6.56841
G1 X165.876 Y40.078 E.01923
G1 X165.876 Y170.959 E6.56841
G1 X165.492 Y170.959 E.01923
G1 X165.492 Y40.078 E6.56841
G1 X165.109 Y40.078 E.01923
G1 X165.109 Y170.959 E6.56841
G1 X164.726 Y170.959 E.01923
G1 X164.726 Y40.078 E6.56841
G1 X164.343 Y40.078 E.01923
M73 P0 R566
G1 X164.343 Y170.959 E6.56841
G1 X163.96 Y170.959 E.01923
G1 X163.96 Y40.078 E6.56841
G1 X163.673 Y40.078 E.0144
G1 X163.673 Y36.685 E.17027
G1 X163.576 Y36.685 E.00483
G1 X163.576 Y170.959 E6.73868
G1 X163.193 Y170.959 E.01923
G1 X163.193 Y36.685 E6.73868
G1 X162.81 Y36.685 E.01923
G1 X162.81 Y170.959 E6.73868
G1 X162.427 Y170.959 E.01923
G1 X162.427 Y36.685 E6.73868
G1 X162.043 Y36.685 E.01923
G1 X162.043 Y170.959 E6.73868
G1 X161.66 Y170.959 E.01923
G1 X161.66 Y36.685 E6.73868
G1 X161.277 Y36.685 E.01923
G1 X161.277 Y170.959 E6.73868
G1 X160.894 Y170.959 E.01923
G1 X160.894 Y36.685 E6.73868
G1 X160.511 Y36.685 E.01923
G1 X160.511 Y170.959 E6.73868
G1 X160.127 Y170.959 E.01923
G1 X160.127 Y33.292 E6.90894
G1 X159.744 Y33.292 E.01923
G1 X159.744 Y170.959 E6.90894
G1 X159.361 Y170.959 E.01923
M73 P0 R565
G1 X159.361 Y33.292 E6.90894
G1 X158.978 Y33.292 E.01923
G1 X158.978 Y170.959 E6.90894
G1 X158.595 Y170.959 E.01923
G1 X158.595 Y33.292 E6.90894
G1 X158.211 Y33.292 E.01923
G1 X158.211 Y170.959 E6.90894
G1 X157.828 Y170.959 E.01923
G1 X157.828 Y33.292 E6.90894
G1 X157.445 Y33.292 E.01923
G1 X157.445 Y170.959 E6.90894
G1 X157.062 Y170.959 E.01923
G1 X157.062 Y33.292 E6.90894
G1 X156.887 Y33.292 E.00876
G1 X156.887 Y26.507 E.34053
G1 X156.679 Y26.507 E.01047
G1 X156.679 Y170.959 E7.24947
G1 X156.295 Y170.959 E.01923
G1 X156.295 Y26.507 E7.24947
G1 X155.912 Y26.507 E.01923
G1 X155.912 Y170.959 E7.24947
G1 X155.529 Y170.959 E.01923
G1 X155.529 Y26.507 E7.24947
G1 X155.146 Y26.507 E.01923
G1 X155.146 Y170.959 E7.24947
G1 X154.762 Y170.959 E.01923
G1 X154.762 Y26.507 E7.24947
G1 X154.379 Y26.507 E.01923
M73 P0 R564
G1 X154.379 Y170.959 E7.24947
G1 X153.996 Y170.959 E.01923
G1 X153.996 Y26.507 E7.24947
G1 X153.613 Y26.507 E.01923
G1 X153.613 Y170.959 E7.24947
G1 X153.23 Y170.959 E.01923
G1 X153.23 Y19.722 E7.59
G1 X152.846 Y19.722 E.01923
G1 X152.846 Y170.959 E7.59
G1 X152.463 Y170.959 E.01923
G1 X152.463 Y19.722 E7.59
G1 X152.08 Y19.722 E.01923
G1 X152.08 Y170.959 E7.59
G1 X151.697 Y170.959 E.01923
G1 X151.697 Y19.722 E7.59
G1 X151.314 Y19.722 E.01923
G1 X151.314 Y170.959 E7.59
G1 X150.93 Y170.959 E.01923
G1 X150.93 Y19.722 E7.59
G1 X150.547 Y19.722 E.01923
G1 X150.547 Y170.959 E7.59
G1 X150.164 Y170.959 E.01923
G1 X150.164 Y9.044 E8.1259
G1 X150.547 Y9.044 E.01923
M73 P0 R563
G1 X150.547 Y11.003 E.09831
G1 X150.93 Y11.003 E.01923
G1 X150.93 Y9.044 E.09831
G1 X151.314 Y9.044 E.01923
G1 X151.314 Y11.003 E.09831
G1 X151.697 Y11.003 E.01923
G1 X151.697 Y9.044 E.09831
G1 X152.08 Y9.044 E.01923
G1 X152.08 Y11.003 E.09831
G1 X152.463 Y11.003 E.01923
G1 X152.463 Y9.044 E.09831
G1 X152.846 Y9.044 E.01923
G1 X152.846 Y11.158 E.1061
G1 E-.7 F3600
;WIPE_START
G1 F6240
G1 X152.846 Y10.638 E-.285
;WIPE_END
G1 E-.015 F3600
G1 X149.781 Y171.115 F7800
G1 E1 F2400
G1 F1800
G1 X149.781 Y9.044 E8.13368
G1 X149.398 Y9.044 E.01923
G1 X149.398 Y170.959 E8.1259
G1 X149.014 Y170.959 E.01923
G1 X149.014 Y9.044 E8.1259
G1 X148.631 Y9.044 E.01923
M73 P1 R563
G1 X148.631 Y170.959 E8.1259
G1 X148.248 Y170.959 E.01923
G1 X148.248 Y9.044 E8.1259
G1 X147.865 Y9.044 E.01923
G1 X147.865 Y170.959 E8.1259
G1 X147.481 Y170.959 E.01923
G1 X147.482 Y9.044 E8.1259
G1 X147.098 Y9.044 E.01923
G1 X147.098 Y170.959 E8.1259
G1 X146.715 Y170.959 E.01923
G1 X146.715 Y9.044 E8.1259
G1 X146.332 Y9.044 E.01923
G1 X146.332 Y170.959 E8.1259
G1 X145.949 Y170.959 E.01923
M73 P1 R562
G1 X145.949 Y9.044 E8.1259
G1 X145.565 Y9.044 E.01923
G1 X145.565 Y170.959 E8.1259
G1 X145.182 Y170.959 E.01923
G1 X145.182 Y9.044 E8.1259
G1 X144.799 Y9.044 E.01923
G1 X144.799 Y170.959 E8.1259
G1 X144.416 Y170.959 E.01923
G1 X144.416 Y9.044 E8.1259
G1 X144.033 Y9.044 E.01923
G1 X144.033 Y170.959 E8.1259
G1 X143.649 Y170.959 E.01923
G1 X143.649 Y9.044 E8.1259
G1 X143.266 Y9.044 E.01923
G1 X143.266 Y170.959 E8.1259
G1 X142.883 Y170.959 E.01923
G1 X142.883 Y9.044 E8.1259
G1 X142.5 Y9.044 E.01923
G1 X142.5 Y170.959 E8.1259
G1 X142.117 Y170.959 E.01923
G1 X142.117 Y9.044 E8.1259
G1 X141.733 Y9.044 E.01923
M73 P1 R561
G1 X141.733 Y170.959 E8.1259
G1 X141.35 Y170.959 E.01923
G1 X141.35 Y9.044 E8.1259
G1 X140.967 Y9.044 E.01923
G1 X140.967 Y170.959 E8.1259
G1 X140.584 Y170.959 E.01923
G1 X140.584 Y9.044 E8.1259
G1 X140.201 Y9.044 E.01923
G1 X140.2 Y170.959 E8.1259
G1 X139.817 Y170.959 E.01923
G1 X139.817 Y9.044 E8.1259
G1 X139.434 Y9.044 E.01923
G1 X139.434 Y170.959 E8.1259
G1 X139.051 Y170.959 E.01923
G1 X139.051 Y9.044 E8.1259
G1 X138.668 Y9.044 E.01923
G1 X138.668 Y170.959 E8.1259
G1 X138.284 Y170.959 E.01923
G1 X138.284 Y9.044 E8.1259
G1 X137.901 Y9.044 E.01923
G1 X137.901 Y170.959 E8.1259
G1 X137.518 Y170.959 E.01923
M73 P1 R560
G1 X137.518 Y9.044 E8.1259
G1 X137.135 Y9.044 E.01923
G1 X137.135 Y170.959 E8.1259
G1 X136.752 Y170.959 E.01923
G1 X136.752 Y9.044 E8.1259
G1 X136.368 Y9.044 E.01923
G1 X136.368 Y170.959 E8.1259
G1 X135.985 Y170.959 E.01923
G1 X135.985 Y9.044 E8.1259
G1 X135.602 Y9.044 E.01923
G1 X135.602 Y170.959 E8.1259
G1 X135.219 Y170.959 E.01923
G1 X135.219 Y9.044 E8.1259
G1 X134.836 Y9.044 E.01923
G1 X134.836 Y170.959 E8.1259
G1 X134.452 Y170.959 E.01923
G1 X134.452 Y9.044 E8.1259
G1 X134.069 Y9.044 E.01923
G1 X134.069 Y170.959 E8.1259
G1 X133.686 Y170.959 E.01923
G1 X133.686 Y9.044 E8.1259
G1 X133.303 Y9.044 E.01923
M73 P1 R559
G1 X133.303 Y170.959 E8.1259
G1 X132.92 Y170.959 E.01923
G1 X132.92 Y9.044 E8.1259
G1 X132.536 Y9.044 E.01923
G1 X132.536 Y170.959 E8.1259
G1 X132.153 Y170.959 E.01923
G1 X132.153 Y9.044 E8.1259
G1 X131.77 Y9.044 E.01923
G1 X131.77 Y170.959 E8.1259
G1 X131.387 Y170.959 E.01923
G1 X131.387 Y9.044 E8.1259
G1 X131.003 Y9.044 E.01923
G1 X131.003 Y170.959 E8.1259
G1 X130.62 Y170.959 E.01923
G1 X130.62 Y9.044 E8.1259
G1 X130.237 Y9.044 E.01923
G1 X130.237 Y170.959 E8.1259
G1 X129.854 Y170.959 E.01923
G1 X129.854 Y9.044 E8.1259
G1 X129.471 Y9.044 E.01923
G1 X129.471 Y170.959 E8.1259
G1 X129.087 Y170.959 E.01923
M73 P1 R558
G1 X129.087 Y9.044 E8.1259
G1 X128.704 Y9.044 E.01923
G1 X128.704 Y170.959 E8.1259
G1 X128.321 Y170.959 E.01923
G1 X128.321 Y9.044 E8.1259
G1 X127.938 Y9.044 E.01923
G1 X127.938 Y170.959 E8.1259
G1 X127.555 Y170.959 E.01923
G1 X127.555 Y9.044 E8.1259
G1 X127.171 Y9.044 E.01923
G1 X127.171 Y170.959 E8.1259
G1 X126.788 Y170.959 E.01923
G1 X126.788 Y9.044 E8.1259
G1 X126.405 Y9.044 E.01923
G1 X126.405 Y170.959 E8.1259
G1 X126.022 Y170.959 E.01923
G1 X126.022 Y9.044 E8.1259
G1 X125.639 Y9.044 E.01923
G1 X125.639 Y170.959 E8.1259
G1 X125.255 Y170.959 E.01923
G1 X125.255 Y9.044 E8.1259
G1 X124.872 Y9.044 E.01923
M73 P1 R557
G1 X124.872 Y170.959 E8.1259
G1 X124.489 Y170.959 E.01923
M73 P2 R557
G1 X124.489 Y9.044 E8.1259
G1 X124.394 Y9.044 E.00477
G1 X124.394 Y73.505 E3.23505
G1 X124.106 Y73.505 E.01446
G1 X124.106 Y92.927 E.97474
G1 X123.722 Y92.927 E.01923
G1 X123.722 Y73.505 E.97474
G1 X123.339 Y73.505 E.01923
G1 X123.339 Y92.927 E.97474
G1 X122.956 Y92.927 E.01923
G1 X122.956 Y73.505 E.97474
G1 X122.573 Y73.505 E.01923
G1 X122.573 Y92.927 E.97474
G1 X122.19 Y92.927 E.01923
G1 X122.19 Y73.505 E.97474
G1 X121.806 Y73.505 E.01923
G1 X121.806 Y92.927 E.97474
G1 X121.423 Y92.927 E.01923
G1 X121.423 Y73.505 E.97474
G1 X121.04 Y73.505 E.01923
G1 X121.04 Y92.927 E.97474
G1 X120.657 Y92.927 E.01923
G1 X120.657 Y73.505 E.97474
G1 X120.274 Y73.505 E.01923
G1 X120.274 Y92.927 E.97474
G1 X119.89 Y92.927 E.01923
G1 X119.89 Y36.185 E2.84766
G1 X119.507 Y36.185 E.01923
G1 X119.507 Y92.927 E2.84766
G1 X119.124 Y92.927 E.01923
G1 X119.124 Y36.185 E2.84766
G1 X118.741 Y36.185 E.01923
G1 X118.741 Y92.927 E2.84766
G1 X118.358 Y92.927 E.01923
G1 X118.358 Y36.185 E2.84766
G1 X117.974 Y36.185 E.01923
G1 X117.974 Y92.927 E2.84766
G1 X117.591 Y92.927 E.01923
G1 X117.591 Y36.185 E2.84766
G1 X117.208 Y36.185 E.01923
G1 X117.208 Y93.083 E2.85545
G1 E-.7 F3600
;WIPE_START
G1 F6240
G1 X117.208 Y92.563 E-.285
;WIPE_END
G1 E-.015 F3600
G1 X124.106 Y171.115 F7800
G1 E1 F2400
G1 F1800
G1 X124.106 Y127.788 E2.17438
G1 X123.722 Y127.788 E.01923
G1 X123.722 Y170.959 E2.1666
G1 X123.339 Y170.959 E.01923
G1 X123.339 Y127.788 E2.1666
G1 X122.956 Y127.788 E.01923
G1 X122.956 Y170.959 E2.1666
G1 X122.573 Y170.959 E.01923
G1 X122.573 Y127.788 E2.1666
G1 X122.19 Y127.788 E.01923
G1 X122.19 Y170.959 E2.1666
G1 X121.806 Y170.959 E.01923
G1 X121.806 Y127.788 E2.1666
G1 X121.423 Y127.788 E.01923
G1 X121.423 Y170.959 E2.1666
G1 X121.04 Y170.959 E.01923
G1 X121.04 Y127.788 E2.1666
G1 X120.657 Y127.788 E.01923
G1 X120.657 Y170.959 E2.1666
G1 X120.274 Y170.959 E.01923
G1 X120.274 Y127.788 E2.1666
G1 X120.067 Y127.788 E.01035
G1 X120.067 Y100.646 E1.36213
G1 X119.89 Y100.646 E.00889
G1 X119.89 Y170.959 E3.52872
G1 X119.507 Y170.959 E.01923
G1 X119.507 Y100.646 E3.52872
G1 X119.124 Y100.646 E.01923
M73 P2 R556
