; generated by PrusaSlicer 2.5.0+win64 on 2022-12-07 at 00:25:55 UTC

; 

; external perimeters extrusion width = 1.00mm
; perimeters extrusion width = 1.00mm
; infill extrusion width = 1.00mm
; solid infill extrusion width = 1.00mm
; top infill extrusion width = 1.00mm
; support material extrusion width = 1.00mm
; first layer extrusion width = 0.42mm

M73 P0 R320
M107
;TYPE:Custom
G90 ; use absolute coordinates
M83 ; extruder relative mode
M140 S60 ; set final bed temp
M104 S150 ; set temporary nozzle temp to prevent oozing during homing and auto bed leveling
G4 S10 ; allow partial nozzle warmup
G28 ; home all axisG1 Z50 F240
G1 X7.6 Y10 F3000
M104 S210 ; set final nozzle temp
M190 S60 ; wait for bed temp to stabilize
M109 S210 ; wait for nozzle temp to stabilize
G1 Z0.28 F240
G92 E0
G1 Y140 E10 F1500 ; prime the nozzle
G1 X4 F5000
G92 E0
G1 Y10 E10 F1200 ; prime the nozzle
G92 E0
G21 ; set units to millimeters
G90 ; use absolute coordinates
M83 ; use relative distances for extrusion
; Filament gcode
M107
;LAYER_CHANGE
;Z:0.35
;HEIGHT:0.35
;BEFORE_LAYER_CHANGE
G92 E0
;0.35


G1 E-1 F3600
G1 Z.35 F7800
;AFTER_LAYER_CHANGE
;0.35
G1 X26.172 Y14.959
G1 E1 F2400
;TYPE:Support material interface
;WIDTH:1
G1 F1800
G1 X26.172 Y77.194 E8.37584
G1 X27.065 Y76.871 E.12775
G1 X27.065 Y15.361 E8.27835
G1 X27.958 Y15.361 E.12014
G1 X27.958 Y77.637 E8.38132
G1 X28.85 Y78.709 E.18782
G1 X28.85 Y15.361 E8.52568
G1 X28.932 Y15.361 E.01095
G1 X28.932 Y18.753 E.4566
G1 X29.743 Y18.753 E.10919
G1 X29.743 Y79.782 E8.21344
G1 X30.636 Y80.855 E.18782
G1 X30.636 Y18.753 E8.35781
G1 X31.528 Y18.753 E.12014
G1 X31.528 Y81.92 E8.50118
G1 X32.324 Y82.864 E.16623
G1 X32.324 Y59.466 E3.14907
G1 X32.421 Y59.466 E.01302
G1 X32.421 Y22.146 E5.02262
G1 X33.314 Y22.146 E.12014
G1 X33.314 Y32.324 E1.36981
G1 X34.206 Y32.324 E.12014
G1 X34.206 Y22.146 E1.36981
G1 X35.099 Y22.146 E.12014
G1 X35.099 Y32.324 E1.36981
G1 X35.717 Y32.324 E.08315
G1 X35.717 Y35.717 E.4566
G1 X35.992 Y35.717 E.03699
G1 X35.992 Y25.539 E1.36981
G1 X36.885 Y25.539 E.12014
G1 X36.885 Y35.717 E1.36981
G1 X37.777 Y35.717 E.12014
G1 X37.777 Y25.539 E1.36981
G1 X38.67 Y25.539 E.12014
G1 X38.67 Y35.717 E1.36981
G1 X39.11 Y35.717 E.05918
G1 X39.11 Y39.11 E.4566
G1 X39.563 Y39.11 E.06096
G1 X39.563 Y28.931 E1.36981
G1 X40.455 Y28.931 E.12014
G1 X40.455 Y39.11 E1.36981
G1 X41.348 Y39.11 E.12014
G1 X41.348 Y28.931 E1.36981
G1 X42.241 Y28.931 E.12014
G1 X42.241 Y39.11 E1.36981
G1 X42.502 Y39.11 E.03521
G1 X42.502 Y42.502 E.4566
G1 X43.133 Y42.502 E.08493
G1 X43.133 Y28.931 E1.82641
G1 X44.026 Y28.931 E.12014
G1 X44.026 Y42.502 E1.82641
G1 X44.919 Y42.502 E.12014
G1 X44.919 Y28.931 E1.82641
G1 X45.812 Y28.931 E.12014
G1 X45.812 Y42.502 E1.82641
G1 X45.895 Y42.502 E.01124
G1 X45.895 Y45.895 E.4566
G1 X46.704 Y45.895 E.1089
G1 X46.704 Y32.324 E1.82641
G1 X47.597 Y32.324 E.12014
G1 X47.597 Y45.895 E1.82641
G1 X48.49 Y45.895 E.12014
G1 X48.49 Y32.324 E1.82641
G1 X49.288 Y32.324 E.10742
G1 X49.288 Y39.11 E.9132
G1 X49.382 Y39.11 E.01272
G1 X49.382 Y45.895 E.91321
G1 X50.275 Y45.895 E.12014
G1 X50.275 Y39.11 E.91321
G1 X51.168 Y39.11 E.12014
G1 X51.168 Y45.895 E.91321
G1 X52.06 Y45.895 E.12014
G1 X52.06 Y39.11 E.91321
G1 X52.953 Y39.11 E.12014
G1 X52.953 Y49.288 E1.36981
G1 X53.846 Y49.288 E.12014
G1 X53.846 Y39.11 E1.36981
G1 X54.739 Y39.11 E.12014
G1 X54.739 Y49.288 E1.36981
G1 X55.631 Y49.288 E.12014
G1 X55.631 Y39.11 E1.36981
G1 X56.073 Y39.11 E.05948
G1 X56.073 Y42.502 E.4566
G1 X56.524 Y42.502 E.06066
G1 X56.524 Y52.68 E1.36981
G1 X57.417 Y52.68 E.12014
G1 X57.417 Y42.502 E1.36981
G1 X58.309 Y42.502 E.12014
G1 X58.309 Y52.68 E1.36981
G1 X59.202 Y52.68 E.12014
G1 X59.202 Y42.502 E1.36981
G1 X59.466 Y42.502 E.03551
G1 X59.466 Y45.895 E.4566
G1 X60.095 Y45.895 E.08463
G1 X60.095 Y56.073 E1.36981
G1 X60.987 Y56.073 E.12014
G1 X60.987 Y45.895 E1.36981
G1 X61.88 Y45.895 E.12014
G1 X61.88 Y56.073 E1.36981
G1 X62.773 Y56.073 E.12014
G1 X62.773 Y45.895 E1.36981
G1 X62.859 Y45.895 E.01155
G1 X62.859 Y49.288 E.4566
G1 X63.666 Y49.288 E.1086
G1 X63.666 Y56.073 E.91321
G1 X64.558 Y56.073 E.12014
G1 X64.558 Y49.288 E.91321
G1 X65.451 Y49.288 E.12014
M73 P0 R319
G1 X65.451 Y56.073 E.91321
G1 X66.251 Y56.073 E.10772
G1 X66.251 Y59.466 E.4566
G1 X66.344 Y59.466 E.01243
G1 X66.344 Y49.288 E1.36981
G1 X67.236 Y49.288 E.12014
G1 X67.236 Y59.466 E1.36981
G1 X68.129 Y59.466 E.12014
G1 X68.129 Y49.288 E1.36981
G1 X69.022 Y49.288 E.12014
G1 X69.022 Y59.466 E1.36981
G1 X69.644 Y59.466 E.08375
G1 X69.644 Y62.858 E.4566
G1 X69.914 Y62.858 E.0364
G1 X69.914 Y52.68 E1.36981
G1 X70.807 Y52.68 E.12014
G1 X70.807 Y62.858 E1.36981
G1 X71.7 Y62.858 E.12014
G1 X71.7 Y52.68 E1.36981
G1 X72.592 Y52.68 E.12014
G1 X72.592 Y62.858 E1.36981
G1 X73.037 Y62.858 E.05978
G1 X73.037 Y66.251 E.4566
G1 X73.485 Y66.251 E.06036
G1 X73.485 Y56.073 E1.36981
G1 X74.378 Y56.073 E.12014
G1 X74.378 Y66.251 E1.36981
G1 X75.271 Y66.251 E.12014
G1 X75.271 Y56.073 E1.36981
G1 X76.163 Y56.073 E.12014
G1 X76.163 Y66.251 E1.36981
G1 X76.429 Y66.251 E.03581
G1 X76.429 Y69.644 E.4566
G1 X77.056 Y69.644 E.08433
G1 X77.056 Y59.466 E1.36981
G1 X77.949 Y59.466 E.12014
G1 X77.949 Y69.644 E1.36981
G1 X78.841 Y69.644 E.12014
G1 X78.841 Y59.466 E1.36981
G1 X79.734 Y59.466 E.12014
G1 X79.734 Y69.644 E1.36981
G1 X79.822 Y69.644 E.01184
G1 X79.822 Y76.429 E.9132
G1 X80.627 Y76.429 E.1083
G1 X80.627 Y62.858 E1.82641
G1 X81.519 Y62.858 E.12014
G1 X81.519 Y76.429 E1.82641
G1 X82.412 Y76.429 E.12014
G1 X82.412 Y62.858 E1.82641
G1 X83.215 Y62.858 E.10802
G1 X83.215 Y66.251 E.4566
G1 X83.305 Y66.251 E.01213
G1 X83.305 Y79.822 E1.82641
G1 X84.198 Y79.822 E.12014
G1 X84.198 Y66.251 E1.82641
G1 X85.09 Y66.251 E.12014
G1 X85.09 Y79.822 E1.82641
G1 X85.983 Y79.822 E.12014
G1 X85.983 Y66.251 E1.82641
G1 X86.607 Y66.251 E.08405
G1 X86.607 Y69.644 E.4566
G1 X86.876 Y69.644 E.03609
G1 X86.876 Y83.215 E1.82641
G1 X87.768 Y83.215 E.12014
G1 X87.768 Y69.644 E1.82641
G1 X88.661 Y69.644 E.12014
G1 X88.661 Y83.215 E1.82641
G1 X89.554 Y83.215 E.12014
G1 X89.554 Y69.644 E1.82641
G1 X90 Y69.644 E.06008
G1 X90 Y76.429 E.9132
G1 X90.446 Y76.429 E.06006
G1 X90.446 Y86.607 E1.36981
G1 X91.339 Y86.607 E.12014
G1 X91.339 Y76.429 E1.36981
G1 X92.232 Y76.429 E.12014
G1 X92.232 Y86.607 E1.36981
G1 X93.125 Y86.607 E.12014
G1 X93.125 Y76.429 E1.36981
G1 X93.393 Y76.429 E.03611
G1 X93.393 Y79.822 E.4566
G1 X94.017 Y79.822 E.08403
G1 X94.017 Y90 E1.36981
G1 X94.91 Y90 E.12014
G1 X94.91 Y79.822 E1.36981
G1 X95.803 Y79.822 E.12014
G1 X95.803 Y90 E1.36981
G1 X96.695 Y90 E.12014
G1 X96.695 Y79.822 E1.36981
G1 X96.786 Y79.822 E.01214
G1 X96.786 Y83.215 E.4566
G1 X97.588 Y83.215 E.108
G1 X97.588 Y96.785 E1.82641
G1 X98.481 Y96.785 E.12014
G1 X98.481 Y83.215 E1.82641
G1 X99.373 Y83.215 E.12014
G1 X99.373 Y96.785 E1.82641
G1 X100.178 Y96.785 E.10831
G1 X100.178 Y100.178 E.4566
G1 X100.266 Y100.178 E.01183
G1 X100.266 Y86.607 E1.82641
G1 X101.159 Y86.607 E.12014
G1 X101.159 Y100.178 E1.82641
G1 X102.052 Y100.178 E.12014
G1 X102.052 Y86.607 E1.82641
G1 X102.944 Y86.607 E.12014
G1 X102.944 Y100.178 E1.82641
G1 X103.571 Y100.178 E.08434
G1 X103.571 Y103.571 E.4566
G1 X103.837 Y103.571 E.0358
G1 X103.837 Y90 E1.82641
G1 X104.73 Y90 E.12014
G1 X104.73 Y103.571 E1.82641
G1 X105.622 Y103.571 E.12014
G1 X105.622 Y90 E1.82641
G1 X106.515 Y90 E.12014
G1 X106.515 Y103.571 E1.82641
G1 X106.964 Y103.571 E.06037
G1 X106.964 Y106.964 E.4566
G1 X107.408 Y106.964 E.05977
G1 X107.408 Y96.785 E1.36981
G1 X108.3 Y96.785 E.12014
G1 X108.3 Y106.964 E1.36981
G1 X109.193 Y106.964 E.12014
G1 X109.193 Y96.785 E1.36981
G1 X110.086 Y96.785 E.12014
G1 X110.086 Y106.964 E1.36981
G1 X110.356 Y106.964 E.03641
G1 X110.356 Y113.749 E.9132
G1 X110.979 Y113.749 E.08374
G1 X110.979 Y100.178 E1.82641
G1 X111.871 Y100.178 E.12014
G1 X111.871 Y113.749 E1.82641
G1 X112.764 Y113.749 E.12014
G1 X112.764 Y100.178 E1.82641
G1 X113.657 Y100.178 E.12014
G1 X113.657 Y113.749 E1.82641
G1 X113.749 Y113.749 E.01244
G1 X113.749 Y117.142 E.4566
G1 X114.549 Y117.142 E.10771
G1 X114.549 Y103.571 E1.82641
G1 X115.442 Y103.571 E.12014
G1 X115.442 Y117.142 E1.82641
G1 X116.335 Y117.142 E.12014
G1 X116.335 Y103.571 E1.82641
G1 X117.142 Y103.571 E.10861
G1 X117.142 Y106.964 E.4566
G1 X117.227 Y106.964 E.01153
G1 X117.227 Y120.534 E1.82641
G1 X118.12 Y120.534 E.12014
G1 X118.12 Y106.964 E1.82641
G1 X119.013 Y106.964 E.12014
G1 X119.013 Y120.534 E1.82641
G1 X119.906 Y120.534 E.12014
G1 X119.906 Y106.964 E1.82641
G1 X120.534 Y106.964 E.08465
G1 X120.534 Y113.749 E.9132
G1 X120.798 Y113.749 E.0355
G1 X120.798 Y127.32 E1.82641
G1 X121.691 Y127.32 E.12014
G1 X121.691 Y113.749 E1.82641
G1 X122.584 Y113.749 E.12014
G1 X122.584 Y127.32 E1.82641
G1 X123.476 Y127.32 E.12014
G1 X123.476 Y113.749 E1.82641
G1 X123.927 Y113.749 E.06068
G1 X123.927 Y117.142 E.4566
G1 X124.369 Y117.142 E.05947
G1 X124.369 Y130.712 E1.82641
G1 X125.262 Y130.712 E.12014
G1 X125.262 Y117.142 E1.82641
G1 X126.154 Y117.142 E.12014
G1 X126.154 Y130.712 E1.82641
G1 X127.047 Y130.712 E.12014
G1 X127.047 Y117.142 E1.82641
G1 X127.32 Y117.142 E.03671
G1 X127.32 Y120.534 E.4566
G1 X127.94 Y120.534 E.08344
G1 X127.94 Y134.105 E1.82641
G1 X128.833 Y134.105 E.12014
G1 X128.833 Y120.534 E1.82641
G1 X129.725 Y120.534 E.12014
G1 X129.725 Y134.507 E1.88047
G1 E-.7 F3600
;WIPE_START
G1 F6240
G1 X129.725 Y133.987 E-.285
;WIPE_END
G1 E-.015 F3600
G1 X136.867 Y168.434 F7800
G1 E1 F2400
G1 F1800
G1 X136.867 Y130.712 E5.07668
G1 X135.974 Y130.712 E.12014
G1 X135.974 Y168.032 E5.02262
G1 X135.081 Y168.032 E.12014
G1 X135.081 Y130.712 E5.02262
G1 X134.189 Y130.712 E.12014
G1 X134.189 Y168.032 E5.02262
G1 X133.296 Y168.032 E.12014
G1 X133.296 Y127.32 E5.47922
G1 X132.403 Y127.32 E.12014
G1 X132.403 Y168.032 E5.47922
G1 X131.511 Y168.032 E.12014
G1 X131.511 Y127.32 E5.47922
G1 X130.713 Y127.32 E.1074
G1 X130.713 Y120.534 E.9132
G1 X130.618 Y120.534 E.01274
G1 X130.618 Y168.032 E6.39242
G1 X129.725 Y168.032 E.12014
G1 X129.725 Y161.247 E.91321
G1 X128.833 Y161.247 E.12014
G1 X128.833 Y168.032 E.91321
G1 X127.94 Y168.032 E.12014
G1 X127.94 Y161.247 E.91321
G1 X127.32 Y161.247 E.08343
G1 X127.32 Y157.854 E.4566
G1 X127.047 Y157.854 E.03671
G1 X127.047 Y168.032 E1.36981
G1 X126.154 Y168.032 E.12014
G1 X126.154 Y157.854 E1.36981
G1 X125.262 Y157.854 E.12014
G1 X125.262 Y168.032 E1.36981
G1 X124.369 Y168.032 E.12014
G1 X124.369 Y157.854 E1.36981
G1 X123.927 Y157.854 E.05947
G1 X123.927 Y151.069 E.9132
G1 X123.476 Y151.069 E.06068
G1 X123.476 Y168.032 E2.28301
G1 X122.584 Y168.032 E.12014
G1 X122.584 Y151.069 E2.28301
G1 X121.691 Y151.069 E.12014
G1 X121.691 Y168.032 E2.28301
G1 X120.798 Y168.032 E.12014
G1 X120.798 Y151.069 E2.28301
G1 X120.534 Y151.069 E.0355
G1 X120.534 Y147.676 E.4566
G1 X119.906 Y147.676 E.08465
G1 X119.906 Y168.032 E2.73961
G1 X119.013 Y168.032 E.12014
G1 X119.013 Y147.676 E2.73961
G1 X118.12 Y147.676 E.12014
G1 X118.12 Y168.032 E2.73961
G1 X117.227 Y168.032 E.12014
M73 P0 R318
G1 X117.227 Y147.676 E2.73961
G1 X117.142 Y147.676 E.01153
G1 X117.142 Y144.283 E.4566
G1 X116.335 Y144.283 E.10861
G1 X116.335 Y157.854 E1.82641
G1 X115.442 Y157.854 E.12014
G1 X115.442 Y144.283 E1.82641
G1 X114.549 Y144.283 E.12014
G1 X114.549 Y157.854 E1.82641
G1 X113.749 Y157.854 E.10771
G1 X113.749 Y151.069 E.9132
G1 X113.657 Y151.069 E.01244
G1 X113.657 Y140.89 E1.36981
G1 X112.764 Y140.89 E.12014
G1 X112.764 Y151.069 E1.36981
G1 X111.871 Y151.069 E.12014
G1 X111.871 Y140.89 E1.36981
G1 X110.979 Y140.89 E.12014
G1 X110.979 Y151.069 E1.36981
G1 X110.356 Y151.069 E.08374
G1 X110.356 Y147.676 E.4566
G1 X110.086 Y147.676 E.03641
G1 X110.086 Y134.105 E1.82641
G1 X109.193 Y134.105 E.12014
G1 X109.193 Y147.676 E1.82641
G1 X108.3 Y147.676 E.12014
G1 X108.3 Y134.105 E1.82641
G1 X107.408 Y134.105 E.12014
G1 X107.408 Y147.676 E1.82641
G1 X106.964 Y147.676 E.05977
G1 X106.964 Y144.283 E.4566
G1 X106.515 Y144.283 E.06037
G1 X106.515 Y130.712 E1.82641
G1 X105.622 Y130.712 E.12014
G1 X105.622 Y144.283 E1.82641
G1 X104.73 Y144.283 E.12014
G1 X104.73 Y130.712 E1.82641
G1 X103.837 Y130.712 E.12014
G1 X103.837 Y144.283 E1.82641
G1 X103.571 Y144.283 E.0358
G1 X103.571 Y140.891 E.4566
G1 X102.944 Y140.891 E.08434
G1 X102.944 Y127.32 E1.82641
G1 X102.052 Y127.32 E.12014
G1 X102.052 Y140.891 E1.82641
G1 X101.159 Y140.891 E.12014
G1 X101.159 Y127.32 E1.82641
G1 X100.266 Y127.32 E.12014
G1 X100.266 Y140.891 E1.82641
G1 X100.178 Y140.891 E.01183
G1 X100.178 Y134.105 E.9132
G1 X99.373 Y134.105 E.10831
G1 X99.373 Y123.927 E1.36981
G1 X98.481 Y123.927 E.12014
G1 X98.481 Y134.105 E1.36981
G1 X97.588 Y134.105 E.12014
G1 X97.588 Y123.927 E1.36981
G1 X96.786 Y123.927 E.108
G1 X96.786 Y120.534 E.4566
G1 X96.695 Y120.534 E.01214
G1 X96.695 Y130.712 E1.36981
G1 X95.803 Y130.712 E.12014
G1 X95.803 Y120.534 E1.36981
G1 X94.91 Y120.534 E.12014
G1 X94.91 Y130.712 E1.36981
G1 X94.017 Y130.712 E.12014
G1 X94.017 Y120.534 E1.36981
G1 X93.393 Y120.534 E.08403
G1 X93.393 Y113.749 E.9132
G1 X93.125 Y113.749 E.03611
G1 X93.125 Y127.32 E1.82641
G1 X92.232 Y127.32 E.12014
G1 X92.232 Y113.749 E1.82641
G1 X91.339 Y113.749 E.12014
G1 X91.339 Y127.32 E1.82641
G1 X90.446 Y127.32 E.12014
G1 X90.446 Y113.749 E1.82641
G1 X90 Y113.749 E.06006
G1 X90 Y110.356 E.4566
G1 X89.554 Y110.356 E.06008
G1 X89.554 Y123.927 E1.82641
G1 X88.661 Y123.927 E.12014
G1 X88.661 Y110.356 E1.82641
G1 X87.768 Y110.356 E.12014
G1 X87.768 Y123.927 E1.82641
G1 X86.876 Y123.927 E.12014
G1 X86.876 Y110.356 E1.82641
G1 X86.607 Y110.356 E.03609
G1 X86.607 Y106.964 E.4566
G1 X85.983 Y106.964 E.08405
G1 X85.983 Y120.534 E1.82641
G1 X85.09 Y120.534 E.12014
G1 X85.09 Y106.964 E1.82641
G1 X84.198 Y106.964 E.12014
G1 X84.198 Y120.534 E1.82641
G1 X83.305 Y120.534 E.12014
G1 X83.305 Y106.964 E1.82641
G1 X83.215 Y106.964 E.01212
G1 X83.215 Y103.571 E.4566
G1 X82.412 Y103.571 E.10802
G1 X82.412 Y113.749 E1.36981
G1 X81.519 Y113.749 E.12014
G1 X81.519 Y103.571 E1.36981
G1 X80.627 Y103.571 E.12014
G1 X80.627 Y113.749 E1.36981
G1 X79.822 Y113.749 E.1083
G1 X79.822 Y110.356 E.4566
G1 X79.734 Y110.356 E.01184
G1 X79.734 Y96.785 E1.82641
G1 X78.841 Y96.785 E.12014
G1 X78.841 Y110.356 E1.82641
G1 X77.949 Y110.356 E.12014
G1 X77.949 Y96.785 E1.82641
G1 X77.056 Y96.785 E.12014
G1 X77.056 Y110.356 E1.82641
G1 X76.429 Y110.356 E.08433
G1 X76.429 Y106.964 E.4566
G1 X76.163 Y106.964 E.03581
G1 X76.163 Y93.393 E1.82641
G1 X75.271 Y93.393 E.12014
G1 X75.271 Y106.964 E1.82641
G1 X74.378 Y106.964 E.12014
G1 X74.378 Y93.393 E1.82641
G1 X73.485 Y93.393 E.12014
G1 X73.485 Y106.964 E1.82641
G1 X73.037 Y106.964 E.06036
G1 X73.037 Y103.571 E.4566
G1 X72.592 Y103.571 E.05978
G1 X72.592 Y86.607 E2.28301
G1 X71.7 Y86.607 E.12014
G1 X71.7 Y103.571 E2.28301
G1 X70.807 Y103.571 E.12014
G1 X70.807 Y86.607 E2.28301
G1 X69.914 Y86.607 E.12014
G1 X69.914 Y103.571 E2.28301
G1 X69.644 Y103.571 E.0364
G1 X69.644 Y96.785 E.9132
G1 X69.022 Y96.785 E.08375
G1 X69.022 Y83.215 E1.82641
G1 X68.129 Y83.215 E.12014
G1 X68.129 Y96.785 E1.82641
G1 X67.236 Y96.785 E.12014
G1 X67.236 Y83.215 E1.82641
G1 X66.344 Y83.215 E.12014
G1 X66.344 Y96.785 E1.82641
G1 X66.251 Y96.785 E.01243
G1 X66.251 Y93.393 E.4566
G1 X65.451 Y93.393 E.10772
G1 X65.451 Y79.822 E1.82641
G1 X64.558 Y79.822 E.12014
G1 X64.558 Y93.393 E1.82641
G1 X63.666 Y93.393 E.12014
G1 X63.666 Y79.822 E1.82641
G1 X62.859 Y79.822 E.1086
G1 X62.859 Y73.037 E.9132
G1 X62.773 Y73.037 E.01155
G1 X62.773 Y86.607 E1.82641
G1 X61.88 Y86.607 E.12014
G1 X61.88 Y73.037 E1.82641
G1 X60.987 Y73.037 E.12014
G1 X60.987 Y86.607 E1.82641
G1 X60.095 Y86.607 E.12014
G1 X60.095 Y73.037 E1.82641
G1 X59.466 Y73.037 E.08463
G1 X59.466 Y69.644 E.4566
G1 X59.202 Y69.644 E.03551
G1 X59.202 Y83.215 E1.82641
G1 X58.309 Y83.215 E.12014
G1 X58.309 Y69.644 E1.82641
G1 X57.417 Y69.644 E.12014
G1 X57.417 Y83.215 E1.82641
G1 X56.524 Y83.215 E.12014
G1 X56.524 Y69.644 E1.82641
G1 X56.073 Y69.644 E.06066
G1 X56.073 Y66.251 E.4566
G1 X55.631 Y66.251 E.05948
G1 X55.631 Y79.822 E1.82641
G1 X54.739 Y79.822 E.12014
G1 X54.739 Y66.251 E1.82641
G1 X53.846 Y66.251 E.12014
G1 X53.846 Y79.822 E1.82641
G1 X52.953 Y79.822 E.12014
