; generated by PrusaSlicer 2.5.0+win64 on 2022-12-07 at 00:26:06 UTC

; 

; external perimeters extrusion width = 1.00mm
; perimeters extrusion width = 1.00mm
; infill extrusion width = 1.00mm
; solid infill extrusion width = 1.00mm
; top infill extrusion width = 1.00mm
; support material extrusion width = 1.00mm
; first layer extrusion width = 0.42mm

M73 P0 R354
M107
;TYPE:Custom
G90 ; use absolute coordinates
M83 ; extruder relative mode
M140 S60 ; set final bed temp
M104 S150 ; set temporary nozzle temp to prevent oozing during homing and auto bed leveling
G4 S10 ; allow partial nozzle warmup
G28 ; home all axisG1 Z50 F240
G1 X7.6 Y10 F3000
M104 S210 ; set final nozzle temp
M190 S60 ; wait for bed temp to stabilize
M109 S210 ; wait for nozzle temp to stabilize
G1 Z0.28 F240
G92 E0
G1 Y140 E10 F1500 ; prime the nozzle
G1 X4 F5000
G92 E0
G1 Y10 E10 F1200 ; prime the nozzle
G92 E0
G21 ; set units to millimeters
G90 ; use absolute coordinates
M83 ; use relative distances for extrusion
; Filament gcode
M107
;LAYER_CHANGE
;Z:0.35
;HEIGHT:0.35
;BEFORE_LAYER_CHANGE
G92 E0
;0.35


G1 E-1 F3600
G1 Z.35 F7800
;AFTER_LAYER_CHANGE
;0.35
G1 X112.377 Y79.415
G1 E1 F2400
;TYPE:Perimeter
;WIDTH:0.42
G1 F1800
G1 X112.227 Y79.506 E.00883
G1 X112.09 Y79.739 E.01354
G1 X105.168 Y105.164 E1.32241
G1 X90.196 Y108.451 E.76928
G1 X89.311 Y108.555 E.04475
G1 X70.849 Y87.278 E1.41374
G1 X57.1 Y75.381 E.91245
G1 X55.986 Y74.335 E.07671
G1 X15.043 Y38.802 E2.72065
G1 X15.043 Y26.612 E.61174
G1 X26.405 Y26.611 E.57021
G1 X60.28 Y55.974 E2.24985
G1 X76.009 Y70.766 E1.08361
G1 X93.7 Y91.161 E1.35493
G1 X93.815 Y91.259 E.0076
G1 X94.039 Y91.336 E.01186
G1 X94.274 Y91.306 E.0119
G1 X94.482 Y91.161 E.01272
G1 X94.59 Y90.958 E.01156
G1 X101.998 Y63.694 E1.41786
G1 X104.488 Y59.937 E.22621
G1 X107.737 Y61.482 E.18057
G1 X133.176 Y71.32 E1.36882
G1 X136.191 Y83.478 E.62863
G1 X136.25 Y83.619 E.00771
G1 X156.53 Y153.366 E3.64522
G1 X15.043 Y153.058 E7.10063
G1 X15.043 Y139.011 E.70498
G1 X77.161 Y138.848 E3.11747
G1 X77.312 Y139.195 E.01898
G1 X77.425 Y139.276 E.00701
G1 X77.666 Y139.336 E.01245
G1 X137.329 Y139.437 E2.99426
G1 X137.596 Y139.364 E.0139
G1 X137.77 Y139.193 E.01221
G1 X137.846 Y138.951 E.01275
G1 X137.651 Y138.029 E.04731
G1 X126.854 Y101.116 E1.93013
G1 X123.431 Y89.139 E.62513
G1 X121.861 Y83.174 E.30952
G1 X121.766 Y82.984 E.01066
G1 X121.55 Y82.824 E.01352
G1 X112.778 Y79.393 E.47269
G1 X112.69 Y79.367 E.0046
G1 X112.518 Y79.377 E.00864
G1 X112.522 Y79.716 F7800
;TYPE:External perimeter
G1 F1800
G1 X112.423 Y79.83 E.00757
G1 X105.446 Y105.456 E1.33289
G1 X90.254 Y108.791 E.78061
G1 X89.17 Y108.919 E.05476
G1 X70.623 Y87.539 E1.42044
G1 X56.869 Y75.637 E.9128
G1 X55.76 Y74.596 E.07639
G1 X14.698 Y38.959 E2.72855
G1 X14.698 Y26.268 E.63694
M73 P0 R353
G1 X26.534 Y26.266 E.59397
G1 X60.511 Y55.718 E2.25666
G1 X76.258 Y70.527 E1.08484
G1 X93.961 Y90.935 E1.35581
G1 X94.014 Y90.976 E.00335
G1 X94.157 Y90.981 E.00719
G1 X94.258 Y90.867 E.00765
G1 X101.68 Y63.55 E1.42065
G1 X104.366 Y59.497 E.24403
G1 X107.862 Y61.161 E.19429
G1 X133.468 Y71.063 E1.37781
G1 X136.526 Y83.395 E.63763
G1 X136.569 Y83.48 E.00481
G1 X156.989 Y153.711 E3.67058
G1 X14.698 Y153.402 E7.14101
G1 X14.698 Y138.667 E.73951
G1 X76.44 Y138.505 E3.09856
;WIDTH:0.465919
G1 X76.549 Y138.503 E.0062
;WIDTH:0.511838
G1 X76.658 Y138.502 E.00693
;WIDTH:0.557757
G1 X76.767 Y138.501 E.00765
;WIDTH:0.603676
G1 X76.876 Y138.499 E.00838
;WIDTH:0.649596
G1 X76.985 Y138.498 E.00911
;WIDTH:0.695515
G1 X77.094 Y138.496 E.00984
;WIDTH:0.741434
G1 X77.202 Y138.495 E.01057
;WIDTH:0.787353
G1 X77.311 Y138.493 E.01129
;WIDTH:0.833272
G1 X77.42 Y138.492 E.01202
;WIDTH:0.879191
G1 X77.529 Y138.491 E.01275
;WIDTH:0.925111
G1 X77.638 Y138.489 E.01348
G1 X77.604 Y138.529 E.00645
;WIDTH:0.883399
G1 X77.57 Y138.568 E.00613
;WIDTH:0.841687
G1 X77.536 Y138.608 E.00581
;WIDTH:0.799975
G1 X77.502 Y138.647 E.0055
;WIDTH:0.758264
G1 X77.502 Y138.705 E.00571
;WIDTH:0.717244
G1 X77.501 Y138.762 E.00536
;WIDTH:0.676224
G1 X77.5 Y138.819 E.00502
;WIDTH:0.635205
G1 X77.51 Y138.844 E.00218
;WIDTH:0.592164
G1 X77.519 Y138.869 E.00201
;WIDTH:0.549123
G1 X77.529 Y138.894 E.00185
;WIDTH:0.506082
G1 X77.539 Y138.919 E.00168
;WIDTH:0.463041
G1 X77.549 Y138.944 E.00151
;WIDTH:0.42
G1 X77.667 Y138.991 E.00638
G1 X137.349 Y139.091 E2.99521
G1 X137.386 Y139.083 E.00189
G1 X137.491 Y138.982 E.00734
G1 X137.457 Y138.73 E.01272
G1 X137.32 Y138.125 E.03117
G1 X126.523 Y101.212 E1.93015
G1 X123.099 Y89.23 E.62537
G1 X121.528 Y83.262 E.3097
G1 X121.424 Y83.146 E.00784
G1 X112.671 Y79.722 E.47168
G1 X112.398 Y79.63 F7800
G1 E-.7 F3600
;WIPE_START
G1 F6240
G1 X112.423 Y79.83 E-.14819
G1 X112.358 Y80.07 E-.13681
;WIPE_END
G1 E-.015 F3600
G1 X87.857 Y138.428 F7800
G1 E1 F2400
;WIDTH:0.925111
G1 F1800
G1 X77.638 Y138.489 E1.26395
G1 E-.7 F3600
;WIPE_START
G1 F6240
G1 X77.665 Y138.488 E-.01458
G1 X78.158 Y138.485 E-.27042
;WIPE_END
G1 E-.015 F3600
G1 X131.94 Y70.952 F7800
G1 E1 F2400
;TYPE:Solid infill
;WIDTH:0.420128
G1 F1800
G1 X133.109 Y72.121 E.08296
G1 X133.27 Y72.77 E.03356
G1 X131.416 Y70.916 E.1316
G1 X130.62 Y70.608 E.04282
G1 X133.43 Y73.419 E.19951
G1 X133.591 Y74.067 E.03356
G1 X129.825 Y70.301 E.26742
G1 X129.029 Y69.993 E.04282
G1 X133.752 Y74.716 E.33533
G1 X133.913 Y75.365 E.03356
G1 X128.234 Y69.685 E.40324
G1 X127.438 Y69.378 E.04282
G1 X134.074 Y76.014 E.47115
G1 X134.235 Y76.663 E.03356
G1 X126.643 Y69.07 E.53906
G1 X125.847 Y68.763 E.04282
G1 X134.396 Y77.311 E.60697
G1 X134.557 Y77.96 E.03356
G1 X125.051 Y68.455 E.67488
G1 X124.256 Y68.147 E.04282
G1 X134.718 Y78.609 E.74279
G1 X134.878 Y79.258 E.03356
G1 X123.46 Y67.84 E.81069
G1 X122.665 Y67.532 E.04282
G1 X135.039 Y79.907 E.8786
G1 X135.2 Y80.555 E.03356
G1 X121.869 Y67.224 E.94651
G1 X121.073 Y66.917 E.04282
G1 X135.361 Y81.204 E1.01442
G1 X135.522 Y81.853 E.03356
G1 X120.278 Y66.609 E1.08233
G1 X119.482 Y66.301 E.04282
G1 X135.683 Y82.502 E1.15024
G1 X135.844 Y83.151 E.03356
G1 X118.687 Y65.994 E1.21815
G1 X117.891 Y65.686 E.04282
G1 X136.045 Y83.84 E1.28891
G1 X136.245 Y84.528 E.03597
G1 X117.096 Y65.378 E1.3596
G1 X116.3 Y65.071 E.04282
G1 X136.445 Y85.216 E1.43029
G1 X136.645 Y85.904 E.03597
G1 X115.504 Y64.763 E1.50097
G1 X114.709 Y64.455 E.04282
G1 X136.845 Y86.592 E1.57166
G1 X137.045 Y87.28 E.03597
G1 X113.913 Y64.148 E1.64235
G1 X113.118 Y63.84 E.04282
G1 X137.245 Y87.967 E1.71304
G1 X137.445 Y88.655 E.03597
G1 X112.322 Y63.532 E1.78373
G1 X111.527 Y63.225 E.04282
G1 X137.645 Y89.343 E1.85442
G1 X137.845 Y90.031 E.03597
G1 X110.731 Y62.917 E1.9251
G1 X109.935 Y62.61 E.04282
G1 X138.045 Y90.719 E1.99579
G1 X138.245 Y91.407 E.03597
G1 X109.14 Y62.302 E2.06648
G1 X108.344 Y61.994 E.04282
G1 X138.445 Y92.095 E2.13717
G1 X138.645 Y92.783 E.03597
G1 X107.533 Y61.671 E2.20897
G1 X106.603 Y61.229 E.05171
G1 X138.845 Y93.471 E2.28921
G1 X139.045 Y94.159 E.03597
G1 X105.673 Y60.786 E2.36946
G1 X104.742 Y60.344 E.05171
G1 X139.245 Y94.847 E2.4497
G1 X139.445 Y95.535 E.03597
G1 X104.419 Y60.509 E2.48685
G1 X104.225 Y60.802 E.01767
G1 X139.645 Y96.223 E2.51486
G1 X139.845 Y96.911 E.03597
G1 X104.03 Y61.096 E2.54287
G1 X103.836 Y61.389 E.01767
G1 X140.045 Y97.599 E2.57088
G1 X140.245 Y98.287 E.03597
M73 P0 R352
G1 X103.641 Y61.683 E2.59889
G1 X103.447 Y61.976 E.01767
G1 X140.446 Y98.975 E2.6269
G1 X140.646 Y99.663 E.03597
G1 X103.252 Y62.27 E2.65492
G1 X103.058 Y62.563 E.01767
G1 X140.846 Y100.351 E2.68293
G1 X141.046 Y101.039 E.03597
G1 X102.863 Y62.856 E2.71094
G1 X102.669 Y63.15 E.01767
G1 X141.246 Y101.727 E2.73895
G1 X141.446 Y102.415 E.03597
G1 X102.474 Y63.443 E2.76696
G1 X102.28 Y63.737 E.01767
G1 X120.794 Y82.251 E1.31452
G1 X119.993 Y81.938 E.0432
G1 X102.155 Y64.1 E1.26645
G1 X102.051 Y64.484 E.01996
G1 X119.191 Y81.624 E1.21695
G1 X118.39 Y81.311 E.0432
G1 X101.947 Y64.868 E1.16745
G1 X101.843 Y65.251 E.01996
G1 X117.589 Y80.997 E1.11795
G1 X116.787 Y80.684 E.0432
G1 X101.739 Y65.635 E1.06845
G1 X101.634 Y66.019 E.01996
G1 X115.986 Y80.37 E1.01895
G1 X115.184 Y80.057 E.0432
G1 X101.53 Y66.402 E.96944
G1 X101.426 Y66.786 E.01996
G1 X114.383 Y79.743 E.91994
G1 X113.581 Y79.43 E.0432
G1 X101.322 Y67.17 E.87044
G1 X101.217 Y67.553 E.01996
G1 X112.793 Y79.13 E.82191
G1 X112.719 Y79.109 E.00387
G1 X112.493 Y79.104 E.01135
G1 X112.325 Y79.149 E.00874
G1 X101.113 Y67.937 E.79605
G1 X101.009 Y68.321 E.01996
G1 X112.033 Y79.345 E.78273
G1 X111.943 Y79.445 E.00676
G1 X111.849 Y79.649 E.01129
G1 X100.905 Y68.704 E.77709
G1 X100.8 Y69.088 E.01996
G1 X111.743 Y80.031 E.77692
G1 X111.639 Y80.414 E.01995
G1 X100.696 Y69.472 E.77691
G1 X100.592 Y69.856 E.01996
G1 X111.534 Y80.798 E.7769
G1 X111.43 Y81.181 E.01995
G1 X100.488 Y70.239 E.77689
G1 X100.383 Y70.623 E.01996
G1 X111.325 Y81.565 E.77688
G1 X111.221 Y81.948 E.01995
G1 X100.279 Y71.007 E.77686
G1 X100.175 Y71.39 E.01996
G1 X111.116 Y82.332 E.77685
G1 X111.012 Y82.715 E.01995
G1 X100.071 Y71.774 E.77684
G1 X99.966 Y72.158 E.01996
G1 X110.908 Y83.099 E.77683
G1 X110.803 Y83.482 E.01995
G1 X99.862 Y72.541 E.77682
G1 X99.758 Y72.925 E.01996
G1 X110.699 Y83.866 E.7768
G1 X110.594 Y84.249 E.01995
G1 X99.654 Y73.309 E.77679
G1 X99.549 Y73.692 E.01996
G1 X110.49 Y84.633 E.77678
G1 X110.386 Y85.016 E.01995
G1 X99.445 Y74.076 E.77677
G1 X99.341 Y74.46 E.01996
G1 X110.281 Y85.4 E.77676
G1 X110.177 Y85.783 E.01995
G1 X99.237 Y74.843 E.77674
G1 X99.132 Y75.227 E.01996
G1 X110.072 Y86.167 E.77673
G1 X109.968 Y86.55 E.01995
G1 X99.028 Y75.611 E.77672
G1 X98.924 Y75.994 E.01996
G1 X109.863 Y86.934 E.77671
G1 X109.759 Y87.318 E.01995
G1 X98.82 Y76.378 E.77669
G1 X98.715 Y76.762 E.01996
G1 X109.655 Y87.701 E.77668
G1 X109.55 Y88.085 E.01995
G1 X98.611 Y77.145 E.77667
G1 X98.507 Y77.529 E.01996
G1 X109.446 Y88.468 E.77666
G1 X109.341 Y88.852 E.01995
G1 X98.403 Y77.913 E.77665
G1 X98.298 Y78.297 E.01996
G1 X109.237 Y89.235 E.77663
G1 X109.133 Y89.619 E.01995
G1 X98.194 Y78.68 E.77662
G1 X98.09 Y79.064 E.01996
G1 X109.028 Y90.002 E.77661
G1 X108.924 Y90.386 E.01995
G1 X97.986 Y79.448 E.7766
G1 X97.881 Y79.831 E.01996
G1 X108.819 Y90.769 E.77659
G1 X108.715 Y91.153 E.01995
G1 X97.777 Y80.215 E.77657
G1 X97.673 Y80.599 E.01996
G1 X108.61 Y91.536 E.77656
G1 X108.506 Y91.92 E.01995
G1 X97.569 Y80.982 E.77655
G1 X97.464 Y81.366 E.01996
G1 X108.402 Y92.303 E.77654
G1 X108.297 Y92.687 E.01995
G1 X97.36 Y81.75 E.77653
G1 X97.256 Y82.133 E.01996
G1 X108.193 Y93.07 E.77651
G1 X108.088 Y93.454 E.01995
G1 X97.152 Y82.517 E.7765
G1 X97.047 Y82.901 E.01996
G1 X107.984 Y93.837 E.77649
G1 X107.88 Y94.221 E.01995
G1 X96.943 Y83.284 E.77648
G1 X96.839 Y83.668 E.01996
G1 X107.775 Y94.604 E.77647
G1 X107.671 Y94.988 E.01995
G1 X96.735 Y84.052 E.77645
G1 X96.631 Y84.435 E.01996
G1 X107.566 Y95.371 E.77644
G1 X107.462 Y95.755 E.01995
G1 X96.526 Y84.819 E.77643
G1 X96.422 Y85.203 E.01996
G1 X107.357 Y96.138 E.77642
G1 X107.253 Y96.522 E.01995
G1 X96.318 Y85.587 E.77641
G1 X96.214 Y85.97 E.01996
G1 X107.149 Y96.905 E.77639
G1 X107.044 Y97.289 E.01995
G1 X96.109 Y86.354 E.77638
G1 X96.005 Y86.738 E.01996
G1 X106.94 Y97.672 E.77637
G1 X106.835 Y98.056 E.01995
G1 X95.901 Y87.121 E.77636
G1 X95.797 Y87.505 E.01996
G1 X106.731 Y98.439 E.77634
G1 X106.627 Y98.823 E.01995
G1 X95.692 Y87.889 E.77633
G1 X95.588 Y88.272 E.01996
G1 X106.522 Y99.206 E.77632
G1 X106.418 Y99.59 E.01995
G1 X95.484 Y88.656 E.77631
G1 X95.38 Y89.04 E.01996
G1 X106.313 Y99.973 E.7763
G1 X106.209 Y100.357 E.01995
G1 X95.275 Y89.423 E.77628
G1 X95.171 Y89.807 E.01996
G1 X106.105 Y100.74 E.77627
G1 X106 Y101.124 E.01995
G1 X95.067 Y90.191 E.77626
G1 X94.963 Y90.574 E.01996
G1 X105.896 Y101.507 E.77625
G1 X105.791 Y101.891 E.01995
G1 X94.858 Y90.958 E.77624
G1 X94.775 Y91.189 E.01232
G1 X94.704 Y91.292 E.00628
G1 X105.687 Y102.275 E.77975
G1 X105.582 Y102.658 E.01995
G1 X94.32 Y91.396 E.79962
G1 E-.7 F3600
;WIPE_START
G1 F6240
G1 X94.688 Y91.763 E-.285
;WIPE_END
G1 E-.015 F3600
G1 X122.058 Y83.515 F7800
G1 E1 F2400
G1 F1800
G1 X141.646 Y103.103 E1.39072
G1 X141.846 Y103.791 E.03597
M73 P0 R351
G1 X122.45 Y84.395 E1.37708
G1 X122.625 Y85.057 E.03438
G1 X142.046 Y104.478 E1.37891
G1 X142.246 Y105.166 E.03597
G1 X122.799 Y85.719 E1.38073
G1 X122.973 Y86.382 E.03438
G1 X142.446 Y105.854 E1.38255
G1 X142.646 Y106.542 E.03597
G1 X123.148 Y87.044 E1.38438
G1 X123.322 Y87.706 E.03438
G1 X142.846 Y107.23 E1.3862
G1 X143.046 Y107.918 E.03597
G1 X123.496 Y88.369 E1.38802
G1 X123.671 Y89.031 E.03438
G1 X143.246 Y108.606 E1.38985
G1 X143.446 Y109.294 E.03597
G1 X123.865 Y89.713 E1.39028
G1 X124.06 Y90.396 E.03567
G1 X143.646 Y109.982 E1.39062
G1 X143.846 Y110.67 E.03597
G1 X124.255 Y91.079 E1.39097
G1 X124.45 Y91.762 E.03567
G1 X144.046 Y111.358 E1.39131
G1 X144.246 Y112.046 E.03597
G1 X124.645 Y92.445 E1.39165
G1 X124.841 Y93.128 E.03567
G1 X144.446 Y112.734 E1.392
G1 X144.646 Y113.422 E.03597
G1 X125.036 Y93.811 E1.39234
G1 X125.231 Y94.495 E.03567
G1 X144.846 Y114.11 E1.39268
G1 X145.046 Y114.798 E.03597
G1 X125.426 Y95.178 E1.39303
G1 X125.621 Y95.861 E.03567
G1 X145.246 Y115.486 E1.39337
G1 X145.446 Y116.174 E.03597
G1 X125.816 Y96.544 E1.39371
G1 X126.012 Y97.227 E.03567
G1 X145.646 Y116.862 E1.39405
G1 X145.846 Y117.55 E.03597
G1 X126.207 Y97.91 E1.3944
G1 X126.402 Y98.593 E.03567
G1 X146.046 Y118.238 E1.39474
G1 X146.246 Y118.926 E.03597
G1 X126.597 Y99.276 E1.39508
G1 X126.792 Y99.96 E.03567
G1 X146.446 Y119.614 E1.39543
G1 X146.646 Y120.302 E.03597
G1 X126.988 Y100.643 E1.39577
G1 X127.186 Y101.329 E.03584
G1 X146.846 Y120.989 E1.39592
G1 X147.047 Y121.677 E.03597
G1 X127.387 Y102.018 E1.3958
G1 X127.589 Y102.708 E.03607
G1 X147.247 Y122.365 E1.39568
G1 X147.447 Y123.053 E.03597
G1 X127.791 Y103.398 E1.39556
G1 X127.992 Y104.087 E.03607
G1 X147.647 Y123.741 E1.39544
G1 X147.847 Y124.429 E.03597
G1 X128.194 Y104.777 E1.39532
G1 X128.396 Y105.466 E.03607
G1 X148.047 Y125.117 E1.3952
G1 X148.247 Y125.805 E.03597
G1 X128.598 Y106.156 E1.39508
G1 X128.799 Y106.846 E.03607
G1 X148.447 Y126.493 E1.39496
G1 X148.647 Y127.181 E.03597
G1 X129.001 Y107.535 E1.39484
G1 X129.203 Y108.225 E.03607
G1 X148.847 Y127.869 E1.39472
G1 X149.047 Y128.557 E.03597
G1 X129.405 Y108.915 E1.3946
G1 X129.606 Y109.604 E.03607
G1 X149.247 Y129.245 E1.39448
G1 X149.447 Y129.933 E.03597
G1 X129.808 Y110.294 E1.39435
G1 X130.01 Y110.984 E.03607
G1 X149.647 Y130.621 E1.39423
G1 X149.847 Y131.309 E.03597
G1 X130.212 Y111.673 E1.39411
G1 X130.413 Y112.363 E.03607
G1 X150.047 Y131.997 E1.39399
G1 X150.247 Y132.685 E.03597
G1 X130.615 Y113.053 E1.39387
G1 X130.817 Y113.742 E.03607
G1 X150.447 Y133.373 E1.39375
G1 X150.647 Y134.061 E.03597
G1 X131.018 Y114.432 E1.39363
G1 X131.22 Y115.122 E.03607
G1 X150.847 Y134.749 E1.39351
G1 X151.047 Y135.437 E.03597
G1 X131.422 Y115.811 E1.39339
G1 X131.624 Y116.501 E.03607
G1 X151.247 Y136.125 E1.39327
G1 X151.447 Y136.813 E.03597
G1 X131.825 Y117.191 E1.39315
G1 X132.027 Y117.88 E.03607
G1 X151.647 Y137.5 E1.39303
G1 X151.847 Y138.188 E.03597
M73 P1 R351
G1 X132.229 Y118.57 E1.39291
G1 X132.431 Y119.26 E.03607
G1 X152.047 Y138.876 E1.39279
G1 X152.247 Y139.564 E.03597
G1 X132.632 Y119.949 E1.39267
G1 X132.834 Y120.639 E.03607
G1 X152.447 Y140.252 E1.39255
G1 X152.647 Y140.94 E.03597
G1 X133.036 Y121.329 E1.39243
G1 X133.237 Y122.018 E.03607
G1 X152.847 Y141.628 E1.3923
G1 X153.047 Y142.316 E.03597
G1 X133.439 Y122.708 E1.39218
G1 X133.641 Y123.398 E.03607
G1 X153.247 Y143.004 E1.39206
G1 X153.447 Y143.692 E.03597
G1 X133.843 Y124.087 E1.39194
G1 X134.044 Y124.777 E.03607
G1 X153.648 Y144.38 E1.39182
G1 X153.848 Y145.068 E.03597
G1 X134.246 Y125.467 E1.3917
G1 X134.448 Y126.156 E.03607
M73 P1 R350
G1 X154.048 Y145.756 E1.39158
G1 X154.248 Y146.444 E.03597
G1 X134.65 Y126.846 E1.39146
G1 X134.851 Y127.536 E.03607
G1 X154.448 Y147.132 E1.39134
G1 X154.648 Y147.82 E.03597
G1 X135.053 Y128.225 E1.39122
G1 X135.255 Y128.915 E.03607
G1 X154.848 Y148.508 E1.3911
G1 X155.048 Y149.196 E.03597
G1 X135.456 Y129.604 E1.39098
G1 X135.658 Y130.294 E.03607
G1 X155.248 Y149.884 E1.39086
G1 X155.448 Y150.572 E.03597
G1 X135.86 Y130.984 E1.39074
G1 X136.062 Y131.673 E.03607
