; generated by PrusaSlicer 2.5.0+win64 on 2022-12-07 at 00:26:14 UTC

; 

; external perimeters extrusion width = 1.00mm
; perimeters extrusion width = 1.00mm
; infill extrusion width = 1.00mm
; solid infill extrusion width = 1.00mm
; top infill extrusion width = 1.00mm
; support material extrusion width = 1.00mm
; first layer extrusion width = 0.42mm

M73 P0 R285
M107
;TYPE:Custom
G90 ; use absolute coordinates
M83 ; extruder relative mode
M140 S60 ; set final bed temp
M104 S150 ; set temporary nozzle temp to prevent oozing during homing and auto bed leveling
G4 S10 ; allow partial nozzle warmup
G28 ; home all axisG1 Z50 F240
G1 X7.6 Y10 F3000
M104 S210 ; set final nozzle temp
M190 S60 ; wait for bed temp to stabilize
M109 S210 ; wait for nozzle temp to stabilize
G1 Z0.28 F240
G92 E0
G1 Y140 E10 F1500 ; prime the nozzle
G1 X4 F5000
G92 E0
G1 Y10 E10 F1200 ; prime the nozzle
G92 E0
G21 ; set units to millimeters
G90 ; use absolute coordinates
M83 ; use relative distances for extrusion
; Filament gcode
M107
;LAYER_CHANGE
;Z:0.35
;HEIGHT:0.35
;BEFORE_LAYER_CHANGE
G92 E0
;0.35


G1 E-1 F3600
G1 Z.35 F7800
;AFTER_LAYER_CHANGE
;0.35
G1 X146.682 Y118.216
G1 E1 F2400
;TYPE:Perimeter
;WIDTH:0.42
G1 F1800
G1 X146.964 Y118.099 E.01528
G1 X147.12 Y117.869 E.01395
G1 X147.139 Y117.61 E.01304
G1 X142.592 Y92.79 E1.26634
G1 X124.652 Y18.7 E3.82574
G1 X138.849 Y18.696 E.71251
G1 X156.421 Y91.015 E3.73495
G1 X163.927 Y132.098 E2.09591
G1 X14.185 Y132.387 E7.51496
G1 X14.185 Y118.423 E.70078
G1 X146.533 Y118.221 E6.64201
G1 X146.631 Y117.875 F7800
;TYPE:External perimeter
G1 F1800
G1 X146.763 Y117.813 E.00734
G1 X146.8 Y117.672 E.00733
G1 X142.257 Y92.872 E1.26535
G1 X124.213 Y18.355 E3.84773
G1 X139.12 Y18.352 E.74811
G1 X156.756 Y90.933 E3.74856
G1 X164.34 Y132.442 E2.11763
G1 X13.84 Y132.733 E7.55301
G1 X13.84 Y118.079 E.7354
M73 P0 R284
G1 X146.481 Y117.876 E6.65671
G1 X146.741 Y117.972 F7800
G1 E-.7 F3600
;WIPE_START
G1 F6240
G1 X146.763 Y117.813 E-.15846
G1 X146.8 Y117.672 E-.08003
G1 X146.785 Y117.589 E-.04651
;WIPE_END
G1 E-.015 F3600
G1 X138.993 Y19.726 F7800
G1 E1 F2400
;TYPE:Solid infill
;WIDTH:0.420011
G1 F1800
G1 X138.222 Y18.955 E.05469
G1 X137.734 Y18.955 E.02447
G1 X138.938 Y20.159 E.08544
G1 X139.095 Y20.803 E.03328
G1 X137.247 Y18.956 E.13116
G1 X136.759 Y18.956 E.02447
G1 X139.251 Y21.448 E.17688
G1 X139.408 Y22.092 E.03328
G1 X136.272 Y18.956 E.2226
G1 X135.784 Y18.956 E.02447
G1 X139.564 Y22.736 E.26833
G1 X139.721 Y23.381 E.03328
G1 X135.296 Y18.956 E.31405
G1 X134.809 Y18.956 E.02447
G1 X139.878 Y24.025 E.35977
G1 X140.034 Y24.669 E.03328
G1 X134.321 Y18.956 E.40549
G1 X133.833 Y18.956 E.02447
G1 X140.191 Y25.314 E.45121
G1 X140.347 Y25.958 E.03328
G1 X133.346 Y18.957 E.49693
G1 X132.858 Y18.957 E.02447
G1 X140.504 Y26.602 E.54266
G1 X140.66 Y27.247 E.03328
G1 X132.37 Y18.957 E.58838
G1 X131.883 Y18.957 E.02447
G1 X140.817 Y27.891 E.6341
G1 X140.973 Y28.535 E.03328
G1 X131.395 Y18.957 E.67982
G1 X130.908 Y18.957 E.02447
G1 X141.13 Y29.18 E.72554
G1 X141.286 Y29.824 E.03328
G1 X130.42 Y18.957 E.77127
G1 X129.932 Y18.957 E.02447
G1 X141.443 Y30.468 E.81699
G1 X141.6 Y31.113 E.03328
G1 X129.445 Y18.958 E.86271
G1 X128.957 Y18.958 E.02447
G1 X141.756 Y31.757 E.90843
G1 X141.913 Y32.401 E.03328
G1 X128.469 Y18.958 E.95415
G1 X127.982 Y18.958 E.02447
G1 X142.069 Y33.045 E.99988
G1 X142.226 Y33.69 E.03328
G1 X127.494 Y18.958 E1.0456
G1 X127.006 Y18.958 E.02447
G1 X142.382 Y34.334 E1.09132
G1 X142.539 Y34.978 E.03328
G1 X126.519 Y18.958 E1.13704
G1 X126.031 Y18.958 E.02447
G1 X142.695 Y35.623 E1.18276
G1 X142.852 Y36.267 E.03328
G1 X125.543 Y18.959 E1.22849
G1 X125.056 Y18.959 E.02447
G1 X143.009 Y36.911 E1.27421
G1 X143.165 Y37.556 E.03328
G1 X125.112 Y19.503 E1.28134
G1 X125.268 Y20.146 E.03323
G1 X143.322 Y38.2 E1.28139
G1 X143.478 Y38.844 E.03328
G1 X125.424 Y20.79 E1.28144
G1 X125.58 Y21.433 E.03323
G1 X143.635 Y39.489 E1.28149
G1 X143.791 Y40.133 E.03328
G1 X125.735 Y22.077 E1.28154
G1 X125.891 Y22.721 E.03323
G1 X143.948 Y40.777 E1.28159
G1 X144.104 Y41.422 E.03328
G1 X126.047 Y23.364 E1.28164
G1 X126.203 Y24.008 E.03323
G1 X144.261 Y42.066 E1.28169
G1 X144.418 Y42.71 E.03328
G1 X126.359 Y24.651 E1.28174
G1 X126.515 Y25.295 E.03323
G1 X144.574 Y43.355 E1.28179
G1 X144.731 Y43.999 E.03328
G1 X126.67 Y25.939 E1.28184
G1 X126.826 Y26.582 E.03323
G1 X144.887 Y44.643 E1.28189
G1 X145.044 Y45.287 E.03328
G1 X126.982 Y27.226 E1.28194
G1 X127.138 Y27.869 E.03323
G1 X145.2 Y45.932 E1.28199
G1 X145.357 Y46.576 E.03328
G1 X127.294 Y28.513 E1.28204
G1 X127.45 Y29.157 E.03323
G1 X145.513 Y47.22 E1.28209
G1 X145.67 Y47.865 E.03328
G1 X127.605 Y29.8 E1.28214
G1 X127.761 Y30.444 E.03323
G1 X145.827 Y48.509 E1.28219
G1 X145.983 Y49.153 E.03328
G1 X127.917 Y31.087 E1.28224
G1 X128.073 Y31.731 E.03323
G1 X146.14 Y49.798 E1.28229
G1 X146.296 Y50.442 E.03328
G1 X128.229 Y32.375 E1.28234
G1 X128.385 Y33.018 E.03323
G1 X146.453 Y51.086 E1.28239
G1 X146.609 Y51.731 E.03328
G1 X128.541 Y33.662 E1.28244
G1 X128.696 Y34.305 E.03323
G1 X146.766 Y52.375 E1.28249
G1 X146.922 Y53.019 E.03328
G1 X128.852 Y34.949 E1.28255
G1 X129.008 Y35.593 E.03323
G1 X147.079 Y53.664 E1.2826
G1 X147.236 Y54.308 E.03328
G1 X129.164 Y36.236 E1.28265
G1 X129.32 Y36.88 E.03323
G1 X147.392 Y54.952 E1.2827
G1 X147.549 Y55.597 E.03328
G1 X129.476 Y37.524 E1.28275
G1 X129.631 Y38.167 E.03323
G1 X147.705 Y56.241 E1.2828
G1 X147.862 Y56.885 E.03328
G1 X129.787 Y38.811 E1.28285
G1 X129.943 Y39.454 E.03323
G1 X148.018 Y57.529 E1.2829
G1 X148.175 Y58.174 E.03328
G1 X130.099 Y40.098 E1.28295
G1 X130.255 Y40.742 E.03323
G1 X148.331 Y58.818 E1.283
G1 X148.488 Y59.462 E.03328
G1 X130.411 Y41.385 E1.28305
G1 X130.567 Y42.029 E.03323
G1 X148.644 Y60.107 E1.2831
G1 X148.801 Y60.751 E.03328
G1 X130.722 Y42.672 E1.28315
G1 X130.878 Y43.316 E.03323
G1 X148.958 Y61.395 E1.2832
G1 X149.114 Y62.04 E.03328
G1 X131.034 Y43.96 E1.28325
G1 X131.19 Y44.603 E.03323
G1 X149.271 Y62.684 E1.2833
G1 X149.427 Y63.328 E.03328
G1 X131.346 Y45.247 E1.28335
G1 X131.502 Y45.89 E.03323
G1 X149.584 Y63.973 E1.2834
G1 X149.74 Y64.617 E.03328
G1 X131.657 Y46.534 E1.28345
G1 X131.813 Y47.178 E.03323
M73 P0 R283
G1 X149.897 Y65.261 E1.2835
G1 X150.053 Y65.906 E.03328
G1 X131.969 Y47.821 E1.28355
G1 X132.125 Y48.465 E.03323
G1 X150.21 Y66.55 E1.2836
G1 X150.367 Y67.194 E.03328
G1 X132.281 Y49.108 E1.28365
G1 X132.437 Y49.752 E.03323
G1 X150.523 Y67.839 E1.2837
G1 X150.68 Y68.483 E.03328
G1 X132.592 Y50.396 E1.28375
G1 X132.748 Y51.039 E.03323
G1 X150.836 Y69.127 E1.2838
G1 X150.993 Y69.771 E.03328
G1 X132.904 Y51.683 E1.28385
G1 X133.06 Y52.326 E.03323
G1 X151.149 Y70.416 E1.2839
G1 X151.306 Y71.06 E.03328
G1 X133.216 Y52.97 E1.28395
G1 X133.372 Y53.614 E.03323
G1 X151.462 Y71.704 E1.284
G1 X151.619 Y72.349 E.03328
G1 X133.528 Y54.257 E1.28406
G1 X133.683 Y54.901 E.03323
G1 X151.776 Y72.993 E1.28411
G1 X151.932 Y73.637 E.03328
G1 X133.839 Y55.544 E1.28416
G1 X133.995 Y56.188 E.03323
G1 X152.089 Y74.282 E1.28421
G1 X152.245 Y74.926 E.03328
G1 X134.151 Y56.832 E1.28426
G1 X134.307 Y57.475 E.03323
G1 X152.402 Y75.57 E1.28431
G1 X152.558 Y76.215 E.03328
G1 X134.463 Y58.119 E1.28436
G1 X134.618 Y58.762 E.03323
G1 X152.715 Y76.859 E1.28441
G1 X152.871 Y77.503 E.03328
G1 X134.774 Y59.406 E1.28446
G1 X134.93 Y60.05 E.03323
G1 X153.028 Y78.148 E1.28451
G1 X153.185 Y78.792 E.03328
G1 X135.086 Y60.693 E1.28456
G1 X135.242 Y61.337 E.03323
G1 X153.341 Y79.436 E1.28461
G1 X153.498 Y80.08 E.03328
G1 X135.398 Y61.981 E1.28466
G1 X135.554 Y62.624 E.03323
G1 X153.654 Y80.725 E1.28471
G1 X153.811 Y81.369 E.03328
G1 X135.709 Y63.268 E1.28476
G1 X135.865 Y63.911 E.03323
G1 X153.967 Y82.013 E1.28481
G1 X154.124 Y82.658 E.03328
G1 X136.021 Y64.555 E1.28486
G1 X136.177 Y65.199 E.03323
G1 X154.28 Y83.302 E1.28491
G1 X154.437 Y83.946 E.03328
G1 X136.333 Y65.842 E1.28496
G1 X136.489 Y66.486 E.03323
G1 X154.593 Y84.591 E1.28501
G1 X154.75 Y85.235 E.03328
G1 X136.644 Y67.129 E1.28506
G1 X136.8 Y67.773 E.03323
G1 X154.907 Y85.879 E1.28511
G1 X155.063 Y86.524 E.03328
G1 X136.956 Y68.417 E1.28516
G1 X137.112 Y69.06 E.03323
G1 X155.22 Y87.168 E1.28521
G1 X155.376 Y87.812 E.03328
G1 X137.268 Y69.704 E1.28526
G1 X137.424 Y70.347 E.03323
G1 X155.533 Y88.457 E1.28531
G1 X155.689 Y89.101 E.03328
G1 X137.579 Y70.991 E1.28536
G1 X137.735 Y71.635 E.03323
G1 X155.846 Y89.745 E1.28541
G1 X156.002 Y90.39 E.03328
G1 X137.891 Y72.278 E1.28546
G1 X138.047 Y72.922 E.03323
G1 X156.159 Y91.034 E1.28552
G1 X156.285 Y91.648 E.03144
G1 X138.203 Y73.565 E1.28339
G1 X138.359 Y74.209 E.03323
G1 X156.394 Y92.244 E1.28005
G1 X156.503 Y92.841 E.03044
G1 X138.515 Y74.853 E1.27672
G1 X138.67 Y75.496 E.03323
G1 X156.611 Y93.437 E1.27338
G1 X156.72 Y94.034 E.03044
G1 X138.826 Y76.14 E1.27004
G1 X138.982 Y76.783 E.03323
G1 X156.829 Y94.631 E1.26671
G1 X156.938 Y95.227 E.03044
G1 X139.138 Y77.427 E1.26337
G1 X139.294 Y78.071 E.03323
G1 X157.047 Y95.824 E1.26004
G1 X157.156 Y96.42 E.03044
G1 X139.45 Y78.714 E1.2567
G1 X139.605 Y79.358 E.03323
G1 X157.264 Y97.017 E1.25336
G1 X157.373 Y97.613 E.03044
G1 X139.761 Y80.001 E1.25003
G1 X139.917 Y80.645 E.03323
G1 X157.482 Y98.21 E1.24669
G1 X157.591 Y98.807 E.03044
G1 X140.073 Y81.289 E1.24335
G1 X140.229 Y81.932 E.03323
G1 X157.7 Y99.403 E1.24002
G1 X157.809 Y100 E.03044
G1 X140.385 Y82.576 E1.23668
G1 X140.541 Y83.22 E.03323
G1 X157.917 Y100.596 E1.23334
G1 X158.026 Y101.193 E.03044
G1 X140.696 Y83.863 E1.23001
G1 X140.852 Y84.507 E.03323
G1 X158.135 Y101.79 E1.22667
G1 X158.244 Y102.386 E.03044
G1 X141.008 Y85.15 E1.22333
G1 X141.164 Y85.794 E.03323
G1 X158.353 Y102.983 E1.22
G1 X158.462 Y103.579 E.03044
G1 X141.32 Y86.438 E1.21666
G1 X141.476 Y87.081 E.03323
G1 X158.57 Y104.176 E1.21332
G1 X158.679 Y104.773 E.03044
G1 X141.631 Y87.725 E1.20999
G1 X141.787 Y88.368 E.03323
G1 X158.788 Y105.369 E1.20665
G1 X158.897 Y105.966 E.03044
G1 X141.943 Y89.012 E1.20331
G1 X142.099 Y89.656 E.03323
G1 X159.006 Y106.562 E1.19998
G1 X159.115 Y107.159 E.03044
M73 P0 R282
G1 X142.255 Y90.299 E1.19664
G1 X142.411 Y90.943 E.03323
G1 X159.223 Y107.756 E1.1933
G1 X159.332 Y108.352 E.03044
G1 X142.566 Y91.586 E1.18997
G1 X142.722 Y92.23 E.03323
G1 X159.441 Y108.949 E1.18663
G1 X159.55 Y109.545 E.03044
G1 X142.868 Y92.863 E1.18402
G1 X142.977 Y93.461 E.03047
G1 X159.659 Y110.142 E1.18398
G1 X159.768 Y110.739 E.03044
G1 X143.087 Y94.058 E1.18394
G1 X143.196 Y94.655 E.03047
G1 X159.876 Y111.335 E1.18389
G1 X159.985 Y111.932 E.03044
M73 P1 R282
G1 X143.306 Y95.252 E1.18385
G1 X143.415 Y95.849 E.03047
G1 X160.094 Y112.528 E1.18381
G1 X160.203 Y113.125 E.03044
G1 X143.524 Y96.446 E1.18377
G1 X143.634 Y97.044 E.03047
G1 X160.312 Y113.722 E1.18373
G1 X160.421 Y114.318 E.03044
G1 X143.743 Y97.641 E1.18369
G1 X143.853 Y98.238 E.03047
G1 X160.529 Y114.915 E1.18364
G1 X160.638 Y115.511 E.03044
G1 X143.962 Y98.835 E1.1836
G1 X144.072 Y99.432 E.03047
G1 X160.747 Y116.108 E1.18356
G1 X160.856 Y116.705 E.03044
G1 X144.181 Y100.03 E1.18352
G1 X144.29 Y100.627 E.03047
G1 X160.965 Y117.301 E1.18348
G1 X161.074 Y117.898 E.03044
G1 X144.4 Y101.224 E1.18344
G1 X144.509 Y101.821 E.03047
G1 X161.182 Y118.494 E1.18339
G1 X161.291 Y119.091 E.03044
G1 X144.619 Y102.418 E1.18335
G1 X144.728 Y103.016 E.03047
G1 X161.4 Y119.688 E1.18331
G1 X161.509 Y120.284 E.03044
G1 X144.838 Y103.613 E1.18327
G1 X144.947 Y104.21 E.03047
G1 X161.618 Y120.881 E1.18323
G1 X161.727 Y121.477 E.03044
G1 X145.056 Y104.807 E1.18318
G1 X145.166 Y105.404 E.03047
G1 X161.835 Y122.074 E1.18314
G1 X161.944 Y122.671 E.03044
G1 X145.275 Y106.001 E1.1831
G1 X145.385 Y106.599 E.03047
G1 X162.053 Y123.267 E1.18306
G1 X162.162 Y123.864 E.03044
G1 X145.494 Y107.196 E1.18302
G1 X145.603 Y107.793 E.03047
G1 X162.271 Y124.46 E1.18298
G1 X162.38 Y125.057 E.03044
G1 X145.713 Y108.39 E1.18293
G1 X145.822 Y108.987 E.03047
G1 X162.488 Y125.654 E1.18289
G1 X162.597 Y126.25 E.03044
G1 X145.932 Y109.585 E1.18285
G1 X146.041 Y110.182 E.03047
G1 X162.706 Y126.847 E1.18281
G1 X162.815 Y127.443 E.03044
G1 X146.151 Y110.779 E1.18277
G1 X146.26 Y111.376 E.03047
G1 X162.924 Y128.04 E1.18273
G1 X163.033 Y128.636 E.03044
G1 X146.369 Y111.973 E1.18268
G1 X146.479 Y112.57 E.03047
G1 X163.141 Y129.233 E1.18264
G1 X163.25 Y129.83 E.03044
G1 X146.588 Y113.168 E1.1826
G1 X146.698 Y113.765 E.03047
G1 X163.359 Y130.426 E1.18256
G1 X163.468 Y131.023 E.03044
G1 X146.807 Y114.362 E1.18252
G1 X146.917 Y114.959 E.03047
G1 X163.577 Y131.619 E1.18248
G1 X163.617 Y131.839 E.01122
G1 X163.31 Y131.84 E.01542
G1 X147.026 Y115.556 E1.15575
G1 X147.135 Y116.154 E.03047
G1 X162.823 Y131.841 E1.11343
G1 X162.336 Y131.842 E.02443
G1 X147.245 Y116.751 E1.07111
G1 X147.354 Y117.348 E.03047
G1 X161.849 Y131.843 E1.02879
G1 X161.362 Y131.844 E.02443
G1 X147.382 Y117.864 E.99226
G1 X147.366 Y117.952 E.00453
G1 X147.269 Y118.146 E.01087
G1 X147.225 Y118.194 E.00327
G1 X160.876 Y131.845 E.96888
G1 X160.389 Y131.846 E.02443
G1 X146.95 Y118.407 E.95385
G1 X146.866 Y118.443 E.00459
G1 X146.534 Y118.479 E.01673
G1 X159.902 Y131.847 E.94877
G1 X159.415 Y131.848 E.02443
G1 X146.047 Y118.48 E.94878
G1 X145.56 Y118.481 E.02444
G1 X158.928 Y131.849 E.9488
G1 X158.441 Y131.849 E.02443
G1 X145.073 Y118.481 E.94881
G1 X144.586 Y118.482 E.02444
G1 X157.955 Y131.85 E.94882
G1 X157.468 Y131.851 E.02443
G1 X144.099 Y118.483 E.94884
G1 X143.612 Y118.484 E.02444
G1 X156.981 Y131.852 E.94885
G1 X156.494 Y131.853 E.02443
G1 X143.125 Y118.484 E.94887
G1 X142.638 Y118.485 E.02444
G1 X156.007 Y131.854 E.94888
G1 X155.521 Y131.855 E.02443
G1 X142.151 Y118.486 E.94889
G1 X141.664 Y118.487 E.02444
G1 X155.034 Y131.856 E.94891
G1 X154.547 Y131.857 E.02443
G1 X141.177 Y118.487 E.94892
G1 X140.69 Y118.488 E.02444
G1 X154.06 Y131.858 E.94893
G1 X153.573 Y131.859 E.02443
G1 X140.203 Y118.489 E.94895
G1 X139.716 Y118.49 E.02444
G1 X153.086 Y131.86 E.94896
G1 X152.6 Y131.861 E.02443
G1 X139.229 Y118.49 E.94898
G1 X138.742 Y118.491 E.02444
G1 X152.113 Y131.862 E.94899
G1 X151.626 Y131.863 E.02443
G1 X138.255 Y118.492 E.949
G1 X137.768 Y118.493 E.02444
G1 X151.139 Y131.864 E.94902
G1 X150.652 Y131.865 E.02443
G1 X137.281 Y118.493 E.94903
G1 X136.794 Y118.494 E.02444
G1 X150.165 Y131.865 E.94904
G1 X149.679 Y131.866 E.02443
G1 X136.307 Y118.495 E.94906
G1 X135.82 Y118.496 E.02444
G1 X149.192 Y131.867 E.94907
G1 X148.705 Y131.868 E.02443
G1 X135.333 Y118.496 E.94909
G1 X134.846 Y118.497 E.02444
G1 X148.218 Y131.869 E.9491
G1 X147.731 Y131.87 E.02443
G1 X134.359 Y118.498 E.94911
G1 X133.872 Y118.499 E.02444
G1 X147.245 Y131.871 E.94913
G1 X146.758 Y131.872 E.02443
M73 P1 R281
G1 X133.385 Y118.499 E.94914
G1 X132.898 Y118.5 E.02444
G1 X146.271 Y131.873 E.94916
G1 X145.784 Y131.874 E.02443
G1 X132.411 Y118.501 E.94917
G1 X131.924 Y118.502 E.02444
G1 X145.297 Y131.875 E.94918
G1 X144.81 Y131.876 E.02443
G1 X131.437 Y118.502 E.9492
G1 X130.95 Y118.503 E.02444
G1 X144.324 Y131.877 E.94921
G1 X143.837 Y131.878 E.02443
G1 X130.463 Y118.504 E.94922
G1 X129.976 Y118.505 E.02444
G1 X143.35 Y131.879 E.94924
G1 X142.863 Y131.88 E.02443
G1 X129.489 Y118.505 E.94925
G1 X129.002 Y118.506 E.02444
G1 X142.376 Y131.881 E.94927
G1 X141.89 Y131.882 E.02443
G1 X128.515 Y118.507 E.94928
G1 X128.028 Y118.508 E.02444
G1 X141.403 Y131.882 E.94929
G1 X140.916 Y131.883 E.02443
G1 X127.541 Y118.508 E.94931
G1 X127.054 Y118.509 E.02444
G1 X140.429 Y131.884 E.94932
G1 X139.942 Y131.885 E.02443
G1 X126.567 Y118.51 E.94933
G1 X126.08 Y118.511 E.02444
G1 X139.455 Y131.886 E.94935
G1 X138.969 Y131.887 E.02443
G1 X125.593 Y118.511 E.94936
G1 X125.106 Y118.512 E.02444
G1 X138.482 Y131.888 E.94938
G1 X137.995 Y131.889 E.02443
G1 X124.619 Y118.513 E.94939
G1 X124.132 Y118.514 E.02444
G1 X137.508 Y131.89 E.9494
G1 X137.021 Y131.891 E.02443
G1 X123.645 Y118.514 E.94942
G1 X123.158 Y118.515 E.02444
G1 X136.535 Y131.892 E.94943
G1 X136.048 Y131.893 E.02443
G1 X122.671 Y118.516 E.94945
G1 X122.184 Y118.517 E.02444
G1 X135.561 Y131.894 E.94946
G1 X135.074 Y131.895 E.02443
G1 X121.697 Y118.517 E.94947
G1 X121.21 Y118.518 E.02444
G1 X134.587 Y131.896 E.94949
G1 X134.1 Y131.897 E.02443
G1 X120.723 Y118.519 E.9495
