; generated by PrusaSlicer 2.5.0+win64 on 2022-12-07 at 00:26:16 UTC

; 

; external perimeters extrusion width = 1.00mm
; perimeters extrusion width = 1.00mm
; infill extrusion width = 1.00mm
; solid infill extrusion width = 1.00mm
; top infill extrusion width = 1.00mm
; support material extrusion width = 1.00mm
; first layer extrusion width = 0.42mm

M73 P0 R21
M107
;TYPE:Custom
G90 ; use absolute coordinates
M83 ; extruder relative mode
M140 S60 ; set final bed temp
M104 S150 ; set temporary nozzle temp to prevent oozing during homing and auto bed leveling
G4 S10 ; allow partial nozzle warmup
G28 ; home all axisG1 Z50 F240
G1 X7.6 Y10 F3000
M104 S210 ; set final nozzle temp
M190 S60 ; wait for bed temp to stabilize
M109 S210 ; wait for nozzle temp to stabilize
G1 Z0.28 F240
G92 E0
G1 Y140 E10 F1500 ; prime the nozzle
G1 X4 F5000
G92 E0
G1 Y10 E10 F1200 ; prime the nozzle
G92 E0
G21 ; set units to millimeters
G90 ; use absolute coordinates
M83 ; use relative distances for extrusion
; Filament gcode
M107
;LAYER_CHANGE
;Z:0.35
;HEIGHT:0.35
;BEFORE_LAYER_CHANGE
G92 E0
;0.35


G1 E-1 F3600
G1 Z.35 F7800
;AFTER_LAYER_CHANGE
;0.35
G1 X15.46 Y82.807
G1 E1 F2400
;TYPE:Support material interface
;WIDTH:1
M73 P1 R20
G1 F900
G1 X15.46 Y83.88 E.14448
G1 X15.46 Y84.969 F7800
G1 F900
G1 X15.46 Y86.601 E.21961
G1 X16.352 Y86.601 E.12014
G1 X16.352 Y83.208 E.45661
G1 X17.245 Y83.208 E.12014
G1 X17.245 Y86.601 E.45661
G1 X18.138 Y86.601 E.12014
G1 X18.138 Y83.208 E.45661
G1 X19.03 Y83.208 E.12014
G1 X19.03 Y86.601 E.45661
G1 X19.923 Y86.601 E.12014
G1 X19.923 Y83.208 E.45661
G1 X20.816 Y83.208 E.12014
G1 X20.816 Y86.601 E.45661
G1 X21.708 Y86.601 E.12014
G1 X21.708 Y83.208 E.45661
G1 X22.601 Y83.208 E.12014
G1 X22.601 Y86.601 E.45661
G1 X23.494 Y86.601 E.12014
G1 X23.494 Y83.208 E.45661
G1 X24.387 Y83.208 E.12014
G1 X24.387 Y86.601 E.45661
G1 X25.279 Y86.601 E.12014
G1 X25.279 Y83.208 E.45661
G1 X26.172 Y83.208 E.12014
G1 X26.172 Y86.601 E.45661
G1 X27.065 Y86.601 E.12014
G1 X27.065 Y83.208 E.45661
G1 X27.957 Y83.208 E.12014
G1 X27.957 Y86.601 E.45661
G1 X28.85 Y86.601 E.12014
G1 X28.85 Y83.208 E.45661
G1 X29.743 Y83.208 E.12014
G1 X29.743 Y86.601 E.45661
G1 X30.635 Y86.601 E.12014
G1 X30.635 Y83.208 E.45661
G1 X31.528 Y83.208 E.12014
G1 X31.528 Y86.601 E.45661
G1 X32.421 Y86.601 E.12014
G1 X32.421 Y83.208 E.45661
G1 X33.314 Y83.208 E.12014
G1 X33.314 Y86.601 E.45661
G1 X34.206 Y86.601 E.12014
G1 X34.206 Y83.208 E.45661
G1 X35.099 Y83.208 E.12014
G1 X35.099 Y86.601 E.45661
G1 X35.992 Y86.601 E.12014
G1 X35.992 Y83.208 E.45661
G1 X36.884 Y83.208 E.12014
G1 X36.884 Y86.601 E.45661
G1 X37.777 Y86.601 E.12014
G1 X37.777 Y83.208 E.45661
G1 X38.67 Y83.208 E.12014
G1 X38.67 Y86.601 E.45661
G1 X39.562 Y86.601 E.12014
G1 X39.562 Y83.208 E.45661
G1 X40.455 Y83.208 E.12014
G1 X40.455 Y86.601 E.45661
G1 X41.348 Y86.601 E.12014
G1 X41.348 Y83.208 E.45661
G1 X42.241 Y83.208 E.12014
G1 X42.241 Y86.601 E.45661
G1 X43.133 Y86.601 E.12014
G1 X43.133 Y83.208 E.45661
G1 X44.026 Y83.208 E.12014
G1 X44.026 Y86.601 E.45661
G1 X44.919 Y86.601 E.12014
G1 X44.919 Y83.208 E.45661
G1 X45.811 Y83.208 E.12014
G1 X45.811 Y86.601 E.45661
G1 X46.704 Y86.601 E.12014
G1 X46.704 Y83.208 E.45661
G1 X47.597 Y83.208 E.12014
G1 X47.597 Y86.601 E.45661
G1 X48.489 Y86.601 E.12014
G1 X48.489 Y83.208 E.45661
G1 X49.382 Y83.208 E.12014
G1 X49.382 Y86.601 E.45661
G1 X50.275 Y86.601 E.12014
G1 X50.275 Y83.208 E.45661
G1 X51.168 Y83.208 E.12014
G1 X51.168 Y86.601 E.45661
G1 X52.06 Y86.601 E.12014
M73 P2 R20
G1 X52.06 Y83.208 E.45661
G1 X52.953 Y83.208 E.12014
G1 X52.953 Y86.601 E.45661
G1 X53.846 Y86.601 E.12014
G1 X53.846 Y83.208 E.45661
G1 X54.738 Y83.208 E.12014
G1 X54.738 Y86.601 E.45661
G1 X55.631 Y86.601 E.12014
G1 X55.631 Y83.208 E.45661
G1 X56.524 Y83.208 E.12014
G1 X56.524 Y86.601 E.45661
G1 X57.416 Y86.601 E.12014
G1 X57.416 Y83.208 E.45661
G1 X58.309 Y83.208 E.12014
G1 X58.309 Y86.601 E.45661
G1 X59.202 Y86.601 E.12014
G1 X59.202 Y83.208 E.45661
G1 X60.095 Y83.208 E.12014
G1 X60.095 Y87.003 E.51067
G1 E-.7 F3600
;WIPE_START
G1 F6240
G1 X60.095 Y86.483 E-.285
;WIPE_END
G1 E-.015 F3600
G1 X62.773 Y87.003 F7800
G1 E1 F2400
G1 F900
G1 X62.773 Y85.375 E.21908
G1 X61.88 Y85.373 E.12014
G1 X61.88 Y86.601 E.16528
G1 X60.987 Y86.601 E.12014
G1 X60.987 Y85.371 E.16555
G1 X60.114 Y85.369 E.11753
G1 X60.116 Y83.479 E.25444
G1 X60.987 Y83.479 E.11724
G1 X60.987 Y83.208 E.03635
G1 X61.88 Y83.208 E.12014
G1 X61.88 Y83.479 E.03635
G1 X62.773 Y83.479 E.12014
G1 X62.773 Y82.807 E.09042
M106 S255
;LAYER_CHANGE
;Z:0.65
;HEIGHT:0.3
;BEFORE_LAYER_CHANGE
G92 E0
;0.65


G1 E-.7 F3600
;WIPE_START
G1 F6240
G1 X62.773 Y83.327 E-.285
;WIPE_END
G1 E-.015 F3600
G1 Z.65 F7800
;AFTER_LAYER_CHANGE
;0.65
M104 S205 ; set temperature
G1 X62.773 Y82.807
G1 E1 F2400
G1 F900
G1 X62.773 Y83.479 E.0784
G1 X61.88 Y83.479 E.10417
G1 X61.88 Y83.208 E.03152
G1 X60.987 Y83.208 E.10417
G1 X60.987 Y83.479 E.03152
G1 X60.116 Y83.479 E.10166
G1 X60.114 Y85.369 E.22062
G1 X60.987 Y85.371 E.10191
G1 X60.987 Y86.601 E.14355
G1 X61.88 Y86.601 E.10417
G1 X61.88 Y85.373 E.14331
G1 X62.773 Y85.375 E.10417
G1 X62.773 Y87.003 E.18996
G1 E-.7 F3600
;WIPE_START
G1 F6240
G1 X62.773 Y86.483 E-.285
;WIPE_END
G1 E-.015 F3600
G1 X60.095 Y87.003 F7800
G1 E1 F2400
G1 F900
G1 X60.095 Y83.208 E.44279
G1 X59.202 Y83.208 E.10417
G1 X59.202 Y86.601 E.39592
G1 X58.309 Y86.601 E.10417
G1 X58.309 Y83.208 E.39592
G1 X57.416 Y83.208 E.10417
G1 X57.416 Y86.601 E.39592
G1 X56.524 Y86.601 E.10417
G1 X56.524 Y83.208 E.39592
G1 X55.631 Y83.208 E.10417
G1 X55.631 Y86.601 E.39592
G1 X54.738 Y86.601 E.10417
G1 X54.738 Y83.208 E.39592
G1 X53.846 Y83.208 E.10417
G1 X53.846 Y86.601 E.39592
G1 X52.953 Y86.601 E.10417
G1 X52.953 Y83.208 E.39592
G1 X52.06 Y83.208 E.10417
G1 X52.06 Y86.601 E.39592
G1 X51.168 Y86.601 E.10417
G1 X51.168 Y83.208 E.39592
G1 X50.275 Y83.208 E.10417
G1 X50.275 Y86.601 E.39592
G1 X49.382 Y86.601 E.10417
G1 X49.382 Y83.208 E.39592
G1 X48.489 Y83.208 E.10417
G1 X48.489 Y86.601 E.39592
G1 X47.597 Y86.601 E.10417
G1 X47.597 Y83.208 E.39592
G1 X46.704 Y83.208 E.10417
G1 X46.704 Y86.601 E.39592
G1 X45.811 Y86.601 E.10417
G1 X45.811 Y83.208 E.39592
G1 X44.919 Y83.208 E.10417
G1 X44.919 Y86.601 E.39592
G1 X44.026 Y86.601 E.10417
G1 X44.026 Y83.208 E.39592
G1 X43.133 Y83.208 E.10417
G1 X43.133 Y86.601 E.39592
G1 X42.241 Y86.601 E.10417
G1 X42.241 Y83.208 E.39592
G1 X41.348 Y83.208 E.10417
G1 X41.348 Y86.601 E.39592
G1 X40.455 Y86.601 E.10417
G1 X40.455 Y83.208 E.39592
G1 X39.562 Y83.208 E.10417
G1 X39.562 Y86.601 E.39592
G1 X38.67 Y86.601 E.10417
M73 P3 R20
G1 X38.67 Y83.208 E.39592
G1 X37.777 Y83.208 E.10417
G1 X37.777 Y86.601 E.39592
G1 X36.884 Y86.601 E.10417
G1 X36.884 Y83.208 E.39592
G1 X35.992 Y83.208 E.10417
G1 X35.992 Y86.601 E.39592
G1 X35.099 Y86.601 E.10417
G1 X35.099 Y83.208 E.39592
G1 X34.206 Y83.208 E.10417
G1 X34.206 Y86.601 E.39592
G1 X33.314 Y86.601 E.10417
G1 X33.314 Y83.208 E.39592
G1 X32.421 Y83.208 E.10417
G1 X32.421 Y86.601 E.39592
G1 X31.528 Y86.601 E.10417
G1 X31.528 Y83.208 E.39592
G1 X30.635 Y83.208 E.10417
G1 X30.635 Y86.601 E.39592
G1 X29.743 Y86.601 E.10417
G1 X29.743 Y83.208 E.39592
G1 X28.85 Y83.208 E.10417
G1 X28.85 Y86.601 E.39592
G1 X27.957 Y86.601 E.10417
G1 X27.957 Y83.208 E.39592
G1 X27.065 Y83.208 E.10417
G1 X27.065 Y86.601 E.39592
G1 X26.172 Y86.601 E.10417
G1 X26.172 Y83.208 E.39592
G1 X25.279 Y83.208 E.10417
G1 X25.279 Y86.601 E.39592
G1 X24.387 Y86.601 E.10417
G1 X24.387 Y83.208 E.39592
G1 X23.494 Y83.208 E.10417
G1 X23.494 Y86.601 E.39592
G1 X22.601 Y86.601 E.10417
G1 X22.601 Y83.208 E.39592
G1 X21.708 Y83.208 E.10417
G1 X21.708 Y86.601 E.39592
G1 X20.816 Y86.601 E.10417
G1 X20.816 Y83.208 E.39592
G1 X19.923 Y83.208 E.10417
G1 X19.923 Y86.601 E.39592
G1 X19.03 Y86.601 E.10417
G1 X19.03 Y83.208 E.39592
G1 X18.138 Y83.208 E.10417
G1 X18.138 Y86.601 E.39592
G1 X17.245 Y86.601 E.10417
G1 X17.245 Y83.208 E.39592
G1 X16.352 Y83.208 E.10417
G1 X16.352 Y86.601 E.39592
G1 X15.46 Y86.601 E.10417
G1 X15.46 Y84.969 E.19042
G1 X15.46 Y83.88 F7800
G1 F900
G1 X15.46 Y82.807 E.12528
;LAYER_CHANGE
;Z:1.35
;HEIGHT:0.7
;BEFORE_LAYER_CHANGE
G92 E0
;1.35


G1 E-.7 F3600
;WIPE_START
G1 F6240
G1 X15.46 Y83.327 E-.285
;WIPE_END
G1 E-.015 F3600
G1 Z1.35 F7800
;AFTER_LAYER_CHANGE
;1.35
G1 X140.653 Y84.604
G1 E1 F2400
;TYPE:External perimeter
;WIDTH:0.957301
;HEIGHT:0.5
G1 F900
G1 X166.251 Y84.631 E4.52292
;LAYER_CHANGE
;Z:1.85
;HEIGHT:0.5
;BEFORE_LAYER_CHANGE
G92 E0
;1.85


G1 E-.7 F3600
;WIPE_START
G1 F6240
G1 X165.731 Y84.631 E-.285
;WIPE_END
G1 E-.015 F3600
G1 Z1.85 F7800
;AFTER_LAYER_CHANGE
;1.85
G1 X53.968 Y84.604
G1 E1 F2400
G1 F900
M73 P4 R20
G1 X166.157 Y84.725 E19.82316
;LAYER_CHANGE
;Z:2.35
;HEIGHT:0.5
;BEFORE_LAYER_CHANGE
G92 E0
;2.35


G1 E-.7 F3600
;WIPE_START
G1 F6240
G1 X165.637 Y84.725 E-.285
;WIPE_END
G1 E-.015 F3600
G1 Z2.35 F7800
;AFTER_LAYER_CHANGE
;2.35
G1 X13.792 Y84.674
G1 E1 F2400
G1 F900
G1 X19.302 Y84.66 E.97364
G1 X166.063 Y84.819 E25.93181
;LAYER_CHANGE
;Z:2.85
;HEIGHT:0.5
;BEFORE_LAYER_CHANGE
G92 E0
;2.85


G1 E-.7 F3600
;WIPE_START
M73 P5 R20
G1 F6240
G1 X165.543 Y84.818 E-.285
;WIPE_END
G1 E-.015 F3600
G1 Z2.85 F7800
;AFTER_LAYER_CHANGE
;2.85
G1 X13.874 Y84.755
G1 E1 F2400
G1 F900
G1 X15.995 Y84.75 E.37476
;WIDTH:0.975493
G1 X165.969 Y84.913 E27.06688
;LAYER_CHANGE
;Z:3.35
;HEIGHT:0.5
;BEFORE_LAYER_CHANGE
G92 E0
;3.35


G1 E-.7 F3600
;WIPE_START
M73 P6 R19
G1 F6240
G1 X165.449 Y84.912 E-.285
;WIPE_END
G1 E-.015 F3600
G1 Z3.35 F7800
;AFTER_LAYER_CHANGE
;3.35
G1 X13.96 Y84.842
G1 E1 F2400
;WIDTH:0.998458
G1 F900
G1 X44.343 Y84.875 E5.62849
;WIDTH:1.03962
G1 X74.726 Y84.908 E5.88843
;WIDTH:1.08077
G1 X105.109 Y84.941 E6.14838
;WIDTH:1.12193
G1 X135.492 Y84.973 E6.40832
;WIDTH:1.16309
M73 P7 R19
G1 X165.875 Y85.006 E6.66827
;LAYER_CHANGE
;Z:3.85
;HEIGHT:0.5
;BEFORE_LAYER_CHANGE
G92 E0
;3.85


G1 E-.7 F3600
;WIPE_START
G1 F6240
G1 X165.355 Y85.006 E-.285
;WIPE_END
G1 E-.015 F3600
G1 Z3.85 F7800
;AFTER_LAYER_CHANGE
;3.85
G1 X165.782 Y85.1
G1 E1 F2400
;WIDTH:1.35068
G1 F900
G1 X144.106 Y85.077 E5.60242
;WIDTH:1.30363
G1 X122.431 Y85.053 E5.39041
;WIDTH:1.25657
G1 X100.755 Y85.03 E5.17839
;WIDTH:1.20952
G1 X79.08 Y85.006 E4.96638
;WIDTH:1.16247
G1 X57.405 Y84.983 E4.75436
;WIDTH:1.11541
G1 X35.729 Y84.959 E4.54235
;WIDTH:1.06836
G1 X14.054 Y84.936 E4.33033
;LAYER_CHANGE
;Z:4.35
;HEIGHT:0.5
;BEFORE_LAYER_CHANGE
G92 E0
;4.35


M73 P8 R19
G1 E-.7 F3600
;WIPE_START
G1 F6240
G1 X14.574 Y84.936 E-.285
;WIPE_END
G1 E-.015 F3600
G1 Z4.35 F7800
;AFTER_LAYER_CHANGE
;4.35
G1 X14.148 Y85.03
G1 E1 F2400
;WIDTH:1.25629
G1 F900
G1 X35.796 Y85.053 E5.1707
;WIDTH:1.30329
G1 X57.445 Y85.077 E5.3822
;WIDTH:1.35028
G1 X79.093 Y85.1 E5.5937
;WIDTH:1.39728
G1 X100.742 Y85.124 E5.8052
;WIDTH:1.44428
G1 X122.391 Y85.147 E6.01671
;WIDTH:1.49128
G1 X144.039 Y85.171 E6.22821
;WIDTH:1.53828
G1 X165.688 Y85.194 E6.43971
;LAYER_CHANGE
;Z:4.85
;HEIGHT:0.5
;BEFORE_LAYER_CHANGE
G92 E0
;4.85


G1 E-.7 F3600
;WIPE_START
M73 P9 R19
G1 F6240
G1 X165.168 Y85.193 E-.285
;WIPE_END
G1 E-.015 F3600
G1 Z4.85 F7800
;AFTER_LAYER_CHANGE
;4.85
G1 X14.242 Y85.124
G1 E1 F2400
;WIDTH:1.44266
G1 F900
G1 X35.15 Y85.146 E5.80387
;WIDTH:1.48806
G1 X56.058 Y85.169 E6.00116
;WIDTH:1.53345
G1 X76.966 Y85.192 E6.19845
;WIDTH:1.57884
G1 X97.874 Y85.214 E6.39574
;WIDTH:1.62424
G1 X118.782 Y85.237 E6.59304
G1 E-.7 F3600
;WIPE_START
G1 F6240
G1 X118.262 Y85.236 E-.285
;WIPE_END
G1 E-.015 F3600
G1 X165.999 Y85.693 F7800
G1 E1 F2400
;WIDTH:0.916586
G1 F900
G1 X119.781 Y85.618 E7.77523
;WIDTH:0.914191
G1 X119.719 Y85.594 E.01121
;WIDTH:0.961528
G1 X119.656 Y85.57 E.01187
;WIDTH:1.00886
G1 X119.594 Y85.546 E.01253
;WIDTH:1.0562
G1 X119.531 Y85.523 E.01318
;WIDTH:1.10354
G1 X119.469 Y85.499 E.01384
;WIDTH:1.15087
G1 X119.406 Y85.475 E.0145
;WIDTH:1.19821
G1 X119.344 Y85.451 E.01516
;WIDTH:1.24555
G1 X119.282 Y85.427 E.01581
;WIDTH:1.29288
G1 X119.219 Y85.404 E.01647
;WIDTH:1.34022
G1 X119.157 Y85.38 E.01713
;WIDTH:1.38756
G1 X119.094 Y85.356 E.01779
;WIDTH:1.43489
G1 X119.032 Y85.332 E.01844
;WIDTH:1.48223
G1 X118.969 Y85.308 E.0191
;WIDTH:1.52956
G1 X118.907 Y85.285 E.01976
;WIDTH:1.5769
G1 X118.844 Y85.261 E.02042
;WIDTH:1.62424
G1 X118.782 Y85.237 E.02107
G1 X118.844 Y85.213 E.02107
;WIDTH:1.5769
G1 X118.907 Y85.19 E.02042
;WIDTH:1.52956
G1 X118.969 Y85.166 E.01976
;WIDTH:1.48223
M73 P10 R19
G1 X119.032 Y85.142 E.0191
;WIDTH:1.43489
G1 X119.094 Y85.119 E.01844
;WIDTH:1.38756
G1 X119.157 Y85.095 E.01779
;WIDTH:1.34022
G1 X119.219 Y85.071 E.01713
;WIDTH:1.29288
G1 X119.282 Y85.048 E.01647
;WIDTH:1.24555
G1 X119.344 Y85.024 E.01581
;WIDTH:1.19821
G1 X119.407 Y85 E.01516
;WIDTH:1.15087
G1 X119.469 Y84.977 E.0145
;WIDTH:1.10354
G1 X119.532 Y84.953 E.01384
;WIDTH:1.0562
G1 X119.594 Y84.929 E.01318
;WIDTH:1.00886
G1 X119.657 Y84.906 E.01253
;WIDTH:0.961528
G1 X119.719 Y84.882 E.01187
;WIDTH:0.914191
G1 X119.782 Y84.858 E.01121
;WIDTH:0.916586
G1 X165.999 Y84.883 E7.77508
G1 X165.999 Y85.288 E.06807
G1 X165.999 Y85.543 E.04299
;LAYER_CHANGE
;Z:5.35
;HEIGHT:0.5
;BEFORE_LAYER_CHANGE
G92 E0
;5.35


G1 E-.7 F3600
;WIPE_START
G1 F6240
G1 X165.479 Y85.544 E-.285
;WIPE_END
G1 E-.015 F3600
G1 Z5.35 F7800
;AFTER_LAYER_CHANGE
;5.35
G1 X14.336 Y85.218
G1 E1 F2400
;WIDTH:1.62424
G1 F1109
G1 X32.291 Y85.237 E5.66188
G1 E-.7 F3600
;WIPE_START
M73 P10 R18
G1 F6240
G1 X31.771 Y85.236 E-.285
;WIPE_END
G1 E-.015 F3600
G1 X165.952 Y85.834 F7800
G1 E1 F2400
;WIDTH:1.01038
G1 F1109
G1 X121.43 Y85.761 E8.35813
;WIDTH:0.96254
G1 X77.36 Y85.69 E7.83489
;WIDTH:0.914698
G1 X33.29 Y85.618 E7.39661
;WIDTH:0.914191
G1 X33.228 Y85.594 E.01121
;WIDTH:0.961528
M73 P11 R18
G1 X33.165 Y85.57 E.01187
;WIDTH:1.00886
G1 X33.103 Y85.546 E.01253
;WIDTH:1.0562
G1 X33.04 Y85.523 E.01318
;WIDTH:1.10354
G1 X32.978 Y85.499 E.01384
;WIDTH:1.15087
G1 X32.915 Y85.475 E.0145
;WIDTH:1.19821
G1 X32.853 Y85.451 E.01516
;WIDTH:1.24555
G1 X32.79 Y85.427 E.01581
;WIDTH:1.29288
G1 X32.728 Y85.404 E.01647
;WIDTH:1.34022
G1 X32.665 Y85.38 E.01713
;WIDTH:1.38756
G1 X32.603 Y85.356 E.01779
;WIDTH:1.43489
G1 X32.541 Y85.332 E.01844
;WIDTH:1.48223
G1 X32.478 Y85.308 E.0191
;WIDTH:1.52956
G1 X32.416 Y85.285 E.01976
;WIDTH:1.5769
G1 X32.353 Y85.261 E.02042
;WIDTH:1.62424
G1 X32.291 Y85.237 E.02107
G1 X32.353 Y85.213 E.02107
;WIDTH:1.5769
G1 X32.416 Y85.19 E.02042
;WIDTH:1.52956
G1 X32.478 Y85.166 E.01976
;WIDTH:1.48223
G1 X32.541 Y85.142 E.0191
;WIDTH:1.43489
G1 X32.603 Y85.119 E.01844
;WIDTH:1.38756
G1 X32.666 Y85.095 E.01779
;WIDTH:1.34022
G1 X32.728 Y85.071 E.01713
;WIDTH:1.29288
G1 X32.791 Y85.048 E.01647
;WIDTH:1.24555
G1 X32.853 Y85.024 E.01581
;WIDTH:1.19821
G1 X32.916 Y85 E.01516
;WIDTH:1.15087
G1 X32.978 Y84.977 E.0145
;WIDTH:1.10354
G1 X33.041 Y84.953 E.01384
;WIDTH:1.0562
G1 X33.103 Y84.929 E.01318
;WIDTH:1.00886
G1 X33.166 Y84.906 E.01253
;WIDTH:0.961528
G1 X33.228 Y84.882 E.01187
;WIDTH:0.914191
G1 X33.291 Y84.858 E.01121
;WIDTH:0.914698
G1 X77.361 Y84.882 E7.39661
;WIDTH:0.96254
G1 X121.43 Y84.906 E7.83489
;WIDTH:1.01038
G1 X165.952 Y84.93 E8.35795
G1 X165.952 Y85.382 E.08477
G1 X165.952 Y85.684 E.05679
;LAYER_CHANGE
;Z:5.85
;HEIGHT:0.5
;BEFORE_LAYER_CHANGE
G92 E0
;5.85


G1 E-.7 F3600
;WIPE_START
G1 F6240
G1 X165.432 Y85.685 E-.285
;WIPE_END
G1 E-.015 F3600
G1 Z5.85 F7800
;AFTER_LAYER_CHANGE
;5.85
G1 X165.905 Y85.975
G1 E1 F2400
;WIDTH:1.10418
G1 F1075
G1 X127.661 Y85.912 E7.92514
;WIDTH:1.0632
G1 X89.917 Y85.851 E7.50011
;WIDTH:1.02222
G1 X52.173 Y85.789 E7.17859
;WIDTH:0.981247
M73 P12 R18
G1 X14.429 Y85.728 E6.85708
;WIDTH:0.940269
G1 X14.013 Y85.727 E.07196
G1 X14.013 Y84.895 E.14408
G1 X14.43 Y84.895 E.07212
;WIDTH:0.981247
G1 X52.174 Y84.916 E6.85708
;WIDTH:1.02222
G1 X89.918 Y84.936 E7.17859
;WIDTH:1.0632
G1 X127.662 Y84.957 E7.50011
;WIDTH:1.10418
G1 X165.905 Y84.977 E7.92491
G1 X165.905 Y85.475 E.10329
M73 P13 R18
G1 X165.905 Y85.825 E.07243
;LAYER_CHANGE
;Z:6.35
;HEIGHT:0.5
;BEFORE_LAYER_CHANGE
G92 E0
;6.35


G1 E-.7 F3600
;WIPE_START
G1 F6240
G1 X165.385 Y85.826 E-.285
;WIPE_END
G1 E-.015 F3600
G1 Z6.35 F7800
;AFTER_LAYER_CHANGE
;6.35
G1 X165.858 Y86.116
G1 E1 F2400
;WIDTH:1.19798
