; generated by PrusaSlicer 2.5.0+win64 on 2022-12-07 at 00:26:12 UTC

; 

; external perimeters extrusion width = 1.00mm
; perimeters extrusion width = 1.00mm
; infill extrusion width = 1.00mm
; solid infill extrusion width = 1.00mm
; top infill extrusion width = 1.00mm
; support material extrusion width = 1.00mm
; first layer extrusion width = 0.42mm

M73 P0 R165
M107
;TYPE:Custom
G90 ; use absolute coordinates
M83 ; extruder relative mode
M140 S60 ; set final bed temp
M104 S150 ; set temporary nozzle temp to prevent oozing during homing and auto bed leveling
G4 S10 ; allow partial nozzle warmup
G28 ; home all axisG1 Z50 F240
G1 X7.6 Y10 F3000
M104 S210 ; set final nozzle temp
M190 S60 ; wait for bed temp to stabilize
M109 S210 ; wait for nozzle temp to stabilize
G1 Z0.28 F240
G92 E0
G1 Y140 E10 F1500 ; prime the nozzle
G1 X4 F5000
G92 E0
G1 Y10 E10 F1200 ; prime the nozzle
G92 E0
G21 ; set units to millimeters
G90 ; use absolute coordinates
M83 ; use relative distances for extrusion
; Filament gcode
M107
;LAYER_CHANGE
;Z:0.35
;HEIGHT:0.35
;BEFORE_LAYER_CHANGE
G92 E0
;0.35


G1 E-1 F3600
G1 Z.35 F7800
;AFTER_LAYER_CHANGE
;0.35
G1 X165.902 Y68.721
G1 E1 F2400
;TYPE:Perimeter
;WIDTH:0.42
G1 F1800
G1 X165.902 Y82.674 E.70025
G1 X14.098 Y82.958 E7.61844
G1 X14.098 Y69.002 E.70035
G1 X165.752 Y68.721 E7.61091
G1 X166.247 Y68.375 F7800
;TYPE:External perimeter
G1 F1800
G1 X166.247 Y83.018 E.73487
G1 X13.753 Y83.303 E7.65306
G1 X13.753 Y68.658 E.73497
G1 X166.097 Y68.375 E7.64553
G1 X165.775 Y69.257 F7800
G1 X165.799 Y69.523
;TYPE:Solid infill
;WIDTH:0.420729
G1 F1800
G1 X165.256 Y68.981 E.03859
G1 X164.768 Y68.981 E.02454
G1 X165.643 Y69.857 E.06225
G1 X165.643 Y70.345 E.02458
G1 X164.28 Y68.982 E.09695
G1 X163.793 Y68.983 E.02454
G1 X165.643 Y70.834 E.13164
G1 X165.643 Y71.323 E.02458
G1 X163.305 Y68.984 E.16634
G1 X162.817 Y68.985 E.02454
G1 X165.643 Y71.812 E.20104
G1 X165.643 Y72.301 E.02458
G1 X162.329 Y68.986 E.23574
G1 X161.841 Y68.987 E.02454
G1 X165.643 Y72.789 E.27044
G1 X165.643 Y73.278 E.02458
G1 X161.353 Y68.988 E.30514
G1 X160.865 Y68.989 E.02454
G1 X165.643 Y73.767 E.33984
G1 X165.643 Y74.256 E.02458
G1 X160.377 Y68.99 E.37454
G1 X159.89 Y68.991 E.02454
G1 X165.643 Y74.744 E.40924
G1 X165.643 Y75.233 E.02458
G1 X159.402 Y68.991 E.44394
G1 X158.914 Y68.992 E.02454
G1 X165.643 Y75.722 E.47864
G1 X165.643 Y76.211 E.02458
G1 X158.426 Y68.993 E.51334
G1 X157.938 Y68.994 E.02454
G1 X165.643 Y76.7 E.54804
G1 X165.643 Y77.188 E.02458
G1 X157.45 Y68.995 E.58273
G1 X156.962 Y68.996 E.02454
G1 X165.643 Y77.677 E.61743
G1 X165.643 Y78.166 E.02458
G1 X156.474 Y68.997 E.65213
G1 X155.987 Y68.998 E.02454
G1 X165.643 Y78.655 E.68683
G1 X165.643 Y79.143 E.02458
G1 X155.499 Y68.999 E.72153
G1 X155.011 Y69 E.02454
G1 X165.643 Y79.632 E.75623
G1 X165.643 Y80.121 E.02458
G1 X154.523 Y69.001 E.79093
G1 X154.035 Y69.001 E.02454
G1 X165.643 Y80.61 E.82563
G1 X165.643 Y81.099 E.02458
G1 X153.547 Y69.002 E.86033
G1 X153.059 Y69.003 E.02454
G1 X165.643 Y81.587 E.89503
G1 X165.643 Y82.076 E.02458
G1 X152.571 Y69.004 E.92973
G1 X152.084 Y69.005 E.02454
G1 X165.495 Y82.416 E.95383
G1 X165.007 Y82.417 E.02454
G1 X151.596 Y69.006 E.95383
G1 X151.108 Y69.007 E.02454
G1 X164.519 Y82.418 E.95383
G1 X164.031 Y82.419 E.02454
G1 X150.62 Y69.008 E.95383
G1 X150.132 Y69.009 E.02454
G1 X163.543 Y82.42 E.95383
G1 X163.055 Y82.421 E.02454
G1 X149.644 Y69.01 E.95383
G1 X149.156 Y69.01 E.02454
G1 X162.567 Y82.421 E.95383
G1 X162.079 Y82.422 E.02454
G1 X148.668 Y69.011 E.95384
G1 X148.181 Y69.012 E.02454
G1 X161.592 Y82.423 E.95384
G1 X161.104 Y82.424 E.02454
G1 X147.693 Y69.013 E.95384
G1 X147.205 Y69.014 E.02454
G1 X160.616 Y82.425 E.95384
G1 X160.128 Y82.426 E.02454
G1 X146.717 Y69.015 E.95384
G1 X146.229 Y69.016 E.02454
G1 X159.64 Y82.427 E.95384
G1 X159.152 Y82.428 E.02454
G1 X145.741 Y69.017 E.95384
G1 X145.253 Y69.018 E.02454
G1 X158.664 Y82.429 E.95384
G1 X158.177 Y82.43 E.02454
M73 P0 R164
G1 X144.765 Y69.019 E.95384
G1 X144.278 Y69.02 E.02454
G1 X157.689 Y82.431 E.95384
G1 X157.201 Y82.431 E.02454
G1 X143.79 Y69.02 E.95384
G1 X143.302 Y69.021 E.02454
G1 X156.713 Y82.432 E.95384
G1 X156.225 Y82.433 E.02454
G1 X142.814 Y69.022 E.95384
G1 X142.326 Y69.023 E.02454
G1 X155.737 Y82.434 E.95384
G1 X155.249 Y82.435 E.02454
G1 X141.838 Y69.024 E.95384
G1 X141.35 Y69.025 E.02454
G1 X154.761 Y82.436 E.95384
G1 X154.274 Y82.437 E.02454
G1 X140.863 Y69.026 E.95384
G1 X140.375 Y69.027 E.02454
G1 X153.786 Y82.438 E.95384
G1 X153.298 Y82.439 E.02454
G1 X139.887 Y69.028 E.95384
G1 X139.399 Y69.029 E.02454
G1 X152.81 Y82.44 E.95384
G1 X152.322 Y82.441 E.02454
G1 X138.911 Y69.029 E.95384
G1 X138.423 Y69.03 E.02454
G1 X151.834 Y82.441 E.95385
G1 X151.346 Y82.442 E.02454
G1 X137.935 Y69.031 E.95385
G1 X137.447 Y69.032 E.02454
G1 X150.859 Y82.443 E.95385
G1 X150.371 Y82.444 E.02454
G1 X136.96 Y69.033 E.95385
G1 X136.472 Y69.034 E.02454
G1 X149.883 Y82.445 E.95385
G1 X149.395 Y82.446 E.02454
G1 X135.984 Y69.035 E.95385
G1 X135.496 Y69.036 E.02454
G1 X148.907 Y82.447 E.95385
G1 X148.419 Y82.448 E.02454
G1 X135.008 Y69.037 E.95385
G1 X134.52 Y69.038 E.02454
G1 X147.931 Y82.449 E.95385
G1 X147.443 Y82.45 E.02454
G1 X134.032 Y69.039 E.95385
G1 X133.544 Y69.039 E.02454
G1 X146.956 Y82.451 E.95385
G1 X146.468 Y82.451 E.02454
G1 X133.057 Y69.04 E.95385
G1 X132.569 Y69.041 E.02454
G1 X145.98 Y82.452 E.95385
G1 X145.492 Y82.453 E.02454
G1 X132.081 Y69.042 E.95385
G1 X131.593 Y69.043 E.02454
G1 X145.004 Y82.454 E.95385
G1 X144.516 Y82.455 E.02454
G1 X131.105 Y69.044 E.95385
G1 X130.617 Y69.045 E.02454
G1 X144.028 Y82.456 E.95385
G1 X143.541 Y82.457 E.02454
G1 X130.129 Y69.046 E.95385
G1 X129.641 Y69.047 E.02454
G1 X143.053 Y82.458 E.95385
G1 X142.565 Y82.459 E.02454
G1 X129.154 Y69.048 E.95385
G1 X128.666 Y69.048 E.02454
G1 X142.077 Y82.46 E.95385
G1 X141.589 Y82.461 E.02454
G1 X128.178 Y69.049 E.95386
G1 X127.69 Y69.05 E.02454
G1 X141.101 Y82.462 E.95386
G1 X140.613 Y82.462 E.02454
G1 X127.202 Y69.051 E.95386
G1 X126.714 Y69.052 E.02454
G1 X140.125 Y82.463 E.95386
G1 X139.638 Y82.464 E.02454
G1 X126.226 Y69.053 E.95386
G1 X125.738 Y69.054 E.02454
G1 X139.15 Y82.465 E.95386
G1 X138.662 Y82.466 E.02454
G1 X125.251 Y69.055 E.95386
G1 X124.763 Y69.056 E.02454
G1 X138.174 Y82.467 E.95386
G1 X137.686 Y82.468 E.02454
G1 X124.275 Y69.057 E.95386
G1 X123.787 Y69.058 E.02454
G1 X137.198 Y82.469 E.95386
G1 X136.71 Y82.47 E.02454
G1 X123.299 Y69.058 E.95386
G1 X122.811 Y69.059 E.02454
G1 X136.223 Y82.471 E.95386
G1 X135.735 Y82.472 E.02454
G1 X122.323 Y69.06 E.95386
G1 X121.835 Y69.061 E.02454
G1 X135.247 Y82.472 E.95386
G1 X134.759 Y82.473 E.02454
G1 X121.348 Y69.062 E.95386
G1 X120.86 Y69.063 E.02454
G1 X134.271 Y82.474 E.95386
G1 X133.783 Y82.475 E.02454
G1 X120.372 Y69.064 E.95386
G1 X119.884 Y69.065 E.02454
G1 X133.295 Y82.476 E.95386
G1 X132.807 Y82.477 E.02454
G1 X119.396 Y69.066 E.95386
G1 X118.908 Y69.067 E.02454
G1 X132.32 Y82.478 E.95386
G1 X131.832 Y82.479 E.02454
G1 X118.42 Y69.067 E.95386
G1 X117.932 Y69.068 E.02454
G1 X131.344 Y82.48 E.95387
G1 X130.856 Y82.481 E.02454
G1 X117.445 Y69.069 E.95387
G1 X116.957 Y69.07 E.02454
G1 X130.368 Y82.482 E.95387
G1 X129.88 Y82.482 E.02454
G1 X116.469 Y69.071 E.95387
G1 X115.981 Y69.072 E.02454
G1 X129.392 Y82.483 E.95387
G1 X128.905 Y82.484 E.02454
G1 X115.493 Y69.073 E.95387
G1 X115.005 Y69.074 E.02454
M73 P1 R164
G1 X128.417 Y82.485 E.95387
G1 X127.929 Y82.486 E.02454
G1 X114.517 Y69.075 E.95387
G1 X114.03 Y69.076 E.02454
G1 X127.441 Y82.487 E.95387
G1 X126.953 Y82.488 E.02454
G1 X113.542 Y69.077 E.95387
G1 X113.054 Y69.077 E.02454
G1 X126.465 Y82.489 E.95387
G1 X125.977 Y82.49 E.02454
G1 X112.566 Y69.078 E.95387
G1 X112.078 Y69.079 E.02454
G1 X125.489 Y82.491 E.95387
G1 X125.002 Y82.492 E.02454
G1 X111.59 Y69.08 E.95387
G1 X111.102 Y69.081 E.02454
G1 X124.514 Y82.493 E.95387
G1 X124.026 Y82.493 E.02454
G1 X110.614 Y69.082 E.95387
G1 X110.127 Y69.083 E.02454
G1 X123.538 Y82.494 E.95387
G1 X123.05 Y82.495 E.02454
G1 X109.639 Y69.084 E.95387
G1 X109.151 Y69.085 E.02454
G1 X122.562 Y82.496 E.95387
G1 X122.074 Y82.497 E.02454
G1 X108.663 Y69.086 E.95387
G1 X108.175 Y69.086 E.02454
G1 X121.587 Y82.498 E.95388
G1 X121.099 Y82.499 E.02454
G1 X107.687 Y69.087 E.95388
G1 X107.199 Y69.088 E.02454
G1 X120.611 Y82.5 E.95388
G1 X120.123 Y82.501 E.02454
G1 X106.711 Y69.089 E.95388
G1 X106.224 Y69.09 E.02454
G1 X119.635 Y82.502 E.95388
G1 X119.147 Y82.503 E.02454
G1 X105.736 Y69.091 E.95388
G1 X105.248 Y69.092 E.02454
G1 X118.659 Y82.503 E.95388
G1 X118.171 Y82.504 E.02454
G1 X104.76 Y69.093 E.95388
G1 X104.272 Y69.094 E.02454
G1 X117.684 Y82.505 E.95388
G1 X117.196 Y82.506 E.02454
G1 X103.784 Y69.095 E.95388
G1 X103.296 Y69.096 E.02454
G1 X116.708 Y82.507 E.95388
G1 X116.22 Y82.508 E.02454
M73 P1 R163
G1 X102.808 Y69.096 E.95388
G1 X102.321 Y69.097 E.02454
G1 X115.732 Y82.509 E.95388
G1 X115.244 Y82.51 E.02454
G1 X101.833 Y69.098 E.95388
G1 X101.345 Y69.099 E.02454
G1 X114.756 Y82.511 E.95388
G1 X114.269 Y82.512 E.02454
G1 X100.857 Y69.1 E.95388
G1 X100.369 Y69.101 E.02454
G1 X113.781 Y82.513 E.95388
G1 X113.293 Y82.513 E.02454
G1 X99.881 Y69.102 E.95388
G1 X99.393 Y69.103 E.02454
G1 X112.805 Y82.514 E.95388
G1 X112.317 Y82.515 E.02454
G1 X98.905 Y69.104 E.95388
G1 X98.418 Y69.105 E.02454
G1 X111.829 Y82.516 E.95388
G1 X111.341 Y82.517 E.02454
G1 X97.93 Y69.105 E.95388
G1 X97.442 Y69.106 E.02454
G1 X110.854 Y82.518 E.95389
G1 X110.366 Y82.519 E.02454
G1 X96.954 Y69.107 E.95389
G1 X96.466 Y69.108 E.02454
G1 X109.878 Y82.52 E.95389
G1 X109.39 Y82.521 E.02454
G1 X95.978 Y69.109 E.95389
G1 X95.49 Y69.11 E.02454
G1 X108.902 Y82.522 E.95389
G1 X108.414 Y82.523 E.02454
G1 X95.002 Y69.111 E.95389
G1 X94.515 Y69.112 E.02454
G1 X107.926 Y82.524 E.95389
G1 X107.438 Y82.524 E.02454
G1 X94.027 Y69.113 E.95389
G1 X93.539 Y69.114 E.02454
G1 X106.951 Y82.525 E.95389
G1 X106.463 Y82.526 E.02454
G1 X93.051 Y69.115 E.95389
G1 X92.563 Y69.115 E.02454
G1 X105.975 Y82.527 E.95389
G1 X105.487 Y82.528 E.02454
G1 X92.075 Y69.116 E.95389
G1 X91.587 Y69.117 E.02454
G1 X104.999 Y82.529 E.95389
G1 X104.511 Y82.53 E.02454
G1 X91.099 Y69.118 E.95389
G1 X90.612 Y69.119 E.02454
G1 X104.023 Y82.531 E.95389
G1 X103.536 Y82.532 E.02454
G1 X90.124 Y69.12 E.95389
G1 X89.636 Y69.121 E.02454
G1 X103.048 Y82.533 E.95389
G1 X102.56 Y82.534 E.02454
G1 X89.148 Y69.122 E.95389
G1 X88.66 Y69.123 E.02454
G1 X102.072 Y82.534 E.95389
G1 X101.584 Y82.535 E.02454
G1 X88.172 Y69.124 E.95389
G1 X87.684 Y69.124 E.02454
G1 X101.096 Y82.536 E.95389
G1 X100.608 Y82.537 E.02454
G1 X87.197 Y69.125 E.9539
G1 X86.709 Y69.126 E.02454
G1 X100.12 Y82.538 E.9539
G1 X99.633 Y82.539 E.02454
G1 X86.221 Y69.127 E.9539
G1 X85.733 Y69.128 E.02454
G1 X99.145 Y82.54 E.9539
G1 X98.657 Y82.541 E.02454
G1 X85.245 Y69.129 E.9539
G1 X84.757 Y69.13 E.02454
G1 X98.169 Y82.542 E.9539
G1 X97.681 Y82.543 E.02454
G1 X84.269 Y69.131 E.9539
G1 X83.781 Y69.132 E.02454
G1 X97.193 Y82.544 E.9539
G1 X96.705 Y82.544 E.02454
G1 X83.294 Y69.133 E.9539
G1 X82.806 Y69.134 E.02454
G1 X96.218 Y82.545 E.9539
G1 X95.73 Y82.546 E.02454
G1 X82.318 Y69.134 E.9539
G1 X81.83 Y69.135 E.02454
G1 X95.242 Y82.547 E.9539
G1 X94.754 Y82.548 E.02454
G1 X81.342 Y69.136 E.9539
G1 X80.854 Y69.137 E.02454
G1 X94.266 Y82.549 E.9539
G1 X93.778 Y82.55 E.02454
G1 X80.366 Y69.138 E.9539
G1 X79.878 Y69.139 E.02454
G1 X93.29 Y82.551 E.9539
G1 X92.802 Y82.552 E.02454
G1 X79.391 Y69.14 E.9539
G1 X78.903 Y69.141 E.02454
G1 X92.315 Y82.553 E.9539
G1 X91.827 Y82.554 E.02454
G1 X78.415 Y69.142 E.9539
G1 X77.927 Y69.143 E.02454
G1 X91.339 Y82.555 E.9539
G1 X90.851 Y82.555 E.02454
G1 X77.439 Y69.143 E.9539
G1 X76.951 Y69.144 E.02454
G1 X90.363 Y82.556 E.95391
G1 X89.875 Y82.557 E.02454
G1 X76.463 Y69.145 E.95391
G1 X75.975 Y69.146 E.02454
G1 X89.387 Y82.558 E.95391
G1 X88.9 Y82.559 E.02454
G1 X75.488 Y69.147 E.95391
G1 X75 Y69.148 E.02454
G1 X88.412 Y82.56 E.95391
G1 X87.924 Y82.561 E.02454
G1 X74.512 Y69.149 E.95391
G1 X74.024 Y69.15 E.02454
G1 X87.436 Y82.562 E.95391
G1 X86.948 Y82.563 E.02454
G1 X73.536 Y69.151 E.95391
G1 X73.048 Y69.152 E.02454
G1 X86.46 Y82.564 E.95391
G1 X85.972 Y82.565 E.02454
G1 X72.56 Y69.153 E.95391
G1 X72.072 Y69.153 E.02454
G1 X85.484 Y82.565 E.95391
G1 X84.997 Y82.566 E.02454
G1 X71.585 Y69.154 E.95391
G1 X71.097 Y69.155 E.02454
G1 X84.509 Y82.567 E.95391
G1 X84.021 Y82.568 E.02454
G1 X70.609 Y69.156 E.95391
G1 X70.121 Y69.157 E.02454
G1 X83.533 Y82.569 E.95391
G1 X83.045 Y82.57 E.02454
G1 X69.633 Y69.158 E.95391
G1 X69.145 Y69.159 E.02454
G1 X82.557 Y82.571 E.95391
G1 X82.069 Y82.572 E.02454
G1 X68.657 Y69.16 E.95391
G1 X68.169 Y69.161 E.02454
G1 X81.582 Y82.573 E.95391
G1 X81.094 Y82.574 E.02454
G1 X67.682 Y69.162 E.95391
G1 X67.194 Y69.162 E.02454
G1 X80.606 Y82.575 E.95391
G1 X80.118 Y82.575 E.02454
G1 X66.706 Y69.163 E.95392
G1 X66.218 Y69.164 E.02454
G1 X79.63 Y82.576 E.95392
G1 X79.142 Y82.577 E.02454
G1 X65.73 Y69.165 E.95392
G1 X65.242 Y69.166 E.02454
G1 X78.654 Y82.578 E.95392
G1 X78.166 Y82.579 E.02454
G1 X64.754 Y69.167 E.95392
G1 X64.266 Y69.168 E.02454
G1 X77.679 Y82.58 E.95392
G1 X77.191 Y82.581 E.02454
G1 X63.779 Y69.169 E.95392
G1 X63.291 Y69.17 E.02454
G1 X76.703 Y82.582 E.95392
G1 X76.215 Y82.583 E.02454
G1 X62.803 Y69.171 E.95392
G1 X62.315 Y69.172 E.02454
G1 X75.727 Y82.584 E.95392
G1 X75.239 Y82.585 E.02454
G1 X61.827 Y69.172 E.95392
G1 X61.339 Y69.173 E.02454
G1 X74.751 Y82.586 E.95392
G1 X74.264 Y82.586 E.02454
G1 X60.851 Y69.174 E.95392
G1 X60.364 Y69.175 E.02454
M73 P1 R162
G1 X73.776 Y82.587 E.95392
G1 X73.288 Y82.588 E.02454
G1 X59.876 Y69.176 E.95392
G1 X59.388 Y69.177 E.02454
G1 X72.8 Y82.589 E.95392
G1 X72.312 Y82.59 E.02454
G1 X58.9 Y69.178 E.95392
G1 X58.412 Y69.179 E.02454
G1 X71.824 Y82.591 E.95392
G1 X71.336 Y82.592 E.02454
G1 X57.924 Y69.18 E.95392
G1 X57.436 Y69.181 E.02454
G1 X70.848 Y82.593 E.95392
G1 X70.361 Y82.594 E.02454
G1 X56.948 Y69.181 E.95392
G1 X56.461 Y69.182 E.02454
G1 X69.873 Y82.595 E.95393
G1 X69.385 Y82.596 E.02454
G1 X55.973 Y69.183 E.95393
G1 X55.485 Y69.184 E.02454
G1 X68.897 Y82.596 E.95393
G1 X68.409 Y82.597 E.02454
G1 X54.997 Y69.185 E.95393
G1 X54.509 Y69.186 E.02454
G1 X67.921 Y82.598 E.95393
G1 X67.433 Y82.599 E.02454
G1 X54.021 Y69.187 E.95393
G1 X53.533 Y69.188 E.02454
G1 X66.946 Y82.6 E.95393
G1 X66.458 Y82.601 E.02454
G1 X53.045 Y69.189 E.95393
G1 X52.558 Y69.19 E.02454
G1 X65.97 Y82.602 E.95393
G1 X65.482 Y82.603 E.02454
G1 X52.07 Y69.191 E.95393
G1 X51.582 Y69.191 E.02454
G1 X64.994 Y82.604 E.95393
G1 X64.506 Y82.605 E.02454
G1 X51.094 Y69.192 E.95393
G1 X50.606 Y69.193 E.02454
G1 X64.018 Y82.606 E.95393
G1 X63.531 Y82.606 E.02454
G1 X50.118 Y69.194 E.95393
G1 X49.63 Y69.195 E.02454
G1 X63.043 Y82.607 E.95393
G1 X62.555 Y82.608 E.02454
G1 X49.142 Y69.196 E.95393
G1 X48.655 Y69.197 E.02454
G1 X62.067 Y82.609 E.95393
G1 X61.579 Y82.61 E.02454
G1 X48.167 Y69.198 E.95393
G1 X47.679 Y69.199 E.02454
G1 X61.091 Y82.611 E.95393
G1 X60.603 Y82.612 E.02454
G1 X47.191 Y69.2 E.95393
G1 X46.703 Y69.2 E.02454
G1 X60.115 Y82.613 E.95393
G1 X59.628 Y82.614 E.02454
G1 X46.215 Y69.201 E.95394
G1 X45.727 Y69.202 E.02454
G1 X59.14 Y82.615 E.95394
G1 X58.652 Y82.616 E.02454
G1 X45.239 Y69.203 E.95394
G1 X44.752 Y69.204 E.02454
M73 P2 R162
G1 X58.164 Y82.617 E.95394
G1 X57.676 Y82.617 E.02454
G1 X44.264 Y69.205 E.95394
G1 X43.776 Y69.206 E.02454
G1 X57.188 Y82.618 E.95394
G1 X56.7 Y82.619 E.02454
G1 X43.288 Y69.207 E.95394
G1 X42.8 Y69.208 E.02454
G1 X56.213 Y82.62 E.95394
G1 X55.725 Y82.621 E.02454
G1 X42.312 Y69.209 E.95394
G1 X41.824 Y69.21 E.02454
G1 X55.237 Y82.622 E.95394
G1 X54.749 Y82.623 E.02454
G1 X41.336 Y69.21 E.95394
G1 X40.849 Y69.211 E.02454
G1 X54.261 Y82.624 E.95394
G1 X53.773 Y82.625 E.02454
G1 X40.361 Y69.212 E.95394
G1 X39.873 Y69.213 E.02454
G1 X53.285 Y82.626 E.95394
G1 X52.797 Y82.627 E.02454
G1 X39.385 Y69.214 E.95394
G1 X38.897 Y69.215 E.02454
G1 X52.31 Y82.627 E.95394
G1 X51.822 Y82.628 E.02454
G1 X38.409 Y69.216 E.95394
G1 X37.921 Y69.217 E.02454
G1 X51.334 Y82.629 E.95394
G1 X50.846 Y82.63 E.02454
G1 X37.433 Y69.218 E.95394
