; generated by PrusaSlicer 2.5.0+win64 on 2022-12-07 at 00:26:27 UTC

; 

; external perimeters extrusion width = 1.00mm
; perimeters extrusion width = 1.00mm
; infill extrusion width = 1.00mm
; solid infill extrusion width = 1.00mm
; top infill extrusion width = 1.00mm
; support material extrusion width = 1.00mm
; first layer extrusion width = 0.42mm

M73 P0 R286
M107
;TYPE:Custom
G90 ; use absolute coordinates
M83 ; extruder relative mode
M140 S60 ; set final bed temp
M104 S150 ; set temporary nozzle temp to prevent oozing during homing and auto bed leveling
G4 S10 ; allow partial nozzle warmup
G28 ; home all axisG1 Z50 F240
G1 X7.6 Y10 F3000
M104 S210 ; set final nozzle temp
M190 S60 ; wait for bed temp to stabilize
M109 S210 ; wait for nozzle temp to stabilize
G1 Z0.28 F240
G92 E0
G1 Y140 E10 F1500 ; prime the nozzle
G1 X4 F5000
G92 E0
G1 Y10 E10 F1200 ; prime the nozzle
G92 E0
G21 ; set units to millimeters
G90 ; use absolute coordinates
M83 ; use relative distances for extrusion
; Filament gcode
M107
;LAYER_CHANGE
;Z:0.35
;HEIGHT:0.35
;BEFORE_LAYER_CHANGE
G92 E0
;0.35


G1 E-1 F3600
G1 Z.35 F7800
;AFTER_LAYER_CHANGE
;0.35
G1 X144.126 Y29.394
G1 E1 F2400
;TYPE:Support material
;WIDTH:0.42
G1 F1800
G1 X127.475 Y29.394 E.83563
G1 X127.475 Y25.695 E.18563
G1 X144.126 Y25.695 E.83563
G1 X144.126 Y29.342 E.18303
G1 X143.649 Y29.239 F7800
G1 F1800
G1 X143.649 Y26.006 E.16226
G1 X143.265 Y26.006 E.01923
G1 X143.265 Y29.084 E.15447
G1 X142.882 Y29.084 E.01923
G1 X142.882 Y26.006 E.15447
G1 X142.499 Y26.006 E.01923
G1 X142.499 Y29.084 E.15447
G1 X142.116 Y29.084 E.01923
G1 X142.116 Y26.006 E.15447
G1 X141.733 Y26.006 E.01923
M73 P0 R285
G1 X141.733 Y29.084 E.15447
G1 X141.349 Y29.084 E.01923
G1 X141.349 Y26.006 E.15447
G1 X140.966 Y26.006 E.01923
G1 X140.966 Y29.084 E.15447
G1 X140.583 Y29.084 E.01923
G1 X140.583 Y26.006 E.15447
G1 X140.2 Y26.006 E.01923
G1 X140.2 Y29.084 E.15447
G1 X139.816 Y29.084 E.01923
G1 X139.816 Y26.006 E.15447
G1 X139.433 Y26.006 E.01923
G1 X139.433 Y29.084 E.15447
G1 X139.05 Y29.084 E.01923
G1 X139.05 Y26.006 E.15447
G1 X138.667 Y26.006 E.01923
G1 X138.667 Y29.084 E.15447
G1 X138.284 Y29.084 E.01923
G1 X138.284 Y26.006 E.15447
G1 X137.9 Y26.006 E.01923
G1 X137.9 Y29.084 E.15447
G1 X137.517 Y29.084 E.01923
G1 X137.517 Y26.006 E.15447
G1 X137.134 Y26.006 E.01923
G1 X137.134 Y29.084 E.15447
G1 X136.751 Y29.084 E.01923
G1 X136.751 Y26.006 E.15447
G1 X136.368 Y26.006 E.01923
G1 X136.368 Y29.084 E.15447
G1 X135.984 Y29.084 E.01923
G1 X135.984 Y26.006 E.15447
G1 X135.601 Y26.006 E.01923
G1 X135.601 Y29.084 E.15447
G1 X135.218 Y29.084 E.01923
G1 X135.218 Y26.006 E.15447
G1 X134.835 Y26.006 E.01923
G1 X134.835 Y29.084 E.15447
G1 X134.452 Y29.084 E.01923
G1 X134.452 Y26.006 E.15447
G1 X134.068 Y26.006 E.01923
G1 X134.068 Y29.084 E.15447
G1 X133.685 Y29.084 E.01923
G1 X133.685 Y26.006 E.15447
G1 X133.302 Y26.006 E.01923
G1 X133.302 Y29.084 E.15447
G1 X132.919 Y29.084 E.01923
G1 X132.919 Y26.006 E.15447
G1 X132.535 Y26.006 E.01923
G1 X132.535 Y29.084 E.15447
G1 X132.152 Y29.084 E.01923
G1 X132.152 Y26.006 E.15447
G1 X131.769 Y26.006 E.01923
G1 X131.769 Y29.084 E.15447
G1 X131.386 Y29.084 E.01923
G1 X131.386 Y26.006 E.15447
G1 X131.003 Y26.006 E.01923
G1 X131.003 Y29.084 E.15447
G1 X130.619 Y29.084 E.01923
G1 X130.619 Y26.006 E.15447
G1 X130.236 Y26.006 E.01923
G1 X130.236 Y29.084 E.15447
G1 X129.853 Y29.084 E.01923
G1 X129.853 Y26.006 E.15447
G1 X129.47 Y26.006 E.01923
G1 X129.47 Y29.084 E.15447
G1 X129.087 Y29.084 E.01923
G1 X129.087 Y26.006 E.15447
G1 X128.703 Y26.006 E.01923
G1 X128.703 Y29.084 E.15447
G1 X128.32 Y29.084 E.01923
G1 X128.32 Y26.006 E.15447
G1 X127.937 Y26.006 E.01923
G1 X127.937 Y29.239 E.16226
G1 E-.7 F3600
;WIPE_START
G1 F6240
G1 X127.937 Y28.719 E-.285
;WIPE_END
G1 E-.015 F3600
G1 X165.035 Y42.372 F7800
G1 E1 F2400
;TYPE:Perimeter
;WIDTH:0.42
G1 F1800
G1 X14.868 Y40.789 E7.53669
G1 X14.868 Y30.659 E.50842
G1 X163.199 Y30.659 E7.44411
G1 X165.012 Y42.223 E.58747
G1 X165.439 Y42.721 F7800
;TYPE:External perimeter
G1 F1800
G1 X14.523 Y41.131 E7.57427
G1 X14.523 Y30.314 E.54285
G1 X163.494 Y30.314 E7.47622
G1 X165.416 Y42.573 E.62273
G1 X164.44 Y42.686 F7800
G1 E-.7 F3600
;WIPE_START
G1 F6240
G1 X164.896 Y42.568 E-.285
;WIPE_END
G1 E-.015 F3600
G1 X163.24 Y31.593 F7800
G1 E1 F2400
;TYPE:Solid infill
;WIDTH:0.420218
G1 F1800
G1 X162.565 Y30.917 E.04795
G1 X162.077 Y30.917 E.02451
G1 X163.145 Y31.985 E.07582
G1 X163.236 Y32.564 E.02942
G1 X161.589 Y30.917 E.11693
G1 X161.101 Y30.917 E.02451
G1 X163.326 Y33.143 E.15803
G1 X163.417 Y33.722 E.02942
G1 X160.613 Y30.917 E.19914
G1 X160.125 Y30.917 E.02451
G1 X163.508 Y34.3 E.24025
G1 X163.599 Y34.879 E.02942
G1 X159.637 Y30.917 E.28135
G1 X159.149 Y30.917 E.02451
G1 X163.689 Y35.458 E.32246
G1 X163.78 Y36.037 E.02942
G1 X158.661 Y30.917 E.36357
G1 X158.173 Y30.917 E.02451
G1 X163.871 Y36.616 E.40467
G1 X163.962 Y37.194 E.02942
G1 X157.685 Y30.917 E.44578
G1 X157.197 Y30.917 E.02451
G1 X164.052 Y37.773 E.48688
G1 X164.143 Y38.352 E.02942
G1 X156.709 Y30.917 E.52799
G1 X156.221 Y30.917 E.02451
G1 X164.234 Y38.931 E.5691
G1 X164.325 Y39.51 E.02942
G1 X155.733 Y30.917 E.6102
G1 X155.244 Y30.917 E.02451
G1 X164.415 Y40.088 E.65131
G1 X164.506 Y40.667 E.02942
G1 X154.756 Y30.917 E.69241
G1 X154.268 Y30.917 E.02451
G1 X164.597 Y41.246 E.73352
G1 X164.688 Y41.825 E.02942
G1 X153.78 Y30.917 E.77463
G1 X153.292 Y30.917 E.02451
G1 X164.482 Y42.107 E.79467
G1 X163.989 Y42.102 E.02477
G1 X152.804 Y30.917 E.7943
G1 X152.316 Y30.917 E.02451
G1 X163.495 Y42.097 E.79393
G1 X163.002 Y42.092 E.02477
G1 X151.828 Y30.917 E.79356
G1 X151.34 Y30.917 E.02451
G1 X162.509 Y42.086 E.7932
G1 X162.016 Y42.081 E.02477
G1 X150.852 Y30.917 E.79283
G1 X150.364 Y30.917 E.02451
G1 X161.522 Y42.076 E.79246
G1 X161.029 Y42.071 E.02477
G1 X149.876 Y30.917 E.79209
G1 X149.388 Y30.917 E.02451
G1 X160.536 Y42.066 E.79172
G1 X160.043 Y42.06 E.02477
G1 X148.9 Y30.917 E.79135
G1 X148.412 Y30.917 E.02451
G1 X159.549 Y42.055 E.79098
G1 X159.056 Y42.05 E.02477
G1 X147.924 Y30.917 E.79061
G1 X147.436 Y30.917 E.02451
G1 X158.563 Y42.045 E.79024
G1 X158.07 Y42.04 E.02477
G1 X146.948 Y30.917 E.78987
G1 X146.459 Y30.917 E.02451
G1 X157.576 Y42.034 E.7895
G1 X157.083 Y42.029 E.02477
G1 X145.971 Y30.917 E.78914
G1 X145.483 Y30.917 E.02451
G1 X156.59 Y42.024 E.78877
G1 X156.097 Y42.019 E.02477
G1 X144.995 Y30.917 E.7884
G1 X144.507 Y30.917 E.02451
G1 X155.603 Y42.014 E.78803
G1 X155.11 Y42.008 E.02477
G1 X144.019 Y30.917 E.78766
G1 X143.531 Y30.917 E.02451
G1 X154.617 Y42.003 E.78729
G1 X154.124 Y41.998 E.02477
G1 X143.043 Y30.917 E.78692
G1 X142.555 Y30.917 E.02451
G1 X153.63 Y41.993 E.78655
G1 X153.137 Y41.988 E.02477
G1 X142.067 Y30.917 E.78618
G1 X141.579 Y30.917 E.02451
G1 X152.644 Y41.982 E.78581
G1 X152.151 Y41.977 E.02477
G1 X141.091 Y30.917 E.78544
G1 X140.603 Y30.917 E.02451
G1 X151.657 Y41.972 E.78508
G1 X151.164 Y41.967 E.02477
G1 X140.115 Y30.917 E.78471
G1 X139.627 Y30.917 E.02451
G1 X150.671 Y41.962 E.78434
G1 X150.178 Y41.956 E.02477
G1 X139.139 Y30.917 E.78397
G1 X138.651 Y30.917 E.02451
G1 X149.684 Y41.951 E.7836
G1 X149.191 Y41.946 E.02477
G1 X138.163 Y30.917 E.78323
G1 X137.674 Y30.917 E.02451
G1 X148.698 Y41.941 E.78286
G1 X148.205 Y41.936 E.02477
G1 X137.186 Y30.917 E.78249
G1 X136.698 Y30.917 E.02451
G1 X147.711 Y41.93 E.78212
G1 X147.218 Y41.925 E.02477
G1 X136.21 Y30.917 E.78175
G1 X135.722 Y30.917 E.02451
G1 X146.725 Y41.92 E.78138
G1 X146.232 Y41.915 E.02477
G1 X135.234 Y30.917 E.78102
G1 X134.746 Y30.917 E.02451
G1 X145.738 Y41.91 E.78065
G1 X145.245 Y41.904 E.02477
G1 X134.258 Y30.917 E.78028
G1 X133.77 Y30.917 E.02451
G1 X144.752 Y41.899 E.77991
G1 X144.259 Y41.894 E.02477
G1 X133.282 Y30.917 E.77954
G1 X132.794 Y30.917 E.02451
M73 P0 R284
G1 X143.765 Y41.889 E.77917
G1 X143.272 Y41.884 E.02477
G1 X132.306 Y30.917 E.7788
G1 X131.818 Y30.917 E.02451
G1 X142.779 Y41.878 E.77843
G1 X142.286 Y41.873 E.02477
G1 X131.33 Y30.917 E.77806
G1 X130.842 Y30.917 E.02451
G1 X141.792 Y41.868 E.77769
G1 X141.299 Y41.863 E.02477
G1 X130.354 Y30.917 E.77733
G1 X129.866 Y30.917 E.02451
G1 X140.806 Y41.858 E.77696
G1 X140.313 Y41.853 E.02477
G1 X129.378 Y30.917 E.77659
G1 X128.889 Y30.917 E.02451
G1 X139.819 Y41.847 E.77622
G1 X139.326 Y41.842 E.02477
G1 X128.401 Y30.917 E.77585
G1 X127.913 Y30.917 E.02451
G1 X138.833 Y41.837 E.77548
G1 X138.34 Y41.832 E.02477
G1 X127.425 Y30.917 E.77511
G1 X126.937 Y30.917 E.02451
G1 X137.846 Y41.827 E.77474
G1 X137.353 Y41.821 E.02477
G1 X126.449 Y30.917 E.77437
G1 X125.961 Y30.917 E.02451
G1 X136.86 Y41.816 E.774
G1 X136.367 Y41.811 E.02477
G1 X125.473 Y30.917 E.77363
G1 X124.985 Y30.917 E.02451
G1 X135.873 Y41.806 E.77327
G1 X135.38 Y41.801 E.02477
G1 X124.497 Y30.917 E.7729
G1 X124.009 Y30.917 E.02451
G1 X134.887 Y41.795 E.77253
G1 X134.394 Y41.79 E.02477
G1 X123.521 Y30.917 E.77216
G1 X123.033 Y30.917 E.02451
G1 X133.9 Y41.785 E.77179
G1 X133.407 Y41.78 E.02477
G1 X122.545 Y30.917 E.77142
G1 X122.057 Y30.917 E.02451
G1 X132.914 Y41.775 E.77105
G1 X132.421 Y41.769 E.02477
G1 X121.569 Y30.917 E.77068
G1 X121.081 Y30.917 E.02451
G1 X131.927 Y41.764 E.77031
G1 X131.434 Y41.759 E.02477
G1 X120.593 Y30.917 E.76994
G1 X120.104 Y30.917 E.02451
G1 X130.941 Y41.754 E.76957
G1 X130.448 Y41.749 E.02477
G1 X119.616 Y30.917 E.76921
G1 X119.128 Y30.917 E.02451
G1 X129.954 Y41.743 E.76884
G1 X129.461 Y41.738 E.02477
G1 X118.64 Y30.917 E.76847
G1 X118.152 Y30.917 E.02451
G1 X128.968 Y41.733 E.7681
G1 X128.475 Y41.728 E.02477
G1 X117.664 Y30.917 E.76773
G1 X117.176 Y30.917 E.02451
G1 X127.981 Y41.723 E.76736
G1 X127.488 Y41.717 E.02477
G1 X116.688 Y30.917 E.76699
G1 X116.2 Y30.917 E.02451
G1 X126.995 Y41.712 E.76662
G1 X126.501 Y41.707 E.02477
G1 X115.712 Y30.917 E.76625
G1 X115.224 Y30.917 E.02451
G1 X126.008 Y41.702 E.76588
G1 X125.515 Y41.697 E.02477
G1 X114.736 Y30.917 E.76551
G1 X114.248 Y30.917 E.02451
G1 X125.022 Y41.691 E.76515
G1 X124.528 Y41.686 E.02477
G1 X113.76 Y30.917 E.76478
G1 X113.272 Y30.917 E.02451
G1 X124.035 Y41.681 E.76441
G1 X123.542 Y41.676 E.02477
G1 X112.784 Y30.917 E.76404
G1 X112.296 Y30.917 E.02451
G1 X123.049 Y41.671 E.76367
G1 X122.555 Y41.665 E.02477
G1 X111.808 Y30.917 E.7633
G1 X111.32 Y30.917 E.02451
G1 X122.062 Y41.66 E.76293
G1 X121.569 Y41.655 E.02477
G1 X110.831 Y30.917 E.76256
G1 X110.343 Y30.917 E.02451
G1 X121.076 Y41.65 E.76219
G1 X120.582 Y41.645 E.02477
G1 X109.855 Y30.917 E.76182
G1 X109.367 Y30.917 E.02451
G1 X120.089 Y41.639 E.76145
G1 X119.596 Y41.634 E.02477
G1 X108.879 Y30.917 E.76109
G1 X108.391 Y30.917 E.02451
G1 X119.103 Y41.629 E.76072
G1 X118.609 Y41.624 E.02477
G1 X107.903 Y30.917 E.76035
G1 X107.415 Y30.917 E.02451
G1 X118.116 Y41.619 E.75998
G1 X117.623 Y41.613 E.02477
G1 X106.927 Y30.917 E.75961
G1 X106.439 Y30.917 E.02451
G1 X117.13 Y41.608 E.75924
G1 X116.636 Y41.603 E.02477
G1 X105.951 Y30.917 E.75887
G1 X105.463 Y30.917 E.02451
G1 X116.143 Y41.598 E.7585
G1 X115.65 Y41.593 E.02477
G1 X104.975 Y30.917 E.75813
G1 X104.487 Y30.917 E.02451
G1 X115.157 Y41.587 E.75776
G1 X114.663 Y41.582 E.02477
G1 X103.999 Y30.917 E.7574
G1 X103.511 Y30.917 E.02451
G1 X114.17 Y41.577 E.75703
G1 X113.677 Y41.572 E.02477
G1 X103.023 Y30.917 E.75666
G1 X102.535 Y30.917 E.02451
G1 X113.184 Y41.567 E.75629
G1 X112.69 Y41.561 E.02477
G1 X102.046 Y30.917 E.75592
G1 X101.558 Y30.917 E.02451
G1 X112.197 Y41.556 E.75555
G1 X111.704 Y41.551 E.02477
G1 X101.07 Y30.917 E.75518
G1 X100.582 Y30.917 E.02451
G1 X111.211 Y41.546 E.75481
G1 X110.717 Y41.541 E.02477
G1 X100.094 Y30.917 E.75444
G1 X99.606 Y30.917 E.02451
G1 X110.224 Y41.536 E.75407
G1 X109.731 Y41.53 E.02477
G1 X99.118 Y30.917 E.7537
G1 X98.63 Y30.917 E.02451
G1 X109.238 Y41.525 E.75334
G1 X108.744 Y41.52 E.02477
G1 X98.142 Y30.917 E.75297
G1 X97.654 Y30.917 E.02451
G1 X108.251 Y41.515 E.7526
G1 X107.758 Y41.51 E.02477
G1 X97.166 Y30.917 E.75223
G1 X96.678 Y30.917 E.02451
G1 X107.265 Y41.504 E.75186
G1 X106.771 Y41.499 E.02477
G1 X96.19 Y30.917 E.75149
G1 X95.702 Y30.917 E.02451
G1 X106.278 Y41.494 E.75112
G1 X105.785 Y41.489 E.02477
G1 X95.214 Y30.917 E.75075
G1 X94.726 Y30.917 E.02451
G1 X105.292 Y41.484 E.75038
G1 X104.798 Y41.478 E.02477
G1 X94.238 Y30.917 E.75001
G1 X93.75 Y30.917 E.02451
G1 X104.305 Y41.473 E.74964
G1 X103.812 Y41.468 E.02477
G1 X93.261 Y30.917 E.74928
G1 X92.773 Y30.917 E.02451
G1 X103.319 Y41.463 E.74891
G1 X102.825 Y41.458 E.02477
G1 X92.285 Y30.917 E.74854
G1 X91.797 Y30.917 E.02451
G1 X102.332 Y41.452 E.74817
G1 X101.839 Y41.447 E.02477
G1 X91.309 Y30.917 E.7478
G1 X90.821 Y30.917 E.02451
G1 X101.346 Y41.442 E.74743
G1 X100.852 Y41.437 E.02477
G1 X90.333 Y30.917 E.74706
G1 X89.845 Y30.917 E.02451
G1 X100.359 Y41.432 E.74669
G1 X99.866 Y41.426 E.02477
G1 X89.357 Y30.917 E.74632
G1 X88.869 Y30.917 E.02451
G1 X99.373 Y41.421 E.74595
G1 X98.879 Y41.416 E.02477
G1 X88.381 Y30.917 E.74558
G1 X87.893 Y30.917 E.02451
G1 X98.386 Y41.411 E.74522
G1 X97.893 Y41.406 E.02477
G1 X87.405 Y30.917 E.74485
G1 X86.917 Y30.917 E.02451
G1 X97.4 Y41.4 E.74448
G1 X96.906 Y41.395 E.02477
G1 X86.429 Y30.917 E.74411
G1 X85.941 Y30.917 E.02451
G1 X96.413 Y41.39 E.74374
G1 X95.92 Y41.385 E.02477
G1 X85.453 Y30.917 E.74337
G1 X84.965 Y30.917 E.02451
G1 X95.427 Y41.38 E.743
G1 X94.933 Y41.374 E.02477
G1 X84.476 Y30.917 E.74263
G1 X83.988 Y30.917 E.02451
G1 X94.44 Y41.369 E.74226
G1 X93.947 Y41.364 E.02477
G1 X83.5 Y30.917 E.74189
G1 X83.012 Y30.917 E.02451
G1 X93.454 Y41.359 E.74152
G1 X92.96 Y41.354 E.02477
G1 X82.524 Y30.917 E.74116
G1 X82.036 Y30.917 E.02451
G1 X92.467 Y41.348 E.74079
G1 X91.974 Y41.343 E.02477
G1 X81.548 Y30.917 E.74042
G1 X81.06 Y30.917 E.02451
M73 P0 R283
G1 X91.481 Y41.338 E.74005
G1 X90.987 Y41.333 E.02477
G1 X80.572 Y30.917 E.73968
G1 X80.084 Y30.917 E.02451
G1 X90.494 Y41.328 E.73931
G1 X90.001 Y41.322 E.02477
G1 X79.596 Y30.917 E.73894
G1 X79.108 Y30.917 E.02451
G1 X89.508 Y41.317 E.73857
G1 X89.014 Y41.312 E.02477
G1 X78.62 Y30.917 E.7382
G1 X78.132 Y30.917 E.02451
G1 X88.521 Y41.307 E.73783
G1 X88.028 Y41.302 E.02477
G1 X77.644 Y30.917 E.73746
G1 X77.156 Y30.917 E.02451
G1 X87.535 Y41.296 E.7371
G1 X87.041 Y41.291 E.02477
G1 X76.668 Y30.917 E.73673
G1 X76.18 Y30.917 E.02451
G1 X86.548 Y41.286 E.73636
G1 X86.055 Y41.281 E.02477
G1 X75.691 Y30.917 E.73599
G1 X75.203 Y30.917 E.02451
G1 X85.562 Y41.276 E.73562
G1 X85.068 Y41.27 E.02477
G1 X74.715 Y30.917 E.73525
G1 X74.227 Y30.917 E.02451
G1 X84.575 Y41.265 E.73488
G1 X84.082 Y41.26 E.02477
G1 X73.739 Y30.917 E.73451
G1 X73.251 Y30.917 E.02451
G1 X83.589 Y41.255 E.73414
G1 X83.095 Y41.25 E.02477
G1 X72.763 Y30.917 E.73377
G1 X72.275 Y30.917 E.02451
G1 X82.602 Y41.244 E.73341
G1 X82.109 Y41.239 E.02477
G1 X71.787 Y30.917 E.73304
G1 X71.299 Y30.917 E.02451
G1 X81.616 Y41.234 E.73267
G1 X81.122 Y41.229 E.02477
G1 X70.811 Y30.917 E.7323
G1 X70.323 Y30.917 E.02451
G1 X80.629 Y41.224 E.73193
G1 X80.136 Y41.218 E.02477
G1 X69.835 Y30.917 E.73156
G1 X69.347 Y30.917 E.02451
G1 X79.643 Y41.213 E.73119
G1 X79.149 Y41.208 E.02477
G1 X68.859 Y30.917 E.73082
G1 X68.371 Y30.917 E.02451
G1 X78.656 Y41.203 E.73045
G1 X78.163 Y41.198 E.02477
G1 X67.883 Y30.917 E.73008
G1 X67.395 Y30.917 E.02451
G1 X77.67 Y41.193 E.72971
G1 X77.176 Y41.187 E.02477
G1 X66.907 Y30.917 E.72935
G1 X66.418 Y30.917 E.02451
G1 X76.683 Y41.182 E.72898
G1 X76.19 Y41.177 E.02477
G1 X65.93 Y30.917 E.72861
G1 X65.442 Y30.917 E.02451
G1 X75.697 Y41.172 E.72824
G1 X75.203 Y41.167 E.02477
G1 X64.954 Y30.917 E.72787
G1 X64.466 Y30.917 E.02451
G1 X74.71 Y41.161 E.7275
G1 X74.217 Y41.156 E.02477
G1 X63.978 Y30.917 E.72713
G1 X63.49 Y30.917 E.02451
G1 X73.724 Y41.151 E.72676
G1 X73.23 Y41.146 E.02477
G1 X63.002 Y30.917 E.72639
G1 X62.514 Y30.917 E.02451
G1 X72.737 Y41.141 E.72602
G1 X72.244 Y41.135 E.02477
G1 X62.026 Y30.917 E.72565
G1 X61.538 Y30.917 E.02451
G1 X71.751 Y41.13 E.72529
G1 X71.257 Y41.125 E.02477
G1 X61.05 Y30.917 E.72492
G1 X60.562 Y30.917 E.02451
G1 X70.764 Y41.12 E.72455
G1 X70.271 Y41.115 E.02477
G1 X60.074 Y30.917 E.72418
G1 X59.586 Y30.917 E.02451
G1 X69.778 Y41.109 E.72381
G1 X69.284 Y41.104 E.02477
