; generated by PrusaSlicer 2.5.0+win64 on 2022-12-07 at 00:26:21 UTC

; 

; external perimeters extrusion width = 1.00mm
; perimeters extrusion width = 1.00mm
; infill extrusion width = 1.00mm
; solid infill extrusion width = 1.00mm
; top infill extrusion width = 1.00mm
; support material extrusion width = 1.00mm
; first layer extrusion width = 0.42mm

M73 P0 R13
M107
;TYPE:Custom
G90 ; use absolute coordinates
M83 ; extruder relative mode
M140 S60 ; set final bed temp
M104 S150 ; set temporary nozzle temp to prevent oozing during homing and auto bed leveling
G4 S10 ; allow partial nozzle warmup
G28 ; home all axisG1 Z50 F240
G1 X7.6 Y10 F3000
M104 S210 ; set final nozzle temp
M190 S60 ; wait for bed temp to stabilize
M109 S210 ; wait for nozzle temp to stabilize
G1 Z0.28 F240
G92 E0
G1 Y140 E10 F1500 ; prime the nozzle
G1 X4 F5000
G92 E0
G1 Y10 E10 F1200 ; prime the nozzle
G92 E0
G21 ; set units to millimeters
G90 ; use absolute coordinates
M83 ; use relative distances for extrusion
; Filament gcode
M107
;LAYER_CHANGE
;Z:0.35
;HEIGHT:0.35
;BEFORE_LAYER_CHANGE
G92 E0
;0.35


G1 E-1 F3600
M73 P1 R13
G1 Z.35 F7800
;AFTER_LAYER_CHANGE
;0.35
G1 X14.098 Y93.152
G1 E1 F2400
;TYPE:Perimeter
;WIDTH:0.42
G1 F1800
G1 X14.098 Y87.129 E.30224
G1 X57.888 Y86.911 E2.19769
G1 X165.902 Y87.158 E5.42077
G1 X165.902 Y93.152 E.3008
M73 P2 R13
G1 X14.248 Y93.152 E7.6109
G1 X13.753 Y93.497 F7800
;TYPE:External perimeter
G1 F1800
G1 X13.753 Y86.786 E.33678
G1 X57.888 Y86.566 E2.21498
M73 P3 R13
G1 X166.247 Y86.814 E5.43811
G1 X166.247 Y93.497 E.33538
M73 P3 R12
G1 X13.903 Y93.497 E7.64551
G1 X14.24 Y92.624 F7800
M73 P4 R12
G1 E-.7 F3600
;WIPE_START
G1 F6240
G1 X13.891 Y92.977 E-.285
;WIPE_END
G1 E-.015 F3600
G1 X165.098 Y87.26 F7800
G1 E1 F2400
;TYPE:Solid infill
;WIDTH:0.420875
G1 F1800
G1 X165.643 Y87.805 E.03881
G1 X165.643 Y88.294 E.0246
G1 X164.763 Y87.414 E.06262
G1 X164.273 Y87.413 E.02466
G1 X165.643 Y88.783 E.09749
G1 X165.643 Y89.272 E.0246
G1 X163.783 Y87.412 E.13236
G1 X163.293 Y87.411 E.02466
G1 X165.643 Y89.761 E.16724
G1 X165.643 Y90.25 E.0246
G1 X162.803 Y87.41 E.20211
G1 X162.313 Y87.409 E.02466
G1 X165.643 Y90.739 E.23698
G1 X165.643 Y91.228 E.0246
G1 X161.823 Y87.408 E.27185
G1 X161.333 Y87.406 E.02466
G1 X165.643 Y91.717 E.30673
G1 X165.643 Y92.206 E.0246
G1 X160.843 Y87.405 E.3416
G1 X160.352 Y87.404 E.02466
G1 X165.643 Y92.695 E.37647
G1 X165.643 Y92.893 E.00996
G1 X165.353 Y92.893 E.01464
G1 X159.862 Y87.403 E.39065
G1 X159.372 Y87.402 E.02466
G1 X164.864 Y92.893 E.39072
G1 X164.375 Y92.893 E.0246
G1 X158.882 Y87.401 E.3908
G1 X158.392 Y87.4 E.02466
G1 X163.886 Y92.893 E.39088
G1 X163.397 Y92.893 E.0246
G1 X157.902 Y87.399 E.39096
G1 X157.412 Y87.398 E.02466
G1 X162.908 Y92.893 E.39104
G1 X162.419 Y92.893 E.0246
M73 P5 R12
G1 X156.922 Y87.396 E.39112
G1 X156.432 Y87.395 E.02466
G1 X161.93 Y92.893 E.3912
G1 X161.441 Y92.893 E.0246
G1 X155.942 Y87.394 E.39128
G1 X155.451 Y87.393 E.02466
G1 X160.952 Y92.893 E.39136
G1 X160.463 Y92.893 E.0246
G1 X154.961 Y87.392 E.39144
G1 X154.471 Y87.391 E.02466
G1 X159.974 Y92.893 E.39152
G1 X159.485 Y92.893 E.0246
G1 X153.981 Y87.39 E.3916
G1 X153.491 Y87.389 E.02466
G1 X158.996 Y92.893 E.39168
G1 X158.507 Y92.893 E.0246
G1 X153.001 Y87.387 E.39176
G1 X152.511 Y87.386 E.02466
G1 X158.018 Y92.893 E.39184
G1 X157.529 Y92.893 E.0246
G1 X152.021 Y87.385 E.39192
G1 X151.531 Y87.384 E.02466
G1 X157.04 Y92.893 E.392
G1 X156.551 Y92.893 E.0246
G1 X151.04 Y87.383 E.39208
G1 X150.55 Y87.382 E.02466
G1 X156.062 Y92.893 E.39216
G1 X155.573 Y92.893 E.0246
G1 X150.06 Y87.381 E.39224
G1 X149.57 Y87.38 E.02466
G1 X155.084 Y92.893 E.39232
G1 X154.595 Y92.893 E.0246
G1 X149.08 Y87.378 E.3924
G1 X148.59 Y87.377 E.02466
G1 X154.106 Y92.893 E.39248
G1 X153.617 Y92.893 E.0246
G1 X148.1 Y87.376 E.39256
G1 X147.61 Y87.375 E.02466
G1 X153.128 Y92.893 E.39264
G1 X152.639 Y92.893 E.0246
G1 X147.12 Y87.374 E.39272
G1 X146.63 Y87.373 E.02466
G1 X152.15 Y92.893 E.3928
G1 X151.661 Y92.893 E.0246
G1 X146.139 Y87.372 E.39288
G1 X145.649 Y87.371 E.02466
G1 X151.172 Y92.893 E.39296
G1 X150.683 Y92.893 E.0246
G1 X145.159 Y87.37 E.39304
G1 X144.669 Y87.368 E.02466
G1 X150.194 Y92.893 E.39312
M73 P6 R12
G1 X149.705 Y92.893 E.0246
G1 X144.179 Y87.367 E.3932
G1 X143.689 Y87.366 E.02466
G1 X149.216 Y92.893 E.39328
G1 X148.727 Y92.893 E.0246
G1 X143.199 Y87.365 E.39336
G1 X142.709 Y87.364 E.02466
G1 X148.238 Y92.893 E.39344
G1 X147.749 Y92.893 E.0246
G1 X142.219 Y87.363 E.39351
G1 X141.728 Y87.362 E.02466
G1 X147.26 Y92.893 E.39359
G1 X146.771 Y92.893 E.0246
G1 X141.238 Y87.361 E.39367
G1 X140.748 Y87.359 E.02466
G1 X146.282 Y92.893 E.39375
G1 X145.793 Y92.893 E.0246
G1 X140.258 Y87.358 E.39383
G1 X139.768 Y87.357 E.02466
G1 X145.304 Y92.893 E.39391
G1 X144.815 Y92.893 E.0246
G1 X139.278 Y87.356 E.39399
G1 X138.788 Y87.355 E.02466
G1 X144.326 Y92.893 E.39407
G1 X143.837 Y92.893 E.0246
G1 X138.298 Y87.354 E.39415
G1 X137.808 Y87.353 E.02466
G1 X143.348 Y92.893 E.39423
G1 X142.859 Y92.893 E.0246
G1 X137.318 Y87.352 E.39431
G1 X136.827 Y87.35 E.02466
G1 X142.37 Y92.893 E.39439
G1 X141.881 Y92.893 E.0246
G1 X136.337 Y87.349 E.39447
G1 X135.847 Y87.348 E.02466
G1 X141.392 Y92.893 E.39455
G1 X140.903 Y92.893 E.0246
G1 X135.357 Y87.347 E.39463
G1 X134.867 Y87.346 E.02466
G1 X140.414 Y92.893 E.39471
G1 X139.925 Y92.893 E.0246
G1 X134.377 Y87.345 E.39479
G1 X133.887 Y87.344 E.02466
G1 X139.436 Y92.893 E.39487
G1 X138.947 Y92.893 E.0246
G1 X133.397 Y87.343 E.39495
G1 X132.907 Y87.341 E.02466
G1 X138.458 Y92.893 E.39503
G1 X137.969 Y92.893 E.0246
M73 P7 R12
G1 X132.417 Y87.34 E.39511
G1 X131.926 Y87.339 E.02466
G1 X137.48 Y92.893 E.39519
G1 X136.991 Y92.893 E.0246
G1 X131.436 Y87.338 E.39527
G1 X130.946 Y87.337 E.02466
G1 X136.502 Y92.893 E.39535
G1 X136.013 Y92.893 E.0246
G1 X130.456 Y87.336 E.39543
G1 X129.966 Y87.335 E.02466
G1 X135.525 Y92.893 E.39551
G1 X135.036 Y92.893 E.0246
G1 X129.476 Y87.334 E.39559
G1 X128.986 Y87.333 E.02466
G1 X134.547 Y92.893 E.39567
G1 X134.058 Y92.893 E.0246
G1 X128.496 Y87.331 E.39575
G1 X128.006 Y87.33 E.02466
G1 X133.569 Y92.893 E.39583
G1 X133.08 Y92.893 E.0246
G1 X127.515 Y87.329 E.39591
G1 X127.025 Y87.328 E.02466
G1 X132.591 Y92.893 E.39599
G1 X132.102 Y92.893 E.0246
G1 X126.535 Y87.327 E.39607
G1 X126.045 Y87.326 E.02466
G1 X131.613 Y92.893 E.39615
G1 X131.124 Y92.893 E.0246
G1 X125.555 Y87.325 E.39623
G1 X125.065 Y87.324 E.02466
G1 X130.635 Y92.893 E.39631
G1 X130.146 Y92.893 E.0246
G1 X124.575 Y87.322 E.39638
G1 X124.085 Y87.321 E.02466
G1 X129.657 Y92.893 E.39646
G1 X129.168 Y92.893 E.0246
G1 X123.595 Y87.32 E.39654
G1 X123.105 Y87.319 E.02466
G1 X128.679 Y92.893 E.39662
G1 X128.19 Y92.893 E.0246
G1 X122.614 Y87.318 E.3967
G1 X122.124 Y87.317 E.02466
G1 X127.701 Y92.893 E.39678
G1 X127.212 Y92.893 E.0246
G1 X121.634 Y87.316 E.39686
G1 X121.144 Y87.315 E.02466
G1 X126.723 Y92.893 E.39694
G1 X126.234 Y92.893 E.0246
G1 X120.654 Y87.313 E.39702
G1 X120.164 Y87.312 E.02466
M73 P8 R12
G1 X125.745 Y92.893 E.3971
G1 X125.256 Y92.893 E.0246
G1 X119.674 Y87.311 E.39718
G1 X119.184 Y87.31 E.02466
G1 X124.767 Y92.893 E.39726
G1 X124.278 Y92.893 E.0246
G1 X118.694 Y87.309 E.39734
G1 X118.203 Y87.308 E.02466
G1 X123.789 Y92.893 E.39742
G1 X123.3 Y92.893 E.0246
G1 X117.713 Y87.307 E.3975
G1 X117.223 Y87.306 E.02466
G1 X122.811 Y92.893 E.39758
G1 X122.322 Y92.893 E.0246
G1 X116.733 Y87.305 E.39766
G1 X116.243 Y87.303 E.02466
G1 X121.833 Y92.893 E.39774
G1 X121.344 Y92.893 E.0246
G1 X115.753 Y87.302 E.39782
G1 X115.263 Y87.301 E.02466
G1 X120.855 Y92.893 E.3979
G1 X120.366 Y92.893 E.0246
G1 X114.773 Y87.3 E.39798
G1 X114.283 Y87.299 E.02466
G1 X119.877 Y92.893 E.39806
G1 X119.388 Y92.893 E.0246
G1 X113.793 Y87.298 E.39814
G1 X113.302 Y87.297 E.02466
G1 X118.899 Y92.893 E.39822
G1 X118.41 Y92.893 E.0246
G1 X112.812 Y87.296 E.3983
G1 X112.322 Y87.294 E.02466
G1 X117.921 Y92.893 E.39838
G1 X117.432 Y92.893 E.0246
G1 X111.832 Y87.293 E.39846
G1 X111.342 Y87.292 E.02466
G1 X116.943 Y92.893 E.39854
G1 X116.454 Y92.893 E.0246
G1 X110.852 Y87.291 E.39862
G1 X110.362 Y87.29 E.02466
G1 X115.965 Y92.893 E.3987
G1 X115.476 Y92.893 E.0246
G1 X109.872 Y87.289 E.39878
G1 X109.382 Y87.288 E.02466
G1 X114.987 Y92.893 E.39886
G1 X114.498 Y92.893 E.0246
G1 X108.891 Y87.287 E.39894
G1 X108.401 Y87.285 E.02466
G1 X114.009 Y92.893 E.39902
G1 X113.52 Y92.893 E.0246
M73 P9 R12
G1 X107.911 Y87.284 E.3991
G1 X107.421 Y87.283 E.02466
G1 X113.031 Y92.893 E.39917
G1 X112.542 Y92.893 E.0246
G1 X106.931 Y87.282 E.39925
G1 X106.441 Y87.281 E.02466
G1 X112.053 Y92.893 E.39933
G1 X111.564 Y92.893 E.0246
G1 X105.951 Y87.28 E.39941
G1 X105.461 Y87.279 E.02466
G1 X111.075 Y92.893 E.39949
G1 X110.586 Y92.893 E.0246
G1 X104.971 Y87.278 E.39957
G1 X104.481 Y87.277 E.02466
G1 X110.097 Y92.893 E.39965
G1 X109.608 Y92.893 E.0246
G1 X103.99 Y87.275 E.39973
G1 X103.5 Y87.274 E.02466
G1 X109.119 Y92.893 E.39981
G1 X108.63 Y92.893 E.0246
G1 X103.01 Y87.273 E.39989
G1 X102.52 Y87.272 E.02466
G1 X108.141 Y92.893 E.39997
G1 X107.652 Y92.893 E.0246
G1 X102.03 Y87.271 E.40005
G1 X101.54 Y87.27 E.02466
G1 X107.163 Y92.893 E.40013
G1 X106.674 Y92.893 E.0246
G1 X101.05 Y87.269 E.40021
G1 X100.56 Y87.268 E.02466
G1 X106.185 Y92.893 E.40029
G1 X105.696 Y92.893 E.0246
G1 X100.07 Y87.266 E.40037
G1 X99.58 Y87.265 E.02466
G1 X105.207 Y92.893 E.40045
G1 X104.718 Y92.893 E.0246
G1 X99.089 Y87.264 E.40053
G1 X98.599 Y87.263 E.02466
G1 X104.23 Y92.893 E.40061
G1 X103.741 Y92.893 E.0246
G1 X98.109 Y87.262 E.40069
G1 X97.619 Y87.261 E.02466
G1 X103.252 Y92.893 E.40077
G1 X102.763 Y92.893 E.0246
G1 X97.129 Y87.26 E.40085
G1 X96.639 Y87.259 E.02466
G1 X102.274 Y92.893 E.40093
G1 X101.785 Y92.893 E.0246
G1 X96.149 Y87.257 E.40101
G1 X95.659 Y87.256 E.02466
M73 P10 R12
G1 X101.296 Y92.893 E.40109
G1 X100.807 Y92.893 E.0246
G1 X95.169 Y87.255 E.40117
G1 X94.678 Y87.254 E.02466
G1 X100.318 Y92.893 E.40125
G1 X99.829 Y92.893 E.0246
G1 X94.188 Y87.253 E.40133
G1 X93.698 Y87.252 E.02466
G1 X99.34 Y92.893 E.40141
G1 X98.851 Y92.893 E.0246
G1 X93.208 Y87.251 E.40149
G1 X92.718 Y87.25 E.02466
G1 X98.362 Y92.893 E.40157
G1 X97.873 Y92.893 E.0246
G1 X92.228 Y87.249 E.40165
G1 X91.738 Y87.247 E.02466
G1 X97.384 Y92.893 E.40173
G1 X96.895 Y92.893 E.0246
G1 X91.248 Y87.246 E.40181
G1 X90.758 Y87.245 E.02466
G1 X96.406 Y92.893 E.40189
G1 X95.917 Y92.893 E.0246
G1 X90.268 Y87.244 E.40197
G1 X89.777 Y87.243 E.02466
G1 X95.428 Y92.893 E.40204
G1 X94.939 Y92.893 E.0246
G1 X89.287 Y87.242 E.40212
G1 X88.797 Y87.241 E.02466
G1 X94.45 Y92.893 E.4022
G1 X93.961 Y92.893 E.0246
G1 X88.307 Y87.24 E.40228
G1 X87.817 Y87.238 E.02466
G1 X93.472 Y92.893 E.40236
G1 X92.983 Y92.893 E.0246
G1 X87.327 Y87.237 E.40244
G1 X86.837 Y87.236 E.02466
G1 X92.494 Y92.893 E.40252
G1 X92.005 Y92.893 E.0246
G1 X86.347 Y87.235 E.4026
G1 X85.857 Y87.234 E.02466
G1 X91.516 Y92.893 E.40268
G1 X91.027 Y92.893 E.0246
G1 X85.366 Y87.233 E.40276
G1 X84.876 Y87.232 E.02466
G1 X90.538 Y92.893 E.40284
G1 X90.049 Y92.893 E.0246
G1 X84.386 Y87.231 E.40292
G1 X83.896 Y87.229 E.02466
M73 P11 R11
G1 X89.56 Y92.893 E.403
G1 X89.071 Y92.893 E.0246
G1 X83.406 Y87.228 E.40308
G1 X82.916 Y87.227 E.02466
G1 X88.582 Y92.893 E.40316
G1 X88.093 Y92.893 E.0246
G1 X82.426 Y87.226 E.40324
G1 X81.936 Y87.225 E.02466
G1 X87.604 Y92.893 E.40332
G1 X87.115 Y92.893 E.0246
G1 X81.446 Y87.224 E.4034
G1 X80.956 Y87.223 E.02466
G1 X86.626 Y92.893 E.40348
G1 X86.137 Y92.893 E.0246
G1 X80.465 Y87.222 E.40356
G1 X79.975 Y87.22 E.02466
G1 X85.648 Y92.893 E.40364
G1 X85.159 Y92.893 E.0246
G1 X79.485 Y87.219 E.40372
G1 X78.995 Y87.218 E.02466
G1 X84.67 Y92.893 E.4038
G1 X84.181 Y92.893 E.0246
G1 X78.505 Y87.217 E.40388
G1 X78.015 Y87.216 E.02466
G1 X83.692 Y92.893 E.40396
G1 X83.203 Y92.893 E.0246
G1 X77.525 Y87.215 E.40404
G1 X77.035 Y87.214 E.02466
G1 X82.714 Y92.893 E.40412
G1 X82.225 Y92.893 E.0246
G1 X76.545 Y87.213 E.4042
G1 X76.054 Y87.212 E.02466
G1 X81.736 Y92.893 E.40428
G1 X81.247 Y92.893 E.0246
G1 X75.564 Y87.21 E.40436
G1 X75.074 Y87.209 E.02466
G1 X80.758 Y92.893 E.40444
G1 X80.269 Y92.893 E.0246
G1 X74.584 Y87.208 E.40452
G1 X74.094 Y87.207 E.02466
G1 X79.78 Y92.893 E.4046
G1 X79.291 Y92.893 E.0246
G1 X73.604 Y87.206 E.40468
G1 X73.114 Y87.205 E.02466
G1 X78.802 Y92.893 E.40476
G1 X78.313 Y92.893 E.0246
G1 X72.624 Y87.204 E.40483
G1 X72.134 Y87.203 E.02466
G1 X77.824 Y92.893 E.40491
G1 X77.335 Y92.893 E.0246
M73 P12 R11
G1 X71.644 Y87.201 E.40499
G1 X71.153 Y87.2 E.02466
G1 X76.846 Y92.893 E.40507
G1 X76.357 Y92.893 E.0246
G1 X70.663 Y87.199 E.40515
G1 X70.173 Y87.198 E.02466
G1 X75.868 Y92.893 E.40523
G1 X75.379 Y92.893 E.0246
G1 X69.683 Y87.197 E.40531
G1 X69.193 Y87.196 E.02466
G1 X74.89 Y92.893 E.40539
G1 X74.401 Y92.893 E.0246
G1 X68.703 Y87.195 E.40547
G1 X68.213 Y87.194 E.02466
G1 X73.913 Y92.893 E.40555
G1 X73.424 Y92.893 E.0246
G1 X67.723 Y87.192 E.40563
G1 X67.233 Y87.191 E.02466
G1 X72.935 Y92.893 E.40571
G1 X72.446 Y92.893 E.0246
G1 X66.743 Y87.19 E.40579
G1 X66.252 Y87.189 E.02466
G1 X71.957 Y92.893 E.40587
G1 X71.468 Y92.893 E.0246
G1 X65.762 Y87.188 E.40595
G1 X65.272 Y87.187 E.02466
G1 X70.979 Y92.893 E.40603
G1 X70.49 Y92.893 E.0246
G1 X64.782 Y87.186 E.40611
G1 X64.292 Y87.185 E.02466
G1 X70.001 Y92.893 E.40619
G1 X69.512 Y92.893 E.0246
G1 X63.802 Y87.184 E.40627
G1 X63.312 Y87.182 E.02466
G1 X69.023 Y92.893 E.40635
G1 X68.534 Y92.893 E.0246
G1 X62.822 Y87.181 E.40643
G1 X62.332 Y87.18 E.02466
G1 X68.045 Y92.893 E.40651
G1 X67.556 Y92.893 E.0246
G1 X61.841 Y87.179 E.40659
G1 X61.351 Y87.178 E.02466
G1 X67.067 Y92.893 E.40667
G1 X66.578 Y92.893 E.0246
G1 X60.861 Y87.177 E.40675
G1 X60.371 Y87.176 E.02466
G1 X66.089 Y92.893 E.40683
G1 X65.6 Y92.893 E.0246
M73 P13 R11
G1 X59.881 Y87.175 E.40691
G1 X59.391 Y87.173 E.02466
G1 X65.111 Y92.893 E.40699
G1 X64.622 Y92.893 E.0246
G1 X58.901 Y87.172 E.40707
G1 X58.411 Y87.171 E.02466
G1 X64.133 Y92.893 E.40715
G1 X63.644 Y92.893 E.0246
G1 X57.921 Y87.17 E.40723
G1 X57.434 Y87.172 E.02449
G1 X63.155 Y92.893 E.40706
G1 X62.666 Y92.893 E.0246
G1 X56.947 Y87.175 E.40689
G1 X56.461 Y87.177 E.02448
G1 X62.177 Y92.893 E.40672
G1 X61.688 Y92.893 E.0246
G1 X55.974 Y87.18 E.40655
G1 X55.488 Y87.182 E.02448
G1 X61.199 Y92.893 E.40638
G1 X60.71 Y92.893 E.0246
G1 X55.001 Y87.184 E.4062
G1 X54.515 Y87.187 E.02448
G1 X60.221 Y92.893 E.40603
G1 X59.732 Y92.893 E.0246
G1 X54.028 Y87.189 E.40586
G1 X53.541 Y87.192 E.02448
G1 X59.243 Y92.893 E.40569
G1 X58.754 Y92.893 E.0246
G1 X53.055 Y87.194 E.40551
G1 X52.568 Y87.197 E.02448
G1 X58.265 Y92.893 E.40534
G1 X57.776 Y92.893 E.0246
G1 X52.082 Y87.199 E.40517
G1 X51.595 Y87.201 E.02448
G1 X57.287 Y92.893 E.405
G1 X56.798 Y92.893 E.0246
G1 X51.109 Y87.204 E.40482
G1 X50.622 Y87.206 E.02448
G1 X56.309 Y92.893 E.40465
G1 X55.82 Y92.893 E.0246
G1 X50.135 Y87.209 E.40448
G1 X49.649 Y87.211 E.02448
G1 X55.331 Y92.893 E.40431
G1 X54.842 Y92.893 E.0246
G1 X49.162 Y87.214 E.40413
G1 X48.676 Y87.216 E.02448
G1 X54.353 Y92.893 E.40396
G1 X53.864 Y92.893 E.0246
M73 P14 R11
G1 X48.189 Y87.218 E.40379
G1 X47.703 Y87.221 E.02448
G1 X53.375 Y92.893 E.40362
G1 X52.886 Y92.893 E.0246
G1 X47.216 Y87.223 E.40345
G1 X46.73 Y87.226 E.02448
G1 X52.397 Y92.893 E.40327
G1 X51.908 Y92.893 E.0246
G1 X46.243 Y87.228 E.4031
G1 X45.756 Y87.23 E.02448
G1 X51.419 Y92.893 E.40293
G1 X50.93 Y92.893 E.0246
G1 X45.27 Y87.233 E.40276
G1 X44.783 Y87.235 E.02448
G1 X50.441 Y92.893 E.40258
G1 X49.952 Y92.893 E.0246
G1 X44.297 Y87.238 E.40241
G1 X43.81 Y87.24 E.02448
G1 X49.463 Y92.893 E.40224
G1 X48.974 Y92.893 E.0246
G1 X43.324 Y87.243 E.40207
G1 X42.837 Y87.245 E.02448
G1 X48.485 Y92.893 E.40189
G1 X47.996 Y92.893 E.0246
G1 X42.351 Y87.247 E.40172
G1 X41.864 Y87.25 E.02448
G1 X47.507 Y92.893 E.40155
G1 X47.018 Y92.893 E.0246
G1 X41.377 Y87.252 E.40138
G1 X40.891 Y87.255 E.02448
G1 X46.529 Y92.893 E.4012
G1 X46.04 Y92.893 E.0246
G1 X40.404 Y87.257 E.40103
G1 X39.918 Y87.26 E.02448
G1 X45.551 Y92.893 E.40086
G1 X45.062 Y92.893 E.0246
G1 X39.431 Y87.262 E.40069
G1 X38.945 Y87.264 E.02448
G1 X44.573 Y92.893 E.40052
G1 X44.084 Y92.893 E.0246
G1 X38.458 Y87.267 E.40034
