; generated by PrusaSlicer 2.5.0+win64 on 2022-12-07 at 00:26:42 UTC

; 

; external perimeters extrusion width = 1.00mm
; perimeters extrusion width = 1.00mm
; infill extrusion width = 1.00mm
; solid infill extrusion width = 1.00mm
; top infill extrusion width = 1.00mm
; support material extrusion width = 1.00mm
; first layer extrusion width = 0.42mm

M73 P0 R705
M107
;TYPE:Custom
G90 ; use absolute coordinates
M83 ; extruder relative mode
M140 S60 ; set final bed temp
M104 S150 ; set temporary nozzle temp to prevent oozing during homing and auto bed leveling
G4 S10 ; allow partial nozzle warmup
G28 ; home all axisG1 Z50 F240
G1 X7.6 Y10 F3000
M104 S210 ; set final nozzle temp
M190 S60 ; wait for bed temp to stabilize
M109 S210 ; wait for nozzle temp to stabilize
G1 Z0.28 F240
G92 E0
G1 Y140 E10 F1500 ; prime the nozzle
G1 X4 F5000
G92 E0
G1 Y10 E10 F1200 ; prime the nozzle
G92 E0
G21 ; set units to millimeters
G90 ; use absolute coordinates
M83 ; use relative distances for extrusion
; Filament gcode
M107
;LAYER_CHANGE
;Z:0.35
;HEIGHT:0.35
;BEFORE_LAYER_CHANGE
G92 E0
;0.35


G1 E-1 F3600
G1 Z.35 F7800
;AFTER_LAYER_CHANGE
;0.35
G1 X72.88 Y79.978
G1 E1 F2400
;TYPE:Support material
;WIDTH:0.42
G1 F1800
G1 X123.77 Y79.978 E2.55399
G1 X123.77 Y83.371 E.17027
G1 X167.875 Y83.371 E2.21345
G1 X167.875 Y86.764 E.17027
G1 X171.268 Y86.764 E.17027
G1 X171.268 Y147.519 E3.04908
G1 X167.875 Y147.519 E.17027
G1 X167.875 Y167.876 E1.02159
G1 X150.912 Y167.876 E.85133
G1 X150.912 Y171.268 E.17027
G1 X124.083 Y171.268 E1.34642
G1 X124.083 Y167.876 E.17027
G1 X113.592 Y167.876 E.5265
G1 X113.592 Y171.268 E.17027
G1 X86.763 Y171.268 E1.34642
G1 X86.763 Y167.876 E.17027
G1 X72.88 Y167.876 E.69677
G1 X72.88 Y171.268 E.17027
G1 X49.444 Y171.268 E1.17616
G1 X49.444 Y167.876 E.17027
G1 X35.56 Y167.876 E.69677
G1 X35.56 Y171.268 E.17027
G1 X8.731 Y171.268 E1.34642
G1 X8.731 Y134.262 E1.85722
G1 X28.774 Y134.262 E1.00589
G1 X28.774 Y137.654 E.17027
G1 X32.48 Y137.654 E.18597
G1 X32.48 Y134.262 E.17027
G1 X93.549 Y134.262 E3.06478
G1 X93.549 Y130.556 E.18597
G1 X73.192 Y130.556 E1.02159
G1 X73.192 Y127.163 E.17027
G1 X52.836 Y127.163 E1.02159
G1 X52.836 Y123.771 E.17027
G1 X32.48 Y123.771 E1.02159
G1 X32.48 Y120.378 E.17027
G1 X8.731 Y120.378 E1.19186
G1 X8.731 Y76.586 E2.19775
G1 X72.88 Y76.586 E3.21935
G1 X72.88 Y79.927 E.16767
G1 X170.857 Y147.364 F7800
G1 F1800
G1 X170.857 Y87.074 E3.02571
G1 X170.474 Y87.074 E.01923
M73 P0 R704
G1 X170.474 Y147.209 E3.01793
G1 X170.09 Y147.209 E.01923
G1 X170.09 Y87.074 E3.01793
G1 X169.707 Y87.074 E.01923
G1 X169.707 Y147.209 E3.01793
G1 X169.324 Y147.209 E.01923
G1 X169.324 Y87.074 E3.01793
G1 X168.941 Y87.074 E.01923
G1 X168.941 Y147.209 E3.01793
G1 X168.557 Y147.209 E.01923
G1 X168.557 Y87.074 E3.01793
G1 X168.174 Y87.074 E.01923
G1 X168.174 Y147.209 E3.01793
G1 X167.791 Y147.209 E.01923
G1 X167.791 Y87.074 E3.01793
G1 X167.565 Y87.074 E.01136
G1 X167.565 Y83.681 E.17027
G1 X167.408 Y83.681 E.00787
G1 X167.408 Y167.565 E4.20978
G1 X167.025 Y167.565 E.01923
G1 X167.025 Y83.681 E4.20978
G1 X166.641 Y83.681 E.01923
G1 X166.641 Y167.565 E4.20978
G1 X166.258 Y167.565 E.01923
G1 X166.258 Y83.681 E4.20978
G1 X165.875 Y83.681 E.01923
G1 X165.875 Y167.565 E4.20978
G1 X165.492 Y167.565 E.01923
G1 X165.492 Y83.681 E4.20978
G1 X165.109 Y83.681 E.01923
G1 X165.109 Y167.565 E4.20978
G1 X164.725 Y167.565 E.01923
G1 X164.725 Y83.681 E4.20978
G1 X164.342 Y83.681 E.01923
G1 X164.342 Y167.565 E4.20978
G1 X163.959 Y167.565 E.01923
G1 X163.959 Y83.681 E4.20978
G1 X163.576 Y83.681 E.01923
G1 X163.576 Y167.565 E4.20978
G1 X163.193 Y167.565 E.01923
G1 X163.193 Y83.681 E4.20978
G1 X162.809 Y83.681 E.01923
G1 X162.809 Y167.565 E4.20978
G1 X162.426 Y167.565 E.01923
G1 X162.426 Y83.681 E4.20978
G1 X162.043 Y83.681 E.01923
G1 X162.043 Y167.565 E4.20978
G1 X161.66 Y167.565 E.01923
M73 P0 R703
G1 X161.66 Y83.681 E4.20978
G1 X161.277 Y83.681 E.01923
G1 X161.277 Y167.565 E4.20978
G1 X160.893 Y167.565 E.01923
G1 X160.893 Y83.681 E4.20978
G1 X160.51 Y83.681 E.01923
G1 X160.51 Y167.565 E4.20978
G1 X160.127 Y167.565 E.01923
G1 X160.127 Y83.681 E4.20978
G1 X159.744 Y83.681 E.01923
G1 X159.744 Y167.565 E4.20978
G1 X159.36 Y167.565 E.01923
G1 X159.36 Y83.681 E4.20978
G1 X158.977 Y83.681 E.01923
G1 X158.977 Y167.565 E4.20978
G1 X158.594 Y167.565 E.01923
G1 X158.594 Y83.681 E4.20978
G1 X158.211 Y83.681 E.01923
G1 X158.211 Y167.565 E4.20978
G1 X157.828 Y167.565 E.01923
G1 X157.828 Y83.681 E4.20978
G1 X157.444 Y83.681 E.01923
G1 X157.444 Y167.565 E4.20978
G1 X157.061 Y167.565 E.01923
G1 X157.061 Y83.681 E4.20978
G1 X156.678 Y83.681 E.01923
G1 X156.678 Y167.565 E4.20978
G1 X156.295 Y167.565 E.01923
G1 X156.295 Y83.681 E4.20978
G1 X155.912 Y83.681 E.01923
G1 X155.912 Y167.565 E4.20978
G1 X155.528 Y167.565 E.01923
G1 X155.528 Y83.681 E4.20978
G1 X155.145 Y83.681 E.01923
G1 X155.145 Y167.565 E4.20978
G1 X154.762 Y167.565 E.01923
G1 X154.762 Y83.681 E4.20978
G1 X154.379 Y83.681 E.01923
G1 X154.379 Y167.565 E4.20978
G1 X153.996 Y167.565 E.01923
G1 X153.996 Y83.681 E4.20978
G1 X153.612 Y83.681 E.01923
M73 P0 R702
G1 X153.612 Y167.565 E4.20978
G1 X153.229 Y167.565 E.01923
G1 X153.229 Y83.681 E4.20978
G1 X152.846 Y83.681 E.01923
G1 X152.846 Y167.565 E4.20978
G1 X152.463 Y167.565 E.01923
G1 X152.463 Y83.681 E4.20978
G1 X152.079 Y83.681 E.01923
G1 X152.079 Y167.565 E4.20978
G1 X151.696 Y167.565 E.01923
G1 X151.696 Y83.681 E4.20978
G1 X151.313 Y83.681 E.01923
G1 X151.313 Y167.565 E4.20978
G1 X150.93 Y167.565 E.01923
G1 X150.93 Y83.681 E4.20978
G1 X150.547 Y83.681 E.01923
G1 X150.547 Y170.958 E4.38005
G1 X150.163 Y170.958 E.01923
G1 X150.163 Y83.681 E4.38005
G1 X149.78 Y83.681 E.01923
G1 X149.78 Y170.958 E4.38005
G1 X149.397 Y170.958 E.01923
G1 X149.397 Y83.681 E4.38005
G1 X149.014 Y83.681 E.01923
G1 X149.014 Y170.958 E4.38005
G1 X148.631 Y170.958 E.01923
G1 X148.631 Y83.681 E4.38005
G1 X148.247 Y83.681 E.01923
G1 X148.247 Y170.958 E4.38005
G1 X147.864 Y170.958 E.01923
G1 X147.864 Y83.681 E4.38005
G1 X147.481 Y83.681 E.01923
G1 X147.481 Y170.958 E4.38005
G1 X147.098 Y170.958 E.01923
G1 X147.098 Y83.681 E4.38005
G1 X146.715 Y83.681 E.01923
G1 X146.715 Y170.958 E4.38005
G1 X146.331 Y170.958 E.01923
G1 X146.331 Y83.681 E4.38005
G1 X145.948 Y83.681 E.01923
G1 X145.948 Y170.958 E4.38005
G1 X145.565 Y170.958 E.01923
M73 P0 R701
G1 X145.565 Y83.681 E4.38005
G1 X145.182 Y83.681 E.01923
G1 X145.182 Y170.958 E4.38005
G1 X144.798 Y170.958 E.01923
G1 X144.798 Y83.681 E4.38005
G1 X144.415 Y83.681 E.01923
G1 X144.415 Y170.958 E4.38005
G1 X144.032 Y170.958 E.01923
G1 X144.032 Y83.681 E4.38005
G1 X143.649 Y83.681 E.01923
G1 X143.649 Y170.958 E4.38005
G1 X143.266 Y170.958 E.01923
G1 X143.266 Y83.681 E4.38005
G1 X142.882 Y83.681 E.01923
G1 X142.882 Y170.958 E4.38005
G1 X142.499 Y170.958 E.01923
G1 X142.499 Y83.681 E4.38005
G1 X142.116 Y83.681 E.01923
G1 X142.116 Y170.958 E4.38005
G1 X141.733 Y170.958 E.01923
G1 X141.733 Y83.681 E4.38005
G1 X141.35 Y83.681 E.01923
G1 X141.35 Y170.958 E4.38005
G1 X140.966 Y170.958 E.01923
G1 X140.966 Y83.681 E4.38005
G1 X140.583 Y83.681 E.01923
G1 X140.583 Y170.958 E4.38005
G1 X140.2 Y170.958 E.01923
G1 X140.2 Y83.681 E4.38005
G1 X139.817 Y83.681 E.01923
G1 X139.817 Y170.958 E4.38005
G1 X139.434 Y170.958 E.01923
G1 X139.434 Y83.681 E4.38005
G1 X139.05 Y83.681 E.01923
G1 X139.05 Y170.958 E4.38005
G1 X138.667 Y170.958 E.01923
G1 X138.667 Y83.681 E4.38005
G1 X138.284 Y83.681 E.01923
G1 X138.284 Y170.958 E4.38005
G1 X137.901 Y170.958 E.01923
M73 P0 R700
G1 X137.901 Y83.681 E4.38005
G1 X137.517 Y83.681 E.01923
G1 X137.517 Y170.958 E4.38005
G1 X137.134 Y170.958 E.01923
G1 X137.134 Y83.681 E4.38005
G1 X136.751 Y83.681 E.01923
G1 X136.751 Y170.958 E4.38005
G1 X136.368 Y170.958 E.01923
G1 X136.368 Y83.681 E4.38005
G1 X135.985 Y83.681 E.01923
G1 X135.985 Y170.958 E4.38005
G1 X135.601 Y170.958 E.01923
G1 X135.601 Y83.681 E4.38005
G1 X135.218 Y83.681 E.01923
G1 X135.218 Y170.958 E4.38005
G1 X134.835 Y170.958 E.01923
G1 X134.835 Y83.681 E4.38005
G1 X134.452 Y83.681 E.01923
G1 X134.452 Y170.958 E4.38005
G1 X134.069 Y170.958 E.01923
G1 X134.069 Y83.681 E4.38005
G1 X133.685 Y83.681 E.01923
G1 X133.685 Y170.958 E4.38005
G1 X133.302 Y170.958 E.01923
G1 X133.302 Y83.681 E4.38005
G1 X132.919 Y83.681 E.01923
G1 X132.919 Y170.958 E4.38005
G1 X132.536 Y170.958 E.01923
G1 X132.536 Y83.681 E4.38005
G1 X132.153 Y83.681 E.01923
G1 X132.153 Y170.958 E4.38005
G1 X131.769 Y170.958 E.01923
G1 X131.769 Y83.681 E4.38005
G1 X131.386 Y83.681 E.01923
G1 X131.386 Y170.958 E4.38005
G1 X131.003 Y170.958 E.01923
G1 X131.003 Y83.681 E4.38005
G1 X130.62 Y83.681 E.01923
G1 X130.62 Y170.958 E4.38005
G1 X130.236 Y170.958 E.01923
M73 P0 R699
G1 X130.236 Y83.681 E4.38005
G1 X129.853 Y83.681 E.01923
G1 X129.853 Y170.958 E4.38005
G1 X129.47 Y170.958 E.01923
G1 X129.47 Y83.681 E4.38005
G1 X129.087 Y83.681 E.01923
G1 X129.087 Y170.958 E4.38005
G1 X128.704 Y170.958 E.01923
G1 X128.704 Y83.681 E4.38005
G1 X128.32 Y83.681 E.01923
G1 X128.32 Y170.958 E4.38005
G1 X127.937 Y170.958 E.01923
G1 X127.937 Y83.681 E4.38005
G1 X127.554 Y83.681 E.01923
G1 X127.554 Y170.958 E4.38005
G1 X127.171 Y170.958 E.01923
G1 X127.171 Y83.681 E4.38005
G1 X126.788 Y83.681 E.01923
G1 X126.788 Y170.958 E4.38005
G1 X126.404 Y170.958 E.01923
G1 X126.404 Y83.681 E4.38005
G1 X126.021 Y83.681 E.01923
G1 X126.021 Y170.958 E4.38005
G1 X125.638 Y170.958 E.01923
G1 X125.638 Y83.681 E4.38005
G1 X125.255 Y83.681 E.01923
G1 X125.255 Y170.958 E4.38005
G1 X124.872 Y170.958 E.01923
G1 X124.872 Y83.681 E4.38005
G1 X124.488 Y83.681 E.01923
G1 X124.488 Y170.958 E4.38005
G1 X124.393 Y170.958 E.00477
G1 X124.393 Y167.565 E.17027
G1 X124.105 Y167.565 E.01446
G1 X124.105 Y83.681 E4.20978
G1 X123.722 Y83.681 E.01923
G1 X123.722 Y167.565 E4.20978
G1 X123.339 Y167.565 E.01923
G1 X123.339 Y80.289 E4.38005
G1 X122.956 Y80.289 E.01923
G1 X122.956 Y167.565 E4.38005
G1 X122.572 Y167.565 E.01923
M73 P0 R698
G1 X122.572 Y80.289 E4.38005
G1 X122.189 Y80.289 E.01923
G1 X122.189 Y167.565 E4.38005
G1 X121.806 Y167.565 E.01923
G1 X121.806 Y80.289 E4.38005
G1 X121.423 Y80.289 E.01923
G1 X121.423 Y167.565 E4.38005
G1 X121.039 Y167.565 E.01923
G1 X121.039 Y80.289 E4.38005
G1 X120.656 Y80.289 E.01923
G1 X120.656 Y167.565 E4.38005
G1 X120.273 Y167.565 E.01923
G1 X120.273 Y80.289 E4.38005
G1 X119.89 Y80.289 E.01923
G1 X119.89 Y167.565 E4.38005
G1 X119.507 Y167.565 E.01923
M73 P1 R698
G1 X119.507 Y80.289 E4.38005
G1 X119.123 Y80.289 E.01923
G1 X119.123 Y167.565 E4.38005
G1 X118.74 Y167.565 E.01923
G1 X118.74 Y80.289 E4.38005
G1 X118.357 Y80.289 E.01923
G1 X118.357 Y167.565 E4.38005
G1 X117.974 Y167.565 E.01923
G1 X117.974 Y80.289 E4.38005
G1 X117.591 Y80.289 E.01923
G1 X117.591 Y167.565 E4.38005
G1 X117.207 Y167.565 E.01923
G1 X117.207 Y80.289 E4.38005
G1 X116.824 Y80.289 E.01923
G1 X116.824 Y167.565 E4.38005
G1 X116.441 Y167.565 E.01923
G1 X116.441 Y80.289 E4.38005
G1 X116.058 Y80.289 E.01923
G1 X116.058 Y167.565 E4.38005
G1 X115.675 Y167.565 E.01923
G1 X115.675 Y80.289 E4.38005
G1 X115.291 Y80.289 E.01923
G1 X115.291 Y167.565 E4.38005
G1 X114.908 Y167.565 E.01923
G1 X114.908 Y80.289 E4.38005
G1 X114.525 Y80.289 E.01923
M73 P1 R697
G1 X114.525 Y167.565 E4.38005
G1 X114.142 Y167.565 E.01923
G1 X114.142 Y80.289 E4.38005
G1 X113.758 Y80.289 E.01923
G1 X113.758 Y167.565 E4.38005
G1 X113.375 Y167.565 E.01923
G1 X113.375 Y80.289 E4.38005
G1 X112.992 Y80.289 E.01923
G1 X112.992 Y170.958 E4.55032
G1 X112.609 Y170.958 E.01923
G1 X112.609 Y80.289 E4.55032
G1 X112.226 Y80.289 E.01923
G1 X112.226 Y170.958 E4.55032
G1 X111.842 Y170.958 E.01923
G1 X111.842 Y80.289 E4.55032
G1 X111.459 Y80.289 E.01923
G1 X111.459 Y170.958 E4.55032
G1 X111.076 Y170.958 E.01923
G1 X111.076 Y80.289 E4.55032
G1 X110.693 Y80.289 E.01923
G1 X110.693 Y170.958 E4.55032
G1 X110.31 Y170.958 E.01923
G1 X110.31 Y80.289 E4.55032
G1 X109.926 Y80.289 E.01923
G1 X109.926 Y170.958 E4.55032
G1 X109.543 Y170.958 E.01923
G1 X109.543 Y80.289 E4.55032
G1 X109.16 Y80.289 E.01923
G1 X109.16 Y170.958 E4.55032
G1 X108.777 Y170.958 E.01923
G1 X108.777 Y80.289 E4.55032
G1 X108.394 Y80.289 E.01923
G1 X108.394 Y170.958 E4.55032
G1 X108.01 Y170.958 E.01923
G1 X108.01 Y80.289 E4.55032
G1 X107.627 Y80.289 E.01923
G1 X107.627 Y170.958 E4.55032
G1 X107.244 Y170.958 E.01923
M73 P1 R696
G1 X107.244 Y80.289 E4.55032
G1 X106.861 Y80.289 E.01923
G1 X106.861 Y170.958 E4.55032
G1 X106.477 Y170.958 E.01923
G1 X106.477 Y80.289 E4.55032
G1 X106.094 Y80.289 E.01923
G1 X106.094 Y170.958 E4.55032
G1 X105.711 Y170.958 E.01923
G1 X105.711 Y80.289 E4.55032
G1 X105.328 Y80.289 E.01923
G1 X105.328 Y170.958 E4.55032
G1 X104.945 Y170.958 E.01923
G1 X104.945 Y80.289 E4.55032
G1 X104.561 Y80.289 E.01923
G1 X104.561 Y170.958 E4.55032
G1 X104.178 Y170.958 E.01923
G1 X104.178 Y80.289 E4.55032
G1 X103.795 Y80.289 E.01923
G1 X103.795 Y170.958 E4.55032
G1 X103.412 Y170.958 E.01923
G1 X103.412 Y80.289 E4.55032
G1 X103.029 Y80.289 E.01923
G1 X103.029 Y170.958 E4.55032
G1 X102.645 Y170.958 E.01923
G1 X102.645 Y80.289 E4.55032
G1 X102.262 Y80.289 E.01923
G1 X102.262 Y170.958 E4.55032
G1 X101.879 Y170.958 E.01923
G1 X101.879 Y80.289 E4.55032
G1 X101.496 Y80.289 E.01923
G1 X101.496 Y170.958 E4.55032
G1 X101.113 Y170.958 E.01923
G1 X101.113 Y80.289 E4.55032
G1 X100.729 Y80.289 E.01923
G1 X100.729 Y170.958 E4.55032
G1 X100.346 Y170.958 E.01923
G1 X100.346 Y80.289 E4.55032
G1 X99.963 Y80.289 E.01923
G1 X99.963 Y170.958 E4.55032
G1 X99.58 Y170.958 E.01923
M73 P1 R695
G1 X99.58 Y80.289 E4.55032
G1 X99.196 Y80.289 E.01923
G1 X99.196 Y170.958 E4.55032
G1 X98.813 Y170.958 E.01923
G1 X98.813 Y80.289 E4.55032
G1 X98.43 Y80.289 E.01923
G1 X98.43 Y170.958 E4.55032
G1 X98.047 Y170.958 E.01923
G1 X98.047 Y80.289 E4.55032
G1 X97.664 Y80.289 E.01923
G1 X97.664 Y170.958 E4.55032
G1 X97.28 Y170.958 E.01923
G1 X97.28 Y80.289 E4.55032
G1 X96.897 Y80.289 E.01923
G1 X96.897 Y170.958 E4.55032
G1 X96.514 Y170.958 E.01923
G1 X96.514 Y80.289 E4.55032
G1 X96.131 Y80.289 E.01923
G1 X96.131 Y170.958 E4.55032
G1 X95.748 Y170.958 E.01923
G1 X95.748 Y80.289 E4.55032
G1 X95.364 Y80.289 E.01923
G1 X95.364 Y170.958 E4.55032
G1 X94.981 Y170.958 E.01923
G1 X94.981 Y80.289 E4.55032
G1 X94.598 Y80.289 E.01923
G1 X94.598 Y170.958 E4.55032
G1 X94.215 Y170.958 E.01923
G1 X94.215 Y80.289 E4.55032
G1 X93.832 Y80.289 E.01923
G1 X93.832 Y170.958 E4.55032
G1 X93.448 Y170.958 E.01923
G1 X93.448 Y134.572 E1.82606
G1 X93.065 Y134.572 E.01923
G1 X93.065 Y170.958 E1.82606
G1 X92.682 Y170.958 E.01923
G1 X92.682 Y134.572 E1.82606
G1 X92.299 Y134.572 E.01923
G1 X92.299 Y170.958 E1.82606
G1 X91.915 Y170.958 E.01923
G1 X91.915 Y134.572 E1.82606
G1 X91.532 Y134.572 E.01923
G1 X91.532 Y170.958 E1.82606
G1 X91.149 Y170.958 E.01923
G1 X91.149 Y134.572 E1.82606
G1 X90.766 Y134.572 E.01923
M73 P1 R694
G1 X90.766 Y170.958 E1.82606
G1 X90.383 Y170.958 E.01923
G1 X90.383 Y134.572 E1.82606
G1 X89.999 Y134.572 E.01923
G1 X89.999 Y170.958 E1.82606
G1 X89.616 Y170.958 E.01923
G1 X89.616 Y134.572 E1.82606
G1 X89.233 Y134.572 E.01923
G1 X89.233 Y170.958 E1.82606
G1 X88.85 Y170.958 E.01923
G1 X88.85 Y134.572 E1.82606
G1 X88.467 Y134.572 E.01923
G1 X88.467 Y170.958 E1.82606
G1 X88.083 Y170.958 E.01923
G1 X88.083 Y134.572 E1.82606
G1 X87.7 Y134.572 E.01923
G1 X87.7 Y170.958 E1.82606
G1 X87.317 Y170.958 E.01923
G1 X87.317 Y134.572 E1.82606
G1 X86.934 Y134.572 E.01923
G1 X86.934 Y167.565 E1.6558
G1 X86.551 Y167.565 E.01923
G1 X86.551 Y134.572 E1.6558
G1 X86.167 Y134.572 E.01923
G1 X86.167 Y167.565 E1.6558
G1 X85.784 Y167.565 E.01923
G1 X85.784 Y134.572 E1.6558
G1 X85.401 Y134.572 E.01923
G1 X85.401 Y167.565 E1.6558
G1 X85.018 Y167.565 E.01923
G1 X85.018 Y134.572 E1.6558
G1 X84.635 Y134.572 E.01923
G1 X84.635 Y167.565 E1.6558
G1 X84.251 Y167.565 E.01923
G1 X84.251 Y134.572 E1.6558
G1 X83.868 Y134.572 E.01923
G1 X83.868 Y167.565 E1.6558
G1 X83.485 Y167.565 E.01923
G1 X83.485 Y134.572 E1.6558
G1 X83.102 Y134.572 E.01923
G1 X83.102 Y167.565 E1.6558
G1 X82.718 Y167.565 E.01923
G1 X82.718 Y134.572 E1.6558
G1 X82.335 Y134.572 E.01923
G1 X82.335 Y167.565 E1.6558
G1 X81.952 Y167.565 E.01923
G1 X81.952 Y134.572 E1.6558
