; generated by PrusaSlicer 2.5.0+win64 on 2022-12-07 at 00:26:37 UTC

; 

; external perimeters extrusion width = 1.00mm
; perimeters extrusion width = 1.00mm
; infill extrusion width = 1.00mm
; solid infill extrusion width = 1.00mm
; top infill extrusion width = 1.00mm
; support material extrusion width = 1.00mm
; first layer extrusion width = 0.42mm

M73 P0 R251
M107
;TYPE:Custom
G90 ; use absolute coordinates
M83 ; extruder relative mode
M140 S60 ; set final bed temp
M104 S150 ; set temporary nozzle temp to prevent oozing during homing and auto bed leveling
G4 S10 ; allow partial nozzle warmup
G28 ; home all axisG1 Z50 F240
G1 X7.6 Y10 F3000
M104 S210 ; set final nozzle temp
M190 S60 ; wait for bed temp to stabilize
M109 S210 ; wait for nozzle temp to stabilize
G1 Z0.28 F240
G92 E0
G1 Y140 E10 F1500 ; prime the nozzle
G1 X4 F5000
G92 E0
G1 Y10 E10 F1200 ; prime the nozzle
G92 E0
G21 ; set units to millimeters
G90 ; use absolute coordinates
M83 ; use relative distances for extrusion
; Filament gcode
M107
;LAYER_CHANGE
;Z:0.35
;HEIGHT:0.35
;BEFORE_LAYER_CHANGE
G92 E0
;0.35


G1 E-1 F3600
M73 P0 R250
G1 Z.35 F7800
;AFTER_LAYER_CHANGE
;0.35
G1 X89.304 Y111.789
G1 E1 F2400
;TYPE:Perimeter
;WIDTH:0.510723
G1 F1800
G1 X90.347 Y111.793 E.06615
;WIDTH:0.472442
G1 X92.732 Y111.803 E.13791
;WIDTH:0.48087
G1 X92.875 Y111.829 E.00855
;WIDTH:0.527578
G1 X93.017 Y111.854 E.00953
;WIDTH:0.574287
G1 X93.16 Y111.879 E.01051
;WIDTH:0.620995
G1 X93.303 Y111.904 E.0115
;WIDTH:0.667704
G1 X93.445 Y111.929 E.01248
;WIDTH:0.714412
G1 X93.588 Y111.954 E.01346
;WIDTH:0.761121
G1 X93.73 Y111.979 E.01445
G1 X93.588 Y112.005 E.01445
;WIDTH:0.714412
G1 X93.445 Y112.032 E.01346
;WIDTH:0.667704
G1 X93.303 Y112.058 E.01248
;WIDTH:0.620995
G1 X93.161 Y112.084 E.0115
;WIDTH:0.574287
G1 X93.018 Y112.11 E.01051
;WIDTH:0.527578
G1 X92.876 Y112.136 E.00953
;WIDTH:0.48087
G1 X92.734 Y112.162 E.00855
;WIDTH:0.472442
G1 X90.349 Y112.19 E.13791
;WIDTH:0.510723
G1 X87.963 Y112.218 E.1512
;WIDTH:0.549003
G1 X85.578 Y112.246 E.16449
;WIDTH:0.587284
G1 X83.193 Y112.274 E.17777
G1 X82.943 Y112.3 E.01869
;WIDTH:0.545463
G1 X82.694 Y112.326 E.01717
;WIDTH:0.503642
G1 X82.444 Y112.352 E.01564
;WIDTH:0.461821
G1 X82.195 Y112.378 E.01412
;WIDTH:0.42
G1 X41.375 Y113.183 E2.04897
;WIDTH:0.461815
G1 X41.125 Y113.167 E.01411
;WIDTH:0.503631
G1 X40.875 Y113.151 E.01564
;WIDTH:0.545447
G1 X40.624 Y113.135 E.01717
;WIDTH:0.587263
G1 X40.374 Y113.119 E.01869
G1 X38.26 Y113.18 E.15759
;WIDTH:0.549442
G1 X36.147 Y113.241 E.14596
;WIDTH:0.511621
G1 X34.033 Y113.301 E.13432
;WIDTH:0.4738
G1 X31.919 Y113.362 E.12268
;WIDTH:0.482422
G1 X31.776 Y113.342 E.00858
;WIDTH:0.528865
G1 X31.632 Y113.321 E.00955
;WIDTH:0.575308
G1 X31.489 Y113.301 E.01053
;WIDTH:0.621751
G1 X31.346 Y113.28 E.01151
;WIDTH:0.668194
G1 X31.203 Y113.26 E.01249
;WIDTH:0.714637
G1 X31.059 Y113.24 E.01347
;WIDTH:0.761081
G1 X30.916 Y113.219 E.01444
G1 X31.057 Y113.188 E.01444
;WIDTH:0.714637
G1 X31.199 Y113.157 E.01347
;WIDTH:0.668194
G1 X31.34 Y113.126 E.01249
;WIDTH:0.621751
G1 X31.481 Y113.095 E.01151
;WIDTH:0.575308
G1 X31.623 Y113.064 E.01053
;WIDTH:0.528865
G1 X31.764 Y113.033 E.00955
;WIDTH:0.482422
G1 X31.905 Y113.002 E.00858
;WIDTH:0.4738
G1 X34.018 Y112.903 E.12268
;WIDTH:0.511621
G1 X36.13 Y112.805 E.13432
;WIDTH:0.549442
G1 X38.242 Y112.706 E.14596
;WIDTH:0.587263
G1 X40.355 Y112.608 E.15759
G1 X40.603 Y112.573 E.01869
;WIDTH:0.545447
G1 X40.852 Y112.538 E.01717
;WIDTH:0.503631
G1 X41.1 Y112.504 E.01564
;WIDTH:0.461815
G1 X41.348 Y112.469 E.01411
;WIDTH:0.42
G1 X60.597 Y111.399 E.96752
G1 X82.192 Y111.666 E1.08384
;WIDTH:0.461821
G1 X82.442 Y111.69 E.01412
;WIDTH:0.503642
G1 X82.692 Y111.714 E.01564
;WIDTH:0.545463
G1 X82.941 Y111.738 E.01717
;WIDTH:0.587284
G1 X83.191 Y111.762 E.01869
G1 X85.576 Y111.772 E.17777
;WIDTH:0.549003
G1 X87.962 Y111.783 E.16449
;WIDTH:0.510723
G1 X89.154 Y111.788 E.07555
G1 E-.7 F3600
;WIPE_START
G1 F6240
G1 X89.674 Y111.79 E-.285
;WIPE_END
G1 E-.015 F3600
G1 X128.798 Y111.85 F7800
G1 E1 F2400
;TYPE:External perimeter
;WIDTH:0.925111
G1 F1800
G1 X125.405 Y111.862 E.41978
;WIDTH:0.884114
G1 X122.011 Y111.875 E.39953
;WIDTH:0.843117
G1 X118.617 Y111.887 E.37929
;WIDTH:0.80212
G1 X115.223 Y111.9 E.35904
G1 E-.7 F3600
;WIPE_START
G1 F6240
G1 X115.743 Y111.898 E-.285
;WIPE_END
G1 E-.015 F3600
G1 X139.259 Y112.371 F7800
G1 E1 F2400
;TYPE:Perimeter
;WIDTH:0.42
G1 F1800
G1 X139.536 Y112.352 E.01396
G1 X139.718 Y112.255 E.01036
G1 X139.863 Y112.062 E.01209
G1 X139.902 Y111.79 E.0138
G1 X127.56 Y15.629 E4.86551
G1 X141.664 Y15.629 E.7078
G1 X142.445 Y21.734 E.30891
G1 X156.611 Y132.428 E5.60056
G1 X39.304 Y134.469 E5.88804
G1 X19.559 Y134.254 E.99099
G1 X19.559 Y113.679 E1.03254
G1 X27.93 Y113.214 E.42077
;WIDTH:0.462876
G1 X28.576 Y113.2 E.03643
;WIDTH:0.512332
G1 X28.678 Y113.219 E.00664
;WIDTH:0.561788
G1 X28.781 Y113.238 E.00739
;WIDTH:0.611244
G1 X28.884 Y113.257 E.00815
;WIDTH:0.6607
G1 X28.986 Y113.276 E.0089
;WIDTH:0.710157
G1 X29.089 Y113.295 E.00965
G1 X29.032 Y113.361 E.008
;WIDTH:0.6607
G1 X28.975 Y113.426 E.00738
;WIDTH:0.611244
G1 X28.919 Y113.491 E.00676
;WIDTH:0.561788
G1 X28.862 Y113.557 E.00613
;WIDTH:0.512332
G1 X28.805 Y113.622 E.00551
;WIDTH:0.462876
G1 X28.722 Y113.95 E.01907
;WIDTH:0.42
G1 X28.785 Y114.355 E.02058
G1 X28.983 Y114.56 E.01429
G1 X29.252 Y114.63 E.01395
G1 X138.784 Y112.76 E5.49779
G1 X138.936 Y112.734 E.00772
G1 X139.16 Y112.589 E.01338
G1 X139.196 Y112.508 E.00447
G1 X138.921 Y112.022 F7800
;TYPE:External perimeter
G1 F1800
G1 X139.387 Y112.028 E.02337
G1 X139.51 Y111.979 E.00665
G1 X139.56 Y111.834 E.00769
G1 X127.168 Y15.284 E4.88517
G1 X141.968 Y15.284 E.74271
G1 X142.787 Y21.691 E.32415
G1 X157.002 Y132.766 E5.61989
G1 X39.305 Y134.814 E5.90761
G1 X19.214 Y134.595 E1.00836
G1 X19.214 Y113.353 E1.06604
G1 X60.59 Y111.054 E2.07968
G1 X103.481 Y111.584 E2.15268
;WIDTH:0.46264
G1 X103.731 Y111.609 E.01415
;WIDTH:0.505281
G1 X103.98 Y111.633 E.0157
;WIDTH:0.547921
G1 X104.23 Y111.658 E.01726
;WIDTH:0.590562
G1 X104.48 Y111.682 E.01882
G1 X106.916 Y111.692 E.18274
;WIDTH:0.551462
G1 X109.352 Y111.703 E.16888
;WIDTH:0.512362
G1 X111.789 Y111.714 E.15502
;WIDTH:0.473262
G1 X114.225 Y111.724 E.14115
;WIDTH:0.480871
G1 X114.368 Y111.749 E.00855
;WIDTH:0.52758
G1 X114.51 Y111.774 E.00953
;WIDTH:0.574288
G1 X114.653 Y111.8 E.01051
;WIDTH:0.620997
G1 X114.795 Y111.825 E.0115
;WIDTH:0.667705
G1 X114.938 Y111.85 E.01248
;WIDTH:0.714414
G1 X115.08 Y111.875 E.01346
;WIDTH:0.761123
G1 X115.223 Y111.9 E.01445
G1 X115.081 Y111.926 E.01445
;WIDTH:0.714414
G1 X114.938 Y111.952 E.01346
;WIDTH:0.667705
G1 X114.796 Y111.978 E.01248
;WIDTH:0.620997
G1 X114.653 Y112.005 E.0115
;WIDTH:0.574288
G1 X114.511 Y112.031 E.01051
;WIDTH:0.52758
G1 X114.369 Y112.057 E.00953
;WIDTH:0.480871
G1 X114.226 Y112.083 E.00855
;WIDTH:0.473262
G1 X111.79 Y112.112 E.14115
;WIDTH:0.512362
G1 X109.354 Y112.14 E.15502
;WIDTH:0.551462
G1 X106.918 Y112.169 E.16888
;WIDTH:0.590562
G1 X104.482 Y112.197 E.18274
G1 X104.232 Y112.224 E.01882
;WIDTH:0.547921
G1 X103.983 Y112.25 E.01726
;WIDTH:0.505281
G1 X103.733 Y112.276 E.0157
;WIDTH:0.46264
G1 X103.484 Y112.302 E.01415
;WIDTH:0.42
G1 X29.236 Y113.768 E3.7269
G1 X29.1 Y113.839 E.00768
G1 X29.07 Y114.116 E.01403
G1 X29.118 Y114.232 E.00626
G1 X29.246 Y114.286 E.00698
G1 X138.778 Y112.415 E5.49779
G1 X138.808 Y112.412 E.0015
G1 X138.932 Y112.315 E.00789
G1 X138.927 Y112.172 E.00716
G1 X139.298 Y112.295 F7800
G1 E-.7 F3600
;WIPE_START
G1 F6240
G1 X139.387 Y112.028 E-.26424
G1 X139.422 Y112.014 E-.02076
;WIPE_END
G1 E-.015 F3600
G1 X103.476 Y111.943 F7800
G1 E1 F2400
;TYPE:Perimeter
;WIDTH:0.493011
G1 F1800
G1 X102.084 Y111.948 E.08467
;WIDTH:0.537696
G1 X100.692 Y111.954 E.09372
;WIDTH:0.582381
G1 X99.3 Y111.959 E.10277
;WIDTH:0.627066
G1 X97.907 Y111.964 E.11183
;WIDTH:0.671751
G1 X96.515 Y111.969 E.12088
;WIDTH:0.716436
G1 X95.123 Y111.974 E.12993
;WIDTH:0.761121
G1 X93.73 Y111.979 E.13899
G1 E-.7 F3600
;WIPE_START
G1 F6240
G1 X94.25 Y111.977 E-.285
;WIPE_END
G1 E-.015 F3600
G1 X30.916 Y113.219 F7800
G1 E1 F2400
;WIDTH:0.761081
G1 F1800
G1 X30.071 Y113.251 E.08438
;WIDTH:0.730846
G1 X29.227 Y113.283 E.08066
;WIDTH:0.710157
G1 X29.089 Y113.295 E.01276
G1 E-.7 F3600
;WIPE_START
G1 F6240
G1 X29.227 Y113.283 E-.07566
G1 X29.608 Y113.268 E-.20934
;WIPE_END
G1 E-.015 F3600
G1 X81.974 Y111.767 F7800
G1 E1 F2400
;TYPE:Solid infill
;WIDTH:0.422224
G1 F1800
G1 X82.303 Y112.097 E.02354
G1 X82.183 Y112.119 E.0062
G1 X81.842 Y112.126 E.01722
G1 X81.634 Y111.918 E.01485
G1 X81.137 Y111.912 E.02511
G1 X81.36 Y112.135 E.01597
G1 X80.879 Y112.145 E.02432
G1 X80.64 Y111.906 E.01709
G1 X80.143 Y111.899 E.02511
G1 X80.398 Y112.154 E.01821
G1 X79.916 Y112.164 E.02432
G1 X79.646 Y111.893 E.01933
G1 X79.149 Y111.887 E.02511
G1 X79.435 Y112.173 E.02044
G1 X78.953 Y112.183 E.02432
G1 X78.652 Y111.881 E.02156
G1 X78.155 Y111.875 E.02511
G1 X78.472 Y112.192 E.02268
G1 X77.991 Y112.202 E.02432
G1 X77.658 Y111.869 E.0238
G1 X77.161 Y111.863 E.02511
G1 X77.509 Y112.211 E.02491
G1 X77.028 Y112.221 E.02432
G1 X76.664 Y111.856 E.02603
G1 X76.166 Y111.85 E.02511
G1 X76.547 Y112.23 E.02715
G1 X76.065 Y112.24 E.02432
G1 X75.669 Y111.844 E.02827
G1 X75.172 Y111.838 E.02511
G1 X75.584 Y112.249 E.02938
G1 X75.102 Y112.259 E.02432
G1 X74.675 Y111.832 E.0305
G1 X74.178 Y111.826 E.02511
G1 X74.621 Y112.268 E.03162
G1 X74.14 Y112.278 E.02432
G1 X73.681 Y111.82 E.03274
G1 X73.184 Y111.813 E.02511
G1 X73.658 Y112.287 E.03385
G1 X73.177 Y112.297 E.02432
G1 X72.687 Y111.807 E.03497
G1 X72.19 Y111.801 E.02511
G1 X72.695 Y112.306 E.03609
G1 X72.214 Y112.316 E.02432
G1 X71.693 Y111.795 E.03721
G1 X71.196 Y111.789 E.02511
G1 X71.733 Y112.325 E.03832
G1 X71.251 Y112.335 E.02432
G1 X70.699 Y111.783 E.03944
G1 X70.202 Y111.777 E.02511
G1 X70.77 Y112.344 E.04056
G1 X70.288 Y112.354 E.02432
G1 X69.705 Y111.77 E.04168
G1 X69.208 Y111.764 E.02511
G1 X69.807 Y112.363 E.04279
G1 X69.326 Y112.373 E.02432
G1 X68.711 Y111.758 E.04391
G1 X68.214 Y111.752 E.02511
G1 X68.844 Y112.382 E.04503
G1 X68.363 Y112.392 E.02432
G1 X67.717 Y111.746 E.04615
G1 X67.22 Y111.74 E.02511
G1 X67.882 Y112.401 E.04726
G1 X67.4 Y112.411 E.02432
G1 X66.723 Y111.734 E.04838
G1 X66.226 Y111.727 E.02511
G1 X66.919 Y112.42 E.0495
G1 X66.437 Y112.43 E.02432
G1 X65.729 Y111.721 E.05062
G1 X65.232 Y111.715 E.02511
G1 X65.956 Y112.439 E.05173
G1 X65.475 Y112.449 E.02432
G1 X64.735 Y111.709 E.05285
G1 X64.238 Y111.703 E.02511
G1 X64.993 Y112.458 E.05397
G1 X64.512 Y112.468 E.02432
G1 X63.741 Y111.697 E.05509
G1 X63.244 Y111.691 E.02511
G1 X64.03 Y112.477 E.0562
G1 X63.549 Y112.487 E.02432
G1 X62.747 Y111.685 E.05732
G1 X62.25 Y111.678 E.02511
G1 X63.068 Y112.496 E.05844
G1 X62.586 Y112.506 E.02432
G1 X61.752 Y111.672 E.05956
G1 X61.255 Y111.666 E.02511
G1 X62.105 Y112.515 E.06067
G1 X61.623 Y112.525 E.02432
G1 X60.758 Y111.66 E.06179
G1 X60.621 Y111.658 E.00694
G1 X60.285 Y111.677 E.01702
G1 X61.142 Y112.534 E.06126
G1 X60.661 Y112.544 E.02432
G1 X59.819 Y111.703 E.06009
G1 X59.354 Y111.729 E.02353
G1 X60.179 Y112.553 E.05893
G1 X59.698 Y112.563 E.02432
G1 X58.889 Y111.754 E.05776
G1 X58.424 Y111.78 E.02353
G1 X59.217 Y112.572 E.0566
G1 X58.735 Y112.582 E.02432
G1 X57.959 Y111.806 E.05543
G1 X57.494 Y111.832 E.02353
G1 X58.254 Y112.592 E.05427
G1 X57.772 Y112.601 E.02432
G1 X57.029 Y111.858 E.0531
G1 X56.564 Y111.883 E.02353
G1 X57.291 Y112.611 E.05194
G1 X56.81 Y112.62 E.02432
G1 X56.099 Y111.909 E.05077
G1 X55.634 Y111.935 E.02353
G1 X56.328 Y112.63 E.04961
G1 X55.847 Y112.639 E.02432
G1 X55.169 Y111.961 E.04844
G1 X54.704 Y111.987 E.02353
G1 X55.365 Y112.649 E.04728
G1 X54.884 Y112.658 E.02432
G1 X54.238 Y112.012 E.04611
G1 X53.773 Y112.038 E.02353
G1 X54.403 Y112.668 E.04495
G1 X53.921 Y112.677 E.02432
G1 X53.308 Y112.064 E.04378
G1 X52.843 Y112.09 E.02353
G1 X53.44 Y112.687 E.04262
G1 X52.958 Y112.696 E.02432
G1 X52.378 Y112.116 E.04145
G1 X51.913 Y112.142 E.02353
G1 X52.477 Y112.706 E.04029
G1 X51.996 Y112.715 E.02432
G1 X51.448 Y112.167 E.03912
G1 X50.983 Y112.193 E.02353
G1 X51.514 Y112.725 E.03796
G1 X51.033 Y112.734 E.02432
G1 X50.518 Y112.219 E.03679
G1 X50.053 Y112.245 E.02353
G1 X50.552 Y112.744 E.03563
G1 X50.07 Y112.753 E.02432
G1 X49.588 Y112.271 E.03446
G1 X49.123 Y112.296 E.02353
G1 X49.589 Y112.763 E.0333
G1 X49.107 Y112.772 E.02432
G1 X48.658 Y112.322 E.03213
G1 X48.192 Y112.348 E.02353
G1 X48.626 Y112.782 E.03097
G1 X48.145 Y112.791 E.02432
G1 X47.727 Y112.374 E.0298
G1 X47.262 Y112.4 E.02353
G1 X47.663 Y112.801 E.02864
G1 X47.182 Y112.81 E.02432
G1 X46.797 Y112.425 E.02747
G1 X46.332 Y112.451 E.02353
G1 X46.7 Y112.82 E.02631
G1 X46.219 Y112.829 E.02432
G1 X45.867 Y112.477 E.02514
G1 X45.402 Y112.503 E.02353
M73 P0 R249
G1 X45.738 Y112.839 E.02398
G1 X45.256 Y112.848 E.02432
G1 X44.937 Y112.529 E.02281
G1 X44.472 Y112.555 E.02353
G1 X44.775 Y112.858 E.02165
G1 X44.293 Y112.867 E.02432
G1 X44.007 Y112.58 E.02048
G1 X43.542 Y112.606 E.02353
G1 X43.812 Y112.877 E.01932
G1 X43.331 Y112.886 E.02432
G1 X43.077 Y112.632 E.01815
G1 X42.611 Y112.658 E.02353
G1 X42.849 Y112.896 E.01699
G1 X42.368 Y112.905 E.02432
G1 X42.146 Y112.684 E.01582
G1 X41.681 Y112.709 E.02353
G1 X41.887 Y112.915 E.01466
G1 X41.405 Y112.924 E.02432
G1 X41.108 Y112.627 E.02125
G1 E-.7 F3600
;WIPE_START
G1 F6240
G1 X41.405 Y112.924 E-.23059
G1 X41.504 Y112.922 E-.05441
;WIPE_END
G1 E-.015 F3600
G1 X140.872 Y15.732 F7800
G1 E1 F2400
;WIDTH:0.42061
G1 F1800
G1 X141.496 Y16.356 E.04436
G1 X141.568 Y16.917 E.0284
G1 X140.539 Y15.888 E.07317
G1 X140.05 Y15.888 E.02456
G1 X141.64 Y17.477 E.113
G1 X141.711 Y18.037 E.0284
G1 X139.562 Y15.888 E.15284
G1 X139.073 Y15.888 E.02456
G1 X141.783 Y18.598 E.19268
G1 X141.855 Y19.158 E.0284
G1 X138.585 Y15.888 E.23252
G1 X138.096 Y15.888 E.02456
G1 X141.927 Y19.718 E.27235
G1 X141.998 Y20.278 E.0284
G1 X137.607 Y15.888 E.31219
G1 X137.119 Y15.888 E.02456
G1 X142.07 Y20.839 E.35203
G1 X142.142 Y21.399 E.0284
G1 X136.63 Y15.888 E.39187
G1 X136.142 Y15.888 E.02456
G1 X142.213 Y21.959 E.43171
G1 X142.285 Y22.52 E.0284
G1 X135.653 Y15.888 E.47154
G1 X135.164 Y15.888 E.02456
G1 X142.357 Y23.08 E.51138
G1 X142.429 Y23.64 E.0284
G1 X134.676 Y15.888 E.55122
G1 X134.187 Y15.888 E.02456
G1 X142.5 Y24.201 E.59106
G1 X142.572 Y24.761 E.0284
G1 X133.698 Y15.888 E.6309
G1 X133.21 Y15.888 E.02456
G1 X142.644 Y25.321 E.67073
G1 X142.715 Y25.882 E.0284
G1 X132.721 Y15.888 E.71057
G1 X132.233 Y15.888 E.02456
G1 X142.787 Y26.442 E.75041
G1 X142.859 Y27.002 E.0284
G1 X131.744 Y15.888 E.79025
G1 X131.255 Y15.888 E.02456
G1 X142.93 Y27.563 E.83008
G1 X143.002 Y28.123 E.0284
G1 X130.767 Y15.888 E.86992
G1 X130.278 Y15.888 E.02456
G1 X143.074 Y28.683 E.90976
G1 X143.146 Y29.244 E.0284
G1 X129.79 Y15.888 E.9496
G1 X129.301 Y15.888 E.02456
G1 X143.217 Y29.804 E.98944
G1 X143.289 Y30.364 E.0284
G1 X128.812 Y15.888 E1.02927
G1 X128.324 Y15.888 E.02456
G1 X143.361 Y30.924 E1.06911
G1 X143.432 Y31.485 E.0284
G1 X127.857 Y15.91 E1.10738
G1 X127.929 Y16.47 E.02841
G1 X143.504 Y32.045 E1.10736
G1 X143.576 Y32.605 E.0284
G1 X128.001 Y17.031 E1.10735
G1 X128.073 Y17.591 E.02841
G1 X143.648 Y33.166 E1.10733
G1 X143.719 Y33.726 E.0284
G1 X128.145 Y18.152 E1.10731
G1 X128.217 Y18.712 E.02841
G1 X143.791 Y34.286 E1.10729
G1 X143.863 Y34.847 E.0284
G1 X128.289 Y19.273 E1.10728
G1 X128.361 Y19.833 E.02841
G1 X143.934 Y35.407 E1.10726
G1 X144.006 Y35.967 E.0284
G1 X128.433 Y20.394 E1.10724
G1 X128.505 Y20.955 E.02841
G1 X144.078 Y36.528 E1.10723
G1 X144.149 Y37.088 E.0284
G1 X128.577 Y21.515 E1.10721
G1 X128.649 Y22.076 E.02841
G1 X144.221 Y37.648 E1.10719
G1 X144.293 Y38.209 E.0284
G1 X128.721 Y22.636 E1.10718
G1 X128.792 Y23.197 E.02841
G1 X144.365 Y38.769 E1.10716
G1 X144.436 Y39.329 E.0284
G1 X128.864 Y23.757 E1.10714
G1 X128.936 Y24.318 E.02841
G1 X144.508 Y39.89 E1.10713
G1 X144.58 Y40.45 E.0284
G1 X129.008 Y24.878 E1.10711
G1 X129.08 Y25.439 E.02841
G1 X144.651 Y41.01 E1.10709
G1 X144.723 Y41.57 E.0284
G1 X129.152 Y26 E1.10708
G1 X129.224 Y26.56 E.02841
G1 X144.795 Y42.131 E1.10706
G1 X144.866 Y42.691 E.0284
