; generated by PrusaSlicer 2.5.0+win64 on 2022-12-07 at 00:26:49 UTC

; 

; external perimeters extrusion width = 1.00mm
; perimeters extrusion width = 1.00mm
; infill extrusion width = 1.00mm
; solid infill extrusion width = 1.00mm
; top infill extrusion width = 1.00mm
; support material extrusion width = 1.00mm
; first layer extrusion width = 0.42mm

M73 P0 R488
M107
;TYPE:Custom
G90 ; use absolute coordinates
M83 ; extruder relative mode
M140 S60 ; set final bed temp
M104 S150 ; set temporary nozzle temp to prevent oozing during homing and auto bed leveling
G4 S10 ; allow partial nozzle warmup
G28 ; home all axisG1 Z50 F240
G1 X7.6 Y10 F3000
M104 S210 ; set final nozzle temp
M190 S60 ; wait for bed temp to stabilize
M109 S210 ; wait for nozzle temp to stabilize
G1 Z0.28 F240
G92 E0
G1 Y140 E10 F1500 ; prime the nozzle
G1 X4 F5000
G92 E0
G1 Y10 E10 F1200 ; prime the nozzle
G92 E0
G21 ; set units to millimeters
G90 ; use absolute coordinates
M83 ; use relative distances for extrusion
; Filament gcode
M107
;LAYER_CHANGE
;Z:0.35
;HEIGHT:0.35
;BEFORE_LAYER_CHANGE
G92 E0
;0.35


G1 E-1 F3600
G1 Z.35 F7800
;AFTER_LAYER_CHANGE
;0.35
G1 X171.277 Y171.268
G1 E1 F2400
;TYPE:Support material
;WIDTH:0.42
G1 F1800
G1 X151.234 Y171.268 E1.00589
G1 X151.234 Y165.637 E.28262
G1 X156.191 Y165.637 E.2488
G1 X156.607 Y165.221 E.02953
G1 X156.555 Y14.779 E7.55008
G1 X156.139 Y14.363 E.02951
G1 X151.234 Y14.363 E.24617
G1 X151.234 Y8.732 E.28261
G1 X171.277 Y8.732 E1.00589
G1 X171.277 Y171.217 E8.15446
G1 X170.866 Y171.113 F7800
G1 F1800
G1 X170.866 Y9.042 E8.13368
G1 X170.483 Y9.042 E.01923
G1 X170.483 Y170.958 E8.1259
G1 X170.1 Y170.958 E.01923
M73 P0 R487
G1 X170.1 Y9.042 E8.1259
G1 X169.717 Y9.042 E.01923
G1 X169.716 Y170.958 E8.1259
G1 X169.333 Y170.958 E.01923
G1 X169.333 Y9.042 E8.1259
G1 X168.95 Y9.042 E.01923
G1 X168.95 Y170.958 E8.1259
G1 X168.567 Y170.958 E.01923
G1 X168.567 Y9.042 E8.1259
G1 X168.184 Y9.042 E.01923
G1 X168.184 Y170.958 E8.1259
G1 X167.8 Y170.958 E.01923
G1 X167.8 Y9.042 E8.1259
G1 X167.417 Y9.042 E.01923
G1 X167.417 Y170.958 E8.1259
G1 X167.034 Y170.958 E.01923
G1 X167.034 Y9.042 E8.1259
G1 X166.651 Y9.042 E.01923
G1 X166.651 Y170.958 E8.1259
G1 X166.268 Y170.958 E.01923
G1 X166.268 Y9.042 E8.1259
G1 X165.884 Y9.042 E.01923
M73 P0 R486
G1 X165.884 Y170.958 E8.1259
G1 X165.501 Y170.958 E.01923
G1 X165.501 Y9.042 E8.1259
G1 X165.118 Y9.042 E.01923
G1 X165.118 Y170.958 E8.1259
G1 X164.735 Y170.958 E.01923
G1 X164.735 Y9.042 E8.1259
G1 X164.352 Y9.042 E.01923
G1 X164.352 Y170.958 E8.1259
G1 X163.968 Y170.958 E.01923
G1 X163.968 Y9.042 E8.1259
G1 X163.585 Y9.042 E.01923
G1 X163.585 Y170.958 E8.1259
G1 X163.202 Y170.958 E.01923
G1 X163.202 Y9.042 E8.1259
G1 X162.819 Y9.042 E.01923
G1 X162.819 Y170.958 E8.1259
G1 X162.435 Y170.958 E.01923
G1 X162.436 Y9.042 E8.1259
G1 X162.052 Y9.042 E.01923
G1 X162.052 Y170.958 E8.1259
G1 X161.669 Y170.958 E.01923
M73 P0 R485
G1 X161.669 Y9.042 E8.1259
G1 X161.286 Y9.042 E.01923
G1 X161.286 Y170.958 E8.1259
G1 X160.903 Y170.958 E.01923
G1 X160.903 Y9.042 E8.1259
G1 X160.519 Y9.042 E.01923
G1 X160.519 Y170.958 E8.1259
G1 X160.136 Y170.958 E.01923
G1 X160.136 Y9.042 E8.1259
G1 X159.753 Y9.042 E.01923
G1 X159.753 Y170.958 E8.1259
G1 X159.37 Y170.958 E.01923
G1 X159.37 Y9.042 E8.1259
G1 X158.987 Y9.042 E.01923
G1 X158.987 Y170.958 E8.1259
G1 X158.603 Y170.958 E.01923
G1 X158.603 Y9.042 E8.1259
G1 X158.22 Y9.042 E.01923
G1 X158.22 Y170.958 E8.1259
G1 X157.837 Y170.958 E.01923
G1 X157.837 Y9.042 E8.1259
G1 X157.454 Y9.042 E.01923
M73 P0 R484
G1 X157.454 Y170.958 E8.1259
G1 X157.071 Y170.958 E.01923
G1 X157.071 Y9.042 E8.1259
G1 X156.687 Y9.042 E.01923
G1 X156.687 Y14.472 E.27252
G1 X156.304 Y14.089 E.02719
G1 X156.304 Y9.042 E.25329
G1 X155.921 Y9.042 E.01923
G1 X155.921 Y14.053 E.25146
G1 X155.538 Y14.053 E.01923
G1 X155.538 Y9.042 E.25146
G1 X155.155 Y9.042 E.01923
G1 X155.155 Y14.053 E.25146
G1 X154.771 Y14.053 E.01923
G1 X154.771 Y9.042 E.25146
G1 X154.388 Y9.042 E.01923
G1 X154.388 Y14.053 E.25146
G1 X154.005 Y14.053 E.01923
G1 X154.005 Y9.042 E.25146
G1 X153.622 Y9.042 E.01923
G1 X153.622 Y14.053 E.25146
G1 X153.238 Y14.053 E.01923
G1 X153.238 Y9.042 E.25146
G1 X152.855 Y9.042 E.01923
G1 X152.855 Y14.053 E.25146
G1 X152.472 Y14.053 E.01923
G1 X152.472 Y9.042 E.25146
G1 X152.089 Y9.042 E.01923
G1 X152.089 Y14.053 E.25146
G1 X151.706 Y14.053 E.01923
G1 X151.706 Y8.887 E.25925
G1 E-.7 F3600
;WIPE_START
G1 F6240
G1 X151.706 Y9.407 E-.285
;WIPE_END
G1 E-.015 F3600
G1 X156.687 Y171.113 F7800
G1 E1 F2400
G1 F1800
G1 X156.687 Y165.58 E.27769
G1 X156.304 Y165.947 E.02665
G1 X156.304 Y170.958 E.25146
G1 X155.921 Y170.958 E.01923
G1 X155.921 Y165.947 E.25146
G1 X155.538 Y165.947 E.01923
G1 X155.538 Y170.958 E.25146
G1 X155.155 Y170.958 E.01923
G1 X155.155 Y165.947 E.25146
G1 X154.771 Y165.947 E.01923
G1 X154.771 Y170.958 E.25146
G1 X154.388 Y170.958 E.01923
G1 X154.388 Y165.947 E.25146
G1 X154.005 Y165.947 E.01923
G1 X154.005 Y170.958 E.25146
G1 X153.622 Y170.958 E.01923
G1 X153.622 Y165.947 E.25146
G1 X153.238 Y165.947 E.01923
G1 X153.238 Y170.958 E.25146
G1 X152.855 Y170.958 E.01923
G1 X152.855 Y165.947 E.25146
G1 X152.472 Y165.947 E.01923
G1 X152.472 Y170.958 E.25146
G1 X152.089 Y170.958 E.01923
G1 X152.089 Y165.947 E.25146
G1 X151.706 Y165.947 E.01923
G1 X151.706 Y171.113 E.25925
G1 E-.7 F3600
;WIPE_START
G1 F6240
G1 X151.706 Y170.593 E-.285
;WIPE_END
G1 E-.015 F3600
G1 X155.342 Y164.372 F7800
G1 E1 F2400
;TYPE:Perimeter
;WIDTH:0.42
G1 F1800
G1 X141.437 Y164.372 E.69783
G1 X141.399 Y15.628 E7.46485
G1 X155.29 Y15.628 E.69714
G1 X155.342 Y164.222 E7.45733
G1 X155.687 Y164.717 F7800
;TYPE:External perimeter
G1 F1800
G1 X141.092 Y164.717 E.73244
G1 X141.054 Y15.283 E7.49947
G1 X155.635 Y15.283 E.73176
G1 X155.687 Y164.567 E7.49194
G1 X154.805 Y164.245 F7800
G1 E-.7 F3600
;WIPE_START
G1 F6240
G1 X155.167 Y164.572 E-.285
;WIPE_END
G1 E-.015 F3600
G1 X155.187 Y16.43 F7800
G1 E1 F2400
;TYPE:Solid infill
;WIDTH:0.420682
G1 F1800
G1 X154.643 Y15.887 E.03866
G1 X154.155 Y15.887 E.02457
G1 X155.032 Y16.764 E.06239
G1 X155.032 Y17.253 E.02458
G1 X153.666 Y15.887 E.09716
G1 X153.177 Y15.887 E.02457
G1 X155.032 Y17.742 E.13192
G1 X155.033 Y18.231 E.02458
G1 X152.689 Y15.887 E.16669
G1 X152.2 Y15.887 E.02457
G1 X155.033 Y18.719 E.20146
G1 X155.033 Y19.208 E.02458
G1 X151.711 Y15.887 E.23622
G1 X151.222 Y15.887 E.02457
G1 X155.033 Y19.697 E.27099
G1 X155.033 Y20.186 E.02458
G1 X150.734 Y15.887 E.30575
G1 X150.245 Y15.887 E.02457
G1 X155.033 Y20.675 E.34052
G1 X155.034 Y21.164 E.02458
G1 X149.756 Y15.887 E.37529
G1 X149.268 Y15.887 E.02457
G1 X155.034 Y21.653 E.41005
G1 X155.034 Y22.142 E.02458
G1 X148.779 Y15.887 E.44482
G1 X148.29 Y15.887 E.02457
G1 X155.034 Y22.631 E.47959
G1 X155.034 Y23.119 E.02458
G1 X147.801 Y15.887 E.51435
G1 X147.313 Y15.887 E.02457
G1 X155.034 Y23.608 E.54912
G1 X155.035 Y24.097 E.02458
G1 X146.824 Y15.887 E.58388
G1 X146.335 Y15.887 E.02457
G1 X155.035 Y24.586 E.61865
G1 X155.035 Y25.075 E.02458
G1 X145.847 Y15.887 E.65342
G1 X145.358 Y15.887 E.02457
G1 X155.035 Y25.564 E.68818
G1 X155.035 Y26.053 E.02458
G1 X144.869 Y15.887 E.72295
G1 X144.381 Y15.887 E.02457
G1 X155.035 Y26.542 E.75772
G1 X155.036 Y27.03 E.02458
G1 X143.892 Y15.887 E.79248
G1 X143.403 Y15.887 E.02457
G1 X155.036 Y27.519 E.82725
G1 X155.036 Y28.008 E.02458
G1 X142.914 Y15.887 E.86201
G1 X142.426 Y15.887 E.02457
G1 X155.036 Y28.497 E.89678
G1 X155.036 Y28.986 E.02458
G1 X141.937 Y15.887 E.93155
G1 X141.658 Y15.887 E.01404
G1 X141.658 Y16.096 E.01054
G1 X155.036 Y29.475 E.9514
G1 X155.037 Y29.964 E.02458
G1 X141.658 Y16.585 E.95141
G1 X141.658 Y17.074 E.02458
G1 X155.037 Y30.453 E.95141
G1 X155.037 Y30.942 E.02458
G1 X141.658 Y17.563 E.95141
G1 X141.658 Y18.052 E.02458
M73 P0 R483
G1 X155.037 Y31.43 E.95142
G1 X155.037 Y31.919 E.02458
G1 X141.659 Y18.54 E.95142
G1 X141.659 Y19.029 E.02458
G1 X155.038 Y32.408 E.95142
G1 X155.038 Y32.897 E.02458
G1 X141.659 Y19.518 E.95143
G1 X141.659 Y20.007 E.02458
G1 X155.038 Y33.386 E.95143
G1 X155.038 Y33.875 E.02458
G1 X141.659 Y20.496 E.95143
G1 X141.659 Y20.985 E.02458
G1 X155.038 Y34.364 E.95144
G1 X155.038 Y34.853 E.02458
G1 X141.659 Y21.473 E.95144
G1 X141.659 Y21.962 E.02458
G1 X155.039 Y35.341 E.95144
G1 X155.039 Y35.83 E.02458
G1 X141.66 Y22.451 E.95145
G1 X141.66 Y22.94 E.02458
G1 X155.039 Y36.319 E.95145
G1 X155.039 Y36.808 E.02458
G1 X141.66 Y23.429 E.95145
G1 X141.66 Y23.918 E.02458
G1 X155.039 Y37.297 E.95146
G1 X155.039 Y37.786 E.02458
G1 X141.66 Y24.406 E.95146
G1 X141.66 Y24.895 E.02458
G1 X155.04 Y38.275 E.95146
G1 X155.04 Y38.764 E.02458
G1 X141.66 Y25.384 E.95147
G1 X141.66 Y25.873 E.02458
G1 X155.04 Y39.252 E.95147
G1 X155.04 Y39.741 E.02458
G1 X141.661 Y26.362 E.95147
G1 X141.661 Y26.851 E.02458
G1 X155.04 Y40.23 E.95147
G1 X155.04 Y40.719 E.02458
G1 X141.661 Y27.339 E.95148
G1 X141.661 Y27.828 E.02458
G1 X155.041 Y41.208 E.95148
G1 X155.041 Y41.697 E.02458
G1 X141.661 Y28.317 E.95148
G1 X141.661 Y28.806 E.02458
G1 X155.041 Y42.186 E.95149
G1 X155.041 Y42.675 E.02458
G1 X141.661 Y29.295 E.95149
G1 X141.661 Y29.784 E.02458
G1 X155.041 Y43.164 E.95149
G1 X155.041 Y43.652 E.02458
G1 X141.662 Y30.273 E.9515
G1 X141.662 Y30.761 E.02458
G1 X155.042 Y44.141 E.9515
G1 X155.042 Y44.63 E.02458
M73 P1 R483
G1 X141.662 Y31.25 E.9515
G1 X141.662 Y31.739 E.02458
G1 X155.042 Y45.119 E.95151
G1 X155.042 Y45.608 E.02458
G1 X141.662 Y32.228 E.95151
G1 X141.662 Y32.717 E.02458
G1 X155.042 Y46.097 E.95151
G1 X155.042 Y46.586 E.02458
G1 X141.662 Y33.206 E.95152
G1 X141.662 Y33.694 E.02458
G1 X155.043 Y47.075 E.95152
G1 X155.043 Y47.563 E.02458
G1 X141.663 Y34.183 E.95152
G1 X141.663 Y34.672 E.02458
G1 X155.043 Y48.052 E.95153
G1 X155.043 Y48.541 E.02458
G1 X141.663 Y35.161 E.95153
G1 X141.663 Y35.65 E.02458
G1 X155.043 Y49.03 E.95153
G1 X155.043 Y49.519 E.02458
G1 X141.663 Y36.139 E.95154
G1 X141.663 Y36.627 E.02458
G1 X155.044 Y50.008 E.95154
G1 X155.044 Y50.497 E.02458
G1 X141.663 Y37.116 E.95154
G1 X141.663 Y37.605 E.02458
G1 X155.044 Y50.986 E.95154
G1 X155.044 Y51.475 E.02458
G1 X141.664 Y38.094 E.95155
G1 X141.664 Y38.583 E.02458
G1 X155.044 Y51.963 E.95155
G1 X155.044 Y52.452 E.02458
G1 X141.664 Y39.072 E.95155
G1 X141.664 Y39.56 E.02458
G1 X155.045 Y52.941 E.95156
G1 X155.045 Y53.43 E.02458
G1 X141.664 Y40.049 E.95156
G1 X141.664 Y40.538 E.02458
G1 X155.045 Y53.919 E.95156
G1 X155.045 Y54.408 E.02458
G1 X141.664 Y41.027 E.95157
G1 X141.664 Y41.516 E.02458
G1 X155.045 Y54.897 E.95157
G1 X155.046 Y55.386 E.02458
G1 X141.665 Y42.005 E.95157
G1 X141.665 Y42.493 E.02458
G1 X155.046 Y55.874 E.95158
G1 X155.046 Y56.363 E.02458
G1 X141.665 Y42.982 E.95158
G1 X141.665 Y43.471 E.02458
G1 X155.046 Y56.852 E.95158
G1 X155.046 Y57.341 E.02458
G1 X141.665 Y43.96 E.95159
G1 X141.665 Y44.449 E.02458
G1 X155.046 Y57.83 E.95159
G1 X155.047 Y58.319 E.02458
G1 X141.665 Y44.938 E.95159
G1 X141.665 Y45.426 E.02458
G1 X155.047 Y58.808 E.9516
G1 X155.047 Y59.297 E.02458
G1 X141.666 Y45.915 E.9516
G1 X141.666 Y46.404 E.02458
G1 X155.047 Y59.786 E.9516
G1 X155.047 Y60.274 E.02458
G1 X141.666 Y46.893 E.95161
G1 X141.666 Y47.382 E.02458
G1 X155.047 Y60.763 E.95161
G1 X155.048 Y61.252 E.02458
G1 X141.666 Y47.871 E.95161
G1 X141.666 Y48.359 E.02458
G1 X155.048 Y61.741 E.95161
G1 X155.048 Y62.23 E.02458
G1 X141.666 Y48.848 E.95162
G1 X141.666 Y49.337 E.02458
G1 X155.048 Y62.719 E.95162
G1 X155.048 Y63.208 E.02458
G1 X141.667 Y49.826 E.95162
G1 X141.667 Y50.315 E.02458
G1 X155.048 Y63.697 E.95163
G1 X155.049 Y64.185 E.02458
G1 X141.667 Y50.804 E.95163
G1 X141.667 Y51.292 E.02458
G1 X155.049 Y64.674 E.95163
G1 X155.049 Y65.163 E.02458
G1 X141.667 Y51.781 E.95164
G1 X141.667 Y52.27 E.02458
G1 X155.049 Y65.652 E.95164
G1 X155.049 Y66.141 E.02458
G1 X141.667 Y52.759 E.95164
G1 X141.667 Y53.248 E.02458
G1 X155.049 Y66.63 E.95165
G1 X155.05 Y67.119 E.02458
G1 X141.668 Y53.737 E.95165
G1 X141.668 Y54.226 E.02458
G1 X155.05 Y67.608 E.95165
G1 X155.05 Y68.096 E.02458
G1 X141.668 Y54.714 E.95166
G1 X141.668 Y55.203 E.02458
G1 X155.05 Y68.585 E.95166
G1 X155.05 Y69.074 E.02458
G1 X141.668 Y55.692 E.95166
G1 X141.668 Y56.181 E.02458
G1 X155.05 Y69.563 E.95167
G1 X155.051 Y70.052 E.02458
G1 X141.668 Y56.67 E.95167
G1 X141.668 Y57.159 E.02458
G1 X155.051 Y70.541 E.95167
G1 X155.051 Y71.03 E.02458
G1 X141.669 Y57.647 E.95168
G1 X141.669 Y58.136 E.02458
G1 X155.051 Y71.519 E.95168
G1 X155.051 Y72.008 E.02458
G1 X141.669 Y58.625 E.95168
G1 X141.669 Y59.114 E.02458
G1 X155.051 Y72.496 E.95169
G1 X155.052 Y72.985 E.02458
G1 X141.669 Y59.603 E.95169
G1 X141.669 Y60.092 E.02458
M73 P1 R482
G1 X155.052 Y73.474 E.95169
G1 X155.052 Y73.963 E.02458
G1 X141.669 Y60.58 E.95169
G1 X141.669 Y61.069 E.02458
G1 X155.052 Y74.452 E.9517
G1 X155.052 Y74.941 E.02458
G1 X141.67 Y61.558 E.9517
G1 X141.67 Y62.047 E.02458
G1 X155.053 Y75.43 E.9517
G1 X155.053 Y75.919 E.02458
G1 X141.67 Y62.536 E.95171
G1 X141.67 Y63.025 E.02458
G1 X155.053 Y76.407 E.95171
G1 X155.053 Y76.896 E.02458
G1 X141.67 Y63.513 E.95171
G1 X141.67 Y64.002 E.02458
G1 X155.053 Y77.385 E.95172
G1 X155.053 Y77.874 E.02458
G1 X141.67 Y64.491 E.95172
G1 X141.67 Y64.98 E.02458
G1 X155.054 Y78.363 E.95172
G1 X155.054 Y78.852 E.02458
G1 X141.671 Y65.469 E.95173
G1 X141.671 Y65.958 E.02458
G1 X155.054 Y79.341 E.95173
G1 X155.054 Y79.83 E.02458
G1 X141.671 Y66.446 E.95173
G1 X141.671 Y66.935 E.02458
G1 X155.054 Y80.319 E.95174
G1 X155.054 Y80.807 E.02458
G1 X141.671 Y67.424 E.95174
G1 X141.671 Y67.913 E.02458
G1 X155.055 Y81.296 E.95174
G1 X155.055 Y81.785 E.02458
G1 X141.671 Y68.402 E.95175
G1 X141.671 Y68.891 E.02458
G1 X155.055 Y82.274 E.95175
G1 X155.055 Y82.763 E.02458
G1 X141.672 Y69.379 E.95175
G1 X141.672 Y69.868 E.02458
G1 X155.055 Y83.252 E.95176
G1 X155.055 Y83.741 E.02458
G1 X141.672 Y70.357 E.95176
G1 X141.672 Y70.846 E.02458
G1 X155.056 Y84.23 E.95176
G1 X155.056 Y84.718 E.02458
G1 X141.672 Y71.335 E.95176
G1 X141.672 Y71.824 E.02458
G1 X155.056 Y85.207 E.95177
G1 X155.056 Y85.696 E.02458
G1 X141.672 Y72.312 E.95177
G1 X141.672 Y72.801 E.02458
G1 X155.056 Y86.185 E.95177
G1 X155.056 Y86.674 E.02458
G1 X141.673 Y73.29 E.95178
G1 X141.673 Y73.779 E.02458
G1 X155.057 Y87.163 E.95178
G1 X155.057 Y87.652 E.02458
G1 X141.673 Y74.268 E.95178
G1 X141.673 Y74.757 E.02458
G1 X155.057 Y88.141 E.95179
G1 X155.057 Y88.63 E.02458
G1 X141.673 Y75.245 E.95179
G1 X141.673 Y75.734 E.02458
G1 X155.057 Y89.118 E.95179
G1 X155.057 Y89.607 E.02458
G1 X141.673 Y76.223 E.9518
G1 X141.673 Y76.712 E.02458
G1 X155.058 Y90.096 E.9518
G1 X155.058 Y90.585 E.02458
G1 X141.674 Y77.201 E.9518
G1 X141.674 Y77.69 E.02458
G1 X155.058 Y91.074 E.95181
G1 X155.058 Y91.563 E.02458
G1 X141.674 Y78.179 E.95181
G1 X141.674 Y78.667 E.02458
G1 X155.058 Y92.052 E.95181
G1 X155.058 Y92.541 E.02458
G1 X141.674 Y79.156 E.95182
G1 X141.674 Y79.645 E.02458
G1 X155.059 Y93.029 E.95182
G1 X155.059 Y93.518 E.02458
G1 X141.674 Y80.134 E.95182
G1 X141.674 Y80.623 E.02458
G1 X155.059 Y94.007 E.95183
G1 X155.059 Y94.496 E.02458
G1 X141.675 Y81.112 E.95183
G1 X141.675 Y81.6 E.02458
G1 X155.059 Y94.985 E.95183
G1 X155.059 Y95.474 E.02458
G1 X141.675 Y82.089 E.95183
G1 X141.675 Y82.578 E.02458
G1 X155.06 Y95.963 E.95184
G1 X155.06 Y96.452 E.02458
G1 X141.675 Y83.067 E.95184
G1 X141.675 Y83.556 E.02458
G1 X155.06 Y96.941 E.95184
G1 X155.06 Y97.429 E.02458
G1 X141.675 Y84.045 E.95185
G1 X141.675 Y84.533 E.02458
G1 X155.06 Y97.918 E.95185
G1 X155.061 Y98.407 E.02458
G1 X141.676 Y85.022 E.95185
G1 X141.676 Y85.511 E.02458
G1 X155.061 Y98.896 E.95186
G1 X155.061 Y99.385 E.02458
G1 X141.676 Y86 E.95186
G1 X141.676 Y86.489 E.02458
G1 X155.061 Y99.874 E.95186
G1 X155.061 Y100.363 E.02458
G1 X141.676 Y86.978 E.95187
G1 X141.676 Y87.466 E.02458
G1 X155.061 Y100.852 E.95187
G1 X155.062 Y101.34 E.02458
G1 X141.676 Y87.955 E.95187
G1 X141.676 Y88.444 E.02458
G1 X155.062 Y101.829 E.95188
G1 X155.062 Y102.318 E.02458
G1 X141.677 Y88.933 E.95188
G1 X141.677 Y89.422 E.02458
G1 X155.062 Y102.807 E.95188
G1 X155.062 Y103.296 E.02458
G1 X141.677 Y89.911 E.95189
G1 X141.677 Y90.399 E.02458
