; generated by PrusaSlicer 2.5.0+win64 on 2022-12-07 at 00:26:33 UTC

; 

; external perimeters extrusion width = 1.00mm
; perimeters extrusion width = 1.00mm
; infill extrusion width = 1.00mm
; solid infill extrusion width = 1.00mm
; top infill extrusion width = 1.00mm
; support material extrusion width = 1.00mm
; first layer extrusion width = 0.42mm

M73 P0 R161
M107
;TYPE:Custom
G90 ; use absolute coordinates
M83 ; extruder relative mode
M140 S60 ; set final bed temp
M104 S150 ; set temporary nozzle temp to prevent oozing during homing and auto bed leveling
G4 S10 ; allow partial nozzle warmup
G28 ; home all axisG1 Z50 F240
G1 X7.6 Y10 F3000
M104 S210 ; set final nozzle temp
M190 S60 ; wait for bed temp to stabilize
M109 S210 ; wait for nozzle temp to stabilize
G1 Z0.28 F240
G92 E0
G1 Y140 E10 F1500 ; prime the nozzle
G1 X4 F5000
G92 E0
G1 Y10 E10 F1200 ; prime the nozzle
G92 E0
G21 ; set units to millimeters
G90 ; use absolute coordinates
M83 ; use relative distances for extrusion
; Filament gcode
M107
;LAYER_CHANGE
;Z:0.35
;HEIGHT:0.35
;BEFORE_LAYER_CHANGE
G92 E0
;0.35


G1 E-1 F3600
G1 Z.35 F7800
;AFTER_LAYER_CHANGE
;0.35
G1 X79.758 Y21.803
G1 E1 F2400
;TYPE:Perimeter
;WIDTH:0.42
G1 F1800
G1 X93.851 Y21.799 E.70727
G1 X106.107 Y105.624 E4.25153
G1 X112.832 Y158.204 E2.66028
G1 X98.728 Y158.204 E.70781
G1 X91.857 Y104.694 E2.70753
G1 X79.78 Y21.952 E4.19648
G1 X79.359 Y21.458 F7800
;TYPE:External perimeter
G1 F1800
G1 X94.149 Y21.454 E.74225
G1 X106.448 Y105.574 E4.2665
G1 X113.224 Y158.549 E2.68025
G1 X98.425 Y158.549 E.7427
G1 X91.516 Y104.746 E2.72231
G1 X79.381 Y21.607 E4.21664
G1 X80.247 Y21.918 F7800
G1 E-.7 F3600
;WIPE_START
G1 F6240
G1 X79.901 Y21.601 E-.285
;WIPE_END
G1 E-.015 F3600
G1 X93.881 Y22.722 F7800
G1 E1 F2400
;TYPE:Solid infill
;WIDTH:0.420001
G1 F1800
G1 X93.217 Y22.058 E.04713
G1 X92.73 Y22.058 E.02447
G1 X93.781 Y23.11 E.07462
G1 X93.865 Y23.681 E.02897
G1 X92.242 Y22.059 E.11516
G1 X91.755 Y22.059 E.02447
G1 X93.948 Y24.252 E.1557
G1 X94.032 Y24.824 E.02897
G1 X91.267 Y22.059 E.19623
G1 X90.779 Y22.059 E.02447
G1 X94.115 Y25.395 E.23677
G1 X94.199 Y25.966 E.02897
G1 X90.292 Y22.059 E.27731
G1 X89.804 Y22.059 E.02447
G1 X94.282 Y26.537 E.31784
G1 X94.366 Y27.109 E.02897
G1 X89.316 Y22.059 E.35838
G1 X88.829 Y22.059 E.02447
G1 X94.449 Y27.68 E.39892
G1 X94.533 Y28.251 E.02897
G1 X88.341 Y22.06 E.43945
G1 X87.854 Y22.06 E.02447
G1 X94.616 Y28.823 E.47999
G1 X94.7 Y29.394 E.02897
G1 X87.366 Y22.06 E.52053
G1 X86.878 Y22.06 E.02447
G1 X94.784 Y29.965 E.56106
G1 X94.867 Y30.536 E.02897
G1 X86.391 Y22.06 E.6016
G1 X85.903 Y22.06 E.02447
G1 X94.951 Y31.108 E.64214
G1 X95.034 Y31.679 E.02897
G1 X85.415 Y22.06 E.68267
G1 X84.928 Y22.06 E.02447
G1 X95.118 Y32.25 E.72321
G1 X95.201 Y32.822 E.02897
G1 X84.44 Y22.061 E.76375
G1 X83.953 Y22.061 E.02447
G1 X95.285 Y33.393 E.80428
G1 X95.368 Y33.964 E.02897
G1 X83.465 Y22.061 E.84482
G1 X82.977 Y22.061 E.02447
G1 X95.452 Y34.535 E.88536
G1 X95.535 Y35.107 E.02897
G1 X82.49 Y22.061 E.92589
G1 X82.002 Y22.061 E.02447
G1 X95.619 Y35.678 E.96643
G1 X95.702 Y36.249 E.02897
G1 X81.514 Y22.061 E1.00697
G1 X81.027 Y22.061 E.02447
G1 X95.786 Y36.82 E1.0475
G1 X95.869 Y37.392 E.02897
G1 X80.539 Y22.062 E1.08804
G1 X80.057 Y22.062 E.02419
G1 X95.953 Y37.963 E1.12838
G1 X96.036 Y38.534 E.02897
G1 X80.142 Y22.639 E1.12812
G1 X80.225 Y23.21 E.02897
G1 X96.12 Y39.106 E1.12813
G1 X96.204 Y39.677 E.02897
G1 X80.308 Y23.782 E1.12815
G1 X80.392 Y24.353 E.02897
G1 X96.287 Y40.248 E1.12816
G1 X96.371 Y40.819 E.02897
G1 X80.475 Y24.924 E1.12817
G1 X80.558 Y25.495 E.02897
G1 X96.454 Y41.391 E1.12818
G1 X96.538 Y41.962 E.02897
G1 X80.642 Y26.066 E1.12819
G1 X80.725 Y26.637 E.02897
G1 X96.621 Y42.533 E1.1282
G1 X96.705 Y43.104 E.02897
G1 X80.808 Y27.208 E1.12822
G1 X80.892 Y27.779 E.02897
G1 X96.788 Y43.676 E1.12823
G1 X96.872 Y44.247 E.02897
M73 P0 R160
G1 X80.975 Y28.35 E1.12824
G1 X81.059 Y28.922 E.02897
G1 X96.955 Y44.818 E1.12825
G1 X97.039 Y45.39 E.02897
G1 X81.142 Y29.493 E1.12826
G1 X81.225 Y30.064 E.02897
G1 X97.122 Y45.961 E1.12827
G1 X97.206 Y46.532 E.02897
G1 X81.309 Y30.635 E1.12829
G1 X81.392 Y31.206 E.02897
G1 X97.289 Y47.103 E1.1283
G1 X97.373 Y47.675 E.02897
G1 X81.475 Y31.777 E1.12831
G1 X81.559 Y32.348 E.02897
G1 X97.456 Y48.246 E1.12832
G1 X97.54 Y48.817 E.02897
G1 X81.642 Y32.919 E1.12833
G1 X81.725 Y33.49 E.02897
G1 X97.623 Y49.389 E1.12835
G1 X97.707 Y49.96 E.02897
G1 X81.809 Y34.062 E1.12836
G1 X81.892 Y34.633 E.02897
G1 X97.791 Y50.531 E1.12837
G1 X97.874 Y51.102 E.02897
G1 X81.975 Y35.204 E1.12838
G1 X82.059 Y35.775 E.02897
G1 X97.958 Y51.674 E1.12839
G1 X98.041 Y52.245 E.02897
G1 X82.142 Y36.346 E1.1284
G1 X82.226 Y36.917 E.02897
G1 X98.125 Y52.816 E1.12842
G1 X98.208 Y53.387 E.02897
G1 X82.309 Y37.488 E1.12843
G1 X82.392 Y38.059 E.02897
G1 X98.292 Y53.959 E1.12844
G1 X98.375 Y54.53 E.02897
G1 X82.476 Y38.63 E1.12845
G1 X82.559 Y39.202 E.02897
G1 X98.459 Y55.101 E1.12846
G1 X98.542 Y55.673 E.02897
G1 X82.642 Y39.773 E1.12847
G1 X82.726 Y40.344 E.02897
G1 X98.626 Y56.244 E1.12849
G1 X98.709 Y56.815 E.02897
G1 X82.809 Y40.915 E1.1285
G1 X82.892 Y41.486 E.02897
G1 X98.793 Y57.386 E1.12851
G1 X98.876 Y57.958 E.02897
G1 X82.976 Y42.057 E1.12852
G1 X83.059 Y42.628 E.02897
G1 X98.96 Y58.529 E1.12853
G1 X99.043 Y59.1 E.02897
G1 X83.143 Y43.199 E1.12855
G1 X83.226 Y43.77 E.02897
G1 X99.127 Y59.671 E1.12856
G1 X99.21 Y60.243 E.02897
G1 X83.309 Y44.342 E1.12857
G1 X83.393 Y44.913 E.02897
G1 X99.294 Y60.814 E1.12858
G1 X99.378 Y61.385 E.02897
G1 X83.476 Y45.484 E1.12859
G1 X83.559 Y46.055 E.02897
G1 X99.461 Y61.957 E1.1286
G1 X99.545 Y62.528 E.02897
G1 X83.643 Y46.626 E1.12862
G1 X83.726 Y47.197 E.02897
G1 X99.628 Y63.099 E1.12863
G1 X99.712 Y63.67 E.02897
G1 X83.809 Y47.768 E1.12864
G1 X83.893 Y48.339 E.02897
G1 X99.795 Y64.242 E1.12865
G1 X99.879 Y64.813 E.02897
G1 X83.976 Y48.91 E1.12866
G1 X84.06 Y49.482 E.02897
G1 X99.962 Y65.384 E1.12867
G1 X100.046 Y65.955 E.02897
G1 X84.143 Y50.053 E1.12869
G1 X84.226 Y50.624 E.02897
G1 X100.129 Y66.527 E1.1287
G1 X100.213 Y67.098 E.02897
G1 X84.31 Y51.195 E1.12871
G1 X84.393 Y51.766 E.02897
G1 X100.296 Y67.669 E1.12872
G1 X100.38 Y68.241 E.02897
G1 X84.476 Y52.337 E1.12873
G1 X84.56 Y52.908 E.02897
G1 X100.463 Y68.812 E1.12875
G1 X100.547 Y69.383 E.02897
G1 X84.643 Y53.479 E1.12876
G1 X84.726 Y54.05 E.02897
G1 X100.63 Y69.954 E1.12877
G1 X100.714 Y70.526 E.02897
G1 X84.81 Y54.621 E1.12878
G1 X84.893 Y55.193 E.02897
G1 X100.798 Y71.097 E1.12879
G1 X100.881 Y71.668 E.02897
G1 X84.976 Y55.764 E1.1288
G1 X85.06 Y56.335 E.02897
G1 X100.965 Y72.24 E1.12882
G1 X101.048 Y72.811 E.02897
G1 X85.143 Y56.906 E1.12883
G1 X85.227 Y57.477 E.02897
G1 X101.132 Y73.382 E1.12884
G1 X101.215 Y73.953 E.02897
M73 P1 R160
G1 X85.31 Y58.048 E1.12885
G1 X85.393 Y58.619 E.02897
G1 X101.299 Y74.525 E1.12886
G1 X101.382 Y75.096 E.02897
G1 X85.477 Y59.19 E1.12887
G1 X85.56 Y59.761 E.02897
G1 X101.466 Y75.667 E1.12889
G1 X101.549 Y76.238 E.02897
G1 X85.643 Y60.333 E1.1289
G1 X85.727 Y60.904 E.02897
G1 X101.633 Y76.81 E1.12891
G1 X101.716 Y77.381 E.02897
G1 X85.81 Y61.475 E1.12892
G1 X85.893 Y62.046 E.02897
G1 X101.8 Y77.952 E1.12893
G1 X101.883 Y78.524 E.02897
G1 X85.977 Y62.617 E1.12895
G1 X86.06 Y63.188 E.02897
G1 X101.967 Y79.095 E1.12896
G1 X102.05 Y79.666 E.02897
G1 X86.144 Y63.759 E1.12897
G1 X86.227 Y64.33 E.02897
G1 X102.134 Y80.237 E1.12898
G1 X102.217 Y80.809 E.02897
G1 X86.31 Y64.901 E1.12899
G1 X86.394 Y65.473 E.02897
G1 X102.301 Y81.38 E1.129
G1 X102.385 Y81.951 E.02897
G1 X86.477 Y66.044 E1.12902
G1 X86.56 Y66.615 E.02897
G1 X102.468 Y82.522 E1.12903
G1 X102.552 Y83.094 E.02897
G1 X86.644 Y67.186 E1.12904
G1 X86.727 Y67.757 E.02897
G1 X102.635 Y83.665 E1.12905
G1 X102.719 Y84.236 E.02897
G1 X86.81 Y68.328 E1.12906
G1 X86.894 Y68.899 E.02897
G1 X102.802 Y84.808 E1.12907
G1 X102.886 Y85.379 E.02897
G1 X86.977 Y69.47 E1.12909
G1 X87.061 Y70.041 E.02897
G1 X102.969 Y85.95 E1.1291
G1 X103.053 Y86.521 E.02897
M73 P1 R159
G1 X87.144 Y70.613 E1.12911
G1 X87.227 Y71.184 E.02897
G1 X103.136 Y87.093 E1.12912
G1 X103.22 Y87.664 E.02897
G1 X87.311 Y71.755 E1.12913
G1 X87.394 Y72.326 E.02897
G1 X103.303 Y88.235 E1.12915
G1 X103.387 Y88.807 E.02897
G1 X87.477 Y72.897 E1.12916
G1 X87.561 Y73.468 E.02897
G1 X103.47 Y89.378 E1.12917
G1 X103.554 Y89.949 E.02897
G1 X87.644 Y74.039 E1.12918
G1 X87.727 Y74.61 E.02897
G1 X103.637 Y90.52 E1.12919
G1 X103.721 Y91.092 E.02897
G1 X87.811 Y75.181 E1.1292
G1 X87.894 Y75.753 E.02897
G1 X103.804 Y91.663 E1.12922
G1 X103.888 Y92.234 E.02897
G1 X87.978 Y76.324 E1.12923
G1 X88.061 Y76.895 E.02897
G1 X103.972 Y92.805 E1.12924
G1 X104.055 Y93.377 E.02897
G1 X88.144 Y77.466 E1.12925
G1 X88.228 Y78.037 E.02897
G1 X104.139 Y93.948 E1.12926
G1 X104.222 Y94.519 E.02897
G1 X88.311 Y78.608 E1.12927
G1 X88.394 Y79.179 E.02897
G1 X104.306 Y95.091 E1.12929
G1 X104.389 Y95.662 E.02897
G1 X88.478 Y79.75 E1.1293
G1 X88.561 Y80.321 E.02897
G1 X104.473 Y96.233 E1.12931
G1 X104.556 Y96.804 E.02897
G1 X88.644 Y80.893 E1.12932
G1 X88.728 Y81.464 E.02897
G1 X104.64 Y97.376 E1.12933
G1 X104.723 Y97.947 E.02897
G1 X88.811 Y82.035 E1.12935
G1 X88.894 Y82.606 E.02897
G1 X104.807 Y98.518 E1.12936
G1 X104.89 Y99.089 E.02897
G1 X88.978 Y83.177 E1.12937
G1 X89.061 Y83.748 E.02897
G1 X104.974 Y99.661 E1.12938
G1 X105.057 Y100.232 E.02897
G1 X89.145 Y84.319 E1.12939
G1 X89.228 Y84.89 E.02897
G1 X105.141 Y100.803 E1.1294
G1 X105.224 Y101.375 E.02897
G1 X89.311 Y85.461 E1.12942
G1 X89.395 Y86.033 E.02897
G1 X105.308 Y101.946 E1.12943
G1 X105.392 Y102.517 E.02897
G1 X89.478 Y86.604 E1.12944
G1 X89.561 Y87.175 E.02897
G1 X105.475 Y103.088 E1.12945
G1 X105.559 Y103.66 E.02897
G1 X89.645 Y87.746 E1.12946
G1 X89.728 Y88.317 E.02897
G1 X105.642 Y104.231 E1.12947
G1 X105.726 Y104.802 E.02897
G1 X89.811 Y88.888 E1.12949
G1 X89.895 Y89.459 E.02897
G1 X105.809 Y105.373 E1.1295
G1 X105.86 Y105.721 E.01765
G1 X105.888 Y105.94 E.01106
G1 X89.978 Y90.03 E1.12918
G1 X90.062 Y90.601 E.02897
G1 X105.959 Y106.499 E1.12834
G1 X106.031 Y107.059 E.0283
G1 X90.145 Y91.173 E1.1275
G1 X90.228 Y91.744 E.02897
G1 X106.103 Y107.618 E1.12666
G1 X106.174 Y108.177 E.0283
G1 X90.312 Y92.315 E1.12581
G1 X90.395 Y92.886 E.02897
G1 X106.246 Y108.736 E1.12497
G1 X106.317 Y109.296 E.0283
G1 X90.478 Y93.457 E1.12413
G1 X90.562 Y94.028 E.02897
G1 X106.389 Y109.855 E1.12329
G1 X106.46 Y110.414 E.0283
G1 X90.645 Y94.599 E1.12245
G1 X90.728 Y95.17 E.02897
G1 X106.532 Y110.973 E1.12161
G1 X106.603 Y111.533 E.0283
G1 X90.812 Y95.741 E1.12077
G1 X90.895 Y96.312 E.02897
G1 X106.675 Y112.092 E1.11993
G1 X106.746 Y112.651 E.0283
G1 X90.979 Y96.884 E1.11909
G1 X91.062 Y97.455 E.02897
G1 X106.818 Y113.211 E1.11825
G1 X106.889 Y113.77 E.0283
G1 X91.145 Y98.026 E1.11741
G1 X91.229 Y98.597 E.02897
G1 X106.961 Y114.329 E1.11657
G1 X107.032 Y114.888 E.0283
G1 X91.312 Y99.168 E1.11573
G1 X91.395 Y99.739 E.02897
G1 X107.104 Y115.448 E1.11489
G1 X107.175 Y116.007 E.0283
G1 X91.479 Y100.31 E1.11405
G1 X91.562 Y100.881 E.02897
G1 X107.247 Y116.566 E1.11321
G1 X107.318 Y117.125 E.0283
G1 X91.645 Y101.452 E1.11236
G1 X91.729 Y102.024 E.02897
G1 X107.39 Y117.685 E1.11152
G1 X107.461 Y118.244 E.0283
G1 X91.812 Y102.595 E1.11068
G1 X91.896 Y103.166 E.02897
G1 X107.533 Y118.803 E1.10984
G1 X107.604 Y119.362 E.0283
G1 X91.979 Y103.737 E1.109
G1 X92.062 Y104.308 E.02897
G1 X107.676 Y119.922 E1.10816
G1 X107.747 Y120.481 E.0283
G1 X92.141 Y104.875 E1.10764
G1 X92.213 Y105.434 E.02832
G1 X107.819 Y121.04 E1.10761
G1 X107.89 Y121.6 E.0283
G1 X92.285 Y105.994 E1.10759
G1 X92.357 Y106.553 E.02832
G1 X107.962 Y122.159 E1.10757
G1 X108.034 Y122.718 E.0283
G1 X92.429 Y107.113 E1.10754
G1 X92.5 Y107.673 E.02832
G1 X108.105 Y123.277 E1.10752
G1 X108.177 Y123.837 E.0283
G1 X92.572 Y108.232 E1.10749
G1 X92.644 Y108.792 E.02832
G1 X108.248 Y124.396 E1.10747
G1 X108.32 Y124.955 E.0283
G1 X92.716 Y109.352 E1.10745
G1 X92.788 Y109.911 E.02832
G1 X108.391 Y125.514 E1.10742
G1 X108.463 Y126.074 E.0283
G1 X92.86 Y110.471 E1.1074
G1 X92.932 Y111.03 E.02832
G1 X108.534 Y126.633 E1.10737
G1 X108.606 Y127.192 E.0283
G1 X93.003 Y111.59 E1.10735
G1 X93.075 Y112.15 E.02832
G1 X108.677 Y127.751 E1.10732
G1 X108.749 Y128.311 E.0283
G1 X93.147 Y112.709 E1.1073
M73 P1 R158
G1 X93.219 Y113.269 E.02832
G1 X108.82 Y128.87 E1.10728
G1 X108.892 Y129.429 E.0283
G1 X93.291 Y113.828 E1.10725
G1 X93.363 Y114.388 E.02832
G1 X108.963 Y129.989 E1.10723
G1 X109.035 Y130.548 E.0283
G1 X93.435 Y114.948 E1.1072
G1 X93.506 Y115.507 E.02832
G1 X109.106 Y131.107 E1.10718
G1 X109.178 Y131.666 E.0283
G1 X93.578 Y116.067 E1.10715
G1 X93.65 Y116.626 E.02832
G1 X109.249 Y132.226 E1.10713
G1 X109.321 Y132.785 E.0283
G1 X93.722 Y117.186 E1.10711
G1 X93.794 Y117.746 E.02832
G1 X109.392 Y133.344 E1.10708
G1 X109.464 Y133.903 E.0283
G1 X93.866 Y118.305 E1.10706
G1 X93.938 Y118.865 E.02832
G1 X109.535 Y134.463 E1.10703
G1 X109.607 Y135.022 E.0283
G1 X94.009 Y119.424 E1.10701
G1 X94.081 Y119.984 E.02832
G1 X109.678 Y135.581 E1.10699
G1 X109.75 Y136.14 E.0283
G1 X94.153 Y120.544 E1.10696
G1 X94.225 Y121.103 E.02832
G1 X109.821 Y136.7 E1.10694
G1 X109.893 Y137.259 E.0283
G1 X94.297 Y121.663 E1.10691
G1 X94.369 Y122.222 E.02832
G1 X109.964 Y137.818 E1.10689
G1 X110.036 Y138.377 E.0283
G1 X94.441 Y122.782 E1.10686
G1 X94.512 Y123.342 E.02832
G1 X110.108 Y138.937 E1.10684
G1 X110.179 Y139.496 E.0283
G1 X94.584 Y123.901 E1.10682
G1 X94.656 Y124.461 E.02832
G1 X110.251 Y140.055 E1.10679
G1 X110.322 Y140.615 E.0283
G1 X94.728 Y125.021 E1.10677
G1 X94.8 Y125.58 E.02832
G1 X110.394 Y141.174 E1.10674
G1 X110.465 Y141.733 E.0283
G1 X94.872 Y126.14 E1.10672
G1 X94.944 Y126.699 E.02832
M73 P2 R158
G1 X110.537 Y142.292 E1.10669
G1 X110.608 Y142.852 E.0283
G1 X95.015 Y127.259 E1.10667
G1 X95.087 Y127.819 E.02832
G1 X110.68 Y143.411 E1.10665
G1 X110.751 Y143.97 E.0283
G1 X95.159 Y128.378 E1.10662
G1 X95.231 Y128.938 E.02832
G1 X110.823 Y144.529 E1.1066
G1 X110.894 Y145.089 E.0283
G1 X95.303 Y129.497 E1.10657
G1 X95.375 Y130.057 E.02832
G1 X110.966 Y145.648 E1.10655
G1 X111.037 Y146.207 E.0283
G1 X95.447 Y130.617 E1.10653
G1 X95.518 Y131.176 E.02832
G1 X111.109 Y146.766 E1.1065
G1 X111.18 Y147.326 E.0283
G1 X95.59 Y131.736 E1.10648
G1 X95.662 Y132.295 E.02832
G1 X111.252 Y147.885 E1.10645
G1 X111.323 Y148.444 E.0283
G1 X95.734 Y132.855 E1.10643
G1 X95.806 Y133.415 E.02832
G1 X111.395 Y149.004 E1.1064
G1 X111.466 Y149.563 E.0283
G1 X95.878 Y133.974 E1.10638
G1 X95.95 Y134.534 E.02832
G1 X111.538 Y150.122 E1.10636
G1 X111.609 Y150.681 E.0283
G1 X96.022 Y135.093 E1.10633
G1 X96.093 Y135.653 E.02832
G1 X111.681 Y151.241 E1.10631
G1 X111.752 Y151.8 E.0283
G1 X96.165 Y136.213 E1.10628
G1 X96.237 Y136.772 E.02832
G1 X111.824 Y152.359 E1.10626
G1 X111.895 Y152.918 E.0283
G1 X96.309 Y137.332 E1.10623
G1 X96.381 Y137.891 E.02832
G1 X111.967 Y153.478 E1.10621
G1 X112.039 Y154.037 E.0283
G1 X96.453 Y138.451 E1.10619
G1 X96.525 Y139.011 E.02832
G1 X112.11 Y154.596 E1.10616
G1 X112.182 Y155.155 E.0283
G1 X96.596 Y139.57 E1.10614
G1 X96.668 Y140.13 E.02832
G1 X112.253 Y155.715 E1.10611
G1 X112.325 Y156.274 E.0283
G1 X96.74 Y140.69 E1.10609
G1 X96.812 Y141.249 E.02832
G1 X112.396 Y156.833 E1.10606
G1 X112.468 Y157.393 E.0283
G1 X96.884 Y141.809 E1.10604
G1 X96.956 Y142.368 E.02832
G1 X112.533 Y157.946 E1.10557
G1 X112.045 Y157.946 E.02448
G1 X97.028 Y142.928 E1.06585
G1 X97.099 Y143.488 E.02832
G1 X111.557 Y157.946 E1.02613
G1 X111.07 Y157.946 E.02448
G1 X97.171 Y144.047 E.98642
G1 X97.243 Y144.607 E.02832
G1 X110.582 Y157.946 E.9467
G1 X110.094 Y157.946 E.02448
G1 X97.315 Y145.166 E.90698
G1 X97.387 Y145.726 E.02832
G1 X109.606 Y157.946 E.86727
G1 X109.119 Y157.946 E.02448
G1 X97.459 Y146.286 E.82755
G1 X97.531 Y146.845 E.02832
G1 X108.631 Y157.946 E.78783
G1 X108.143 Y157.946 E.02448
G1 X97.602 Y147.405 E.74811
G1 X97.674 Y147.964 E.02832
G1 X107.655 Y157.946 E.7084
G1 X107.168 Y157.946 E.02448
G1 X97.746 Y148.524 E.66868
G1 X97.818 Y149.084 E.02832
G1 X106.68 Y157.946 E.62896
G1 X106.192 Y157.946 E.02448
G1 X97.89 Y149.643 E.58924
G1 X97.962 Y150.203 E.02832
