; generated by PrusaSlicer 2.5.0+win64 on 2022-12-07 at 00:26:35 UTC

; 

; external perimeters extrusion width = 1.00mm
; perimeters extrusion width = 1.00mm
; infill extrusion width = 1.00mm
; solid infill extrusion width = 1.00mm
; top infill extrusion width = 1.00mm
; support material extrusion width = 1.00mm
; first layer extrusion width = 0.42mm

M73 P0 R104
M107
;TYPE:Custom
G90 ; use absolute coordinates
M83 ; extruder relative mode
M140 S60 ; set final bed temp
M104 S150 ; set temporary nozzle temp to prevent oozing during homing and auto bed leveling
G4 S10 ; allow partial nozzle warmup
G28 ; home all axisG1 Z50 F240
G1 X7.6 Y10 F3000
M104 S210 ; set final nozzle temp
M190 S60 ; wait for bed temp to stabilize
M109 S210 ; wait for nozzle temp to stabilize
G1 Z0.28 F240
G92 E0
G1 Y140 E10 F1500 ; prime the nozzle
G1 X4 F5000
G92 E0
G1 Y10 E10 F1200 ; prime the nozzle
G92 E0
G21 ; set units to millimeters
G90 ; use absolute coordinates
M83 ; use relative distances for extrusion
; Filament gcode
M107
;LAYER_CHANGE
;Z:0.35
;HEIGHT:0.35
;BEFORE_LAYER_CHANGE
G92 E0
;0.35


G1 E-1 F3600
G1 Z.35 F7800
;AFTER_LAYER_CHANGE
;0.35
G1 X165.902 Y65.709
G1 E1 F2400
;TYPE:Perimeter
;WIDTH:0.42
G1 F1800
G1 X165.902 Y84.343 E.9352
G1 X14.098 Y82.702 E7.61887
M73 P0 R103
G1 X14.098 Y64.037 E.93671
G1 X165.752 Y65.707 E7.61136
G1 X166.247 Y65.368 F7800
;TYPE:External perimeter
G1 F1800
G1 X166.247 Y84.692 E.96982
G1 X13.753 Y83.043 E7.65349
G1 X13.753 Y63.689 E.97133
G1 X166.097 Y65.366 E7.64598
G1 X165.781 Y66.252 F7800
G1 X165.093 Y65.803
;TYPE:Solid infill
;WIDTH:0.420373
G1 F1800
G1 X165.643 Y66.354 E.03913
G1 X165.643 Y66.842 E.02453
G1 X164.756 Y65.955 E.06306
G1 X164.262 Y65.949 E.02481
G1 X165.643 Y67.331 E.09814
G1 X165.643 Y67.819 E.02453
G1 X163.769 Y65.944 E.13322
G1 X163.275 Y65.938 E.02481
G1 X165.643 Y68.307 E.16829
G1 X165.643 Y68.795 E.02453
G1 X162.781 Y65.933 E.20337
G1 X162.287 Y65.928 E.02481
G1 X165.643 Y69.284 E.23845
G1 X165.643 Y69.772 E.02453
G1 X161.794 Y65.922 E.27353
G1 X161.3 Y65.917 E.02481
G1 X165.643 Y70.26 E.30861
G1 X165.643 Y70.748 E.02453
G1 X160.806 Y65.911 E.34369
G1 X160.313 Y65.906 E.02481
G1 X165.643 Y71.237 E.37876
G1 X165.643 Y71.725 E.02453
G1 X159.819 Y65.9 E.41384
G1 X159.325 Y65.895 E.02481
G1 X165.643 Y72.213 E.44892
G1 X165.643 Y72.702 E.02453
G1 X158.831 Y65.89 E.484
G1 X158.338 Y65.884 E.02481
G1 X165.643 Y73.19 E.51908
G1 X165.643 Y73.678 E.02453
G1 X157.844 Y65.879 E.55415
G1 X157.35 Y65.873 E.02481
G1 X165.643 Y74.166 E.58923
G1 X165.643 Y74.655 E.02453
G1 X156.857 Y65.868 E.62431
G1 X156.363 Y65.862 E.02481
G1 X165.643 Y75.143 E.65939
G1 X165.643 Y75.631 E.02453
G1 X155.869 Y65.857 E.69447
G1 X155.375 Y65.851 E.02481
G1 X165.643 Y76.119 E.72955
G1 X165.643 Y76.608 E.02453
G1 X154.882 Y65.846 E.76462
G1 X154.388 Y65.841 E.02481
G1 X165.643 Y77.096 E.7997
G1 X165.643 Y77.584 E.02453
G1 X153.894 Y65.835 E.83478
G1 X153.401 Y65.83 E.02481
G1 X165.643 Y78.073 E.86986
G1 X165.643 Y78.561 E.02453
G1 X152.907 Y65.824 E.90494
G1 X152.413 Y65.819 E.02481
G1 X165.643 Y79.049 E.94002
G1 X165.643 Y79.537 E.02453
G1 X151.919 Y65.813 E.97509
G1 X151.426 Y65.808 E.02481
G1 X165.643 Y80.026 E1.01017
G1 X165.643 Y80.514 E.02453
G1 X150.932 Y65.803 E1.04525
G1 X150.438 Y65.797 E.02481
G1 X165.643 Y81.002 E1.08033
G1 X165.643 Y81.491 E.02453
G1 X149.945 Y65.792 E1.11541
G1 X149.451 Y65.786 E.02481
G1 X165.643 Y81.979 E1.15048
G1 X165.643 Y82.467 E.02453
G1 X148.957 Y65.781 E1.18556
G1 X148.463 Y65.775 E.02481
G1 X165.643 Y82.955 E1.22064
G1 X165.643 Y83.444 E.02453
G1 X147.97 Y65.77 E1.25572
G1 X147.476 Y65.764 E.02481
G1 X165.643 Y83.932 E1.2908
G1 X165.643 Y84.082 E.00754
G1 X165.302 Y84.078 E.01718
G1 X146.982 Y65.759 E1.30159
G1 X146.489 Y65.754 E.02481
G1 X164.808 Y84.073 E1.30159
G1 X164.314 Y84.068 E.0248
G1 X145.995 Y65.748 E1.3016
G1 X145.501 Y65.743 E.02481
G1 X163.821 Y84.062 E1.30161
G1 X163.327 Y84.057 E.0248
G1 X145.008 Y65.737 E1.30161
G1 X144.514 Y65.732 E.02481
G1 X162.834 Y84.052 E1.30162
G1 X162.34 Y84.046 E.0248
G1 X144.02 Y65.726 E1.30163
G1 X143.526 Y65.721 E.02481
G1 X161.846 Y84.041 E1.30164
G1 X161.353 Y84.036 E.0248
M73 P1 R103
G1 X143.033 Y65.716 E1.30164
G1 X142.539 Y65.71 E.02481
G1 X160.859 Y84.03 E1.30165
G1 X160.365 Y84.025 E.0248
G1 X142.045 Y65.705 E1.30166
G1 X141.552 Y65.699 E.02481
G1 X159.872 Y84.02 E1.30166
G1 X159.378 Y84.014 E.0248
G1 X141.058 Y65.694 E1.30167
G1 X140.564 Y65.688 E.02481
G1 X158.885 Y84.009 E1.30168
G1 X158.391 Y84.004 E.0248
G1 X140.07 Y65.683 E1.30168
G1 X139.577 Y65.678 E.02481
G1 X157.897 Y83.998 E1.30169
G1 X157.404 Y83.993 E.0248
G1 X139.083 Y65.672 E1.3017
G1 X138.589 Y65.667 E.02481
G1 X156.91 Y83.988 E1.30171
G1 X156.417 Y83.982 E.0248
G1 X138.096 Y65.661 E1.30171
G1 X137.602 Y65.656 E.02481
G1 X155.923 Y83.977 E1.30172
G1 X155.429 Y83.972 E.0248
G1 X137.108 Y65.65 E1.30173
G1 X136.614 Y65.645 E.02481
M73 P1 R102
G1 X154.936 Y83.966 E1.30173
G1 X154.442 Y83.961 E.0248
G1 X136.121 Y65.639 E1.30174
G1 X135.627 Y65.634 E.02481
G1 X153.949 Y83.956 E1.30175
G1 X153.455 Y83.95 E.0248
G1 X135.133 Y65.629 E1.30175
G1 X134.64 Y65.623 E.02481
G1 X152.961 Y83.945 E1.30176
G1 X152.468 Y83.94 E.0248
G1 X134.146 Y65.618 E1.30177
G1 X133.652 Y65.612 E.02481
G1 X151.974 Y83.934 E1.30178
G1 X151.48 Y83.929 E.0248
G1 X133.158 Y65.607 E1.30178
G1 X132.665 Y65.601 E.02481
G1 X150.987 Y83.924 E1.30179
G1 X150.493 Y83.918 E.0248
G1 X132.171 Y65.596 E1.3018
G1 X131.677 Y65.591 E.02481
G1 X150 Y83.913 E1.3018
G1 X149.506 Y83.907 E.0248
G1 X131.184 Y65.585 E1.30181
G1 X130.69 Y65.58 E.02481
G1 X149.012 Y83.902 E1.30182
G1 X148.519 Y83.897 E.0248
G1 X130.196 Y65.574 E1.30183
G1 X129.703 Y65.569 E.02481
G1 X148.025 Y83.891 E1.30183
G1 X147.532 Y83.886 E.0248
G1 X129.209 Y65.563 E1.30184
G1 X128.715 Y65.558 E.02481
G1 X147.038 Y83.881 E1.30185
G1 X146.544 Y83.875 E.0248
G1 X128.221 Y65.552 E1.30185
G1 X127.728 Y65.547 E.02481
G1 X146.051 Y83.87 E1.30186
G1 X145.557 Y83.865 E.0248
G1 X127.234 Y65.542 E1.30187
G1 X126.74 Y65.536 E.02481
G1 X145.064 Y83.859 E1.30187
G1 X144.57 Y83.854 E.0248
G1 X126.247 Y65.531 E1.30188
G1 X125.753 Y65.525 E.02481
G1 X144.076 Y83.849 E1.30189
G1 X143.583 Y83.843 E.0248
G1 X125.259 Y65.52 E1.3019
G1 X124.765 Y65.514 E.02481
G1 X143.089 Y83.838 E1.3019
G1 X142.595 Y83.833 E.0248
G1 X124.272 Y65.509 E1.30191
G1 X123.778 Y65.504 E.02481
G1 X142.102 Y83.827 E1.30192
G1 X141.608 Y83.822 E.0248
G1 X123.284 Y65.498 E1.30192
G1 X122.791 Y65.493 E.02481
G1 X141.115 Y83.817 E1.30193
G1 X140.621 Y83.811 E.0248
G1 X122.297 Y65.487 E1.30194
G1 X121.803 Y65.482 E.02481
G1 X140.127 Y83.806 E1.30194
G1 X139.634 Y83.801 E.0248
G1 X121.309 Y65.476 E1.30195
G1 X120.816 Y65.471 E.02481
G1 X139.14 Y83.795 E1.30196
G1 X138.647 Y83.79 E.0248
G1 X120.322 Y65.466 E1.30197
G1 X119.828 Y65.46 E.02481
G1 X138.153 Y83.785 E1.30197
G1 X137.659 Y83.779 E.0248
G1 X119.335 Y65.455 E1.30198
G1 X118.841 Y65.449 E.02481
G1 X137.166 Y83.774 E1.30199
G1 X136.672 Y83.769 E.0248
G1 X118.347 Y65.444 E1.30199
G1 X117.853 Y65.438 E.02481
G1 X136.179 Y83.763 E1.302
G1 X135.685 Y83.758 E.0248
G1 X117.36 Y65.433 E1.30201
G1 X116.866 Y65.427 E.02481
G1 X135.191 Y83.753 E1.30202
G1 X134.698 Y83.747 E.0248
G1 X116.372 Y65.422 E1.30202
G1 X115.879 Y65.417 E.02481
G1 X134.204 Y83.742 E1.30203
G1 X133.71 Y83.737 E.0248
G1 X115.385 Y65.411 E1.30204
G1 X114.891 Y65.406 E.02481
G1 X133.217 Y83.731 E1.30204
G1 X132.723 Y83.726 E.0248
G1 X114.397 Y65.4 E1.30205
G1 X113.904 Y65.395 E.02481
G1 X132.23 Y83.721 E1.30206
G1 X131.736 Y83.715 E.0248
G1 X113.41 Y65.389 E1.30206
G1 X112.916 Y65.384 E.02481
G1 X131.242 Y83.71 E1.30207
G1 X130.749 Y83.705 E.0248
G1 X112.423 Y65.379 E1.30208
G1 X111.929 Y65.373 E.02481
G1 X130.255 Y83.699 E1.30209
G1 X129.762 Y83.694 E.0248
G1 X111.435 Y65.368 E1.30209
G1 X110.942 Y65.362 E.02481
G1 X129.268 Y83.689 E1.3021
G1 X128.774 Y83.683 E.0248
G1 X110.448 Y65.357 E1.30211
G1 X109.954 Y65.351 E.02481
M73 P2 R102
G1 X128.281 Y83.678 E1.30211
G1 X127.787 Y83.673 E.0248
G1 X109.46 Y65.346 E1.30212
G1 X108.967 Y65.34 E.02481
G1 X127.294 Y83.667 E1.30213
G1 X126.8 Y83.662 E.0248
G1 X108.473 Y65.335 E1.30213
G1 X107.979 Y65.33 E.02481
G1 X126.306 Y83.657 E1.30214
G1 X125.813 Y83.651 E.0248
G1 X107.486 Y65.324 E1.30215
G1 X106.992 Y65.319 E.02481
G1 X125.319 Y83.646 E1.30216
G1 X124.825 Y83.641 E.0248
G1 X106.498 Y65.313 E1.30216
G1 X106.004 Y65.308 E.02481
G1 X124.332 Y83.635 E1.30217
G1 X123.838 Y83.63 E.0248
G1 X105.511 Y65.302 E1.30218
G1 X105.017 Y65.297 E.02481
M73 P2 R101
G1 X123.345 Y83.625 E1.30218
G1 X122.851 Y83.619 E.0248
G1 X104.523 Y65.292 E1.30219
G1 X104.03 Y65.286 E.02481
G1 X122.357 Y83.614 E1.3022
G1 X121.864 Y83.609 E.0248
G1 X103.536 Y65.281 E1.3022
G1 X103.042 Y65.275 E.02481
G1 X121.37 Y83.603 E1.30221
G1 X120.877 Y83.598 E.0248
G1 X102.548 Y65.27 E1.30222
G1 X102.055 Y65.264 E.02481
G1 X120.383 Y83.593 E1.30223
G1 X119.889 Y83.587 E.0248
G1 X101.561 Y65.259 E1.30223
G1 X101.067 Y65.254 E.02481
G1 X119.396 Y83.582 E1.30224
G1 X118.902 Y83.577 E.0248
G1 X100.574 Y65.248 E1.30225
G1 X100.08 Y65.243 E.02481
G1 X118.409 Y83.571 E1.30225
G1 X117.915 Y83.566 E.0248
G1 X99.586 Y65.237 E1.30226
G1 X99.092 Y65.232 E.02481
G1 X117.421 Y83.561 E1.30227
G1 X116.928 Y83.555 E.0248
G1 X98.599 Y65.226 E1.30228
G1 X98.105 Y65.221 E.02481
G1 X116.434 Y83.55 E1.30228
G1 X115.94 Y83.545 E.0248
G1 X97.611 Y65.215 E1.30229
G1 X97.118 Y65.21 E.02481
G1 X115.447 Y83.539 E1.3023
G1 X114.953 Y83.534 E.0248
G1 X96.624 Y65.205 E1.3023
G1 X96.13 Y65.199 E.02481
G1 X114.46 Y83.529 E1.30231
G1 X113.966 Y83.523 E.0248
G1 X95.637 Y65.194 E1.30232
G1 X95.143 Y65.188 E.02481
G1 X113.472 Y83.518 E1.30232
G1 X112.979 Y83.513 E.0248
G1 X94.649 Y65.183 E1.30233
G1 X94.155 Y65.177 E.02481
G1 X112.485 Y83.507 E1.30234
G1 X111.992 Y83.502 E.0248
G1 X93.662 Y65.172 E1.30235
G1 X93.168 Y65.167 E.02481
G1 X111.498 Y83.497 E1.30235
G1 X111.004 Y83.491 E.0248
G1 X92.674 Y65.161 E1.30236
G1 X92.181 Y65.156 E.02481
G1 X110.511 Y83.486 E1.30237
G1 X110.017 Y83.481 E.0248
G1 X91.687 Y65.15 E1.30237
G1 X91.193 Y65.145 E.02481
G1 X109.524 Y83.475 E1.30238
G1 X109.03 Y83.47 E.0248
G1 X90.699 Y65.139 E1.30239
G1 X90.206 Y65.134 E.02481
G1 X108.536 Y83.465 E1.30239
G1 X108.043 Y83.459 E.0248
G1 X89.712 Y65.128 E1.3024
G1 X89.218 Y65.123 E.02481
G1 X107.549 Y83.454 E1.30241
G1 X107.055 Y83.449 E.0248
G1 X88.725 Y65.118 E1.30242
G1 X88.231 Y65.112 E.02481
G1 X106.562 Y83.443 E1.30242
G1 X106.068 Y83.438 E.0248
G1 X87.737 Y65.107 E1.30243
G1 X87.243 Y65.101 E.02481
G1 X105.575 Y83.432 E1.30244
G1 X105.081 Y83.427 E.0248
G1 X86.75 Y65.096 E1.30244
G1 X86.256 Y65.09 E.02481
G1 X104.587 Y83.422 E1.30245
G1 X104.094 Y83.416 E.0248
G1 X85.762 Y65.085 E1.30246
G1 X85.269 Y65.08 E.02481
G1 X103.6 Y83.411 E1.30247
G1 X103.107 Y83.406 E.0248
G1 X84.775 Y65.074 E1.30247
G1 X84.281 Y65.069 E.02481
G1 X102.613 Y83.4 E1.30248
G1 X102.119 Y83.395 E.0248
G1 X83.787 Y65.063 E1.30249
G1 X83.294 Y65.058 E.02481
G1 X101.626 Y83.39 E1.30249
G1 X101.132 Y83.384 E.0248
G1 X82.8 Y65.052 E1.3025
G1 X82.306 Y65.047 E.02481
G1 X100.639 Y83.379 E1.30251
G1 X100.145 Y83.374 E.0248
G1 X81.813 Y65.042 E1.30251
G1 X81.319 Y65.036 E.02481
G1 X99.651 Y83.368 E1.30252
G1 X99.158 Y83.363 E.0248
G1 X80.825 Y65.031 E1.30253
G1 X80.331 Y65.025 E.02481
G1 X98.664 Y83.358 E1.30254
G1 X98.17 Y83.352 E.0248
G1 X79.838 Y65.02 E1.30254
G1 X79.344 Y65.014 E.02481
G1 X97.677 Y83.347 E1.30255
G1 X97.183 Y83.342 E.0248
G1 X78.85 Y65.009 E1.30256
G1 X78.357 Y65.003 E.02481
G1 X96.69 Y83.336 E1.30256
G1 X96.196 Y83.331 E.0248
G1 X77.863 Y64.998 E1.30257
G1 X77.369 Y64.993 E.02481
G1 X95.702 Y83.326 E1.30258
G1 X95.209 Y83.32 E.0248
G1 X76.876 Y64.987 E1.30258
G1 X76.382 Y64.982 E.02481
M73 P3 R101
G1 X94.715 Y83.315 E1.30259
G1 X94.222 Y83.31 E.0248
G1 X75.888 Y64.976 E1.3026
G1 X75.394 Y64.971 E.02481
G1 X93.728 Y83.304 E1.30261
G1 X93.234 Y83.299 E.0248
G1 X74.901 Y64.965 E1.30261
G1 X74.407 Y64.96 E.02481
G1 X92.741 Y83.294 E1.30262
G1 X92.247 Y83.288 E.0248
G1 X73.913 Y64.955 E1.30263
G1 X73.42 Y64.949 E.02481
G1 X91.754 Y83.283 E1.30263
G1 X91.26 Y83.278 E.0248
M73 P3 R100
G1 X72.926 Y64.944 E1.30264
G1 X72.432 Y64.938 E.02481
G1 X90.766 Y83.272 E1.30265
G1 X90.273 Y83.267 E.0248
G1 X71.938 Y64.933 E1.30265
G1 X71.445 Y64.927 E.02481
G1 X89.779 Y83.262 E1.30266
G1 X89.285 Y83.256 E.0248
G1 X70.951 Y64.922 E1.30267
G1 X70.457 Y64.916 E.02481
G1 X88.792 Y83.251 E1.30268
G1 X88.298 Y83.246 E.0248
G1 X69.964 Y64.911 E1.30268
G1 X69.47 Y64.906 E.02481
G1 X87.805 Y83.24 E1.30269
G1 X87.311 Y83.235 E.0248
G1 X68.976 Y64.9 E1.3027
G1 X68.482 Y64.895 E.02481
G1 X86.817 Y83.23 E1.3027
G1 X86.324 Y83.224 E.0248
G1 X67.989 Y64.889 E1.30271
G1 X67.495 Y64.884 E.02481
G1 X85.83 Y83.219 E1.30272
G1 X85.337 Y83.214 E.0248
G1 X67.001 Y64.878 E1.30273
G1 X66.508 Y64.873 E.02481
G1 X84.843 Y83.208 E1.30273
G1 X84.349 Y83.203 E.0248
G1 X66.014 Y64.868 E1.30274
G1 X65.52 Y64.862 E.02481
G1 X83.856 Y83.198 E1.30275
G1 X83.362 Y83.192 E.0248
G1 X65.026 Y64.857 E1.30275
G1 X64.533 Y64.851 E.02481
G1 X82.869 Y83.187 E1.30276
G1 X82.375 Y83.182 E.0248
G1 X64.039 Y64.846 E1.30277
G1 X63.545 Y64.84 E.02481
G1 X81.881 Y83.176 E1.30277
G1 X81.388 Y83.171 E.0248
G1 X63.052 Y64.835 E1.30278
G1 X62.558 Y64.829 E.02481
G1 X80.894 Y83.166 E1.30279
G1 X80.4 Y83.16 E.0248
G1 X62.064 Y64.824 E1.3028
G1 X61.571 Y64.819 E.02481
G1 X79.907 Y83.155 E1.3028
G1 X79.413 Y83.15 E.0248
G1 X61.077 Y64.813 E1.30281
G1 X60.583 Y64.808 E.02481
G1 X78.92 Y83.144 E1.30282
G1 X78.426 Y83.139 E.0248
G1 X60.089 Y64.802 E1.30282
G1 X59.596 Y64.797 E.02481
G1 X77.932 Y83.134 E1.30283
G1 X77.439 Y83.128 E.0248
G1 X59.102 Y64.791 E1.30284
G1 X58.608 Y64.786 E.02481
G1 X76.945 Y83.123 E1.30284
G1 X76.452 Y83.118 E.0248
G1 X58.115 Y64.781 E1.30285
G1 X57.621 Y64.775 E.02481
G1 X75.958 Y83.112 E1.30286
G1 X75.464 Y83.107 E.0248
G1 X57.127 Y64.77 E1.30287
G1 X56.633 Y64.764 E.02481
G1 X74.971 Y83.102 E1.30287
G1 X74.477 Y83.096 E.0248
G1 X56.14 Y64.759 E1.30288
G1 X55.646 Y64.753 E.02481
G1 X73.984 Y83.091 E1.30289
G1 X73.49 Y83.086 E.0248
G1 X55.152 Y64.748 E1.30289
G1 X54.659 Y64.743 E.02481
G1 X72.996 Y83.08 E1.3029
G1 X72.503 Y83.075 E.0248
G1 X54.165 Y64.737 E1.30291
G1 X53.671 Y64.732 E.02481
G1 X72.009 Y83.07 E1.30292
G1 X71.515 Y83.064 E.0248
G1 X53.177 Y64.726 E1.30292
G1 X52.684 Y64.721 E.02481
G1 X71.022 Y83.059 E1.30293
G1 X70.528 Y83.054 E.0248
G1 X52.19 Y64.715 E1.30294
G1 X51.696 Y64.71 E.02481
G1 X70.035 Y83.048 E1.30294
G1 X69.541 Y83.043 E.0248
G1 X51.203 Y64.704 E1.30295
G1 X50.709 Y64.699 E.02481
G1 X69.047 Y83.038 E1.30296
G1 X68.554 Y83.032 E.0248
G1 X50.215 Y64.694 E1.30296
G1 X49.721 Y64.688 E.02481
G1 X68.06 Y83.027 E1.30297
G1 X67.567 Y83.022 E.0248
G1 X49.228 Y64.683 E1.30298
G1 X48.734 Y64.677 E.02481
G1 X67.073 Y83.016 E1.30299
G1 X66.579 Y83.011 E.0248
G1 X48.24 Y64.672 E1.30299
G1 X47.747 Y64.666 E.02481
G1 X66.086 Y83.006 E1.303
G1 X65.592 Y83 E.0248
G1 X47.253 Y64.661 E1.30301
G1 X46.759 Y64.656 E.02481
G1 X65.099 Y82.995 E1.30301
G1 X64.605 Y82.99 E.0248
G1 X46.265 Y64.65 E1.30302
G1 X45.772 Y64.645 E.02481
G1 X64.111 Y82.984 E1.30303
G1 X63.618 Y82.979 E.0248
G1 X45.278 Y64.639 E1.30303
G1 X44.784 Y64.634 E.02481
G1 X63.124 Y82.974 E1.30304
G1 X62.63 Y82.968 E.0248
G1 X44.291 Y64.628 E1.30305
G1 X43.797 Y64.623 E.02481
G1 X62.137 Y82.963 E1.30306
G1 X61.643 Y82.958 E.0248
M73 P4 R100
G1 X43.303 Y64.617 E1.30306
G1 X42.81 Y64.612 E.02481
G1 X61.15 Y82.952 E1.30307
G1 X60.656 Y82.947 E.0248
G1 X42.316 Y64.607 E1.30308
G1 X41.822 Y64.601 E.02481
G1 X60.162 Y82.941 E1.30308
G1 X59.669 Y82.936 E.0248
G1 X41.328 Y64.596 E1.30309
G1 X40.835 Y64.59 E.02481
M73 P4 R99
G1 X59.175 Y82.931 E1.3031
G1 X58.682 Y82.925 E.0248
G1 X40.341 Y64.585 E1.30311
G1 X39.847 Y64.579 E.02481
G1 X58.188 Y82.92 E1.30311
G1 X57.694 Y82.915 E.0248
G1 X39.354 Y64.574 E1.30312
G1 X38.86 Y64.569 E.02481
G1 X57.201 Y82.909 E1.30313
G1 X56.707 Y82.904 E.0248
G1 X38.366 Y64.563 E1.30313
G1 X37.872 Y64.558 E.02481
G1 X56.214 Y82.899 E1.30314
G1 X55.72 Y82.893 E.0248
