; generated by PrusaSlicer 2.5.0+win64 on 2022-12-07 at 00:26:48 UTC

; 

; external perimeters extrusion width = 1.00mm
; perimeters extrusion width = 1.00mm
; infill extrusion width = 1.00mm
; solid infill extrusion width = 1.00mm
; top infill extrusion width = 1.00mm
; support material extrusion width = 1.00mm
; first layer extrusion width = 0.42mm

M73 P0 R460
M107
;TYPE:Custom
G90 ; use absolute coordinates
M83 ; extruder relative mode
M140 S60 ; set final bed temp
M104 S150 ; set temporary nozzle temp to prevent oozing during homing and auto bed leveling
G4 S10 ; allow partial nozzle warmup
G28 ; home all axisG1 Z50 F240
G1 X7.6 Y10 F3000
M104 S210 ; set final nozzle temp
M190 S60 ; wait for bed temp to stabilize
M109 S210 ; wait for nozzle temp to stabilize
G1 Z0.28 F240
G92 E0
G1 Y140 E10 F1500 ; prime the nozzle
G1 X4 F5000
G92 E0
G1 Y10 E10 F1200 ; prime the nozzle
G92 E0
G21 ; set units to millimeters
G90 ; use absolute coordinates
M83 ; use relative distances for extrusion
; Filament gcode
M107
;LAYER_CHANGE
;Z:0.35
;HEIGHT:0.35
;BEFORE_LAYER_CHANGE
G92 E0
;0.35


G1 E-1 F3600
G1 Z.35 F7800
;AFTER_LAYER_CHANGE
;0.35
G1 X12.758 Y25.94
G1 E1 F2400
;TYPE:Support material interface
;WIDTH:1
G1 F1800
G1 X12.758 Y15.361 E1.42387
G1 X13.651 Y15.361 E.12014
G1 X13.651 Y25.539 E1.36981
G1 X14.544 Y25.539 E.12014
G1 X14.544 Y19.388 E.82783
G1 X14.911 Y19.739 E.06836
G1 X15.436 Y19.715 E.07081
G1 X15.436 Y22.146 E.32713
G1 X16.329 Y22.146 E.12014
G1 X16.329 Y19.676 E.33248
G1 X17.222 Y19.636 E.12026
G1 X17.222 Y22.146 E.33783
G1 X18.114 Y22.146 E.12014
G1 X18.114 Y19.596 E.34318
G1 X19.007 Y19.556 E.12026
G1 X19.007 Y22.146 E.34853
G1 X19.9 Y22.146 E.12014
G1 X19.9 Y19.517 E.35388
G1 X20.792 Y19.477 E.12026
G1 X20.792 Y22.146 E.35923
G1 X21.685 Y22.146 E.12014
G1 X21.685 Y19.437 E.36458
G1 X22.578 Y19.397 E.12026
G1 X22.578 Y22.146 E.36993
G1 X23.471 Y22.146 E.12014
G1 X23.471 Y19.358 E.37529
G1 X24.363 Y19.318 E.12026
G1 X24.363 Y22.146 E.38064
G1 X25.256 Y22.146 E.12014
G1 X25.256 Y19.278 E.38599
G1 X26.149 Y19.238 E.12026
G1 X26.149 Y22.146 E.39134
G1 X27.041 Y22.146 E.12014
G1 X27.041 Y19.199 E.39669
G1 X27.934 Y19.159 E.12026
G1 X27.934 Y22.146 E.40204
G1 X28.827 Y22.146 E.12014
G1 X28.827 Y19.119 E.40739
G1 X29.719 Y19.079 E.12026
G1 X29.719 Y22.146 E.41274
G1 X30.612 Y22.146 E.12014
G1 X30.612 Y19.039 E.41809
G1 X31.505 Y19 E.12026
G1 X31.505 Y22.146 E.42345
G1 X32.398 Y22.146 E.12014
G1 X32.398 Y18.96 E.4288
G1 X33.29 Y18.92 E.12026
G1 X33.29 Y22.146 E.43415
G1 X34.183 Y22.146 E.12014
G1 X34.183 Y18.88 E.4395
G1 X35.076 Y18.841 E.12026
G1 X35.076 Y22.146 E.44485
G1 X35.968 Y22.146 E.12014
G1 X35.968 Y18.801 E.4502
G1 X36.861 Y18.761 E.12026
G1 X36.861 Y22.146 E.45555
G1 X37.754 Y22.146 E.12014
G1 X37.754 Y18.721 E.4609
G1 X38.247 Y18.687 E.06653
G1 X38.646 Y18.593 E.05523
G1 X38.646 Y22.146 E.47815
G1 X39.539 Y22.146 E.12014
G1 X39.539 Y18.459 E.49617
G1 X40.432 Y18.43 E.12021
G1 X40.432 Y22.146 E.50018
G1 X41.325 Y22.146 E.12014
G1 X41.325 Y18.4 E.50419
G1 X42.217 Y18.37 E.12021
G1 X42.217 Y22.146 E.50821
G1 X43.11 Y22.146 E.12014
G1 X43.11 Y18.34 E.51222
G1 X44.003 Y18.31 E.12021
G1 X44.003 Y22.146 E.51623
G1 X44.895 Y22.146 E.12014
G1 X44.895 Y18.28 E.52024
G1 X45.788 Y18.251 E.12021
G1 X45.788 Y22.146 E.52425
G1 X46.681 Y22.146 E.12014
G1 X46.681 Y18.221 E.52827
G1 X47.573 Y18.191 E.12021
G1 X47.573 Y22.146 E.53228
G1 X48.466 Y22.146 E.12014
G1 X48.466 Y18.161 E.53629
G1 X49.359 Y18.131 E.12021
G1 X49.359 Y22.146 E.5403
G1 X50.252 Y22.146 E.12014
G1 X50.252 Y18.102 E.54431
G1 X51.144 Y18.072 E.12021
G1 X51.144 Y22.146 E.54833
G1 X52.037 Y22.146 E.12014
G1 X52.037 Y18.042 E.55234
G1 X52.93 Y18.012 E.12021
G1 X52.93 Y22.146 E.55635
G1 X53.822 Y22.146 E.12014
G1 X53.822 Y17.982 E.56036
G1 X54.715 Y17.953 E.12021
G1 X54.715 Y22.146 E.56437
G1 X55.608 Y22.146 E.12014
G1 X55.608 Y17.923 E.56839
G1 X56.5 Y17.893 E.12021
G1 X56.5 Y22.146 E.5724
G1 X57.393 Y22.146 E.12014
G1 X57.393 Y17.863 E.57641
G1 X58.286 Y17.833 E.12021
G1 X58.286 Y22.146 E.58042
G1 X59.179 Y22.146 E.12014
G1 X59.179 Y17.804 E.58443
G1 X60.071 Y17.774 E.12021
G1 X60.071 Y22.146 E.58845
G1 X60.964 Y22.146 E.12014
G1 X60.964 Y17.744 E.59246
G1 X61.352 Y17.731 E.0522
G1 X61.607 Y17.675 E.03524
G1 X61.857 Y17.572 E.03632
G1 X61.857 Y22.146 E.61564
G1 X62.749 Y22.146 E.12014
G1 X62.749 Y11.968 E1.36981
G1 X63.642 Y11.968 E.12014
G1 X63.642 Y22.146 E1.36981
G1 X64.535 Y22.146 E.12014
G1 X64.535 Y11.968 E1.36981
G1 X65.427 Y11.968 E.12014
G1 X65.427 Y22.146 E1.36981
G1 X66.32 Y22.146 E.12014
G1 X66.32 Y11.968 E1.36981
G1 X67.213 Y11.968 E.12014
G1 X67.213 Y22.146 E1.36981
G1 X68.105 Y22.146 E.12014
G1 X68.105 Y11.968 E1.36981
G1 X68.998 Y11.968 E.12014
G1 X68.998 Y22.146 E1.36981
G1 X69.891 Y22.146 E.12014
G1 X69.891 Y11.968 E1.36981
G1 X70.784 Y11.968 E.12014
G1 X70.784 Y22.146 E1.36981
G1 X71.676 Y22.146 E.12014
G1 X71.676 Y11.968 E1.36981
G1 X72.569 Y11.968 E.12014
G1 X72.569 Y22.146 E1.36981
G1 X73.462 Y22.146 E.12014
G1 X73.462 Y11.968 E1.36981
G1 X74.354 Y11.968 E.12014
G1 X74.354 Y22.146 E1.36981
G1 X75.247 Y22.146 E.12014
G1 X75.247 Y11.968 E1.36981
G1 X76.14 Y11.968 E.12014
G1 X76.14 Y22.146 E1.36981
G1 X77.032 Y22.146 E.12014
G1 X77.032 Y11.968 E1.36981
G1 X77.925 Y11.968 E.12014
G1 X77.925 Y22.146 E1.36981
G1 X78.818 Y22.146 E.12014
G1 X78.818 Y11.968 E1.36981
G1 X79.711 Y11.968 E.12014
G1 X79.711 Y22.146 E1.36981
G1 X80.603 Y22.146 E.12014
G1 X80.603 Y11.968 E1.36981
G1 X81.496 Y11.968 E.12014
G1 X81.496 Y22.146 E1.36981
G1 X82.389 Y22.146 E.12014
G1 X82.389 Y11.968 E1.36981
G1 X83.281 Y11.968 E.12014
G1 X83.281 Y22.146 E1.36981
G1 X84.174 Y22.146 E.12014
G1 X84.174 Y11.968 E1.36981
G1 X85.067 Y11.968 E.12014
G1 X85.067 Y22.146 E1.36981
G1 X85.959 Y22.146 E.12014
G1 X85.959 Y11.968 E1.36981
G1 X86.852 Y11.968 E.12014
G1 X86.852 Y22.146 E1.36981
G1 X87.745 Y22.146 E.12014
G1 X87.745 Y11.968 E1.36981
G1 X88.638 Y11.968 E.12014
G1 X88.638 Y22.146 E1.36981
G1 X89.53 Y22.146 E.12014
G1 X89.53 Y11.968 E1.36981
G1 X90.423 Y11.968 E.12014
G1 X90.423 Y22.146 E1.36981
G1 X91.316 Y22.146 E.12014
G1 X91.316 Y11.968 E1.36981
G1 X92.208 Y11.968 E.12014
G1 X92.208 Y22.146 E1.36981
G1 X93.101 Y22.146 E.12014
G1 X93.101 Y11.968 E1.36981
G1 X93.994 Y11.968 E.12014
G1 X93.994 Y18.753 E.91321
G1 X94.886 Y18.753 E.12014
G1 X94.886 Y11.968 E.91321
G1 X95.779 Y11.968 E.12014
G1 X95.779 Y18.753 E.91321
G1 X96.672 Y18.753 E.12014
G1 X96.672 Y11.968 E.91321
M73 P0 R459
G1 X97.565 Y11.968 E.12014
G1 X97.565 Y18.753 E.91321
G1 X98.457 Y18.753 E.12014
G1 X98.457 Y11.968 E.91321
G1 X99.35 Y11.968 E.12014
G1 X99.35 Y18.753 E.91321
G1 X100.243 Y18.753 E.12014
G1 X100.243 Y11.968 E.91321
G1 X101.135 Y11.968 E.12014
G1 X101.135 Y18.753 E.91321
G1 X102.028 Y18.753 E.12014
G1 X102.028 Y11.968 E.91321
G1 X102.921 Y11.968 E.12014
G1 X102.921 Y18.753 E.91321
G1 X103.813 Y18.753 E.12014
G1 X103.813 Y11.968 E.91321
G1 X104.706 Y11.968 E.12014
G1 X104.706 Y18.753 E.91321
G1 X105.599 Y18.753 E.12014
G1 X105.599 Y11.968 E.91321
G1 X106.492 Y11.968 E.12014
G1 X106.492 Y18.753 E.91321
G1 X107.384 Y18.753 E.12014
G1 X107.384 Y11.968 E.91321
G1 X108.277 Y11.968 E.12014
G1 X108.277 Y18.753 E.91321
G1 X109.17 Y18.753 E.12014
G1 X109.17 Y11.968 E.91321
G1 X110.062 Y11.968 E.12014
G1 X110.062 Y18.753 E.91321
G1 X110.955 Y18.753 E.12014
G1 X110.955 Y11.968 E.91321
G1 X111.848 Y11.968 E.12014
G1 X111.848 Y18.753 E.91321
G1 X112.74 Y18.753 E.12014
G1 X112.74 Y11.968 E.91321
G1 X113.633 Y11.968 E.12014
G1 X113.633 Y18.753 E.91321
G1 X114.526 Y18.753 E.12014
G1 X114.526 Y11.968 E.91321
G1 X115.419 Y11.968 E.12014
G1 X115.419 Y18.753 E.91321
G1 X116.311 Y18.753 E.12014
G1 X116.311 Y11.968 E.91321
G1 X117.204 Y11.968 E.12014
G1 X117.204 Y18.753 E.91321
G1 X118.097 Y18.753 E.12014
G1 X118.097 Y11.968 E.91321
G1 X118.989 Y11.968 E.12014
G1 X118.989 Y18.753 E.91321
G1 X119.882 Y18.753 E.12014
G1 X119.882 Y11.968 E.91321
G1 X120.775 Y11.968 E.12014
G1 X120.775 Y18.753 E.91321
G1 X121.667 Y18.753 E.12014
G1 X121.667 Y11.968 E.91321
G1 X122.56 Y11.968 E.12014
G1 X122.56 Y18.753 E.91321
G1 X123.453 Y18.753 E.12014
G1 X123.453 Y11.968 E.91321
G1 X124.346 Y11.968 E.12014
G1 X124.346 Y18.753 E.91321
G1 X125.238 Y18.753 E.12014
G1 X125.238 Y11.968 E.91321
G1 X126.131 Y11.968 E.12014
G1 X126.131 Y18.753 E.91321
G1 X127.024 Y18.753 E.12014
G1 X127.024 Y11.968 E.91321
G1 X127.916 Y11.968 E.12014
G1 X127.916 Y18.753 E.91321
G1 X128.809 Y18.753 E.12014
G1 X128.809 Y11.968 E.91321
G1 X129.702 Y11.968 E.12014
G1 X129.702 Y18.753 E.91321
G1 X130.594 Y18.753 E.12014
G1 X130.594 Y11.968 E.91321
G1 X131.487 Y11.968 E.12014
G1 X131.487 Y18.753 E.91321
G1 X132.38 Y18.753 E.12014
G1 X132.38 Y11.968 E.91321
G1 X133.273 Y11.968 E.12014
G1 X133.273 Y18.753 E.91321
G1 X134.165 Y18.753 E.12014
G1 X134.165 Y11.968 E.91321
G1 X135.058 Y11.968 E.12014
G1 X135.058 Y18.753 E.91321
G1 X135.951 Y18.753 E.12014
G1 X135.951 Y11.968 E.91321
G1 X136.843 Y11.968 E.12014
G1 X136.843 Y18.753 E.91321
G1 X137.736 Y18.753 E.12014
G1 X137.736 Y11.968 E.91321
G1 X138.629 Y11.968 E.12014
G1 X138.629 Y18.753 E.91321
G1 X139.521 Y18.753 E.12014
G1 X139.521 Y11.968 E.91321
G1 X140.414 Y11.968 E.12014
G1 X140.414 Y18.753 E.91321
G1 X141.307 Y18.753 E.12014
G1 X141.307 Y11.968 E.91321
G1 X142.2 Y11.968 E.12014
G1 X142.2 Y18.753 E.91321
G1 X143.092 Y18.753 E.12014
G1 X143.092 Y11.968 E.91321
G1 X143.985 Y11.968 E.12014
G1 X143.985 Y18.753 E.91321
G1 X144.878 Y18.753 E.12014
G1 X144.878 Y11.968 E.91321
G1 X145.77 Y11.968 E.12014
G1 X145.77 Y18.753 E.91321
G1 X146.663 Y18.753 E.12014
G1 X146.663 Y11.968 E.91321
G1 X147.556 Y11.968 E.12014
G1 X147.556 Y18.753 E.91321
G1 X148.448 Y18.753 E.12014
G1 X148.448 Y11.968 E.91321
G1 X149.341 Y11.968 E.12014
G1 X149.341 Y18.753 E.91321
G1 X150.234 Y18.753 E.12014
G1 X150.234 Y11.968 E.91321
G1 X151.127 Y11.968 E.12014
G1 X151.127 Y18.753 E.91321
G1 X152.019 Y18.753 E.12014
G1 X152.019 Y11.968 E.91321
G1 X152.912 Y11.968 E.12014
G1 X152.912 Y18.753 E.91321
G1 X153.805 Y18.753 E.12014
G1 X153.805 Y11.968 E.91321
G1 X154.697 Y11.968 E.12014
G1 X154.697 Y18.753 E.91321
G1 X155.59 Y18.753 E.12014
G1 X155.59 Y11.968 E.91321
G1 X156.483 Y11.968 E.12014
G1 X156.483 Y18.753 E.91321
G1 X157.375 Y18.753 E.12014
G1 X157.375 Y11.968 E.91321
G1 X158.268 Y11.968 E.12014
G1 X158.268 Y18.753 E.91321
G1 X159.161 Y18.753 E.12014
G1 X159.161 Y11.968 E.91321
G1 X160.053 Y11.968 E.12014
G1 X160.053 Y18.753 E.91321
G1 X160.946 Y18.753 E.12014
G1 X160.946 Y11.968 E.91321
G1 X161.839 Y11.968 E.12014
G1 X161.839 Y18.753 E.91321
G1 X162.732 Y18.753 E.12014
G1 X162.732 Y11.968 E.91321
G1 X163.624 Y11.968 E.12014
G1 X163.624 Y18.753 E.91321
G1 X164.517 Y18.753 E.12014
G1 X164.517 Y11.968 E.91321
G1 X165.41 Y11.968 E.12014
G1 X165.41 Y18.753 E.91321
G1 X166.302 Y18.753 E.12014
G1 X166.302 Y11.968 E.91321
G1 X167.195 Y11.968 E.12014
G1 X167.195 Y19.155 E.96727
G1 E-.7 F3600
;WIPE_START
G1 F6240
G1 X167.195 Y18.635 E-.285
;WIPE_END
G1 E-.015 F3600
G1 X171.245 Y25.382 F7800
G1 E1 F2400
;TYPE:Support material
;WIDTH:0.42
G1 F1800
G1 X167.852 Y25.382 E.17027
G1 X167.852 Y96.629 E3.57558
G1 X164.46 Y96.629 E.17027
G1 X164.46 Y167.876 E3.57558
G1 X161.067 Y167.876 E.17027
G1 X161.067 Y171.268 E.17027
G1 X8.708 Y171.268 E7.64625
G1 X8.708 Y23.195 E7.43119
G1 X11.288 Y23.195 E.12947
G1 X11.288 Y26.195 E.15056
G1 X15.994 Y26.195 E.23616
G1 X15.994 Y22.802 E.17027
G1 X94.026 Y22.802 E3.91611
G1 X94.026 Y19.41 E.17027
G1 X168.665 Y19.41 E3.74584
G1 X168.665 Y16.41 E.15056
G1 X171.245 Y16.41 E.12947
G1 X171.245 Y25.331 E.4477
G1 X170.834 Y25.227 F7800
G1 F1800
G1 X170.834 Y16.72 E.42693
G1 X170.451 Y16.72 E.01923
G1 X170.451 Y25.072 E.41914
G1 X170.068 Y25.072 E.01923
G1 X170.068 Y16.72 E.41914
G1 X169.684 Y16.72 E.01923
G1 X169.684 Y25.072 E.41914
G1 X169.301 Y25.072 E.01923
G1 X169.301 Y16.72 E.41914
G1 X168.976 Y16.72 E.01634
G1 X168.976 Y19.72 E.15056
G1 X168.918 Y19.72 E.00289
G1 X168.918 Y25.072 E.26858
G1 X168.535 Y25.072 E.01923
G1 X168.535 Y19.72 E.26858
G1 X168.152 Y19.72 E.01923
G1 X168.152 Y25.072 E.26858
G1 X167.768 Y25.072 E.01923
G1 X167.768 Y19.72 E.26858
G1 X167.385 Y19.72 E.01923
G1 X167.385 Y96.319 E3.84416
G1 X167.002 Y96.319 E.01923
G1 X167.002 Y19.72 E3.84416
G1 X166.619 Y19.72 E.01923
G1 X166.619 Y96.319 E3.84416
G1 X166.235 Y96.319 E.01923
G1 X166.235 Y19.72 E3.84416
G1 X165.852 Y19.72 E.01923
M73 P0 R458
G1 X165.852 Y96.319 E3.84416
G1 X165.469 Y96.319 E.01923
G1 X165.469 Y19.72 E3.84416
G1 X165.086 Y19.72 E.01923
G1 X165.086 Y96.319 E3.84416
G1 X164.703 Y96.319 E.01923
G1 X164.703 Y19.72 E3.84416
G1 X164.319 Y19.72 E.01923
G1 X164.319 Y96.319 E3.84416
G1 X164.149 Y96.319 E.00854
G1 X164.149 Y167.565 E3.57558
G1 X163.936 Y167.565 E.01069
G1 X163.936 Y19.72 E7.41974
G1 X163.553 Y19.72 E.01923
G1 X163.553 Y167.565 E7.41974
G1 X163.17 Y167.565 E.01923
G1 X163.17 Y19.72 E7.41974
G1 X162.787 Y19.72 E.01923
G1 X162.787 Y167.565 E7.41974
G1 X162.403 Y167.565 E.01923
G1 X162.403 Y19.72 E7.41974
G1 X162.02 Y19.72 E.01923
G1 X162.02 Y167.565 E7.41974
G1 X161.637 Y167.565 E.01923
G1 X161.637 Y19.72 E7.41974
G1 X161.254 Y19.72 E.01923
G1 X161.254 Y167.565 E7.41974
G1 X160.871 Y167.565 E.01923
G1 X160.871 Y19.72 E7.41974
G1 X160.487 Y19.72 E.01923
M73 P0 R457
G1 X160.487 Y170.958 E7.59
G1 X160.104 Y170.958 E.01923
G1 X160.104 Y19.72 E7.59
G1 X159.721 Y19.72 E.01923
G1 X159.721 Y170.958 E7.59
G1 X159.338 Y170.958 E.01923
G1 X159.338 Y19.72 E7.59
G1 X158.954 Y19.72 E.01923
G1 X158.954 Y170.958 E7.59
G1 X158.571 Y170.958 E.01923
G1 X158.571 Y19.72 E7.59
G1 X158.188 Y19.72 E.01923
G1 X158.188 Y170.958 E7.59
G1 X157.805 Y170.958 E.01923
G1 X157.805 Y19.72 E7.59
G1 X157.422 Y19.72 E.01923
G1 X157.422 Y170.958 E7.59
G1 X157.038 Y170.958 E.01923
G1 X157.038 Y19.72 E7.59
G1 X156.655 Y19.72 E.01923
G1 X156.655 Y170.958 E7.59
G1 X156.272 Y170.958 E.01923
G1 X156.272 Y19.72 E7.59
G1 X155.889 Y19.72 E.01923
M73 P0 R456
G1 X155.889 Y170.958 E7.59
G1 X155.506 Y170.958 E.01923
G1 X155.506 Y19.72 E7.59
G1 X155.122 Y19.72 E.01923
G1 X155.122 Y170.958 E7.59
G1 X154.739 Y170.958 E.01923
G1 X154.739 Y19.72 E7.59
G1 X154.356 Y19.72 E.01923
G1 X154.356 Y170.958 E7.59
G1 X153.973 Y170.958 E.01923
G1 X153.973 Y19.72 E7.59
G1 X153.59 Y19.72 E.01923
G1 X153.59 Y170.958 E7.59
G1 X153.206 Y170.958 E.01923
G1 X153.206 Y19.72 E7.59
G1 X152.823 Y19.72 E.01923
G1 X152.823 Y170.958 E7.59
G1 X152.44 Y170.958 E.01923
G1 X152.44 Y19.72 E7.59
G1 X152.057 Y19.72 E.01923
G1 X152.057 Y170.958 E7.59
G1 X151.673 Y170.958 E.01923
M73 P1 R456
G1 X151.673 Y19.72 E7.59
G1 X151.29 Y19.72 E.01923
M73 P1 R455
G1 X151.29 Y170.958 E7.59
G1 X150.907 Y170.958 E.01923
G1 X150.907 Y19.72 E7.59
G1 X150.524 Y19.72 E.01923
G1 X150.524 Y170.958 E7.59
G1 X150.141 Y170.958 E.01923
G1 X150.141 Y19.72 E7.59
G1 X149.757 Y19.72 E.01923
G1 X149.757 Y170.958 E7.59
G1 X149.374 Y170.958 E.01923
G1 X149.374 Y19.72 E7.59
G1 X148.991 Y19.72 E.01923
G1 X148.991 Y170.958 E7.59
G1 X148.608 Y170.958 E.01923
G1 X148.608 Y19.72 E7.59
G1 X148.225 Y19.72 E.01923
G1 X148.225 Y170.958 E7.59
G1 X147.841 Y170.958 E.01923
G1 X147.841 Y19.72 E7.59
G1 X147.458 Y19.72 E.01923
G1 X147.458 Y170.958 E7.59
G1 X147.075 Y170.958 E.01923
M73 P1 R454
G1 X147.075 Y19.72 E7.59
G1 X146.692 Y19.72 E.01923
G1 X146.692 Y170.958 E7.59
G1 X146.309 Y170.958 E.01923
G1 X146.309 Y19.72 E7.59
G1 X145.925 Y19.72 E.01923
G1 X145.925 Y170.958 E7.59
G1 X145.542 Y170.958 E.01923
G1 X145.542 Y19.72 E7.59
G1 X145.159 Y19.72 E.01923
G1 X145.159 Y170.958 E7.59
G1 X144.776 Y170.958 E.01923
G1 X144.776 Y19.72 E7.59
G1 X144.392 Y19.72 E.01923
G1 X144.392 Y170.958 E7.59
G1 X144.009 Y170.958 E.01923
G1 X144.009 Y19.72 E7.59
G1 X143.626 Y19.72 E.01923
G1 X143.626 Y170.958 E7.59
G1 X143.243 Y170.958 E.01923
G1 X143.243 Y19.72 E7.59
G1 X142.86 Y19.72 E.01923
G1 X142.86 Y170.958 E7.59
G1 X142.476 Y170.958 E.01923
M73 P1 R453
G1 X142.476 Y19.72 E7.59
G1 X142.093 Y19.72 E.01923
G1 X142.093 Y170.958 E7.59
G1 X141.71 Y170.958 E.01923
G1 X141.71 Y19.72 E7.59
G1 X141.327 Y19.72 E.01923
G1 X141.327 Y170.958 E7.59
G1 X140.944 Y170.958 E.01923
