; generated by PrusaSlicer 2.5.0+win64 on 2022-12-07 at 00:27:23 UTC

; 

; external perimeters extrusion width = 1.00mm
; perimeters extrusion width = 1.00mm
; infill extrusion width = 1.00mm
; solid infill extrusion width = 1.00mm
; top infill extrusion width = 1.00mm
; support material extrusion width = 1.00mm
; first layer extrusion width = 0.42mm

M73 P0 R505
M107
;TYPE:Custom
G90 ; use absolute coordinates
M83 ; extruder relative mode
M140 S60 ; set final bed temp
M104 S150 ; set temporary nozzle temp to prevent oozing during homing and auto bed leveling
G4 S10 ; allow partial nozzle warmup
G28 ; home all axisG1 Z50 F240
G1 X7.6 Y10 F3000
M104 S210 ; set final nozzle temp
M190 S60 ; wait for bed temp to stabilize
M109 S210 ; wait for nozzle temp to stabilize
G1 Z0.28 F240
G92 E0
G1 Y140 E10 F1500 ; prime the nozzle
G1 X4 F5000
G92 E0
G1 Y10 E10 F1200 ; prime the nozzle
G92 E0
G21 ; set units to millimeters
G90 ; use absolute coordinates
M83 ; use relative distances for extrusion
; Filament gcode
M107
;LAYER_CHANGE
;Z:0.35
;HEIGHT:0.35
;BEFORE_LAYER_CHANGE
G92 E0
;0.35


G1 E-1 F3600
G1 Z.35 F7800
;AFTER_LAYER_CHANGE
;0.35
G1 X133.977 Y42.346
G1 E1 F2400
;TYPE:Support material
;WIDTH:0.42
G1 F1800
G1 X130.584 Y42.346 E.17027
G1 X130.584 Y55.917 E.68106
G1 X127.192 Y55.917 E.17027
G1 X127.192 Y69.487 E.68106
G1 X123.799 Y69.487 E.17027
G1 X123.799 Y83.058 E.68106
G1 X120.406 Y83.058 E.17027
G1 X120.406 Y89.844 E.34053
G1 X117.013 Y89.844 E.17027
G1 X117.013 Y171.268 E4.08638
G1 X25.723 Y171.268 E4.58147
M73 P0 R504
G1 X25.723 Y165.636 E.28266
G1 X32.426 Y165.636 E.33638
G1 X32.835 Y165.253 E.02813
G1 X34.751 Y136.613 E1.44053
G1 X40.842 Y14.806 E6.12067
G1 X40.422 Y14.364 E.03057
G1 X32.509 Y14.364 E.39713
G1 X32.509 Y8.732 E.28266
G1 X133.977 Y8.732 E5.09227
G1 X133.977 Y42.294 E1.68436
G1 X133.331 Y42.191 F7800
G1 F1800
G1 X133.331 Y9.042 E1.66359
G1 X132.948 Y9.042 E.01923
G1 X132.948 Y42.035 E1.6558
G1 X132.565 Y42.035 E.01923
G1 X132.565 Y9.042 E1.6558
G1 X132.181 Y9.042 E.01923
G1 X132.181 Y42.035 E1.6558
G1 X131.798 Y42.035 E.01923
G1 X131.798 Y9.042 E1.6558
G1 X131.415 Y9.042 E.01923
G1 X131.415 Y42.035 E1.6558
G1 X131.032 Y42.035 E.01923
G1 X131.032 Y9.042 E1.6558
G1 X130.649 Y9.042 E.01923
G1 X130.649 Y42.035 E1.6558
G1 X130.274 Y42.035 E.01881
G1 X130.265 Y55.606 E.68106
G1 X130.265 Y9.042 E2.33686
G1 X129.882 Y9.042 E.01923
G1 X129.882 Y55.606 E2.33686
G1 X129.499 Y55.606 E.01923
G1 X129.499 Y9.042 E2.33686
G1 X129.116 Y9.042 E.01923
G1 X129.116 Y55.606 E2.33686
G1 X128.732 Y55.606 E.01923
G1 X128.732 Y9.042 E2.33686
G1 X128.349 Y9.042 E.01923
G1 X128.349 Y55.606 E2.33686
G1 X127.966 Y55.606 E.01923
G1 X127.966 Y9.042 E2.33686
G1 X127.583 Y9.042 E.01923
G1 X127.583 Y55.606 E2.33686
G1 X127.2 Y55.606 E.01923
G1 X127.2 Y9.042 E2.33686
G1 X126.816 Y9.042 E.01923
G1 X126.816 Y69.177 E3.01792
G1 X126.433 Y69.177 E.01923
G1 X126.433 Y9.042 E3.01792
G1 X126.05 Y9.042 E.01923
G1 X126.05 Y69.177 E3.01792
G1 X125.667 Y69.177 E.01923
G1 X125.667 Y9.042 E3.01792
G1 X125.284 Y9.042 E.01923
G1 X125.284 Y69.177 E3.01792
G1 X124.9 Y69.177 E.01923
G1 X124.9 Y9.042 E3.01792
G1 X124.517 Y9.042 E.01923
G1 X124.517 Y69.177 E3.01792
G1 X124.134 Y69.177 E.01923
G1 X124.134 Y9.042 E3.01792
G1 X123.751 Y9.042 E.01923
G1 X123.751 Y69.177 E3.01792
G1 X123.488 Y69.177 E.01317
G1 X123.488 Y82.748 E.68106
G1 X123.368 Y82.748 E.00607
G1 X123.368 Y9.042 E3.69899
G1 X122.984 Y9.042 E.01923
M73 P0 R503
G1 X122.984 Y82.748 E3.69899
G1 X122.601 Y82.748 E.01923
G1 X122.601 Y9.042 E3.69899
G1 X122.218 Y9.042 E.01923
G1 X122.218 Y82.748 E3.69899
G1 X121.835 Y82.748 E.01923
G1 X121.835 Y9.042 E3.69899
G1 X121.452 Y9.042 E.01923
G1 X121.451 Y82.748 E3.69899
G1 X121.068 Y82.748 E.01923
G1 X121.068 Y9.042 E3.69899
G1 X120.685 Y9.042 E.01923
G1 X120.685 Y82.748 E3.69899
G1 X120.302 Y82.748 E.01923
G1 X120.302 Y9.042 E3.69899
G1 X119.919 Y9.042 E.01923
G1 X119.919 Y89.533 E4.03952
G1 X119.535 Y89.533 E.01923
G1 X119.535 Y9.042 E4.03952
G1 X119.152 Y9.042 E.01923
G1 X119.152 Y89.533 E4.03952
G1 X118.769 Y89.533 E.01923
G1 X118.769 Y9.042 E4.03952
G1 X118.386 Y9.042 E.01923
G1 X118.386 Y89.533 E4.03952
G1 X118.003 Y89.533 E.01923
G1 X118.003 Y9.042 E4.03952
G1 X117.619 Y9.042 E.01923
G1 X117.619 Y89.533 E4.03952
G1 X117.236 Y89.533 E.01923
G1 X117.236 Y9.042 E4.03952
G1 X116.853 Y9.042 E.01923
G1 X116.853 Y89.533 E4.03952
G1 X116.703 Y89.533 E.00753
G1 X116.703 Y170.958 E4.08638
G1 X116.47 Y170.958 E.01171
G1 X116.47 Y9.042 E8.1259
G1 X116.087 Y9.042 E.01923
G1 X116.087 Y170.958 E8.1259
G1 X115.703 Y170.958 E.01923
G1 X115.703 Y9.042 E8.1259
G1 X115.32 Y9.042 E.01923
M73 P0 R502
G1 X115.32 Y170.958 E8.1259
G1 X114.937 Y170.958 E.01923
G1 X114.937 Y9.042 E8.1259
G1 X114.554 Y9.042 E.01923
G1 X114.554 Y170.958 E8.1259
G1 X114.17 Y170.958 E.01923
G1 X114.171 Y9.042 E8.1259
G1 X113.787 Y9.042 E.01923
G1 X113.787 Y170.958 E8.1259
G1 X113.404 Y170.958 E.01923
G1 X113.404 Y9.042 E8.1259
G1 X113.021 Y9.042 E.01923
G1 X113.021 Y170.958 E8.1259
G1 X112.638 Y170.958 E.01923
G1 X112.638 Y9.042 E8.1259
G1 X112.254 Y9.042 E.01923
G1 X112.254 Y170.958 E8.1259
G1 X111.871 Y170.958 E.01923
G1 X111.871 Y9.042 E8.1259
G1 X111.488 Y9.042 E.01923
G1 X111.488 Y170.958 E8.1259
G1 X111.105 Y170.958 E.01923
M73 P0 R501
G1 X111.105 Y9.042 E8.1259
G1 X110.722 Y9.042 E.01923
G1 X110.722 Y170.958 E8.1259
G1 X110.338 Y170.958 E.01923
G1 X110.338 Y9.042 E8.1259
G1 X109.955 Y9.042 E.01923
G1 X109.955 Y170.958 E8.1259
G1 X109.572 Y170.958 E.01923
G1 X109.572 Y9.042 E8.1259
G1 X109.189 Y9.042 E.01923
G1 X109.189 Y170.958 E8.1259
G1 X108.806 Y170.958 E.01923
G1 X108.806 Y9.042 E8.1259
G1 X108.422 Y9.042 E.01923
G1 X108.422 Y170.958 E8.1259
G1 X108.039 Y170.958 E.01923
G1 X108.039 Y9.042 E8.1259
G1 X107.656 Y9.042 E.01923
G1 X107.656 Y170.958 E8.1259
G1 X107.273 Y170.958 E.01923
G1 X107.273 Y9.042 E8.1259
G1 X106.89 Y9.042 E.01923
M73 P0 R500
G1 X106.89 Y170.958 E8.1259
G1 X106.506 Y170.958 E.01923
G1 X106.506 Y9.042 E8.1259
G1 X106.123 Y9.042 E.01923
G1 X106.123 Y170.958 E8.1259
G1 X105.74 Y170.958 E.01923
G1 X105.74 Y9.042 E8.1259
G1 X105.357 Y9.042 E.01923
G1 X105.357 Y170.958 E8.1259
G1 X104.973 Y170.958 E.01923
G1 X104.973 Y9.042 E8.1259
G1 X104.59 Y9.042 E.01923
G1 X104.59 Y170.958 E8.1259
G1 X104.207 Y170.958 E.01923
G1 X104.207 Y9.042 E8.1259
G1 X103.824 Y9.042 E.01923
M73 P1 R500
G1 X103.824 Y170.958 E8.1259
G1 X103.441 Y170.958 E.01923
G1 X103.441 Y9.042 E8.1259
G1 X103.057 Y9.042 E.01923
G1 X103.057 Y170.958 E8.1259
G1 X102.674 Y170.958 E.01923
M73 P1 R499
G1 X102.674 Y9.042 E8.1259
G1 X102.291 Y9.042 E.01923
G1 X102.291 Y170.958 E8.1259
G1 X101.908 Y170.958 E.01923
G1 X101.908 Y9.042 E8.1259
G1 X101.525 Y9.042 E.01923
G1 X101.525 Y170.958 E8.1259
G1 X101.141 Y170.958 E.01923
G1 X101.141 Y9.042 E8.1259
G1 X100.758 Y9.042 E.01923
G1 X100.758 Y170.958 E8.1259
G1 X100.375 Y170.958 E.01923
G1 X100.375 Y9.042 E8.1259
G1 X99.992 Y9.042 E.01923
G1 X99.992 Y170.958 E8.1259
G1 X99.609 Y170.958 E.01923
G1 X99.609 Y9.042 E8.1259
G1 X99.225 Y9.042 E.01923
G1 X99.225 Y170.958 E8.1259
G1 X98.842 Y170.958 E.01923
G1 X98.842 Y9.042 E8.1259
G1 X98.459 Y9.042 E.01923
M73 P1 R498
G1 X98.459 Y170.958 E8.1259
G1 X98.076 Y170.958 E.01923
G1 X98.076 Y9.042 E8.1259
G1 X97.692 Y9.042 E.01923
G1 X97.692 Y170.958 E8.1259
G1 X97.309 Y170.958 E.01923
G1 X97.309 Y9.042 E8.1259
G1 X96.926 Y9.042 E.01923
G1 X96.926 Y170.958 E8.1259
G1 X96.543 Y170.958 E.01923
G1 X96.543 Y9.042 E8.1259
G1 X96.16 Y9.042 E.01923
G1 X96.16 Y170.958 E8.1259
G1 X95.776 Y170.958 E.01923
G1 X95.776 Y9.042 E8.1259
G1 X95.393 Y9.042 E.01923
G1 X95.393 Y170.958 E8.1259
G1 X95.01 Y170.958 E.01923
G1 X95.01 Y9.042 E8.1259
G1 X94.627 Y9.042 E.01923
G1 X94.627 Y170.958 E8.1259
G1 X94.244 Y170.958 E.01923
M73 P1 R497
G1 X94.244 Y9.042 E8.1259
G1 X93.86 Y9.042 E.01923
G1 X93.86 Y170.958 E8.1259
G1 X93.477 Y170.958 E.01923
G1 X93.477 Y9.042 E8.1259
G1 X93.094 Y9.042 E.01923
G1 X93.094 Y170.958 E8.1259
G1 X92.711 Y170.958 E.01923
G1 X92.711 Y9.042 E8.1259
G1 X92.328 Y9.042 E.01923
G1 X92.328 Y170.958 E8.1259
G1 X91.944 Y170.958 E.01923
G1 X91.944 Y9.042 E8.1259
G1 X91.561 Y9.042 E.01923
G1 X91.561 Y170.958 E8.1259
G1 X91.178 Y170.958 E.01923
G1 X91.178 Y9.042 E8.1259
G1 X90.795 Y9.042 E.01923
G1 X90.795 Y170.958 E8.1259
G1 X90.411 Y170.958 E.01923
G1 X90.411 Y9.042 E8.1259
G1 X90.028 Y9.042 E.01923
M73 P1 R496
G1 X90.028 Y170.958 E8.1259
G1 X89.645 Y170.958 E.01923
G1 X89.645 Y9.042 E8.1259
G1 X89.262 Y9.042 E.01923
G1 X89.262 Y170.958 E8.1259
G1 X88.879 Y170.958 E.01923
G1 X88.879 Y9.042 E8.1259
G1 X88.495 Y9.042 E.01923
G1 X88.495 Y170.958 E8.1259
G1 X88.112 Y170.958 E.01923
G1 X88.112 Y9.042 E8.1259
G1 X87.729 Y9.042 E.01923
G1 X87.729 Y170.958 E8.1259
G1 X87.346 Y170.958 E.01923
G1 X87.346 Y9.042 E8.1259
G1 X86.963 Y9.042 E.01923
G1 X86.963 Y170.958 E8.1259
G1 X86.579 Y170.958 E.01923
G1 X86.579 Y9.042 E8.1259
G1 X86.196 Y9.042 E.01923
G1 X86.196 Y170.958 E8.1259
G1 X85.813 Y170.958 E.01923
M73 P1 R495
G1 X85.813 Y9.042 E8.1259
G1 X85.43 Y9.042 E.01923
G1 X85.43 Y170.958 E8.1259
G1 X85.047 Y170.958 E.01923
G1 X85.047 Y9.042 E8.1259
G1 X84.663 Y9.042 E.01923
G1 X84.663 Y170.958 E8.1259
G1 X84.28 Y170.958 E.01923
G1 X84.28 Y9.042 E8.1259
G1 X83.897 Y9.042 E.01923
G1 X83.897 Y170.958 E8.1259
G1 X83.514 Y170.958 E.01923
G1 X83.514 Y9.042 E8.1259
G1 X83.131 Y9.042 E.01923
G1 X83.13 Y170.958 E8.1259
G1 X82.747 Y170.958 E.01923
M73 P2 R495
G1 X82.747 Y9.042 E8.1259
G1 X82.364 Y9.042 E.01923
G1 X82.364 Y170.958 E8.1259
G1 X81.981 Y170.958 E.01923
G1 X81.981 Y9.042 E8.1259
G1 X81.598 Y9.042 E.01923
M73 P2 R494
G1 X81.598 Y170.958 E8.1259
G1 X81.214 Y170.958 E.01923
G1 X81.214 Y9.042 E8.1259
G1 X80.831 Y9.042 E.01923
G1 X80.831 Y170.958 E8.1259
G1 X80.448 Y170.958 E.01923
G1 X80.448 Y9.042 E8.1259
G1 X80.065 Y9.042 E.01923
G1 X80.065 Y170.958 E8.1259
G1 X79.682 Y170.958 E.01923
G1 X79.682 Y9.042 E8.1259
G1 X79.298 Y9.042 E.01923
G1 X79.298 Y170.958 E8.1259
G1 X78.915 Y170.958 E.01923
G1 X78.915 Y9.042 E8.1259
G1 X78.532 Y9.042 E.01923
G1 X78.532 Y170.958 E8.1259
G1 X78.149 Y170.958 E.01923
G1 X78.149 Y9.042 E8.1259
G1 X77.766 Y9.042 E.01923
G1 X77.766 Y170.958 E8.1259
G1 X77.382 Y170.958 E.01923
M73 P2 R493
G1 X77.382 Y9.042 E8.1259
G1 X76.999 Y9.042 E.01923
G1 X76.999 Y170.958 E8.1259
G1 X76.616 Y170.958 E.01923
G1 X76.616 Y9.042 E8.1259
G1 X76.233 Y9.042 E.01923
G1 X76.233 Y170.958 E8.1259
G1 X75.849 Y170.958 E.01923
G1 X75.85 Y9.042 E8.1259
G1 X75.466 Y9.042 E.01923
G1 X75.466 Y170.958 E8.1259
G1 X75.083 Y170.958 E.01923
G1 X75.083 Y9.042 E8.1259
G1 X74.7 Y9.042 E.01923
G1 X74.7 Y170.958 E8.1259
G1 X74.317 Y170.958 E.01923
G1 X74.317 Y9.042 E8.1259
G1 X73.933 Y9.042 E.01923
G1 X73.933 Y170.958 E8.1259
G1 X73.55 Y170.958 E.01923
G1 X73.55 Y9.042 E8.1259
G1 X73.167 Y9.042 E.01923
M73 P2 R492
G1 X73.167 Y170.958 E8.1259
G1 X72.784 Y170.958 E.01923
G1 X72.784 Y9.042 E8.1259
G1 X72.401 Y9.042 E.01923
G1 X72.401 Y170.958 E8.1259
G1 X72.017 Y170.958 E.01923
G1 X72.017 Y9.042 E8.1259
G1 X71.634 Y9.042 E.01923
G1 X71.634 Y170.958 E8.1259
G1 X71.251 Y170.958 E.01923
G1 X71.251 Y9.042 E8.1259
G1 X70.868 Y9.042 E.01923
G1 X70.868 Y170.958 E8.1259
G1 X70.485 Y170.958 E.01923
G1 X70.485 Y9.042 E8.1259
G1 X70.101 Y9.042 E.01923
G1 X70.101 Y170.958 E8.1259
G1 X69.718 Y170.958 E.01923
G1 X69.718 Y9.042 E8.1259
G1 X69.335 Y9.042 E.01923
G1 X69.335 Y170.958 E8.1259
G1 X68.952 Y170.958 E.01923
M73 P2 R491
G1 X68.952 Y9.042 E8.1259
G1 X68.569 Y9.042 E.01923
G1 X68.569 Y170.958 E8.1259
G1 X68.185 Y170.958 E.01923
G1 X68.185 Y9.042 E8.1259
G1 X67.802 Y9.042 E.01923
G1 X67.802 Y170.958 E8.1259
G1 X67.419 Y170.958 E.01923
G1 X67.419 Y9.042 E8.1259
G1 X67.036 Y9.042 E.01923
G1 X67.036 Y170.958 E8.1259
G1 X66.652 Y170.958 E.01923
G1 X66.652 Y9.042 E8.1259
G1 X66.269 Y9.042 E.01923
G1 X66.269 Y170.958 E8.1259
G1 X65.886 Y170.958 E.01923
G1 X65.886 Y9.042 E8.1259
G1 X65.503 Y9.042 E.01923
G1 X65.503 Y170.958 E8.1259
G1 X65.12 Y170.958 E.01923
G1 X65.12 Y9.042 E8.1259
G1 X64.736 Y9.042 E.01923
M73 P2 R490
G1 X64.736 Y170.958 E8.1259
G1 X64.353 Y170.958 E.01923
G1 X64.353 Y9.042 E8.1259
G1 X63.97 Y9.042 E.01923
G1 X63.97 Y170.958 E8.1259
G1 X63.587 Y170.958 E.01923
G1 X63.587 Y9.042 E8.1259
G1 X63.204 Y9.042 E.01923
G1 X63.204 Y170.958 E8.1259
G1 X62.82 Y170.958 E.01923
G1 X62.82 Y9.042 E8.1259
G1 X62.437 Y9.042 E.01923
G1 X62.437 Y170.958 E8.1259
G1 X62.054 Y170.958 E.01923
G1 X62.054 Y9.042 E8.1259
G1 X61.671 Y9.042 E.01923
G1 X61.671 Y170.958 E8.1259
G1 X61.288 Y170.958 E.01923
M73 P3 R490
G1 X61.288 Y9.042 E8.1259
G1 X60.904 Y9.042 E.01923
G1 X60.904 Y170.958 E8.1259
G1 X60.521 Y170.958 E.01923
M73 P3 R489
G1 X60.521 Y9.042 E8.1259
G1 X60.138 Y9.042 E.01923
G1 X60.138 Y170.958 E8.1259
G1 X59.755 Y170.958 E.01923
G1 X59.755 Y9.042 E8.1259
G1 X59.371 Y9.042 E.01923
G1 X59.371 Y170.958 E8.1259
G1 X58.988 Y170.958 E.01923
G1 X58.988 Y9.042 E8.1259
G1 X58.605 Y9.042 E.01923
G1 X58.605 Y170.958 E8.1259
G1 X58.222 Y170.958 E.01923
G1 X58.222 Y9.042 E8.1259
G1 X57.839 Y9.042 E.01923
G1 X57.839 Y170.958 E8.1259
G1 X57.455 Y170.958 E.01923
G1 X57.455 Y9.042 E8.1259
G1 X57.072 Y9.042 E.01923
G1 X57.072 Y170.958 E8.1259
G1 X56.689 Y170.958 E.01923
G1 X56.689 Y9.042 E8.1259
G1 X56.306 Y9.042 E.01923
M73 P3 R488
G1 X56.306 Y170.958 E8.1259
G1 X55.923 Y170.958 E.01923
G1 X55.923 Y9.042 E8.1259
G1 X55.539 Y9.042 E.01923
G1 X55.539 Y170.958 E8.1259
G1 X55.156 Y170.958 E.01923
G1 X55.156 Y9.042 E8.1259
G1 X54.773 Y9.042 E.01923
G1 X54.773 Y170.958 E8.1259
G1 X54.39 Y170.958 E.01923
G1 X54.39 Y9.042 E8.1259
G1 X54.007 Y9.042 E.01923
G1 X54.007 Y170.958 E8.1259
G1 X53.623 Y170.958 E.01923
G1 X53.623 Y9.042 E8.1259
G1 X53.24 Y9.042 E.01923
G1 X53.24 Y170.958 E8.1259
G1 X52.857 Y170.958 E.01923
G1 X52.857 Y9.042 E8.1259
G1 X52.474 Y9.042 E.01923
G1 X52.474 Y170.958 E8.1259
G1 X52.09 Y170.958 E.01923
M73 P3 R487
G1 X52.09 Y9.042 E8.1259
G1 X51.707 Y9.042 E.01923
G1 X51.707 Y170.958 E8.1259
G1 X51.324 Y170.958 E.01923
G1 X51.324 Y9.042 E8.1259
G1 X50.941 Y9.042 E.01923
G1 X50.941 Y170.958 E8.1259
G1 X50.558 Y170.958 E.01923
G1 X50.558 Y9.042 E8.1259
G1 X50.174 Y9.042 E.01923
G1 X50.174 Y170.958 E8.1259
G1 X49.791 Y170.958 E.01923
G1 X49.791 Y9.042 E8.1259
G1 X49.408 Y9.042 E.01923
G1 X49.408 Y170.958 E8.1259
G1 X49.025 Y170.958 E.01923
G1 X49.025 Y9.042 E8.1259
G1 X48.642 Y9.042 E.01923
G1 X48.642 Y170.958 E8.1259
G1 X48.258 Y170.958 E.01923
G1 X48.258 Y9.042 E8.1259
G1 X47.875 Y9.042 E.01923
M73 P3 R486
G1 X47.875 Y170.958 E8.1259
G1 X47.492 Y170.958 E.01923
G1 X47.492 Y9.042 E8.1259
G1 X47.109 Y9.042 E.01923
G1 X47.109 Y170.958 E8.1259
G1 X46.726 Y170.958 E.01923
G1 X46.726 Y9.042 E8.1259
G1 X46.342 Y9.042 E.01923
G1 X46.342 Y170.958 E8.1259
G1 X45.959 Y170.958 E.01923
G1 X45.959 Y9.042 E8.1259
G1 X45.576 Y9.042 E.01923
G1 X45.576 Y170.958 E8.1259
G1 X45.193 Y170.958 E.01923
G1 X45.193 Y9.042 E8.1259
G1 X44.81 Y9.042 E.01923
G1 X44.809 Y170.958 E8.1259
G1 X44.426 Y170.958 E.01923
G1 X44.426 Y9.042 E8.1259
G1 X44.043 Y9.042 E.01923
G1 X44.043 Y170.958 E8.1259
G1 X43.66 Y170.958 E.01923
M73 P3 R485
G1 X43.66 Y9.042 E8.1259
G1 X43.277 Y9.042 E.01923
G1 X43.277 Y170.958 E8.1259
G1 X42.893 Y170.958 E.01923
G1 X42.893 Y9.042 E8.1259
G1 X42.51 Y9.042 E.01923
G1 X42.51 Y170.958 E8.1259
G1 X42.127 Y170.958 E.01923
G1 X42.127 Y9.042 E8.1259
G1 X41.744 Y9.042 E.01923
G1 X41.744 Y170.958 E8.1259
G1 X41.361 Y170.958 E.01923
G1 X41.361 Y9.042 E8.1259
G1 X40.977 Y9.042 E.01923
G1 X40.977 Y14.498 E.27379
G1 X40.594 Y14.095 E.02791
G1 X40.594 Y9.042 E.25356
G1 X40.211 Y9.042 E.01923
G1 X40.211 Y14.054 E.25151
G1 X39.828 Y14.054 E.01923
G1 X39.828 Y9.042 E.25151
G1 X39.445 Y9.042 E.01923
G1 X39.445 Y14.054 E.25151
G1 X39.061 Y14.054 E.01923
G1 X39.061 Y9.042 E.25151
G1 X38.678 Y9.042 E.01923
G1 X38.678 Y14.054 E.25151
G1 X38.295 Y14.054 E.01923
G1 X38.295 Y9.042 E.25151
G1 X37.912 Y9.042 E.01923
G1 X37.912 Y14.054 E.25151
G1 X37.529 Y14.054 E.01923
G1 X37.529 Y9.042 E.25151
G1 X37.145 Y9.042 E.01923
G1 X37.145 Y14.054 E.25151
G1 X36.762 Y14.054 E.01923
G1 X36.762 Y9.042 E.25151
