; generated by PrusaSlicer 2.5.0+win64 on 2022-12-07 at 00:27:07 UTC

; 

; external perimeters extrusion width = 1.00mm
; perimeters extrusion width = 1.00mm
; infill extrusion width = 1.00mm
; solid infill extrusion width = 1.00mm
; top infill extrusion width = 1.00mm
; support material extrusion width = 1.00mm
; first layer extrusion width = 0.42mm

M73 P0 R595
M107
;TYPE:Custom
G90 ; use absolute coordinates
M83 ; extruder relative mode
M140 S60 ; set final bed temp
M104 S150 ; set temporary nozzle temp to prevent oozing during homing and auto bed leveling
G4 S10 ; allow partial nozzle warmup
G28 ; home all axisG1 Z50 F240
G1 X7.6 Y10 F3000
M104 S210 ; set final nozzle temp
M190 S60 ; wait for bed temp to stabilize
M109 S210 ; wait for nozzle temp to stabilize
G1 Z0.28 F240
G92 E0
G1 Y140 E10 F1500 ; prime the nozzle
G1 X4 F5000
G92 E0
G1 Y10 E10 F1200 ; prime the nozzle
G92 E0
G21 ; set units to millimeters
G90 ; use absolute coordinates
M83 ; use relative distances for extrusion
; Filament gcode
M107
;LAYER_CHANGE
;Z:0.35
;HEIGHT:0.35
;BEFORE_LAYER_CHANGE
G92 E0
;0.35


G1 E-1 F3600
G1 Z.35 F7800
;AFTER_LAYER_CHANGE
;0.35
G1 X14.704 Y14.516
G1 E1 F2400
;TYPE:Support material
;WIDTH:0.42
G1 F1800
G1 X14.585 Y14.363 E.00971
G1 X13.249 Y14.363 E.06707
G1 X12.833 Y14.779 E.02952
G1 X12.833 Y18.097 E.16651
G1 X11.311 Y18.097 E.07636
G1 X11.311 Y21.097 E.15056
G1 X8.732 Y21.097 E.12947
G1 X8.732 Y12.124 E.45029
G1 X14.704 Y12.124 E.29974
G1 X14.704 Y14.464 E.11741
G1 X14.124 Y14.208 F7800
G1 F1800
G1 X14.124 Y12.435 E.08898
G1 X13.741 Y12.435 E.01923
G1 X13.741 Y14.053 E.08119
G1 X13.358 Y14.053 E.01923
G1 X13.358 Y12.435 E.08119
G1 X12.975 Y12.435 E.01923
G1 X12.975 Y14.198 E.0885
G1 X12.592 Y14.581 E.0272
G1 X12.592 Y12.435 E.10773
G1 X12.208 Y12.435 E.01923
G1 X12.208 Y17.786 E.26858
G1 X11.825 Y17.786 E.01923
G1 X11.825 Y12.435 E.26858
G1 X11.442 Y12.435 E.01923
G1 X11.442 Y17.786 E.26858
G1 X11.059 Y17.786 E.01923
G1 X11.059 Y12.435 E.26858
G1 X10.676 Y12.435 E.01923
G1 X10.676 Y20.786 E.41914
G1 X10.292 Y20.786 E.01923
G1 X10.292 Y12.435 E.41914
G1 X9.909 Y12.435 E.01923
G1 X9.909 Y20.786 E.41914
G1 X9.526 Y20.786 E.01923
G1 X9.526 Y12.435 E.41914
G1 X9.143 Y12.435 E.01923
G1 X9.143 Y20.942 E.42693
G1 E-.7 F3600
;WIPE_START
G1 F6240
G1 X9.143 Y20.422 E-.285
;WIPE_END
G1 E-.015 F3600
G1 X12.781 Y18.352 F7800
G1 E1 F2400
;TYPE:Support material interface
;WIDTH:1
G1 F1800
G1 X12.781 Y83.616 E8.78356
G1 X13.674 Y83.616 F7800
G1 F1800
G1 X13.674 Y62.003 E2.90877
G1 E-.7 F3600
;WIPE_START
G1 F6240
G1 X13.674 Y62.523 E-.285
;WIPE_END
G1 E-.015 F3600
G1 X14.567 Y58.175 F7800
G1 E1 F2400
G1 F1800
G1 X14.567 Y83.616 E3.424
G1 E-.7 F3600
;WIPE_START
G1 F6240
G1 X14.567 Y83.096 E-.285
;WIPE_END
G1 E-.015 F3600
G1 X25.382 Y100.022 F7800
G1 E1 F2400
;TYPE:Support material
;WIDTH:0.42
G1 F1800
G1 X21.99 Y100.022 E.17027
G1 X21.99 Y116.985 E.85133
G1 X18.597 Y116.985 E.17027
G1 X18.597 Y171.268 E2.72425
G1 X8.732 Y171.268 E.49509
G1 X8.732 Y80.871 E4.53667
G1 X11.311 Y80.871 E.12947
G1 X11.311 Y83.871 E.15056
G1 X16.017 Y83.871 E.23616
G1 X16.017 Y79.978 E.19536
G1 X25.382 Y79.978 E.47
G1 X25.382 Y99.97 E1.0033
G1 X24.854 Y99.866 F7800
G1 F1800
M73 P0 R594
G1 X24.854 Y80.289 E.98253
G1 X24.471 Y80.289 E.01923
G1 X24.471 Y99.711 E.97474
G1 X24.088 Y99.711 E.01923
G1 X24.088 Y80.289 E.97474
G1 X23.705 Y80.289 E.01923
G1 X23.705 Y99.711 E.97474
G1 X23.321 Y99.711 E.01923
G1 X23.321 Y80.289 E.97474
G1 X22.938 Y80.289 E.01923
G1 X22.938 Y99.711 E.97474
G1 X22.555 Y99.711 E.01923
G1 X22.555 Y80.289 E.97474
G1 X22.172 Y80.289 E.01923
G1 X22.172 Y99.711 E.97474
G1 X21.789 Y99.711 E.01923
G1 X21.789 Y80.289 E.97474
G1 X21.405 Y80.289 E.01923
G1 X21.405 Y116.675 E1.82607
G1 X21.022 Y116.675 E.01923
G1 X21.022 Y80.289 E1.82607
G1 X20.639 Y80.289 E.01923
G1 X20.639 Y116.675 E1.82607
G1 X20.256 Y116.675 E.01923
G1 X20.256 Y80.289 E1.82607
G1 X19.873 Y80.289 E.01923
G1 X19.873 Y116.675 E1.82607
G1 X19.489 Y116.675 E.01923
G1 X19.489 Y80.289 E1.82607
G1 X19.106 Y80.289 E.01923
G1 X19.106 Y116.675 E1.82607
G1 X18.723 Y116.675 E.01923
G1 X18.723 Y80.289 E1.82607
G1 X18.34 Y80.289 E.01923
G1 X18.34 Y116.675 E1.82607
G1 X18.286 Y116.675 E.00267
G1 X18.286 Y170.958 E2.72425
G1 X17.957 Y170.958 E.01656
G1 X17.957 Y80.289 E4.55032
G1 X17.573 Y80.289 E.01923
G1 X17.573 Y170.958 E4.55032
G1 X17.19 Y170.958 E.01923
G1 X17.19 Y80.289 E4.55032
G1 X16.807 Y80.289 E.01923
G1 X16.807 Y170.958 E4.55032
G1 X16.424 Y170.958 E.01923
G1 X16.424 Y80.289 E4.55032
G1 X16.327 Y80.289 E.00483
G1 X16.327 Y84.181 E.19536
G1 X16.04 Y84.181 E.0144
G1 X16.04 Y170.958 E4.35496
G1 X15.657 Y170.958 E.01923
G1 X15.657 Y84.181 E4.35496
G1 X15.274 Y84.181 E.01923
G1 X15.274 Y170.958 E4.35496
G1 X14.891 Y170.958 E.01923
G1 X14.891 Y84.181 E4.35496
G1 X14.508 Y84.181 E.01923
G1 X14.508 Y170.958 E4.35496
G1 X14.124 Y170.958 E.01923
G1 X14.124 Y84.181 E4.35496
G1 X13.741 Y84.181 E.01923
G1 X13.741 Y170.958 E4.35496
G1 X13.358 Y170.958 E.01923
G1 X13.358 Y84.181 E4.35496
G1 X12.975 Y84.181 E.01923
G1 X12.975 Y170.958 E4.35496
G1 X12.592 Y170.958 E.01923
M73 P0 R593
G1 X12.592 Y84.181 E4.35496
G1 X12.208 Y84.181 E.01923
G1 X12.208 Y170.958 E4.35496
G1 X11.825 Y170.958 E.01923
G1 X11.825 Y84.181 E4.35496
G1 X11.442 Y84.181 E.01923
G1 X11.442 Y170.958 E4.35496
G1 X11.059 Y170.958 E.01923
G1 X11.059 Y84.181 E4.35496
G1 X11.001 Y84.181 E.00289
G1 X11.001 Y81.181 E.15056
G1 X10.676 Y81.181 E.01634
G1 X10.676 Y170.958 E4.50551
G1 X10.292 Y170.958 E.01923
G1 X10.292 Y81.181 E4.50551
G1 X9.909 Y81.181 E.01923
G1 X9.909 Y170.958 E4.50551
G1 X9.526 Y170.958 E.01923
G1 X9.526 Y81.181 E4.50551
G1 X9.143 Y81.181 E.01923
G1 X9.143 Y171.113 E4.5133
G1 E-.7 F3600
;WIPE_START
G1 F6240
G1 X9.143 Y170.593 E-.285
;WIPE_END
G1 E-.015 F3600
G1 X16.352 Y56.475 F7800
G1 E1 F2400
;TYPE:Support material interface
;WIDTH:1
G1 F1800
G1 X16.352 Y55.079 E.18787
G1 X16.911 Y49.136 E.80332
G1 X17.192 Y48.254 E.12457
G1 X17.245 Y47.931 E.04407
G1 X17.245 Y56.475 E1.14986
G1 E-.7 F3600
;WIPE_START
G1 F6240
G1 X17.245 Y55.955 E-.285
;WIPE_END
G1 E-.015 F3600
G1 X13.674 Y35.038 F7800
G1 E1 F2400
G1 F1800
G1 X13.674 Y29.808 E.70385
G1 X14.567 Y29.919 E.12106
G1 X14.567 Y34.353 E.59681
G1 X14.665 Y34.324 E.01373
G1 X15.46 Y35.542 E.19576
G1 X15.46 Y28.694 E.92169
G1 X16.352 Y25.15 E.49189
G1 X16.352 Y36.91 E1.58277
G1 X17.245 Y38.278 E.21983
G1 X17.245 Y21.605 E2.24385
G1 X18.138 Y18.061 E.49189
G1 X18.138 Y56.073 E5.11577
G1 X18.753 Y56.073 E.08286
G1 X18.753 Y39.11 E2.28301
G1 X19.03 Y39.11 E.03729
G1 X19.03 Y11.968 E3.65281
G1 X19.923 Y11.968 E.12014
G1 X19.923 Y39.11 E3.65281
G1 X20.816 Y39.11 E.12014
G1 X20.816 Y11.968 E3.65281
G1 X21.708 Y11.968 E.12014
G1 X21.708 Y39.11 E3.65281
G1 X22.146 Y39.11 E.05889
G1 X22.146 Y18.753 E2.73961
G1 X22.601 Y18.753 E.06126
G1 X22.601 Y11.968 E.91321
G1 X23.494 Y11.968 E.12014
G1 X23.494 Y18.753 E.91321
G1 X24.387 Y18.753 E.12014
G1 X24.387 Y11.968 E.91321
G1 X25.279 Y11.968 E.12014
G1 X25.279 Y19.155 E.96727
G1 E-.7 F3600
;WIPE_START
G1 F6240
G1 X25.279 Y18.635 E-.285
;WIPE_END
G1 E-.015 F3600
G1 X18.138 Y14.983 F7800
G1 E1 F2400
G1 F1800
G1 X18.138 Y11.968 E.40582
G1 X17.245 Y11.968 E.12014
G1 X17.245 Y14.127 E.29054
G1 X16.352 Y14.127 E.12014
G1 X16.352 Y11.968 E.29054
G1 X15.46 Y11.968 E.12014
G1 X15.46 Y14.528 E.3446
G1 X15.833 Y14.783 F7800
;TYPE:Support material
;WIDTH:0.42
G1 F1800
G1 X15.833 Y15.571 E.03954
G1 X14.752 Y15.943 E.05738
G1 X15.012 Y14.91 E.05344
G1 X14.913 Y14.783 E.00808
G1 X15.781 Y14.783 E.04359
G1 X15.274 Y15.599 F7800
G1 F1800
G1 X15.274 Y14.938 E.03316
G1 X15.833 Y16.566 F7800
G1 F1800
G1 X15.833 Y21.097 E.22737
G1 X13.253 Y21.097 E.12947
G1 X13.253 Y18.514 E.12964
G1 X14.078 Y18.616 E.04173
G1 X14.632 Y16.417 E.11378
G1 X15.782 Y16.56 E.05813
G1 X15.274 Y20.942 F7800
G1 F1800
G1 X15.274 Y16.81 E.20736
G1 X14.891 Y16.762 E.01938
G1 X14.891 Y20.786 E.20195
G1 X14.508 Y20.786 E.01923
G1 X14.508 Y18.182 E.1307
G1 X14.312 Y18.958 E.04014
G1 X14.124 Y18.934 E.0095
G1 X14.124 Y20.786 E.09294
G1 X13.741 Y20.786 E.01923
G1 X13.741 Y18.731 E.10318
G1 E-.7 F3600
;WIPE_START
G1 F6240
G1 X13.741 Y19.251 E-.285
;WIPE_END
G1 E-.015 F3600
G1 X171.268 Y171.268 F7800
G1 E1 F2400
G1 F1800
G1 X86.764 Y171.268 E4.24094
G1 X86.764 Y79.665 E4.59717
G1 X83.371 Y79.665 E.17027
G1 X83.371 Y8.732 E3.55988
G1 X171.268 Y8.732 E4.41121
G1 X171.268 Y171.217 E8.15446
M73 P0 R592
G1 X170.857 Y171.113 F7800
G1 F1800
G1 X170.857 Y9.042 E8.13368
G1 X170.474 Y9.042 E.01923
G1 X170.474 Y170.958 E8.1259
G1 X170.091 Y170.958 E.01923
G1 X170.091 Y9.042 E8.1259
G1 X169.708 Y9.042 E.01923
G1 X169.708 Y170.958 E8.1259
G1 X169.324 Y170.958 E.01923
G1 X169.324 Y9.042 E8.1259
G1 X168.941 Y9.042 E.01923
G1 X168.941 Y170.958 E8.1259
G1 X168.558 Y170.958 E.01923
G1 X168.558 Y9.042 E8.1259
G1 X168.175 Y9.042 E.01923
G1 X168.175 Y170.958 E8.1259
G1 X167.792 Y170.958 E.01923
G1 X167.792 Y9.042 E8.1259
G1 X167.408 Y9.042 E.01923
G1 X167.408 Y170.958 E8.1259
G1 X167.025 Y170.958 E.01923
M73 P0 R591
G1 X167.025 Y9.042 E8.1259
G1 X166.642 Y9.042 E.01923
G1 X166.642 Y170.958 E8.1259
G1 X166.259 Y170.958 E.01923
G1 X166.259 Y9.042 E8.1259
G1 X165.876 Y9.042 E.01923
G1 X165.876 Y170.958 E8.1259
G1 X165.492 Y170.958 E.01923
G1 X165.492 Y9.042 E8.1259
G1 X165.109 Y9.042 E.01923
G1 X165.109 Y170.958 E8.1259
G1 X164.726 Y170.958 E.01923
G1 X164.726 Y9.042 E8.1259
G1 X164.343 Y9.042 E.01923
G1 X164.343 Y170.958 E8.1259
G1 X163.96 Y170.958 E.01923
G1 X163.96 Y9.042 E8.1259
G1 X163.576 Y9.042 E.01923
G1 X163.576 Y170.958 E8.1259
G1 X163.193 Y170.958 E.01923
G1 X163.193 Y9.042 E8.1259
G1 X162.81 Y9.042 E.01923
M73 P0 R590
G1 X162.81 Y170.958 E8.1259
G1 X162.427 Y170.958 E.01923
G1 X162.427 Y9.042 E8.1259
G1 X162.043 Y9.042 E.01923
G1 X162.043 Y170.958 E8.1259
G1 X161.66 Y170.958 E.01923
G1 X161.66 Y9.042 E8.1259
G1 X161.277 Y9.042 E.01923
G1 X161.277 Y170.958 E8.1259
G1 X160.894 Y170.958 E.01923
G1 X160.894 Y9.042 E8.1259
G1 X160.511 Y9.042 E.01923
G1 X160.511 Y170.958 E8.1259
G1 X160.127 Y170.958 E.01923
G1 X160.127 Y9.042 E8.1259
G1 X159.744 Y9.042 E.01923
G1 X159.744 Y170.958 E8.1259
G1 X159.361 Y170.958 E.01923
G1 X159.361 Y9.042 E8.1259
G1 X158.978 Y9.042 E.01923
G1 X158.978 Y170.958 E8.1259
G1 X158.595 Y170.958 E.01923
M73 P0 R589
G1 X158.595 Y9.042 E8.1259
G1 X158.211 Y9.042 E.01923
G1 X158.211 Y170.958 E8.1259
G1 X157.828 Y170.958 E.01923
G1 X157.828 Y9.042 E8.1259
G1 X157.445 Y9.042 E.01923
G1 X157.445 Y170.958 E8.1259
G1 X157.062 Y170.958 E.01923
G1 X157.062 Y9.042 E8.1259
G1 X156.679 Y9.042 E.01923
M73 P1 R589
G1 X156.679 Y170.958 E8.1259
G1 X156.295 Y170.958 E.01923
G1 X156.295 Y9.042 E8.1259
G1 X155.912 Y9.042 E.01923
G1 X155.912 Y170.958 E8.1259
G1 X155.529 Y170.958 E.01923
G1 X155.529 Y9.042 E8.1259
G1 X155.146 Y9.042 E.01923
G1 X155.146 Y170.958 E8.1259
G1 X154.762 Y170.958 E.01923
G1 X154.762 Y9.042 E8.1259
G1 X154.379 Y9.042 E.01923
M73 P1 R588
G1 X154.379 Y170.958 E8.1259
G1 X153.996 Y170.958 E.01923
G1 X153.996 Y9.042 E8.1259
G1 X153.613 Y9.042 E.01923
G1 X153.613 Y170.958 E8.1259
G1 X153.23 Y170.958 E.01923
G1 X153.23 Y9.042 E8.1259
G1 X152.846 Y9.042 E.01923
G1 X152.846 Y170.958 E8.1259
G1 X152.463 Y170.958 E.01923
G1 X152.463 Y9.042 E8.1259
G1 X152.08 Y9.042 E.01923
G1 X152.08 Y170.958 E8.1259
G1 X151.697 Y170.958 E.01923
G1 X151.697 Y9.042 E8.1259
G1 X151.314 Y9.042 E.01923
G1 X151.314 Y170.958 E8.1259
G1 X150.93 Y170.958 E.01923
G1 X150.93 Y9.042 E8.1259
G1 X150.547 Y9.042 E.01923
G1 X150.547 Y170.958 E8.1259
G1 X150.164 Y170.958 E.01923
M73 P1 R587
G1 X150.164 Y9.042 E8.1259
G1 X149.781 Y9.042 E.01923
G1 X149.781 Y170.958 E8.1259
G1 X149.398 Y170.958 E.01923
G1 X149.398 Y9.042 E8.1259
G1 X149.014 Y9.042 E.01923
G1 X149.014 Y170.958 E8.1259
G1 X148.631 Y170.958 E.01923
G1 X148.631 Y9.042 E8.1259
G1 X148.248 Y9.042 E.01923
G1 X148.248 Y170.958 E8.1259
G1 X147.865 Y170.958 E.01923
G1 X147.865 Y9.042 E8.1259
G1 X147.482 Y9.042 E.01923
G1 X147.481 Y170.958 E8.1259
G1 X147.098 Y170.958 E.01923
G1 X147.098 Y9.042 E8.1259
G1 X146.715 Y9.042 E.01923
G1 X146.715 Y170.958 E8.1259
G1 X146.332 Y170.958 E.01923
G1 X146.332 Y9.042 E8.1259
G1 X145.949 Y9.042 E.01923
M73 P1 R586
G1 X145.949 Y170.958 E8.1259
G1 X145.565 Y170.958 E.01923
G1 X145.565 Y9.042 E8.1259
G1 X145.182 Y9.042 E.01923
G1 X145.182 Y170.958 E8.1259
G1 X144.799 Y170.958 E.01923
G1 X144.799 Y9.042 E8.1259
G1 X144.416 Y9.042 E.01923
G1 X144.416 Y170.958 E8.1259
G1 X144.033 Y170.958 E.01923
G1 X144.033 Y9.042 E8.1259
G1 X143.649 Y9.042 E.01923
G1 X143.649 Y170.958 E8.1259
G1 X143.266 Y170.958 E.01923
G1 X143.266 Y9.042 E8.1259
G1 X142.883 Y9.042 E.01923
G1 X142.883 Y170.958 E8.1259
G1 X142.5 Y170.958 E.01923
G1 X142.5 Y9.042 E8.1259
G1 X142.117 Y9.042 E.01923
G1 X142.117 Y170.958 E8.1259
G1 X141.733 Y170.958 E.01923
M73 P1 R585
G1 X141.733 Y9.042 E8.1259
G1 X141.35 Y9.042 E.01923
G1 X141.35 Y170.958 E8.1259
G1 X140.967 Y170.958 E.01923
G1 X140.967 Y9.042 E8.1259
G1 X140.584 Y9.042 E.01923
G1 X140.584 Y170.958 E8.1259
G1 X140.201 Y170.958 E.01923
G1 X140.201 Y9.042 E8.1259
G1 X139.817 Y9.042 E.01923
G1 X139.817 Y170.958 E8.1259
G1 X139.434 Y170.958 E.01923
G1 X139.434 Y9.042 E8.1259
G1 X139.051 Y9.042 E.01923
G1 X139.051 Y170.958 E8.1259
G1 X138.668 Y170.958 E.01923
G1 X138.668 Y9.042 E8.1259
G1 X138.284 Y9.042 E.01923
G1 X138.284 Y170.958 E8.1259
G1 X137.901 Y170.958 E.01923
G1 X137.901 Y9.042 E8.1259
G1 X137.518 Y9.042 E.01923
M73 P1 R584
G1 X137.518 Y170.958 E8.1259
G1 X137.135 Y170.958 E.01923
G1 X137.135 Y9.042 E8.1259
G1 X136.752 Y9.042 E.01923
G1 X136.752 Y170.958 E8.1259
G1 X136.368 Y170.958 E.01923
G1 X136.368 Y9.042 E8.1259
G1 X135.985 Y9.042 E.01923
G1 X135.985 Y170.958 E8.1259
G1 X135.602 Y170.958 E.01923
G1 X135.602 Y9.042 E8.1259
G1 X135.219 Y9.042 E.01923
G1 X135.219 Y170.958 E8.1259
G1 X134.836 Y170.958 E.01923
G1 X134.836 Y9.042 E8.1259
G1 X134.452 Y9.042 E.01923
G1 X134.452 Y170.958 E8.1259
G1 X134.069 Y170.958 E.01923
G1 X134.069 Y9.042 E8.1259
G1 X133.686 Y9.042 E.01923
G1 X133.686 Y170.958 E8.1259
G1 X133.303 Y170.958 E.01923
M73 P1 R583
G1 X133.303 Y9.042 E8.1259
G1 X132.92 Y9.042 E.01923
G1 X132.92 Y170.958 E8.1259
G1 X132.536 Y170.958 E.01923
G1 X132.536 Y9.042 E8.1259
G1 X132.153 Y9.042 E.01923
G1 X132.153 Y170.958 E8.1259
G1 X131.77 Y170.958 E.01923
G1 X131.77 Y9.042 E8.1259
G1 X131.387 Y9.042 E.01923
M73 P2 R583
G1 X131.387 Y170.958 E8.1259
G1 X131.003 Y170.958 E.01923
G1 X131.003 Y9.042 E8.1259
G1 X130.62 Y9.042 E.01923
G1 X130.62 Y170.958 E8.1259
G1 X130.237 Y170.958 E.01923
G1 X130.237 Y9.042 E8.1259
G1 X129.854 Y9.042 E.01923
G1 X129.854 Y170.958 E8.1259
G1 X129.471 Y170.958 E.01923
G1 X129.471 Y9.042 E8.1259
G1 X129.087 Y9.042 E.01923
M73 P2 R582
G1 X129.087 Y170.958 E8.1259
G1 X128.704 Y170.958 E.01923
G1 X128.704 Y9.042 E8.1259
G1 X128.321 Y9.042 E.01923
G1 X128.321 Y170.958 E8.1259
G1 X127.938 Y170.958 E.01923
G1 X127.938 Y9.042 E8.1259
G1 X127.555 Y9.042 E.01923
G1 X127.555 Y170.958 E8.1259
G1 X127.171 Y170.958 E.01923
G1 X127.171 Y9.042 E8.1259
G1 X126.788 Y9.042 E.01923
G1 X126.788 Y170.958 E8.1259
G1 X126.405 Y170.958 E.01923
G1 X126.405 Y9.042 E8.1259
G1 X126.022 Y9.042 E.01923
G1 X126.022 Y170.958 E8.1259
G1 X125.639 Y170.958 E.01923
G1 X125.639 Y9.042 E8.1259
G1 X125.255 Y9.042 E.01923
G1 X125.255 Y170.958 E8.1259
G1 X124.872 Y170.958 E.01923
M73 P2 R581
G1 X124.872 Y9.042 E8.1259
G1 X124.489 Y9.042 E.01923
G1 X124.489 Y170.958 E8.1259
G1 X124.106 Y170.958 E.01923
G1 X124.106 Y9.042 E8.1259
G1 X123.722 Y9.042 E.01923
G1 X123.722 Y170.958 E8.1259
G1 X123.339 Y170.958 E.01923
G1 X123.339 Y9.042 E8.1259
G1 X122.956 Y9.042 E.01923
G1 X122.956 Y170.958 E8.1259
G1 X122.573 Y170.958 E.01923
G1 X122.573 Y9.042 E8.1259
G1 X122.19 Y9.042 E.01923
G1 X122.19 Y170.958 E8.1259
G1 X121.806 Y170.958 E.01923
G1 X121.806 Y9.042 E8.1259
G1 X121.423 Y9.042 E.01923
G1 X121.423 Y170.958 E8.1259
G1 X121.04 Y170.958 E.01923
G1 X121.04 Y9.042 E8.1259
G1 X120.657 Y9.042 E.01923
M73 P2 R580
G1 X120.657 Y170.958 E8.1259
G1 X120.274 Y170.958 E.01923
G1 X120.274 Y9.042 E8.1259
G1 X119.89 Y9.042 E.01923
