; generated by PrusaSlicer 2.5.0+win64 on 2022-12-07 at 00:27:35 UTC

; 

; external perimeters extrusion width = 1.00mm
; perimeters extrusion width = 1.00mm
; infill extrusion width = 1.00mm
; solid infill extrusion width = 1.00mm
; top infill extrusion width = 1.00mm
; support material extrusion width = 1.00mm
; first layer extrusion width = 0.42mm

M73 P0 R518
M107
;TYPE:Custom
G90 ; use absolute coordinates
M83 ; extruder relative mode
M140 S60 ; set final bed temp
M104 S150 ; set temporary nozzle temp to prevent oozing during homing and auto bed leveling
G4 S10 ; allow partial nozzle warmup
G28 ; home all axisG1 Z50 F240
G1 X7.6 Y10 F3000
M104 S210 ; set final nozzle temp
M190 S60 ; wait for bed temp to stabilize
M109 S210 ; wait for nozzle temp to stabilize
G1 Z0.28 F240
G92 E0
G1 Y140 E10 F1500 ; prime the nozzle
G1 X4 F5000
G92 E0
G1 Y10 E10 F1200 ; prime the nozzle
G92 E0
G21 ; set units to millimeters
G90 ; use absolute coordinates
M83 ; use relative distances for extrusion
; Filament gcode
M107
;LAYER_CHANGE
;Z:0.35
;HEIGHT:0.35
;BEFORE_LAYER_CHANGE
G92 E0
;0.35


G1 E-1 F3600
G1 Z.35 F7800
;AFTER_LAYER_CHANGE
;0.35
G1 X59.291 Y38.953
G1 E1 F2400
;TYPE:Support material
;WIDTH:0.42
G1 F1800
G1 X55.898 Y38.953 E.17027
G1 X55.898 Y66.095 E1.36213
G1 X52.505 Y66.095 E.17027
G1 X52.505 Y86.451 E1.02159
G1 X45.72 Y86.451 E.34053
G1 X45.72 Y90.156 E.18597
G1 X52.505 Y90.156 E.34053
G1 X52.505 Y103.414 E.66536
G1 X49.113 Y103.414 E.17027
G1 X49.113 Y106.807 E.17027
G1 X45.72 Y106.807 E.17027
G1 X45.72 Y110.513 E.18597
G1 X49.113 Y110.513 E.17027
G1 X49.113 Y127.163 E.83563
G1 X45.72 Y127.163 E.17027
G1 X45.72 Y147.519 E1.02159
G1 X38.935 Y147.519 E.34053
G1 X38.935 Y151.225 E.18597
G1 X42.327 Y151.225 E.17027
G1 X42.327 Y161.09 E.49509
G1 X38.935 Y161.09 E.17027
G1 X38.935 Y164.483 E.17027
G1 X35.542 Y164.483 E.17027
G1 X35.542 Y167.875 E.17027
G1 X15.499 Y167.875 E1.00589
G1 X15.499 Y8.732 E7.98679
G1 X59.291 Y8.732 E2.19775
G1 X59.291 Y38.901 E1.51409
G1 X58.942 Y38.798 F7800
G1 F1800
G1 X58.942 Y9.042 E1.49332
G1 X58.558 Y9.042 E.01923
G1 X58.558 Y38.643 E1.48553
G1 X58.175 Y38.643 E.01923
G1 X58.175 Y9.042 E1.48553
G1 X57.792 Y9.042 E.01923
G1 X57.792 Y38.643 E1.48553
G1 X57.409 Y38.643 E.01923
G1 X57.409 Y9.042 E1.48553
G1 X57.026 Y9.042 E.01923
G1 X57.026 Y38.643 E1.48553
G1 X56.642 Y38.643 E.01923
G1 X56.642 Y9.042 E1.48553
G1 X56.259 Y9.042 E.01923
G1 X56.259 Y38.643 E1.48553
G1 X55.876 Y38.643 E.01923
G1 X55.876 Y9.042 E1.48553
G1 X55.493 Y9.042 E.01923
G1 X55.493 Y65.784 E2.84766
G1 X55.109 Y65.784 E.01923
G1 X55.109 Y9.042 E2.84766
G1 X54.726 Y9.042 E.01923
M73 P0 R517
G1 X54.726 Y65.784 E2.84766
G1 X54.343 Y65.784 E.01923
G1 X54.343 Y9.042 E2.84766
G1 X53.96 Y9.042 E.01923
G1 X53.96 Y65.784 E2.84766
G1 X53.577 Y65.784 E.01923
G1 X53.577 Y9.042 E2.84766
G1 X53.193 Y9.042 E.01923
G1 X53.193 Y65.784 E2.84766
G1 X52.81 Y65.784 E.01923
G1 X52.81 Y9.042 E2.84766
G1 X52.427 Y9.042 E.01923
G1 X52.427 Y65.784 E2.84766
G1 X52.195 Y65.784 E.01164
G1 X52.195 Y86.14 E1.02159
G1 X52.044 Y86.14 E.00759
G1 X52.044 Y9.042 E3.86925
G1 X51.661 Y9.042 E.01923
G1 X51.661 Y86.14 E3.86925
G1 X51.277 Y86.14 E.01923
G1 X51.277 Y9.042 E3.86925
G1 X50.894 Y9.042 E.01923
G1 X50.894 Y86.14 E3.86925
G1 X50.511 Y86.14 E.01923
G1 X50.511 Y9.042 E3.86925
G1 X50.128 Y9.042 E.01923
G1 X50.128 Y86.14 E3.86925
G1 X49.745 Y86.14 E.01923
G1 X49.745 Y9.042 E3.86925
G1 X49.361 Y9.042 E.01923
G1 X49.361 Y86.14 E3.86925
G1 X48.978 Y86.14 E.01923
G1 X48.978 Y9.042 E3.86925
G1 X48.595 Y9.042 E.01923
G1 X48.595 Y86.14 E3.86925
G1 X48.212 Y86.14 E.01923
G1 X48.212 Y9.042 E3.86925
G1 X47.828 Y9.042 E.01923
G1 X47.828 Y86.14 E3.86925
G1 X47.445 Y86.14 E.01923
G1 X47.445 Y9.042 E3.86925
G1 X47.062 Y9.042 E.01923
G1 X47.062 Y86.14 E3.86925
G1 X46.679 Y86.14 E.01923
G1 X46.679 Y9.042 E3.86925
G1 X46.296 Y9.042 E.01923
G1 X46.296 Y86.14 E3.86925
G1 X45.912 Y86.14 E.01923
G1 X45.912 Y9.042 E3.86925
G1 X45.529 Y9.042 E.01923
G1 X45.529 Y126.853 E5.91244
G1 X45.912 Y126.853 E.01923
M73 P0 R516
G1 X45.912 Y110.823 E.80447
G1 X46.296 Y110.823 E.01923
G1 X46.296 Y126.853 E.80447
G1 X46.679 Y126.853 E.01923
G1 X46.679 Y110.823 E.80447
G1 X47.062 Y110.823 E.01923
G1 X47.062 Y126.853 E.80447
G1 X47.445 Y126.853 E.01923
G1 X47.445 Y110.823 E.80447
G1 X47.828 Y110.823 E.01923
G1 X47.828 Y126.853 E.80447
G1 X48.212 Y126.853 E.01923
G1 X48.212 Y110.823 E.80447
G1 X48.595 Y110.823 E.01923
G1 X48.595 Y127.008 E.81226
G1 E-.7 F3600
;WIPE_START
G1 F6240
G1 X48.595 Y126.488 E-.285
;WIPE_END
G1 E-.015 F3600
G1 X52.044 Y103.259 F7800
G1 E1 F2400
G1 F1800
G1 X52.044 Y90.467 E.64199
G1 X51.661 Y90.467 E.01923
G1 X51.661 Y103.104 E.6342
G1 X51.277 Y103.104 E.01923
G1 X51.277 Y90.467 E.6342
G1 X50.894 Y90.467 E.01923
G1 X50.894 Y103.104 E.6342
G1 X50.511 Y103.104 E.01923
G1 X50.511 Y90.467 E.6342
G1 X50.128 Y90.467 E.01923
G1 X50.128 Y103.104 E.6342
G1 X49.745 Y103.104 E.01923
G1 X49.745 Y90.467 E.6342
G1 X49.361 Y90.467 E.01923
G1 X49.361 Y103.104 E.6342
G1 X48.978 Y103.104 E.01923
G1 X48.978 Y90.467 E.6342
G1 X48.595 Y90.467 E.01923
G1 X48.595 Y106.497 E.80447
G1 X48.212 Y106.497 E.01923
G1 X48.212 Y90.467 E.80447
G1 X47.828 Y90.467 E.01923
G1 X47.828 Y106.497 E.80447
G1 X47.445 Y106.497 E.01923
G1 X47.445 Y90.467 E.80447
G1 X47.062 Y90.467 E.01923
G1 X47.062 Y106.497 E.80447
G1 X46.679 Y106.497 E.01923
G1 X46.679 Y90.467 E.80447
G1 X46.296 Y90.467 E.01923
G1 X46.296 Y106.497 E.80447
G1 X45.912 Y106.497 E.01923
G1 X45.912 Y90.312 E.81226
G1 X45.146 Y147.364 F7800
G1 F1800
G1 X45.146 Y9.042 E6.94182
G1 X44.763 Y9.042 E.01923
G1 X44.763 Y147.209 E6.93404
G1 X44.38 Y147.209 E.01923
G1 X44.38 Y9.042 E6.93404
G1 X43.996 Y9.042 E.01923
G1 X43.996 Y147.209 E6.93404
G1 X43.613 Y147.209 E.01923
G1 X43.613 Y9.042 E6.93404
G1 X43.23 Y9.042 E.01923
G1 X43.23 Y147.209 E6.93404
G1 X42.847 Y147.209 E.01923
G1 X42.847 Y9.042 E6.93404
G1 X42.464 Y9.042 E.01923
G1 X42.464 Y147.209 E6.93404
G1 X42.08 Y147.209 E.01923
G1 X42.08 Y9.042 E6.93404
G1 X41.697 Y9.042 E.01923
M73 P0 R515
G1 X41.697 Y147.209 E6.93404
G1 X41.314 Y147.209 E.01923
G1 X41.314 Y9.042 E6.93404
G1 X40.931 Y9.042 E.01923
G1 X40.931 Y147.209 E6.93404
G1 X40.547 Y147.209 E.01923
G1 X40.547 Y9.042 E6.93404
G1 X40.164 Y9.042 E.01923
G1 X40.164 Y147.209 E6.93404
G1 X39.781 Y147.209 E.01923
G1 X39.781 Y9.042 E6.93404
G1 X39.398 Y9.042 E.01923
G1 X39.398 Y147.209 E6.93404
G1 X39.015 Y147.209 E.01923
G1 X39.015 Y9.042 E6.93404
G1 X38.631 Y9.042 E.01923
G1 X38.631 Y160.78 E7.6151
G1 X39.015 Y160.78 E.01923
G1 X39.015 Y151.535 E.46394
G1 X39.398 Y151.535 E.01923
G1 X39.398 Y160.78 E.46394
G1 X39.781 Y160.78 E.01923
G1 X39.781 Y151.535 E.46394
G1 X40.164 Y151.535 E.01923
G1 X40.164 Y160.78 E.46394
G1 X40.547 Y160.78 E.01923
G1 X40.547 Y151.535 E.46394
G1 X40.931 Y151.535 E.01923
G1 X40.931 Y160.78 E.46394
G1 X41.314 Y160.78 E.01923
G1 X41.314 Y151.535 E.46394
G1 X41.697 Y151.535 E.01923
G1 X41.697 Y160.935 E.47173
G1 E-.7 F3600
;WIPE_START
G1 F6240
G1 X41.697 Y160.415 E-.285
;WIPE_END
G1 E-.015 F3600
G1 X38.248 Y164.328 F7800
G1 E1 F2400
G1 F1800
G1 X38.248 Y9.042 E7.79315
G1 X37.865 Y9.042 E.01923
G1 X37.865 Y164.172 E7.78536
G1 X37.482 Y164.172 E.01923
G1 X37.482 Y9.042 E7.78536
G1 X37.099 Y9.042 E.01923
M73 P0 R514
G1 X37.099 Y164.172 E7.78536
G1 X36.715 Y164.172 E.01923
G1 X36.715 Y9.042 E7.78536
G1 X36.332 Y9.042 E.01923
G1 X36.332 Y164.172 E7.78536
G1 X35.949 Y164.172 E.01923
G1 X35.949 Y9.042 E7.78536
G1 X35.566 Y9.042 E.01923
G1 X35.566 Y164.172 E7.78536
G1 X35.232 Y164.172 E.01677
G1 X35.232 Y167.565 E.17027
G1 X35.183 Y167.565 E.00246
G1 X35.183 Y9.042 E7.95563
G1 X34.799 Y9.042 E.01923
G1 X34.799 Y167.565 E7.95563
G1 X34.416 Y167.565 E.01923
G1 X34.416 Y9.042 E7.95563
G1 X34.033 Y9.042 E.01923
G1 X34.033 Y167.565 E7.95563
G1 X33.65 Y167.565 E.01923
G1 X33.65 Y9.042 E7.95563
G1 X33.267 Y9.042 E.01923
G1 X33.266 Y167.565 E7.95563
G1 X32.883 Y167.565 E.01923
M73 P0 R513
G1 X32.883 Y9.042 E7.95563
G1 X32.5 Y9.042 E.01923
G1 X32.5 Y167.565 E7.95563
G1 X32.117 Y167.565 E.01923
G1 X32.117 Y9.042 E7.95563
G1 X31.734 Y9.042 E.01923
G1 X31.734 Y167.565 E7.95563
G1 X31.35 Y167.565 E.01923
G1 X31.35 Y9.042 E7.95563
G1 X30.967 Y9.042 E.01923
G1 X30.967 Y167.565 E7.95563
G1 X30.584 Y167.565 E.01923
M73 P1 R513
G1 X30.584 Y9.042 E7.95563
G1 X30.201 Y9.042 E.01923
G1 X30.201 Y167.565 E7.95563
G1 X29.818 Y167.565 E.01923
G1 X29.818 Y9.042 E7.95563
G1 X29.434 Y9.042 E.01923
G1 X29.434 Y167.565 E7.95563
G1 X29.051 Y167.565 E.01923
G1 X29.051 Y9.042 E7.95563
G1 X28.668 Y9.042 E.01923
G1 X28.668 Y167.565 E7.95563
G1 X28.285 Y167.565 E.01923
M73 P1 R512
G1 X28.285 Y9.042 E7.95563
G1 X27.902 Y9.042 E.01923
G1 X27.902 Y167.565 E7.95563
G1 X27.518 Y167.565 E.01923
G1 X27.518 Y9.042 E7.95563
G1 X27.135 Y9.042 E.01923
G1 X27.135 Y167.565 E7.95563
G1 X26.752 Y167.565 E.01923
G1 X26.752 Y9.042 E7.95563
G1 X26.369 Y9.042 E.01923
G1 X26.369 Y167.565 E7.95563
G1 X25.985 Y167.565 E.01923
G1 X25.986 Y9.042 E7.95563
G1 X25.602 Y9.042 E.01923
G1 X25.602 Y167.565 E7.95563
G1 X25.219 Y167.565 E.01923
G1 X25.219 Y9.042 E7.95563
G1 X24.836 Y9.042 E.01923
G1 X24.836 Y167.565 E7.95563
G1 X24.453 Y167.565 E.01923
G1 X24.453 Y9.042 E7.95563
G1 X24.069 Y9.042 E.01923
M73 P1 R511
G1 X24.069 Y167.565 E7.95563
G1 X23.686 Y167.565 E.01923
G1 X23.686 Y9.042 E7.95563
G1 X23.303 Y9.042 E.01923
G1 X23.303 Y167.565 E7.95563
G1 X22.92 Y167.565 E.01923
G1 X22.92 Y9.042 E7.95563
G1 X22.537 Y9.042 E.01923
G1 X22.537 Y167.565 E7.95563
G1 X22.153 Y167.565 E.01923
G1 X22.153 Y9.042 E7.95563
G1 X21.77 Y9.042 E.01923
G1 X21.77 Y167.565 E7.95563
G1 X21.387 Y167.565 E.01923
G1 X21.387 Y9.042 E7.95563
G1 X21.004 Y9.042 E.01923
G1 X21.004 Y167.565 E7.95563
G1 X20.621 Y167.565 E.01923
G1 X20.621 Y9.042 E7.95563
G1 X20.237 Y9.042 E.01923
G1 X20.237 Y167.565 E7.95563
G1 X19.854 Y167.565 E.01923
M73 P1 R510
G1 X19.854 Y9.042 E7.95563
G1 X19.471 Y9.042 E.01923
G1 X19.471 Y167.565 E7.95563
G1 X19.088 Y167.565 E.01923
G1 X19.088 Y9.042 E7.95563
G1 X18.705 Y9.042 E.01923
G1 X18.705 Y167.565 E7.95563
G1 X18.321 Y167.565 E.01923
G1 X18.321 Y9.042 E7.95563
G1 X17.938 Y9.042 E.01923
G1 X17.938 Y167.565 E7.95563
G1 X17.555 Y167.565 E.01923
G1 X17.555 Y9.042 E7.95563
G1 X17.172 Y9.042 E.01923
G1 X17.172 Y167.565 E7.95563
G1 X16.788 Y167.565 E.01923
G1 X16.788 Y9.042 E7.95563
G1 X16.405 Y9.042 E.01923
G1 X16.405 Y167.565 E7.95563
G1 X16.022 Y167.565 E.01923
G1 X16.022 Y8.887 E7.96342
G1 E-.7 F3600
;WIPE_START
M73 P1 R509
G1 F6240
G1 X16.022 Y9.407 E-.285
;WIPE_END
G1 E-.015 F3600
G1 X158.962 Y15.649 F7800
G1 E1 F2400
;TYPE:Perimeter
;WIDTH:0.42
G1 F1800
G1 X156.938 Y82.96 E3.3796
G1 X156.243 Y98.364 E.77386
G1 X156.1 Y106.782 E.4225
G1 X145.585 Y161.369 E2.78985
G1 X131.438 Y161.373 E.71001
G1 X141.881 Y107.121 E2.77266
G1 X142.166 Y105.384 E.08834
G1 X142.321 Y97.031 E.41927
G1 X142.857 Y78.367 E.93704
G1 X143.22 Y70.891 E.37567
G1 X143.956 Y45.942 E1.25262
G1 X144.033 Y45.879 E.00497
G1 X144.04 Y45.804 E.00377
G1 X144.185 Y40.947 E.24388
G1 X144.35 Y37.709 E.16273
G1 X145.01 Y15.649 E1.1076
G1 X158.812 Y15.649 E.69268
G1 X159.317 Y15.304 F7800
;TYPE:External perimeter
G1 F1800
G1 X157.283 Y82.973 E3.39756
G1 X156.587 Y98.37 E.77352
G1 X156.444 Y106.817 E.42399
G1 X145.87 Y161.713 E2.80565
G1 X131.02 Y161.718 E.74527
G1 X141.542 Y107.056 E2.79362
G1 X141.825 Y105.328 E.08787
G1 X141.976 Y97.023 E.41687
G1 X142.512 Y78.354 E.93731
G1 X142.875 Y70.883 E.37537
G1 X143.613 Y45.885 E1.25513
G1 X143.696 Y45.794 E.00617
G1 X143.841 Y40.933 E.24406
G1 X144.006 Y37.698 E.16255
G1 X144.675 Y15.304 E1.1244
G1 X159.167 Y15.304 E.72732
G1 X159.099 Y16.28 F7800
G1 X158.835 Y16.429
;TYPE:Solid infill
;WIDTH:0.42044
G1 F1800
G1 X158.313 Y15.907 E.0371
G1 X157.825 Y15.907 E.02454
G1 X158.67 Y16.753 E.06008
G1 X158.656 Y17.227 E.02383
G1 X157.336 Y15.907 E.09377
G1 X156.848 Y15.907 E.02454
G1 X158.641 Y17.701 E.12746
G1 X158.627 Y18.175 E.02383
G1 X156.359 Y15.907 E.16116
G1 X155.871 Y15.907 E.02454
G1 X158.613 Y18.649 E.19485
G1 X158.599 Y19.123 E.02383
G1 X155.383 Y15.907 E.22854
G1 X154.894 Y15.907 E.02454
G1 X158.584 Y19.597 E.26223
G1 X158.57 Y20.072 E.02383
G1 X154.406 Y15.907 E.29593
G1 X153.918 Y15.907 E.02454
G1 X158.556 Y20.546 E.32962
G1 X158.542 Y21.02 E.02383
G1 X153.429 Y15.907 E.36331
G1 X152.941 Y15.907 E.02454
G1 X158.527 Y21.494 E.397
G1 X158.513 Y21.968 E.02383
G1 X152.452 Y15.907 E.4307
G1 X151.964 Y15.907 E.02454
G1 X158.499 Y22.442 E.46439
G1 X158.485 Y22.916 E.02383
G1 X151.476 Y15.907 E.49808
G1 X150.987 Y15.907 E.02454
G1 X158.47 Y23.39 E.53177
G1 X158.456 Y23.864 E.02383
G1 X150.499 Y15.907 E.56546
G1 X150.011 Y15.907 E.02454
G1 X158.442 Y24.339 E.59916
G1 X158.428 Y24.813 E.02383
G1 X149.522 Y15.907 E.63285
G1 X149.034 Y15.907 E.02454
G1 X158.413 Y25.287 E.66654
G1 X158.399 Y25.761 E.02383
G1 X148.546 Y15.907 E.70023
G1 X148.057 Y15.907 E.02454
G1 X158.385 Y26.235 E.73393
G1 X158.371 Y26.709 E.02383
G1 X147.569 Y15.907 E.76762
G1 X147.08 Y15.907 E.02454
G1 X158.356 Y27.183 E.80131
G1 X158.342 Y27.657 E.02383
G1 X146.592 Y15.907 E.835
G1 X146.104 Y15.907 E.02454
G1 X158.328 Y28.131 E.8687
G1 X158.314 Y28.606 E.02383
G1 X145.615 Y15.907 E.90239
G1 X145.261 Y15.907 E.01782
G1 X145.257 Y16.037 E.00653
G1 X158.299 Y29.08 E.92686
G1 X158.285 Y29.554 E.02383
G1 X145.243 Y16.511 E.92685
G1 X145.228 Y16.986 E.02384
G1 X158.271 Y30.028 E.92684
G1 X158.257 Y30.502 E.02383
G1 X145.214 Y17.46 E.92684
G1 X145.2 Y17.934 E.02384
G1 X158.242 Y30.976 E.92683
G1 X158.228 Y31.45 E.02383
G1 X145.186 Y18.408 E.92683
G1 X145.172 Y18.882 E.02384
G1 X158.214 Y31.924 E.92682
G1 X158.199 Y32.398 E.02383
G1 X145.158 Y19.357 E.92681
G1 X145.143 Y19.831 E.02384
G1 X158.185 Y32.873 E.92681
G1 X158.171 Y33.347 E.02383
G1 X145.129 Y20.305 E.9268
G1 X145.115 Y20.779 E.02384
G1 X158.157 Y33.821 E.92679
G1 X158.142 Y34.295 E.02383
G1 X145.101 Y21.253 E.92679
G1 X145.087 Y21.728 E.02384
G1 X158.128 Y34.769 E.92678
G1 X158.114 Y35.243 E.02383
G1 X145.073 Y22.202 E.92677
G1 X145.058 Y22.676 E.02384
G1 X158.1 Y35.717 E.92677
G1 X158.085 Y36.191 E.02383
G1 X145.044 Y23.15 E.92676
G1 X145.03 Y23.624 E.02384
G1 X158.071 Y36.665 E.92676
G1 X158.057 Y37.14 E.02383
G1 X145.016 Y24.099 E.92675
G1 X145.002 Y24.573 E.02384
G1 X158.043 Y37.614 E.92674
G1 X158.028 Y38.088 E.02383
G1 X144.988 Y25.047 E.92674
G1 X144.973 Y25.521 E.02384
G1 X158.014 Y38.562 E.92673
G1 X158 Y39.036 E.02383
G1 X144.959 Y25.995 E.92672
G1 X144.945 Y26.47 E.02384
G1 X157.986 Y39.51 E.92672
G1 X157.971 Y39.984 E.02383
G1 X144.931 Y26.944 E.92671
G1 X144.917 Y27.418 E.02384
G1 X157.957 Y40.458 E.9267
G1 X157.943 Y40.933 E.02383
G1 X144.903 Y27.892 E.9267
G1 X144.888 Y28.366 E.02384
G1 X157.929 Y41.407 E.92669
G1 X157.914 Y41.881 E.02383
G1 X144.874 Y28.841 E.92669
G1 X144.86 Y29.315 E.02384
G1 X157.9 Y42.355 E.92668
G1 X157.886 Y42.829 E.02383
G1 X144.846 Y29.789 E.92667
G1 X144.832 Y30.263 E.02384
G1 X157.872 Y43.303 E.92667
G1 X157.857 Y43.777 E.02383
G1 X144.818 Y30.737 E.92666
G1 X144.803 Y31.212 E.02384
G1 X157.843 Y44.251 E.92665
G1 X157.829 Y44.725 E.02383
G1 X144.789 Y31.686 E.92665
G1 X144.775 Y32.16 E.02384
G1 X157.815 Y45.2 E.92664
G1 X157.8 Y45.674 E.02383
G1 X144.761 Y32.634 E.92664
G1 X144.747 Y33.108 E.02384
G1 X157.786 Y46.148 E.92663
G1 X157.772 Y46.622 E.02383
G1 X144.733 Y33.583 E.92662
G1 X144.718 Y34.057 E.02384
M73 P1 R508
G1 X157.758 Y47.096 E.92662
G1 X157.743 Y47.57 E.02383
G1 X144.704 Y34.531 E.92661
G1 X144.69 Y35.005 E.02384
G1 X157.729 Y48.044 E.9266
G1 X157.715 Y48.518 E.02383
G1 X144.676 Y35.479 E.9266
G1 X144.662 Y35.954 E.02384
G1 X157.701 Y48.992 E.92659
G1 X157.686 Y49.467 E.02383
G1 X144.648 Y36.428 E.92658
G1 X144.633 Y36.902 E.02384
G1 X157.672 Y49.941 E.92658
G1 X157.658 Y50.415 E.02383
G1 X144.619 Y37.376 E.92657
G1 X144.602 Y37.848 E.02371
G1 X157.643 Y50.889 E.92676
G1 X157.629 Y51.363 E.02383
G1 X144.579 Y38.312 E.92743
G1 X144.555 Y38.777 E.02338
G1 X157.615 Y51.837 E.9281
G1 X157.601 Y52.311 E.02383
G1 X144.531 Y39.242 E.92877
G1 X144.508 Y39.706 E.02338
G1 X157.586 Y52.785 E.92944
