; generated by PrusaSlicer 2.5.0+win64 on 2022-12-07 at 00:27:21 UTC

; 

; external perimeters extrusion width = 1.00mm
; perimeters extrusion width = 1.00mm
; infill extrusion width = 1.00mm
; solid infill extrusion width = 1.00mm
; top infill extrusion width = 1.00mm
; support material extrusion width = 1.00mm
; first layer extrusion width = 0.42mm

M73 P0 R842
M107
;TYPE:Custom
G90 ; use absolute coordinates
M83 ; extruder relative mode
M140 S60 ; set final bed temp
M104 S150 ; set temporary nozzle temp to prevent oozing during homing and auto bed leveling
G4 S10 ; allow partial nozzle warmup
G28 ; home all axisG1 Z50 F240
G1 X7.6 Y10 F3000
M104 S210 ; set final nozzle temp
M190 S60 ; wait for bed temp to stabilize
M109 S210 ; wait for nozzle temp to stabilize
G1 Z0.28 F240
G92 E0
G1 Y140 E10 F1500 ; prime the nozzle
G1 X4 F5000
G92 E0
G1 Y10 E10 F1200 ; prime the nozzle
G92 E0
G21 ; set units to millimeters
G90 ; use absolute coordinates
M83 ; use relative distances for extrusion
; Filament gcode
M107
;LAYER_CHANGE
;Z:0.35
;HEIGHT:0.35
;BEFORE_LAYER_CHANGE
G92 E0
;0.35


G1 E-1 F3600
G1 Z.35 F7800
;AFTER_LAYER_CHANGE
;0.35
G1 X86.451 Y12.124
G1 E1 F2400
;TYPE:Support material
;WIDTH:0.42
G1 F1800
G1 X89.843 Y12.124 E.17027
G1 X89.843 Y49.444 E1.87292
G1 X93.236 Y49.444 E.17027
G1 X93.236 Y66.095 E.83563
G1 X86.451 Y66.095 E.34053
G1 X86.451 Y76.586 E.5265
G1 X89.843 Y76.586 E.17027
G1 X89.843 Y113.592 E1.85722
G1 X86.451 Y113.592 E.17027
G1 X86.451 Y120.378 E.34053
G1 X83.058 Y120.378 E.17027
G1 X83.058 Y130.556 E.5108
G1 X79.665 Y130.556 E.17027
G1 X79.665 Y137.018 E.32431
G1 X78.084 Y137.341 E.08101
G1 X76.273 Y137.341 E.0909
G1 X76.273 Y137.712 E.01858
G1 X64.639 Y140.09 E.59591
G1 X16.766 Y132.745 E2.43067
G1 X16.271 Y133.17 E.03275
G1 X16.271 Y165.221 E1.60851
G1 X16.687 Y165.637 E.02952
G1 X66.095 Y165.637 E2.47958
G1 X66.095 Y171.268 E.28262
G1 X12.124 Y171.268 E2.70855
G1 X12.124 Y8.732 E8.15705
M73 P0 R841
G1 X86.451 Y8.732 E3.73014
G1 X86.451 Y12.073 E.16767
G1 E-.7 F3600
;WIPE_START
G1 F6240
G1 X86.451 Y11.553 E-.285
;WIPE_END
G1 E-.015 F3600
G1 X25.382 Y106.807 F7800
G1 E1 F2400
G1 F1800
G1 X25.382 Y110.513 E.18597
G1 X29.088 Y110.513 E.18597
G1 X29.088 Y106.807 E.18597
G1 X25.434 Y106.807 E.18337
G1 X32.168 Y86.451 F7800
G1 F1800
G1 X32.168 Y93.549 E.35623
G1 X35.56 Y93.549 E.17027
G1 X35.56 Y96.942 E.17027
G1 X39.266 Y96.942 E.18597
G1 X39.266 Y86.451 E.5265
G1 X32.219 Y86.451 E.35364
G1 E-.7 F3600
;WIPE_START
G1 F6240
G1 X32.739 Y86.451 E-.285
;WIPE_END
G1 E-.015 F3600
G1 X92.682 Y65.939 F7800
G1 E1 F2400
G1 F1800
G1 X92.682 Y49.754 E.81226
G1 X92.299 Y49.754 E.01923
G1 X92.299 Y65.784 E.80447
G1 X91.916 Y65.784 E.01923
G1 X91.916 Y49.754 E.80447
G1 X91.533 Y49.754 E.01923
G1 X91.533 Y65.784 E.80447
G1 X91.15 Y65.784 E.01923
G1 X91.15 Y49.754 E.80447
G1 X90.766 Y49.754 E.01923
G1 X90.766 Y65.784 E.80447
G1 X90.383 Y65.784 E.01923
G1 X90.383 Y49.754 E.80447
G1 X90 Y49.754 E.01923
G1 X90 Y65.784 E.80447
G1 X89.617 Y65.784 E.01923
G1 X89.617 Y49.754 E.80447
G1 X89.533 Y49.754 E.0042
G1 X89.533 Y12.435 E1.87292
G1 X89.234 Y12.435 E.01503
G1 X89.234 Y65.784 E2.67739
G1 X88.85 Y65.784 E.01923
G1 X88.85 Y12.435 E2.67739
G1 X88.467 Y12.435 E.01923
G1 X88.467 Y65.784 E2.67739
G1 X88.084 Y65.784 E.01923
G1 X88.084 Y12.435 E2.67739
G1 X87.701 Y12.435 E.01923
G1 X87.701 Y65.784 E2.67739
G1 X87.317 Y65.784 E.01923
G1 X87.317 Y12.435 E2.67739
G1 X86.934 Y12.435 E.01923
G1 X86.934 Y65.784 E2.67739
G1 X86.551 Y65.784 E.01923
G1 X86.551 Y12.435 E2.67739
G1 X86.168 Y12.435 E.01923
G1 X86.168 Y113.282 E5.06111
G1 X86.551 Y113.282 E.01923
G1 X86.551 Y76.896 E1.82607
G1 X86.934 Y76.896 E.01923
G1 X86.934 Y113.282 E1.82607
G1 X87.317 Y113.282 E.01923
G1 X87.317 Y76.896 E1.82607
G1 X87.701 Y76.896 E.01923
G1 X87.701 Y113.282 E1.82607
G1 X88.084 Y113.282 E.01923
G1 X88.084 Y76.896 E1.82607
G1 X88.467 Y76.896 E.01923
G1 X88.467 Y113.282 E1.82607
G1 X88.85 Y113.282 E.01923
G1 X88.85 Y76.896 E1.82607
G1 X89.234 Y76.896 E.01923
G1 X89.234 Y113.437 E1.83385
G1 E-.7 F3600
;WIPE_START
G1 F6240
G1 X89.234 Y112.917 E-.285
;WIPE_END
G1 E-.015 F3600
G1 X85.785 Y120.223 F7800
G1 E1 F2400
G1 F1800
G1 X85.785 Y9.042 E5.5797
G1 X85.401 Y9.042 E.01923
G1 X85.401 Y120.067 E5.57191
G1 X85.018 Y120.067 E.01923
G1 X85.018 Y9.042 E5.57191
G1 X84.635 Y9.042 E.01923
G1 X84.635 Y120.067 E5.57191
G1 X84.252 Y120.067 E.01923
M73 P0 R840
G1 X84.252 Y9.042 E5.57191
G1 X83.869 Y9.042 E.01923
G1 X83.869 Y120.067 E5.57191
G1 X83.485 Y120.067 E.01923
G1 X83.485 Y9.042 E5.57191
G1 X83.102 Y9.042 E.01923
G1 X83.102 Y120.067 E5.57191
G1 X82.748 Y120.067 E.01779
G1 X82.748 Y130.246 E.5108
G1 X82.719 Y130.246 E.00144
G1 X82.719 Y9.042 E6.08271
G1 X82.336 Y9.042 E.01923
G1 X82.336 Y130.246 E6.08271
G1 X81.953 Y130.246 E.01923
G1 X81.953 Y9.042 E6.08271
G1 X81.569 Y9.042 E.01923
G1 X81.569 Y130.246 E6.08271
G1 X81.186 Y130.246 E.01923
G1 X81.186 Y9.042 E6.08271
G1 X80.803 Y9.042 E.01923
G1 X80.803 Y130.246 E6.08271
G1 X80.42 Y130.246 E.01923
G1 X80.42 Y9.042 E6.08271
G1 X80.036 Y9.042 E.01923
G1 X80.036 Y130.246 E6.08271
G1 X79.653 Y130.246 E.01923
G1 X79.653 Y9.042 E6.08271
G1 X79.27 Y9.042 E.01923
G1 X79.27 Y136.782 E6.41075
G1 X78.887 Y136.86 E.01963
G1 X78.887 Y9.042 E6.41468
G1 X78.504 Y9.042 E.01923
M73 P0 R839
G1 X78.504 Y136.939 E6.41861
G1 X78.12 Y137.017 E.01963
G1 X78.12 Y9.042 E6.42254
G1 X77.737 Y9.042 E.01923
G1 X77.737 Y137.031 E6.42324
G1 X77.354 Y137.031 E.01923
G1 X77.354 Y9.042 E6.42324
G1 X76.971 Y9.042 E.01923
G1 X76.971 Y137.031 E6.42324
G1 X76.588 Y137.031 E.01923
G1 X76.588 Y9.042 E6.42324
G1 X76.204 Y9.042 E.01923
G1 X76.204 Y137.031 E6.42324
G1 X75.962 Y137.031 E.01215
G1 X75.962 Y137.458 E.02144
G1 X75.821 Y137.487 E.00723
G1 X75.821 Y9.042 E6.44613
G1 X75.438 Y9.042 E.01923
G1 X75.438 Y137.565 E6.45006
G1 X75.055 Y137.644 E.01963
G1 X75.055 Y9.042 E6.45399
G1 X74.672 Y9.042 E.01923
G1 X74.672 Y137.722 E6.45792
G1 X74.288 Y137.8 E.01963
G1 X74.288 Y9.042 E6.46185
G1 X73.905 Y9.042 E.01923
G1 X73.905 Y137.879 E6.46578
G1 X73.522 Y137.957 E.01963
M73 P0 R838
G1 X73.522 Y9.042 E6.46972
G1 X73.139 Y9.042 E.01923
G1 X73.139 Y138.035 E6.47365
G1 X72.755 Y138.114 E.01963
G1 X72.755 Y9.042 E6.47758
G1 X72.372 Y9.042 E.01923
G1 X72.372 Y138.192 E6.48151
G1 X71.989 Y138.27 E.01963
G1 X71.989 Y9.042 E6.48544
G1 X71.606 Y9.042 E.01923
G1 X71.606 Y138.349 E6.48937
G1 X71.223 Y138.427 E.01963
G1 X71.223 Y9.042 E6.4933
G1 X70.839 Y9.042 E.01923
G1 X70.839 Y138.505 E6.49723
G1 X70.456 Y138.584 E.01963
G1 X70.456 Y9.042 E6.50116
G1 X70.073 Y9.042 E.01923
G1 X70.073 Y138.662 E6.50509
G1 X69.69 Y138.74 E.01963
G1 X69.69 Y9.042 E6.50903
G1 X69.307 Y9.042 E.01923
G1 X69.307 Y138.819 E6.51296
G1 X68.923 Y138.897 E.01963
G1 X68.923 Y9.042 E6.51689
G1 X68.54 Y9.042 E.01923
G1 X68.54 Y138.975 E6.52082
G1 X68.157 Y139.054 E.01963
M73 P0 R837
G1 X68.157 Y9.042 E6.52475
G1 X67.774 Y9.042 E.01923
G1 X67.774 Y139.132 E6.52868
G1 X67.391 Y139.21 E.01963
G1 X67.391 Y9.042 E6.53261
G1 X67.007 Y9.042 E.01923
G1 X67.007 Y139.289 E6.53654
G1 X66.624 Y139.367 E.01963
G1 X66.624 Y9.042 E6.54047
G1 X66.241 Y9.042 E.01923
G1 X66.241 Y139.445 E6.54441
G1 X65.858 Y139.524 E.01963
G1 X65.858 Y9.042 E6.54834
G1 X65.474 Y9.042 E.01923
G1 X65.474 Y139.602 E6.55227
G1 X65.091 Y139.68 E.01963
G1 X65.091 Y9.042 E6.5562
G1 X64.708 Y9.042 E.01923
G1 X64.708 Y139.759 E6.56013
G1 X64.631 Y139.774 E.00393
G1 X64.325 Y139.727 E.01556
G1 X64.325 Y9.042 E6.55856
G1 X63.942 Y9.042 E.01923
G1 X63.942 Y139.668 E6.55561
G1 X63.558 Y139.61 E.01946
G1 X63.558 Y9.042 E6.55266
G1 X63.175 Y9.042 E.01923
G1 X63.175 Y139.551 E6.54971
G1 X62.792 Y139.492 E.01946
M73 P0 R836
G1 X62.792 Y9.042 E6.54676
G1 X62.409 Y9.042 E.01923
G1 X62.409 Y139.433 E6.54381
G1 X62.026 Y139.375 E.01946
G1 X62.026 Y9.042 E6.54086
G1 X61.642 Y9.042 E.01923
G1 X61.642 Y139.316 E6.53791
G1 X61.259 Y139.257 E.01946
G1 X61.259 Y9.042 E6.53496
G1 X60.876 Y9.042 E.01923
G1 X60.876 Y139.198 E6.532
G1 X60.493 Y139.139 E.01946
G1 X60.493 Y9.042 E6.52905
G1 X60.11 Y9.042 E.01923
G1 X60.11 Y139.081 E6.5261
G1 X59.726 Y139.022 E.01946
G1 X59.726 Y9.042 E6.52315
G1 X59.343 Y9.042 E.01923
G1 X59.343 Y138.963 E6.5202
G1 X58.96 Y138.904 E.01946
G1 X58.96 Y9.042 E6.51725
G1 X58.577 Y9.042 E.01923
G1 X58.577 Y138.845 E6.5143
G1 X58.193 Y138.787 E.01946
G1 X58.194 Y9.042 E6.51135
G1 X57.81 Y9.042 E.01923
M73 P0 R835
G1 X57.81 Y138.728 E6.5084
G1 X57.427 Y138.669 E.01946
G1 X57.427 Y9.042 E6.50545
G1 X57.044 Y9.042 E.01923
G1 X57.044 Y138.61 E6.5025
G1 X56.661 Y138.552 E.01946
G1 X56.661 Y9.042 E6.49955
G1 X56.277 Y9.042 E.01923
G1 X56.277 Y138.493 E6.4966
G1 X55.894 Y138.434 E.01946
G1 X55.894 Y9.042 E6.49365
G1 X55.511 Y9.042 E.01923
G1 X55.511 Y138.375 E6.4907
G1 X55.128 Y138.316 E.01946
G1 X55.128 Y9.042 E6.48775
G1 X54.745 Y9.042 E.01923
G1 X54.745 Y138.258 E6.4848
G1 X54.361 Y138.199 E.01946
G1 X54.361 Y9.042 E6.48185
G1 X53.978 Y9.042 E.01923
G1 X53.978 Y138.14 E6.4789
G1 X53.595 Y138.081 E.01946
G1 X53.595 Y9.042 E6.47595
G1 X53.212 Y9.042 E.01923
G1 X53.212 Y138.022 E6.473
G1 X52.829 Y137.964 E.01946
G1 X52.829 Y9.042 E6.47005
G1 X52.445 Y9.042 E.01923
M73 P0 R834
G1 X52.445 Y137.905 E6.4671
G1 X52.062 Y137.846 E.01946
G1 X52.062 Y9.042 E6.46415
G1 X51.679 Y9.042 E.01923
G1 X51.679 Y137.787 E6.46119
G1 X51.296 Y137.728 E.01946
G1 X51.296 Y9.042 E6.45824
G1 X50.913 Y9.042 E.01923
G1 X50.912 Y137.67 E6.45529
G1 X50.529 Y137.611 E.01946
G1 X50.529 Y9.042 E6.45234
G1 X50.146 Y9.042 E.01923
G1 X50.146 Y137.552 E6.44939
G1 X49.763 Y137.493 E.01946
G1 X49.763 Y9.042 E6.44644
G1 X49.38 Y9.042 E.01923
G1 X49.38 Y137.434 E6.44349
G1 X48.996 Y137.376 E.01946
G1 X48.996 Y9.042 E6.44054
G1 X48.613 Y9.042 E.01923
G1 X48.613 Y137.317 E6.43759
G1 X48.23 Y137.258 E.01946
G1 X48.23 Y9.042 E6.43464
G1 X47.847 Y9.042 E.01923
G1 X47.847 Y137.199 E6.43169
G1 X47.464 Y137.141 E.01946
G1 X47.464 Y9.042 E6.42874
G1 X47.08 Y9.042 E.01923
M73 P1 R833
G1 X47.08 Y137.082 E6.42579
G1 X46.697 Y137.023 E.01946
G1 X46.697 Y9.042 E6.42284
G1 X46.314 Y9.042 E.01923
G1 X46.314 Y136.964 E6.41989
G1 X45.931 Y136.905 E.01946
G1 X45.931 Y9.042 E6.41694
G1 X45.548 Y9.042 E.01923
G1 X45.548 Y136.847 E6.41399
G1 X45.164 Y136.788 E.01946
G1 X45.164 Y9.042 E6.41104
G1 X44.781 Y9.042 E.01923
G1 X44.781 Y136.729 E6.40809
G1 X44.398 Y136.67 E.01946
G1 X44.398 Y9.042 E6.40514
G1 X44.015 Y9.042 E.01923
G1 X44.015 Y136.611 E6.40219
G1 X43.632 Y136.553 E.01946
G1 X43.632 Y9.042 E6.39923
G1 X43.248 Y9.042 E.01923
G1 X43.248 Y136.494 E6.39628
G1 X42.865 Y136.435 E.01946
G1 X42.865 Y9.042 E6.39333
G1 X42.482 Y9.042 E.01923
G1 X42.482 Y136.376 E6.39038
G1 X42.099 Y136.317 E.01946
G1 X42.099 Y9.042 E6.38743
G1 X41.715 Y9.042 E.01923
M73 P1 R832
G1 X41.715 Y136.259 E6.38448
G1 X41.332 Y136.2 E.01946
G1 X41.332 Y9.042 E6.38153
G1 X40.949 Y9.042 E.01923
G1 X40.949 Y136.141 E6.37858
G1 X40.566 Y136.082 E.01946
G1 X40.566 Y9.042 E6.37563
G1 X40.183 Y9.042 E.01923
G1 X40.183 Y136.024 E6.37268
G1 X39.799 Y135.965 E.01946
G1 X39.799 Y9.042 E6.36973
G1 X39.416 Y9.042 E.01923
G1 X39.416 Y86.14 E3.86925
G1 X39.033 Y86.14 E.01923
G1 X39.033 Y9.042 E3.86925
G1 X38.65 Y9.042 E.01923
G1 X38.65 Y86.14 E3.86925
G1 X38.267 Y86.14 E.01923
G1 X38.267 Y9.042 E3.86925
G1 X37.883 Y9.042 E.01923
G1 X37.883 Y86.14 E3.86925
G1 X37.5 Y86.14 E.01923
G1 X37.5 Y9.042 E3.86925
G1 X37.117 Y9.042 E.01923
G1 X37.117 Y86.14 E3.86925
G1 X36.734 Y86.14 E.01923
G1 X36.734 Y9.042 E3.86925
G1 X36.351 Y9.042 E.01923
G1 X36.351 Y86.14 E3.86925
G1 X35.967 Y86.14 E.01923
G1 X35.967 Y9.042 E3.86925
G1 X35.584 Y9.042 E.01923
G1 X35.584 Y86.14 E3.86925
G1 X35.201 Y86.14 E.01923
G1 X35.201 Y9.042 E3.86925
G1 X34.818 Y9.042 E.01923
M73 P1 R831
G1 X34.818 Y86.14 E3.86925
G1 X34.434 Y86.14 E.01923
G1 X34.434 Y9.042 E3.86925
G1 X34.051 Y9.042 E.01923
G1 X34.051 Y86.14 E3.86925
G1 X33.668 Y86.14 E.01923
G1 X33.668 Y9.042 E3.86925
G1 X33.285 Y9.042 E.01923
G1 X33.285 Y86.14 E3.86925
G1 X32.902 Y86.14 E.01923
G1 X32.902 Y9.042 E3.86925
G1 X32.518 Y9.042 E.01923
G1 X32.518 Y86.14 E3.86925
G1 X32.135 Y86.14 E.01923
G1 X32.135 Y9.042 E3.86925
G1 X31.752 Y9.042 E.01923
G1 X31.752 Y134.73 E6.30777
G1 X32.135 Y134.789 E.01946
G1 X32.135 Y93.86 E2.05408
G1 X32.518 Y93.86 E.01923
G1 X32.518 Y134.848 E2.05703
G1 X32.902 Y134.906 E.01946
G1 X32.902 Y93.86 E2.05998
G1 X33.285 Y93.86 E.01923
G1 X33.285 Y134.965 E2.06293
G1 X33.668 Y135.024 E.01946
G1 X33.668 Y93.86 E2.06588
G1 X34.051 Y93.86 E.01923
G1 X34.051 Y135.083 E2.06883
G1 X34.434 Y135.142 E.01946
G1 X34.434 Y93.86 E2.07178
G1 X34.818 Y93.86 E.01923
G1 X34.818 Y135.2 E2.07473
G1 X35.201 Y135.259 E.01946
G1 X35.201 Y93.86 E2.07768
G1 X35.25 Y93.86 E.00246
G1 X35.25 Y97.252 E.17027
G1 X35.584 Y97.252 E.01677
G1 X35.584 Y135.318 E1.91037
G1 X35.967 Y135.377 E.01946
G1 X35.967 Y97.252 E1.91332
G1 X36.351 Y97.252 E.01923
G1 X36.351 Y135.436 E1.91627
G1 X36.734 Y135.494 E.01946
G1 X36.734 Y97.252 E1.91922
G1 X37.117 Y97.252 E.01923
G1 X37.117 Y135.553 E1.92217
G1 X37.5 Y135.612 E.01946
G1 X37.5 Y97.252 E1.92512
G1 X37.883 Y97.252 E.01923
G1 X37.883 Y135.671 E1.92807
G1 X38.267 Y135.73 E.01946
G1 X38.267 Y97.252 E1.93102
G1 X38.65 Y97.252 E.01923
G1 X38.65 Y135.788 E1.93397
G1 X39.033 Y135.847 E.01946
G1 X39.033 Y97.252 E1.93692
G1 X39.416 Y97.252 E.01923
G1 X39.416 Y136.063 E1.94775
G1 E-.7 F3600
;WIPE_START
G1 F6240
G1 X39.416 Y135.543 E-.285
;WIPE_END
G1 E-.015 F3600
G1 X65.474 Y171.113 F7800
G1 E1 F2400
G1 F1800
G1 X65.474 Y165.947 E.25925
G1 X65.091 Y165.947 E.01923
G1 X65.091 Y170.958 E.25146
G1 X64.708 Y170.958 E.01923
G1 X64.708 Y165.947 E.25146
G1 X64.325 Y165.947 E.01923
G1 X64.325 Y170.958 E.25146
G1 X63.942 Y170.958 E.01923
G1 X63.942 Y165.947 E.25146
G1 X63.558 Y165.947 E.01923
G1 X63.558 Y170.958 E.25146
G1 X63.175 Y170.958 E.01923
G1 X63.175 Y165.947 E.25146
G1 X62.792 Y165.947 E.01923
G1 X62.792 Y170.958 E.25146
G1 X62.409 Y170.958 E.01923
G1 X62.409 Y165.947 E.25146
G1 X62.026 Y165.947 E.01923
G1 X62.026 Y170.958 E.25146
G1 X61.642 Y170.958 E.01923
G1 X61.642 Y165.947 E.25146
G1 X61.259 Y165.947 E.01923
G1 X61.259 Y170.958 E.25146
G1 X60.876 Y170.958 E.01923
G1 X60.876 Y165.947 E.25146
G1 X60.493 Y165.947 E.01923
G1 X60.493 Y170.958 E.25146
G1 X60.11 Y170.958 E.01923
G1 X60.11 Y165.947 E.25146
G1 X59.726 Y165.947 E.01923
G1 X59.726 Y170.958 E.25146
G1 X59.343 Y170.958 E.01923
G1 X59.343 Y165.947 E.25146
G1 X58.96 Y165.947 E.01923
G1 X58.96 Y170.958 E.25146
G1 X58.577 Y170.958 E.01923
G1 X58.577 Y165.947 E.25146
G1 X58.193 Y165.947 E.01923
G1 X58.193 Y170.958 E.25146
G1 X57.81 Y170.958 E.01923
G1 X57.81 Y165.947 E.25146
G1 X57.427 Y165.947 E.01923
G1 X57.427 Y170.958 E.25146
G1 X57.044 Y170.958 E.01923
G1 X57.044 Y165.947 E.25146
M73 P1 R830
G1 X56.661 Y165.947 E.01923
G1 X56.661 Y170.958 E.25146
G1 X56.277 Y170.958 E.01923
G1 X56.277 Y165.947 E.25146
G1 X55.894 Y165.947 E.01923
G1 X55.894 Y170.958 E.25146
G1 X55.511 Y170.958 E.01923
G1 X55.511 Y165.947 E.25146
G1 X55.128 Y165.947 E.01923
G1 X55.128 Y170.958 E.25146
G1 X54.745 Y170.958 E.01923
G1 X54.745 Y165.947 E.25146
G1 X54.361 Y165.947 E.01923
G1 X54.361 Y170.958 E.25146
G1 X53.978 Y170.958 E.01923
G1 X53.978 Y165.947 E.25146
G1 X53.595 Y165.947 E.01923
G1 X53.595 Y170.958 E.25146
G1 X53.212 Y170.958 E.01923
G1 X53.212 Y165.947 E.25146
G1 X52.829 Y165.947 E.01923
G1 X52.829 Y170.958 E.25146
G1 X52.445 Y170.958 E.01923
G1 X52.445 Y165.947 E.25146
G1 X52.062 Y165.947 E.01923
G1 X52.062 Y170.958 E.25146
G1 X51.679 Y170.958 E.01923
G1 X51.679 Y165.947 E.25146
G1 X51.296 Y165.947 E.01923
G1 X51.296 Y170.958 E.25146
G1 X50.912 Y170.958 E.01923
G1 X50.912 Y165.947 E.25146
G1 X50.529 Y165.947 E.01923
G1 X50.529 Y170.958 E.25146
G1 X50.146 Y170.958 E.01923
G1 X50.146 Y165.947 E.25146
G1 X49.763 Y165.947 E.01923
G1 X49.763 Y170.958 E.25146
G1 X49.38 Y170.958 E.01923
G1 X49.38 Y165.947 E.25146
G1 X48.996 Y165.947 E.01923
G1 X48.996 Y170.958 E.25146
G1 X48.613 Y170.958 E.01923
G1 X48.613 Y165.947 E.25146
G1 X48.23 Y165.947 E.01923
G1 X48.23 Y170.958 E.25146
G1 X47.847 Y170.958 E.01923
G1 X47.847 Y165.947 E.25146
