; generated by PrusaSlicer 2.5.0+win64 on 2022-12-07 at 00:27:16 UTC

; 

; external perimeters extrusion width = 1.00mm
; perimeters extrusion width = 1.00mm
; infill extrusion width = 1.00mm
; solid infill extrusion width = 1.00mm
; top infill extrusion width = 1.00mm
; support material extrusion width = 1.00mm
; first layer extrusion width = 0.42mm

M73 P0 R578
M107
;TYPE:Custom
G90 ; use absolute coordinates
M83 ; extruder relative mode
M140 S60 ; set final bed temp
M104 S150 ; set temporary nozzle temp to prevent oozing during homing and auto bed leveling
G4 S10 ; allow partial nozzle warmup
G28 ; home all axisG1 Z50 F240
G1 X7.6 Y10 F3000
M104 S210 ; set final nozzle temp
M190 S60 ; wait for bed temp to stabilize
M109 S210 ; wait for nozzle temp to stabilize
G1 Z0.28 F240
G92 E0
G1 Y140 E10 F1500 ; prime the nozzle
G1 X4 F5000
G92 E0
G1 Y10 E10 F1200 ; prime the nozzle
G92 E0
G21 ; set units to millimeters
G90 ; use absolute coordinates
M83 ; use relative distances for extrusion
; Filament gcode
M107
;LAYER_CHANGE
;Z:0.35
;HEIGHT:0.35
;BEFORE_LAYER_CHANGE
G92 E0
;0.35


G1 E-1 F3600
G1 Z.35 F7800
;AFTER_LAYER_CHANGE
;0.35
G1 X12.781 Y21.744
G1 E1 F2400
;TYPE:Support material interface
;WIDTH:1
G1 F1800
G1 X12.781 Y49.288 E3.70688
G1 X13.674 Y49.288 E.12014
G1 X13.674 Y25.141 E3.24969
G1 X14.368 Y25.186 E.09358
G1 X14.567 Y23.644 E.20928
G1 X14.567 Y49.689 E3.50532
G1 E-.7 F3600
;WIPE_START
G1 F6240
G1 X14.567 Y49.169 E-.285
;WIPE_END
G1 E-.015 F3600
G1 X11.311 Y49.944 F7800
G1 E1 F2400
;TYPE:Support material
;WIDTH:0.42
G1 F1800
G1 X16.017 Y49.944 E.23616
G1 X16.017 Y46.944 E.15056
G1 X18.597 Y46.944 E.12947
G1 X18.597 Y171.268 E6.23933
G1 X8.732 Y171.268 E.49509
G1 X8.732 Y46.944 E6.23933
G1 X11.311 Y46.944 E.12947
G1 X11.311 Y49.892 E.14796
G1 X17.957 Y171.113 F7800
G1 F1800
G1 X17.957 Y47.254 E6.21596
G1 X17.573 Y47.254 E.01923
G1 X17.573 Y170.958 E6.20817
G1 X17.19 Y170.958 E.01923
G1 X17.19 Y47.254 E6.20817
G1 X16.807 Y47.254 E.01923
G1 X16.807 Y170.958 E6.20817
G1 X16.424 Y170.958 E.01923
G1 X16.424 Y47.254 E6.20817
G1 X16.327 Y47.254 E.00483
M73 P0 R577
G1 X16.327 Y50.254 E.15056
G1 X16.04 Y50.254 E.0144
G1 X16.04 Y170.958 E6.05761
G1 X15.657 Y170.958 E.01923
G1 X15.657 Y50.254 E6.05761
G1 X15.274 Y50.254 E.01923
G1 X15.274 Y170.958 E6.05761
G1 X14.891 Y170.958 E.01923
G1 X14.891 Y50.254 E6.05761
G1 X14.508 Y50.254 E.01923
G1 X14.508 Y170.958 E6.05761
G1 X14.124 Y170.958 E.01923
G1 X14.124 Y50.254 E6.05761
G1 X13.741 Y50.254 E.01923
G1 X13.741 Y170.958 E6.05761
G1 X13.358 Y170.958 E.01923
G1 X13.358 Y50.254 E6.05761
G1 X12.975 Y50.254 E.01923
G1 X12.975 Y170.958 E6.05761
G1 X12.592 Y170.958 E.01923
G1 X12.592 Y50.254 E6.05761
G1 X12.208 Y50.254 E.01923
G1 X12.208 Y170.958 E6.05761
G1 X11.825 Y170.958 E.01923
G1 X11.825 Y50.254 E6.05761
G1 X11.442 Y50.254 E.01923
G1 X11.442 Y170.958 E6.05761
G1 X11.059 Y170.958 E.01923
G1 X11.059 Y50.254 E6.05761
G1 X11.001 Y50.254 E.00289
M73 P0 R576
G1 X11.001 Y47.254 E.15056
G1 X10.676 Y47.254 E.01634
G1 X10.676 Y170.958 E6.20817
G1 X10.292 Y170.958 E.01923
G1 X10.292 Y47.254 E6.20817
G1 X9.909 Y47.254 E.01923
G1 X9.909 Y170.958 E6.20817
G1 X9.526 Y170.958 E.01923
G1 X9.526 Y47.254 E6.20817
G1 X9.143 Y47.254 E.01923
G1 X9.143 Y171.113 E6.21596
G1 E-.7 F3600
;WIPE_START
G1 F6240
G1 X9.143 Y170.593 E-.285
;WIPE_END
G1 E-.015 F3600
G1 X171.268 Y171.268 F7800
G1 E1 F2400
G1 F1800
G1 X90.156 Y171.268 E4.07067
G1 X90.156 Y133.949 E1.87292
G1 X86.764 Y133.949 E.17027
G1 X86.764 Y113.905 E1.00589
G1 X90.156 Y113.905 E.17027
G1 X90.156 Y93.549 E1.02159
G1 X93.549 Y93.549 E.17027
G1 X93.549 Y35.56 E2.91022
G1 X90.156 Y35.56 E.17027
G1 X90.156 Y12.124 E1.17616
G1 X93.549 Y12.124 E.17027
G1 X93.549 Y8.732 E.17027
G1 X171.268 Y8.732 E3.90041
G1 X171.268 Y171.217 E8.15446
G1 X170.857 Y171.113 F7800
G1 F1800
G1 X170.857 Y9.042 E8.13368
G1 X170.474 Y9.042 E.01923
G1 X170.474 Y170.958 E8.1259
G1 X170.091 Y170.958 E.01923
G1 X170.091 Y9.042 E8.1259
G1 X169.708 Y9.042 E.01923
G1 X169.708 Y170.958 E8.1259
G1 X169.324 Y170.958 E.01923
M73 P0 R575
G1 X169.324 Y9.042 E8.1259
G1 X168.941 Y9.042 E.01923
G1 X168.941 Y170.958 E8.1259
G1 X168.558 Y170.958 E.01923
G1 X168.558 Y9.042 E8.1259
G1 X168.175 Y9.042 E.01923
G1 X168.175 Y170.958 E8.1259
G1 X167.792 Y170.958 E.01923
G1 X167.792 Y9.042 E8.1259
G1 X167.408 Y9.042 E.01923
G1 X167.408 Y170.958 E8.1259
G1 X167.025 Y170.958 E.01923
G1 X167.025 Y9.042 E8.1259
G1 X166.642 Y9.042 E.01923
G1 X166.642 Y170.958 E8.1259
G1 X166.259 Y170.958 E.01923
G1 X166.259 Y9.042 E8.1259
G1 X165.876 Y9.042 E.01923
G1 X165.876 Y170.958 E8.1259
G1 X165.492 Y170.958 E.01923
G1 X165.492 Y9.042 E8.1259
G1 X165.109 Y9.042 E.01923
M73 P0 R574
G1 X165.109 Y170.958 E8.1259
G1 X164.726 Y170.958 E.01923
G1 X164.726 Y9.042 E8.1259
G1 X164.343 Y9.042 E.01923
G1 X164.343 Y170.958 E8.1259
G1 X163.96 Y170.958 E.01923
G1 X163.96 Y9.042 E8.1259
G1 X163.576 Y9.042 E.01923
G1 X163.576 Y170.958 E8.1259
G1 X163.193 Y170.958 E.01923
G1 X163.193 Y9.042 E8.1259
G1 X162.81 Y9.042 E.01923
G1 X162.81 Y170.958 E8.1259
G1 X162.427 Y170.958 E.01923
G1 X162.427 Y9.042 E8.1259
G1 X162.043 Y9.042 E.01923
G1 X162.043 Y170.958 E8.1259
G1 X161.66 Y170.958 E.01923
G1 X161.66 Y9.042 E8.1259
G1 X161.277 Y9.042 E.01923
G1 X161.277 Y170.958 E8.1259
G1 X160.894 Y170.958 E.01923
M73 P0 R573
G1 X160.894 Y9.042 E8.1259
G1 X160.511 Y9.042 E.01923
G1 X160.511 Y170.958 E8.1259
G1 X160.127 Y170.958 E.01923
G1 X160.127 Y9.042 E8.1259
G1 X159.744 Y9.042 E.01923
G1 X159.744 Y170.958 E8.1259
G1 X159.361 Y170.958 E.01923
G1 X159.361 Y9.042 E8.1259
G1 X158.978 Y9.042 E.01923
G1 X158.978 Y170.958 E8.1259
G1 X158.595 Y170.958 E.01923
G1 X158.595 Y9.042 E8.1259
G1 X158.211 Y9.042 E.01923
G1 X158.211 Y170.958 E8.1259
G1 X157.828 Y170.958 E.01923
G1 X157.828 Y9.042 E8.1259
G1 X157.445 Y9.042 E.01923
G1 X157.445 Y170.958 E8.1259
G1 X157.062 Y170.958 E.01923
G1 X157.062 Y9.042 E8.1259
G1 X156.679 Y9.042 E.01923
M73 P0 R572
G1 X156.679 Y170.958 E8.1259
G1 X156.295 Y170.958 E.01923
M73 P1 R572
G1 X156.295 Y9.042 E8.1259
G1 X155.912 Y9.042 E.01923
G1 X155.912 Y170.958 E8.1259
G1 X155.529 Y170.958 E.01923
G1 X155.529 Y9.042 E8.1259
G1 X155.146 Y9.042 E.01923
G1 X155.146 Y170.958 E8.1259
G1 X154.762 Y170.958 E.01923
G1 X154.762 Y9.042 E8.1259
G1 X154.379 Y9.042 E.01923
G1 X154.379 Y170.958 E8.1259
G1 X153.996 Y170.958 E.01923
G1 X153.996 Y9.042 E8.1259
G1 X153.613 Y9.042 E.01923
G1 X153.613 Y170.958 E8.1259
G1 X153.23 Y170.958 E.01923
G1 X153.23 Y9.042 E8.1259
G1 X152.846 Y9.042 E.01923
G1 X152.846 Y170.958 E8.1259
G1 X152.463 Y170.958 E.01923
M73 P1 R571
G1 X152.463 Y9.042 E8.1259
G1 X152.08 Y9.042 E.01923
G1 X152.08 Y170.958 E8.1259
G1 X151.697 Y170.958 E.01923
G1 X151.697 Y9.042 E8.1259
G1 X151.314 Y9.042 E.01923
G1 X151.314 Y170.958 E8.1259
G1 X150.93 Y170.958 E.01923
G1 X150.93 Y9.042 E8.1259
G1 X150.547 Y9.042 E.01923
G1 X150.547 Y170.958 E8.1259
G1 X150.164 Y170.958 E.01923
G1 X150.164 Y9.042 E8.1259
G1 X149.781 Y9.042 E.01923
G1 X149.781 Y170.958 E8.1259
G1 X149.398 Y170.958 E.01923
G1 X149.398 Y9.042 E8.1259
G1 X149.014 Y9.042 E.01923
G1 X149.014 Y170.958 E8.1259
G1 X148.631 Y170.958 E.01923
G1 X148.631 Y9.042 E8.1259
G1 X148.248 Y9.042 E.01923
M73 P1 R570
G1 X148.248 Y170.958 E8.1259
G1 X147.865 Y170.958 E.01923
G1 X147.865 Y9.042 E8.1259
G1 X147.482 Y9.042 E.01923
G1 X147.481 Y170.958 E8.1259
G1 X147.098 Y170.958 E.01923
G1 X147.098 Y9.042 E8.1259
G1 X146.715 Y9.042 E.01923
G1 X146.715 Y170.958 E8.1259
G1 X146.332 Y170.958 E.01923
G1 X146.332 Y9.042 E8.1259
G1 X145.949 Y9.042 E.01923
G1 X145.949 Y170.958 E8.1259
G1 X145.565 Y170.958 E.01923
G1 X145.565 Y9.042 E8.1259
G1 X145.182 Y9.042 E.01923
G1 X145.182 Y170.958 E8.1259
G1 X144.799 Y170.958 E.01923
G1 X144.799 Y9.042 E8.1259
G1 X144.416 Y9.042 E.01923
G1 X144.416 Y170.958 E8.1259
G1 X144.033 Y170.958 E.01923
M73 P1 R569
G1 X144.033 Y9.042 E8.1259
G1 X143.649 Y9.042 E.01923
G1 X143.649 Y170.958 E8.1259
G1 X143.266 Y170.958 E.01923
G1 X143.266 Y9.042 E8.1259
G1 X142.883 Y9.042 E.01923
G1 X142.883 Y170.958 E8.1259
G1 X142.5 Y170.958 E.01923
G1 X142.5 Y9.042 E8.1259
G1 X142.117 Y9.042 E.01923
G1 X142.117 Y170.958 E8.1259
G1 X141.733 Y170.958 E.01923
G1 X141.733 Y9.042 E8.1259
G1 X141.35 Y9.042 E.01923
G1 X141.35 Y170.958 E8.1259
G1 X140.967 Y170.958 E.01923
G1 X140.967 Y9.042 E8.1259
G1 X140.584 Y9.042 E.01923
G1 X140.584 Y170.958 E8.1259
G1 X140.201 Y170.958 E.01923
G1 X140.201 Y9.042 E8.1259
G1 X139.817 Y9.042 E.01923
M73 P1 R568
G1 X139.817 Y170.958 E8.1259
G1 X139.434 Y170.958 E.01923
G1 X139.434 Y9.042 E8.1259
G1 X139.051 Y9.042 E.01923
G1 X139.051 Y170.958 E8.1259
G1 X138.668 Y170.958 E.01923
G1 X138.668 Y9.042 E8.1259
G1 X138.284 Y9.042 E.01923
G1 X138.284 Y170.958 E8.1259
G1 X137.901 Y170.958 E.01923
G1 X137.901 Y9.042 E8.1259
G1 X137.518 Y9.042 E.01923
G1 X137.518 Y170.958 E8.1259
G1 X137.135 Y170.958 E.01923
G1 X137.135 Y9.042 E8.1259
G1 X136.752 Y9.042 E.01923
G1 X136.752 Y170.958 E8.1259
G1 X136.368 Y170.958 E.01923
G1 X136.368 Y9.042 E8.1259
G1 X135.985 Y9.042 E.01923
G1 X135.985 Y170.958 E8.1259
G1 X135.602 Y170.958 E.01923
M73 P1 R567
G1 X135.602 Y9.042 E8.1259
G1 X135.219 Y9.042 E.01923
G1 X135.219 Y170.958 E8.1259
G1 X134.836 Y170.958 E.01923
G1 X134.836 Y9.042 E8.1259
G1 X134.452 Y9.042 E.01923
G1 X134.452 Y170.958 E8.1259
G1 X134.069 Y170.958 E.01923
G1 X134.069 Y9.042 E8.1259
G1 X133.686 Y9.042 E.01923
G1 X133.686 Y170.958 E8.1259
G1 X133.303 Y170.958 E.01923
G1 X133.303 Y9.042 E8.1259
G1 X132.92 Y9.042 E.01923
G1 X132.92 Y170.958 E8.1259
G1 X132.536 Y170.958 E.01923
G1 X132.536 Y9.042 E8.1259
G1 X132.153 Y9.042 E.01923
M73 P2 R567
G1 X132.153 Y170.958 E8.1259
G1 X131.77 Y170.958 E.01923
G1 X131.77 Y9.042 E8.1259
G1 X131.387 Y9.042 E.01923
M73 P2 R566
G1 X131.387 Y170.958 E8.1259
G1 X131.003 Y170.958 E.01923
G1 X131.003 Y9.042 E8.1259
G1 X130.62 Y9.042 E.01923
G1 X130.62 Y170.958 E8.1259
G1 X130.237 Y170.958 E.01923
G1 X130.237 Y9.042 E8.1259
G1 X129.854 Y9.042 E.01923
G1 X129.854 Y170.958 E8.1259
G1 X129.471 Y170.958 E.01923
G1 X129.471 Y9.042 E8.1259
G1 X129.087 Y9.042 E.01923
G1 X129.087 Y170.958 E8.1259
G1 X128.704 Y170.958 E.01923
G1 X128.704 Y9.042 E8.1259
G1 X128.321 Y9.042 E.01923
G1 X128.321 Y170.958 E8.1259
G1 X127.938 Y170.958 E.01923
G1 X127.938 Y9.042 E8.1259
G1 X127.555 Y9.042 E.01923
G1 X127.555 Y170.958 E8.1259
G1 X127.171 Y170.958 E.01923
M73 P2 R565
G1 X127.171 Y9.042 E8.1259
G1 X126.788 Y9.042 E.01923
G1 X126.788 Y170.958 E8.1259
G1 X126.405 Y170.958 E.01923
G1 X126.405 Y9.042 E8.1259
G1 X126.022 Y9.042 E.01923
G1 X126.022 Y170.958 E8.1259
G1 X125.639 Y170.958 E.01923
G1 X125.639 Y9.042 E8.1259
G1 X125.255 Y9.042 E.01923
G1 X125.255 Y170.958 E8.1259
G1 X124.872 Y170.958 E.01923
G1 X124.872 Y9.042 E8.1259
G1 X124.489 Y9.042 E.01923
G1 X124.489 Y170.958 E8.1259
G1 X124.106 Y170.958 E.01923
G1 X124.106 Y9.042 E8.1259
G1 X123.722 Y9.042 E.01923
G1 X123.722 Y170.958 E8.1259
G1 X123.339 Y170.958 E.01923
G1 X123.339 Y9.042 E8.1259
G1 X122.956 Y9.042 E.01923
M73 P2 R564
G1 X122.956 Y170.958 E8.1259
G1 X122.573 Y170.958 E.01923
G1 X122.573 Y9.042 E8.1259
G1 X122.19 Y9.042 E.01923
G1 X122.19 Y170.958 E8.1259
G1 X121.806 Y170.958 E.01923
G1 X121.806 Y9.042 E8.1259
G1 X121.423 Y9.042 E.01923
G1 X121.423 Y170.958 E8.1259
G1 X121.04 Y170.958 E.01923
G1 X121.04 Y9.042 E8.1259
G1 X120.657 Y9.042 E.01923
G1 X120.657 Y170.958 E8.1259
G1 X120.274 Y170.958 E.01923
G1 X120.274 Y9.042 E8.1259
G1 X119.89 Y9.042 E.01923
G1 X119.89 Y170.958 E8.1259
G1 X119.507 Y170.958 E.01923
G1 X119.507 Y9.042 E8.1259
G1 X119.124 Y9.042 E.01923
G1 X119.124 Y170.958 E8.1259
G1 X118.741 Y170.958 E.01923
M73 P2 R563
G1 X118.741 Y9.042 E8.1259
G1 X118.358 Y9.042 E.01923
G1 X118.358 Y170.958 E8.1259
G1 X117.974 Y170.958 E.01923
G1 X117.974 Y9.042 E8.1259
G1 X117.591 Y9.042 E.01923
G1 X117.591 Y170.958 E8.1259
G1 X117.208 Y170.958 E.01923
G1 X117.208 Y9.042 E8.1259
G1 X116.825 Y9.042 E.01923
G1 X116.825 Y170.958 E8.1259
G1 X116.441 Y170.958 E.01923
G1 X116.441 Y9.042 E8.1259
G1 X116.058 Y9.042 E.01923
G1 X116.058 Y170.958 E8.1259
G1 X115.675 Y170.958 E.01923
G1 X115.675 Y9.042 E8.1259
G1 X115.292 Y9.042 E.01923
G1 X115.292 Y170.958 E8.1259
G1 X114.909 Y170.958 E.01923
G1 X114.909 Y9.042 E8.1259
G1 X114.525 Y9.042 E.01923
M73 P2 R562
G1 X114.525 Y170.958 E8.1259
G1 X114.142 Y170.958 E.01923
G1 X114.142 Y9.042 E8.1259
G1 X113.759 Y9.042 E.01923
G1 X113.759 Y170.958 E8.1259
G1 X113.376 Y170.958 E.01923
G1 X113.376 Y9.042 E8.1259
G1 X112.993 Y9.042 E.01923
G1 X112.993 Y170.958 E8.1259
G1 X112.609 Y170.958 E.01923
G1 X112.609 Y9.042 E8.1259
G1 X112.226 Y9.042 E.01923
G1 X112.226 Y170.958 E8.1259
G1 X111.843 Y170.958 E.01923
G1 X111.843 Y9.042 E8.1259
G1 X111.46 Y9.042 E.01923
G1 X111.46 Y170.958 E8.1259
G1 X111.077 Y170.958 E.01923
G1 X111.077 Y9.042 E8.1259
G1 X110.693 Y9.042 E.01923
G1 X110.693 Y170.958 E8.1259
G1 X110.31 Y170.958 E.01923
M73 P2 R561
G1 X110.31 Y9.042 E8.1259
G1 X109.927 Y9.042 E.01923
G1 X109.927 Y170.958 E8.1259
G1 X109.544 Y170.958 E.01923
G1 X109.544 Y9.042 E8.1259
G1 X109.161 Y9.042 E.01923
G1 X109.16 Y170.958 E8.1259
G1 X108.777 Y170.958 E.01923
G1 X108.777 Y9.042 E8.1259
G1 X108.394 Y9.042 E.01923
G1 X108.394 Y170.958 E8.1259
G1 X108.011 Y170.958 E.01923
G1 X108.011 Y9.042 E8.1259
G1 X107.628 Y9.042 E.01923
M73 P3 R561
G1 X107.628 Y170.958 E8.1259
G1 X107.244 Y170.958 E.01923
G1 X107.244 Y9.042 E8.1259
G1 X106.861 Y9.042 E.01923
G1 X106.861 Y170.958 E8.1259
G1 X106.478 Y170.958 E.01923
G1 X106.478 Y9.042 E8.1259
G1 X106.095 Y9.042 E.01923
M73 P3 R560
G1 X106.095 Y170.958 E8.1259
G1 X105.712 Y170.958 E.01923
G1 X105.712 Y9.042 E8.1259
G1 X105.328 Y9.042 E.01923
G1 X105.328 Y170.958 E8.1259
G1 X104.945 Y170.958 E.01923
G1 X104.945 Y9.042 E8.1259
G1 X104.562 Y9.042 E.01923
G1 X104.562 Y170.958 E8.1259
G1 X104.179 Y170.958 E.01923
G1 X104.179 Y9.042 E8.1259
G1 X103.796 Y9.042 E.01923
G1 X103.796 Y170.958 E8.1259
G1 X103.412 Y170.958 E.01923
G1 X103.412 Y9.042 E8.1259
G1 X103.029 Y9.042 E.01923
G1 X103.029 Y170.958 E8.1259
G1 X102.646 Y170.958 E.01923
G1 X102.646 Y9.042 E8.1259
G1 X102.263 Y9.042 E.01923
G1 X102.263 Y170.958 E8.1259
G1 X101.88 Y170.958 E.01923
M73 P3 R559
G1 X101.88 Y9.042 E8.1259
G1 X101.496 Y9.042 E.01923
G1 X101.496 Y170.958 E8.1259
G1 X101.113 Y170.958 E.01923
G1 X101.113 Y9.042 E8.1259
G1 X100.73 Y9.042 E.01923
G1 X100.73 Y170.958 E8.1259
G1 X100.347 Y170.958 E.01923
G1 X100.347 Y9.042 E8.1259
G1 X99.963 Y9.042 E.01923
G1 X99.963 Y170.958 E8.1259
G1 X99.58 Y170.958 E.01923
G1 X99.58 Y9.042 E8.1259
G1 X99.197 Y9.042 E.01923
G1 X99.197 Y170.958 E8.1259
G1 X98.814 Y170.958 E.01923
G1 X98.814 Y9.042 E8.1259
G1 X98.431 Y9.042 E.01923
G1 X98.431 Y170.958 E8.1259
G1 X98.047 Y170.958 E.01923
G1 X98.047 Y9.042 E8.1259
G1 X97.664 Y9.042 E.01923
M73 P3 R558
G1 X97.664 Y170.958 E8.1259
G1 X97.281 Y170.958 E.01923
G1 X97.281 Y9.042 E8.1259
G1 X96.898 Y9.042 E.01923
G1 X96.898 Y170.958 E8.1259
G1 X96.515 Y170.958 E.01923
G1 X96.515 Y9.042 E8.1259
G1 X96.131 Y9.042 E.01923
G1 X96.131 Y170.958 E8.1259
G1 X95.748 Y170.958 E.01923
G1 X95.748 Y9.042 E8.1259
G1 X95.365 Y9.042 E.01923
G1 X95.365 Y170.958 E8.1259
G1 X94.982 Y170.958 E.01923
G1 X94.982 Y9.042 E8.1259
G1 X94.599 Y9.042 E.01923
G1 X94.599 Y170.958 E8.1259
G1 X94.215 Y170.958 E.01923
G1 X94.215 Y9.042 E8.1259
G1 X93.86 Y9.042 E.01785
G1 X93.86 Y12.435 E.17027
G1 X93.832 Y12.435 E.00138
G1 X93.832 Y170.958 E7.95563
G1 X93.449 Y170.958 E.01923
M73 P3 R557
G1 X93.449 Y93.86 E3.86925
G1 X93.066 Y93.86 E.01923
G1 X93.066 Y170.958 E3.86925
G1 X92.682 Y170.958 E.01923
G1 X92.682 Y93.86 E3.86925
G1 X92.299 Y93.86 E.01923
G1 X92.299 Y170.958 E3.86925
G1 X91.916 Y170.958 E.01923
G1 X91.916 Y93.86 E3.86925
G1 X91.533 Y93.86 E.01923
G1 X91.533 Y170.958 E3.86925
G1 X91.15 Y170.958 E.01923
G1 X91.15 Y93.86 E3.86925
G1 X90.766 Y93.86 E.01923
G1 X90.766 Y170.958 E3.86925
G1 X90.467 Y170.958 E.01503
G1 X90.467 Y133.638 E1.87292
G1 X90.383 Y133.638 E.0042
G1 X90.383 Y114.216 E.97474
G1 X90 Y114.216 E.01923
G1 X90 Y133.638 E.97474
G1 X89.617 Y133.638 E.01923
G1 X89.617 Y114.216 E.97474
