; generated by PrusaSlicer 2.5.0+win64 on 2022-12-07 at 00:27:00 UTC

; 

; external perimeters extrusion width = 1.00mm
; perimeters extrusion width = 1.00mm
; infill extrusion width = 1.00mm
; solid infill extrusion width = 1.00mm
; top infill extrusion width = 1.00mm
; support material extrusion width = 1.00mm
; first layer extrusion width = 0.42mm

M73 P0 R479
M107
;TYPE:Custom
G90 ; use absolute coordinates
M83 ; extruder relative mode
M140 S60 ; set final bed temp
M104 S150 ; set temporary nozzle temp to prevent oozing during homing and auto bed leveling
G4 S10 ; allow partial nozzle warmup
G28 ; home all axisG1 Z50 F240
G1 X7.6 Y10 F3000
M104 S210 ; set final nozzle temp
M190 S60 ; wait for bed temp to stabilize
M109 S210 ; wait for nozzle temp to stabilize
G1 Z0.28 F240
G92 E0
G1 Y140 E10 F1500 ; prime the nozzle
G1 X4 F5000
G92 E0
G1 Y10 E10 F1200 ; prime the nozzle
G92 E0
G21 ; set units to millimeters
G90 ; use absolute coordinates
M83 ; use relative distances for extrusion
; Filament gcode
M107
;LAYER_CHANGE
;Z:0.35
;HEIGHT:0.35
;BEFORE_LAYER_CHANGE
G92 E0
;0.35


G1 E-1 F3600
G1 Z.35 F7800
;AFTER_LAYER_CHANGE
;0.35
G1 X161.103 Y161.09
G1 E1 F2400
;TYPE:Support material
;WIDTH:0.42
G1 F1800
G1 X35.886 Y161.09 E6.28413
G1 X35.886 Y157.84 E.16312
M73 P0 R478
G1 X40.594 Y157.84 E.23627
G1 X41.008 Y157.434 E.02909
G1 X42.555 Y83.371 E3.71775
G1 X42.672 Y83.371 E.00586
G1 X42.672 Y77.827 E.27823
G1 X43.834 Y22.583 E2.77308
G1 X43.4 Y22.154 E.03063
G1 X35.886 Y22.164 E.3771
G1 X35.886 Y18.91 E.16333
G1 X161.103 Y18.91 E6.28413
G1 X161.103 Y161.039 E7.13286
G1 X160.524 Y160.935 F7800
G1 F1800
G1 X160.524 Y19.22 E7.11209
G1 X160.14 Y19.22 E.01923
G1 X160.14 Y160.78 E7.1043
G1 X159.757 Y160.78 E.01923
G1 X159.757 Y19.22 E7.1043
G1 X159.374 Y19.22 E.01923
G1 X159.374 Y160.78 E7.1043
G1 X158.991 Y160.78 E.01923
G1 X158.991 Y19.22 E7.1043
G1 X158.608 Y19.22 E.01923
G1 X158.608 Y160.78 E7.1043
G1 X158.224 Y160.78 E.01923
G1 X158.224 Y19.22 E7.1043
G1 X157.841 Y19.22 E.01923
G1 X157.841 Y160.78 E7.1043
G1 X157.458 Y160.78 E.01923
G1 X157.458 Y19.22 E7.1043
G1 X157.075 Y19.22 E.01923
G1 X157.075 Y160.78 E7.1043
G1 X156.692 Y160.78 E.01923
M73 P0 R477
G1 X156.692 Y19.22 E7.1043
G1 X156.308 Y19.22 E.01923
G1 X156.308 Y160.78 E7.1043
G1 X155.925 Y160.78 E.01923
G1 X155.925 Y19.22 E7.1043
G1 X155.542 Y19.22 E.01923
G1 X155.542 Y160.78 E7.1043
G1 X155.159 Y160.78 E.01923
G1 X155.159 Y19.22 E7.1043
G1 X154.775 Y19.22 E.01923
G1 X154.775 Y160.78 E7.1043
G1 X154.392 Y160.78 E.01923
G1 X154.392 Y19.22 E7.1043
G1 X154.009 Y19.22 E.01923
G1 X154.009 Y160.78 E7.1043
G1 X153.626 Y160.78 E.01923
G1 X153.626 Y19.22 E7.1043
G1 X153.243 Y19.22 E.01923
G1 X153.243 Y160.78 E7.1043
G1 X152.859 Y160.78 E.01923
G1 X152.859 Y19.22 E7.1043
G1 X152.476 Y19.22 E.01923
G1 X152.476 Y160.78 E7.1043
G1 X152.093 Y160.78 E.01923
M73 P0 R476
G1 X152.093 Y19.22 E7.1043
G1 X151.71 Y19.22 E.01923
G1 X151.71 Y160.78 E7.1043
G1 X151.327 Y160.78 E.01923
G1 X151.327 Y19.22 E7.1043
G1 X150.943 Y19.22 E.01923
G1 X150.943 Y160.78 E7.1043
G1 X150.56 Y160.78 E.01923
G1 X150.56 Y19.22 E7.1043
G1 X150.177 Y19.22 E.01923
G1 X150.177 Y160.78 E7.1043
G1 X149.794 Y160.78 E.01923
G1 X149.794 Y19.22 E7.1043
G1 X149.411 Y19.22 E.01923
G1 X149.411 Y160.78 E7.1043
G1 X149.027 Y160.78 E.01923
G1 X149.027 Y19.22 E7.1043
G1 X148.644 Y19.22 E.01923
G1 X148.644 Y160.78 E7.1043
G1 X148.261 Y160.78 E.01923
G1 X148.261 Y19.22 E7.1043
G1 X147.878 Y19.22 E.01923
G1 X147.878 Y160.78 E7.1043
G1 X147.494 Y160.78 E.01923
G1 X147.494 Y19.22 E7.1043
G1 X147.111 Y19.22 E.01923
M73 P0 R475
G1 X147.111 Y160.78 E7.1043
G1 X146.728 Y160.78 E.01923
G1 X146.728 Y19.22 E7.1043
G1 X146.345 Y19.22 E.01923
G1 X146.345 Y160.78 E7.1043
G1 X145.962 Y160.78 E.01923
G1 X145.962 Y19.22 E7.1043
G1 X145.578 Y19.22 E.01923
G1 X145.578 Y160.78 E7.1043
G1 X145.195 Y160.78 E.01923
G1 X145.195 Y19.22 E7.1043
G1 X144.812 Y19.22 E.01923
G1 X144.812 Y160.78 E7.1043
G1 X144.429 Y160.78 E.01923
G1 X144.429 Y19.22 E7.1043
G1 X144.046 Y19.22 E.01923
G1 X144.046 Y160.78 E7.1043
G1 X143.662 Y160.78 E.01923
G1 X143.662 Y19.22 E7.1043
G1 X143.279 Y19.22 E.01923
G1 X143.279 Y160.78 E7.1043
G1 X142.896 Y160.78 E.01923
G1 X142.896 Y19.22 E7.1043
G1 X142.513 Y19.22 E.01923
M73 P0 R474
G1 X142.513 Y160.78 E7.1043
G1 X142.13 Y160.78 E.01923
G1 X142.13 Y19.22 E7.1043
G1 X141.746 Y19.22 E.01923
G1 X141.746 Y160.78 E7.1043
G1 X141.363 Y160.78 E.01923
G1 X141.363 Y19.22 E7.1043
G1 X140.98 Y19.22 E.01923
G1 X140.98 Y160.78 E7.1043
G1 X140.597 Y160.78 E.01923
G1 X140.597 Y19.22 E7.1043
G1 X140.214 Y19.22 E.01923
G1 X140.213 Y160.78 E7.1043
G1 X139.83 Y160.78 E.01923
M73 P1 R474
G1 X139.83 Y19.22 E7.1043
G1 X139.447 Y19.22 E.01923
G1 X139.447 Y160.78 E7.1043
G1 X139.064 Y160.78 E.01923
G1 X139.064 Y19.22 E7.1043
G1 X138.681 Y19.22 E.01923
G1 X138.681 Y160.78 E7.1043
G1 X138.297 Y160.78 E.01923
G1 X138.297 Y19.22 E7.1043
G1 X137.914 Y19.22 E.01923
G1 X137.914 Y160.78 E7.1043
G1 X137.531 Y160.78 E.01923
M73 P1 R473
G1 X137.531 Y19.22 E7.1043
G1 X137.148 Y19.22 E.01923
G1 X137.148 Y160.78 E7.1043
G1 X136.765 Y160.78 E.01923
G1 X136.765 Y19.22 E7.1043
G1 X136.381 Y19.22 E.01923
G1 X136.381 Y160.78 E7.1043
G1 X135.998 Y160.78 E.01923
G1 X135.998 Y19.22 E7.1043
G1 X135.615 Y19.22 E.01923
G1 X135.615 Y160.78 E7.1043
G1 X135.232 Y160.78 E.01923
G1 X135.232 Y19.22 E7.1043
G1 X134.849 Y19.22 E.01923
G1 X134.849 Y160.78 E7.1043
G1 X134.465 Y160.78 E.01923
G1 X134.465 Y19.22 E7.1043
G1 X134.082 Y19.22 E.01923
G1 X134.082 Y160.78 E7.1043
G1 X133.699 Y160.78 E.01923
G1 X133.699 Y19.22 E7.1043
G1 X133.316 Y19.22 E.01923
G1 X133.316 Y160.78 E7.1043
G1 X132.933 Y160.78 E.01923
M73 P1 R472
G1 X132.933 Y19.22 E7.1043
G1 X132.549 Y19.22 E.01923
G1 X132.549 Y160.78 E7.1043
G1 X132.166 Y160.78 E.01923
G1 X132.166 Y19.22 E7.1043
G1 X131.783 Y19.22 E.01923
G1 X131.783 Y160.78 E7.1043
G1 X131.4 Y160.78 E.01923
G1 X131.4 Y19.22 E7.1043
G1 X131.016 Y19.22 E.01923
G1 X131.016 Y160.78 E7.1043
G1 X130.633 Y160.78 E.01923
G1 X130.633 Y19.22 E7.1043
G1 X130.25 Y19.22 E.01923
G1 X130.25 Y160.78 E7.1043
G1 X129.867 Y160.78 E.01923
G1 X129.867 Y19.22 E7.1043
G1 X129.484 Y19.22 E.01923
G1 X129.484 Y160.78 E7.1043
G1 X129.1 Y160.78 E.01923
G1 X129.1 Y19.22 E7.1043
G1 X128.717 Y19.22 E.01923
G1 X128.717 Y160.78 E7.1043
G1 X128.334 Y160.78 E.01923
G1 X128.334 Y19.22 E7.1043
G1 X127.951 Y19.22 E.01923
M73 P1 R471
G1 X127.951 Y160.78 E7.1043
G1 X127.568 Y160.78 E.01923
G1 X127.568 Y19.22 E7.1043
G1 X127.184 Y19.22 E.01923
G1 X127.184 Y160.78 E7.1043
G1 X126.801 Y160.78 E.01923
G1 X126.801 Y19.22 E7.1043
G1 X126.418 Y19.22 E.01923
G1 X126.418 Y160.78 E7.1043
G1 X126.035 Y160.78 E.01923
G1 X126.035 Y19.22 E7.1043
G1 X125.652 Y19.22 E.01923
G1 X125.652 Y160.78 E7.1043
G1 X125.268 Y160.78 E.01923
G1 X125.268 Y19.22 E7.1043
G1 X124.885 Y19.22 E.01923
G1 X124.885 Y160.78 E7.1043
G1 X124.502 Y160.78 E.01923
G1 X124.502 Y19.22 E7.1043
G1 X124.119 Y19.22 E.01923
G1 X124.119 Y160.78 E7.1043
G1 X123.735 Y160.78 E.01923
G1 X123.735 Y19.22 E7.1043
G1 X123.352 Y19.22 E.01923
M73 P1 R470
G1 X123.352 Y160.78 E7.1043
G1 X122.969 Y160.78 E.01923
G1 X122.969 Y19.22 E7.1043
G1 X122.586 Y19.22 E.01923
G1 X122.586 Y160.78 E7.1043
G1 X122.203 Y160.78 E.01923
G1 X122.203 Y19.22 E7.1043
G1 X121.819 Y19.22 E.01923
G1 X121.819 Y160.78 E7.1043
G1 X121.436 Y160.78 E.01923
G1 X121.436 Y19.22 E7.1043
G1 X121.053 Y19.22 E.01923
G1 X121.053 Y160.78 E7.1043
G1 X120.67 Y160.78 E.01923
G1 X120.67 Y19.22 E7.1043
G1 X120.287 Y19.22 E.01923
G1 X120.287 Y160.78 E7.1043
G1 X119.903 Y160.78 E.01923
G1 X119.903 Y19.22 E7.1043
G1 X119.52 Y19.22 E.01923
G1 X119.52 Y160.78 E7.1043
G1 X119.137 Y160.78 E.01923
G1 X119.137 Y19.22 E7.1043
G1 X118.754 Y19.22 E.01923
G1 X118.754 Y160.78 E7.1043
G1 X118.371 Y160.78 E.01923
M73 P1 R469
G1 X118.371 Y19.22 E7.1043
G1 X117.987 Y19.22 E.01923
G1 X117.987 Y160.78 E7.1043
G1 X117.604 Y160.78 E.01923
G1 X117.604 Y19.22 E7.1043
G1 X117.221 Y19.22 E.01923
G1 X117.221 Y160.78 E7.1043
G1 X116.838 Y160.78 E.01923
M73 P2 R469
G1 X116.838 Y19.22 E7.1043
G1 X116.454 Y19.22 E.01923
G1 X116.454 Y160.78 E7.1043
G1 X116.071 Y160.78 E.01923
G1 X116.071 Y19.22 E7.1043
G1 X115.688 Y19.22 E.01923
G1 X115.688 Y160.78 E7.1043
G1 X115.305 Y160.78 E.01923
G1 X115.305 Y19.22 E7.1043
G1 X114.922 Y19.22 E.01923
G1 X114.922 Y160.78 E7.1043
G1 X114.538 Y160.78 E.01923
G1 X114.538 Y19.22 E7.1043
G1 X114.155 Y19.22 E.01923
G1 X114.155 Y160.78 E7.1043
G1 X113.772 Y160.78 E.01923
M73 P2 R468
G1 X113.772 Y19.22 E7.1043
G1 X113.389 Y19.22 E.01923
G1 X113.389 Y160.78 E7.1043
G1 X113.006 Y160.78 E.01923
G1 X113.006 Y19.22 E7.1043
G1 X112.622 Y19.22 E.01923
G1 X112.622 Y160.78 E7.1043
G1 X112.239 Y160.78 E.01923
G1 X112.239 Y19.22 E7.1043
G1 X111.856 Y19.22 E.01923
G1 X111.856 Y160.78 E7.1043
G1 X111.473 Y160.78 E.01923
G1 X111.473 Y19.22 E7.1043
G1 X111.09 Y19.22 E.01923
G1 X111.09 Y160.78 E7.1043
G1 X110.706 Y160.78 E.01923
G1 X110.706 Y19.22 E7.1043
G1 X110.323 Y19.22 E.01923
G1 X110.323 Y160.78 E7.1043
G1 X109.94 Y160.78 E.01923
G1 X109.94 Y19.22 E7.1043
G1 X109.557 Y19.22 E.01923
G1 X109.557 Y160.78 E7.1043
G1 X109.173 Y160.78 E.01923
G1 X109.173 Y19.22 E7.1043
G1 X108.79 Y19.22 E.01923
M73 P2 R467
G1 X108.79 Y160.78 E7.1043
G1 X108.407 Y160.78 E.01923
G1 X108.407 Y19.22 E7.1043
G1 X108.024 Y19.22 E.01923
G1 X108.024 Y160.78 E7.1043
G1 X107.641 Y160.78 E.01923
G1 X107.641 Y19.22 E7.1043
G1 X107.257 Y19.22 E.01923
G1 X107.257 Y160.78 E7.1043
G1 X106.874 Y160.78 E.01923
G1 X106.874 Y19.22 E7.1043
G1 X106.491 Y19.22 E.01923
G1 X106.491 Y160.78 E7.1043
G1 X106.108 Y160.78 E.01923
G1 X106.108 Y19.22 E7.1043
G1 X105.725 Y19.22 E.01923
G1 X105.725 Y160.78 E7.1043
G1 X105.341 Y160.78 E.01923
G1 X105.341 Y19.22 E7.1043
G1 X104.958 Y19.22 E.01923
G1 X104.958 Y160.78 E7.1043
G1 X104.575 Y160.78 E.01923
G1 X104.575 Y19.22 E7.1043
G1 X104.192 Y19.22 E.01923
G1 X104.192 Y160.78 E7.1043
G1 X103.809 Y160.78 E.01923
M73 P2 R466
G1 X103.809 Y19.22 E7.1043
G1 X103.425 Y19.22 E.01923
G1 X103.425 Y160.78 E7.1043
G1 X103.042 Y160.78 E.01923
G1 X103.042 Y19.22 E7.1043
G1 X102.659 Y19.22 E.01923
G1 X102.659 Y160.78 E7.1043
G1 X102.276 Y160.78 E.01923
G1 X102.276 Y19.22 E7.1043
G1 X101.893 Y19.22 E.01923
G1 X101.892 Y160.78 E7.1043
G1 X101.509 Y160.78 E.01923
G1 X101.509 Y19.22 E7.1043
G1 X101.126 Y19.22 E.01923
G1 X101.126 Y160.78 E7.1043
G1 X100.743 Y160.78 E.01923
G1 X100.743 Y19.22 E7.1043
G1 X100.36 Y19.22 E.01923
G1 X100.36 Y160.78 E7.1043
G1 X99.976 Y160.78 E.01923
G1 X99.976 Y19.22 E7.1043
G1 X99.593 Y19.22 E.01923
G1 X99.593 Y160.78 E7.1043
G1 X99.21 Y160.78 E.01923
M73 P2 R465
G1 X99.21 Y19.22 E7.1043
G1 X98.827 Y19.22 E.01923
G1 X98.827 Y160.78 E7.1043
G1 X98.444 Y160.78 E.01923
G1 X98.444 Y19.22 E7.1043
G1 X98.06 Y19.22 E.01923
G1 X98.06 Y160.78 E7.1043
G1 X97.677 Y160.78 E.01923
G1 X97.677 Y19.22 E7.1043
G1 X97.294 Y19.22 E.01923
G1 X97.294 Y160.78 E7.1043
G1 X96.911 Y160.78 E.01923
G1 X96.911 Y19.22 E7.1043
G1 X96.528 Y19.22 E.01923
G1 X96.528 Y160.78 E7.1043
G1 X96.144 Y160.78 E.01923
G1 X96.144 Y19.22 E7.1043
G1 X95.761 Y19.22 E.01923
G1 X95.761 Y160.78 E7.1043
G1 X95.378 Y160.78 E.01923
G1 X95.378 Y19.22 E7.1043
G1 X94.995 Y19.22 E.01923
G1 X94.995 Y160.78 E7.1043
G1 X94.612 Y160.78 E.01923
G1 X94.612 Y19.22 E7.1043
G1 X94.228 Y19.22 E.01923
M73 P2 R464
G1 X94.228 Y160.78 E7.1043
G1 X93.845 Y160.78 E.01923
M73 P3 R464
G1 X93.845 Y19.22 E7.1043
G1 X93.462 Y19.22 E.01923
G1 X93.462 Y160.78 E7.1043
G1 X93.079 Y160.78 E.01923
G1 X93.079 Y19.22 E7.1043
G1 X92.695 Y19.22 E.01923
G1 X92.695 Y160.78 E7.1043
G1 X92.312 Y160.78 E.01923
G1 X92.312 Y19.22 E7.1043
G1 X91.929 Y19.22 E.01923
G1 X91.929 Y160.78 E7.1043
G1 X91.546 Y160.78 E.01923
G1 X91.546 Y19.22 E7.1043
G1 X91.163 Y19.22 E.01923
G1 X91.163 Y160.78 E7.1043
G1 X90.779 Y160.78 E.01923
G1 X90.779 Y19.22 E7.1043
G1 X90.396 Y19.22 E.01923
G1 X90.396 Y160.78 E7.1043
G1 X90.013 Y160.78 E.01923
G1 X90.013 Y19.22 E7.1043
G1 X89.63 Y19.22 E.01923
M73 P3 R463
G1 X89.63 Y160.78 E7.1043
G1 X89.247 Y160.78 E.01923
G1 X89.247 Y19.22 E7.1043
G1 X88.863 Y19.22 E.01923
G1 X88.863 Y160.78 E7.1043
G1 X88.48 Y160.78 E.01923
G1 X88.48 Y19.22 E7.1043
G1 X88.097 Y19.22 E.01923
G1 X88.097 Y160.78 E7.1043
G1 X87.714 Y160.78 E.01923
G1 X87.714 Y19.22 E7.1043
G1 X87.331 Y19.22 E.01923
G1 X87.331 Y160.78 E7.1043
G1 X86.947 Y160.78 E.01923
G1 X86.947 Y19.22 E7.1043
G1 X86.564 Y19.22 E.01923
G1 X86.564 Y160.78 E7.1043
G1 X86.181 Y160.78 E.01923
G1 X86.181 Y19.22 E7.1043
G1 X85.798 Y19.22 E.01923
G1 X85.798 Y160.78 E7.1043
G1 X85.414 Y160.78 E.01923
G1 X85.414 Y19.22 E7.1043
G1 X85.031 Y19.22 E.01923
G1 X85.031 Y160.78 E7.1043
G1 X84.648 Y160.78 E.01923
M73 P3 R462
G1 X84.648 Y19.22 E7.1043
G1 X84.265 Y19.22 E.01923
G1 X84.265 Y160.78 E7.1043
G1 X83.882 Y160.78 E.01923
G1 X83.882 Y19.22 E7.1043
G1 X83.498 Y19.22 E.01923
G1 X83.498 Y160.78 E7.1043
G1 X83.115 Y160.78 E.01923
G1 X83.115 Y19.22 E7.1043
G1 X82.732 Y19.22 E.01923
G1 X82.732 Y160.78 E7.1043
G1 X82.349 Y160.78 E.01923
G1 X82.349 Y19.22 E7.1043
G1 X81.966 Y19.22 E.01923
G1 X81.966 Y160.78 E7.1043
G1 X81.582 Y160.78 E.01923
G1 X81.582 Y19.22 E7.1043
G1 X81.199 Y19.22 E.01923
G1 X81.199 Y160.78 E7.1043
G1 X80.816 Y160.78 E.01923
G1 X80.816 Y19.22 E7.1043
G1 X80.433 Y19.22 E.01923
G1 X80.433 Y160.78 E7.1043
G1 X80.05 Y160.78 E.01923
M73 P3 R461
G1 X80.05 Y19.22 E7.1043
G1 X79.666 Y19.22 E.01923
G1 X79.666 Y160.78 E7.1043
G1 X79.283 Y160.78 E.01923
G1 X79.283 Y19.22 E7.1043
G1 X78.9 Y19.22 E.01923
G1 X78.9 Y160.78 E7.1043
G1 X78.517 Y160.78 E.01923
G1 X78.517 Y19.22 E7.1043
G1 X78.133 Y19.22 E.01923
G1 X78.133 Y160.78 E7.1043
G1 X77.75 Y160.78 E.01923
G1 X77.75 Y19.22 E7.1043
G1 X77.367 Y19.22 E.01923
G1 X77.367 Y160.78 E7.1043
G1 X76.984 Y160.78 E.01923
G1 X76.984 Y19.22 E7.1043
G1 X76.601 Y19.22 E.01923
G1 X76.601 Y160.78 E7.1043
G1 X76.217 Y160.78 E.01923
G1 X76.217 Y19.22 E7.1043
G1 X75.834 Y19.22 E.01923
G1 X75.834 Y160.78 E7.1043
G1 X75.451 Y160.78 E.01923
G1 X75.451 Y19.22 E7.1043
G1 X75.068 Y19.22 E.01923
M73 P3 R460
G1 X75.068 Y160.78 E7.1043
G1 X74.685 Y160.78 E.01923
G1 X74.685 Y19.22 E7.1043
G1 X74.301 Y19.22 E.01923
G1 X74.301 Y160.78 E7.1043
G1 X73.918 Y160.78 E.01923
G1 X73.918 Y19.22 E7.1043
G1 X73.535 Y19.22 E.01923
G1 X73.535 Y160.78 E7.1043
G1 X73.152 Y160.78 E.01923
G1 X73.152 Y19.22 E7.1043
G1 X72.769 Y19.22 E.01923
G1 X72.769 Y160.78 E7.1043
G1 X72.385 Y160.78 E.01923
G1 X72.385 Y19.22 E7.1043
G1 X72.002 Y19.22 E.01923
G1 X72.002 Y160.78 E7.1043
G1 X71.619 Y160.78 E.01923
G1 X71.619 Y19.22 E7.1043
G1 X71.236 Y19.22 E.01923
G1 X71.236 Y160.78 E7.1043
G1 X70.852 Y160.78 E.01923
M73 P4 R460
G1 X70.852 Y19.22 E7.1043
G1 X70.469 Y19.22 E.01923
M73 P4 R459
G1 X70.469 Y160.78 E7.1043
G1 X70.086 Y160.78 E.01923
G1 X70.086 Y19.22 E7.1043
G1 X69.703 Y19.22 E.01923
G1 X69.703 Y160.78 E7.1043
G1 X69.32 Y160.78 E.01923
G1 X69.32 Y19.22 E7.1043
G1 X68.936 Y19.22 E.01923
G1 X68.936 Y160.78 E7.1043
G1 X68.553 Y160.78 E.01923
G1 X68.553 Y19.22 E7.1043
G1 X68.17 Y19.22 E.01923
G1 X68.17 Y160.78 E7.1043
G1 X67.787 Y160.78 E.01923
G1 X67.787 Y19.22 E7.1043
G1 X67.404 Y19.22 E.01923
G1 X67.404 Y160.78 E7.1043
G1 X67.02 Y160.78 E.01923
G1 X67.02 Y19.22 E7.1043
G1 X66.637 Y19.22 E.01923
G1 X66.637 Y160.78 E7.1043
G1 X66.254 Y160.78 E.01923
G1 X66.254 Y19.22 E7.1043
G1 X65.871 Y19.22 E.01923
G1 X65.871 Y160.78 E7.1043
G1 X65.488 Y160.78 E.01923
M73 P4 R458
G1 X65.488 Y19.22 E7.1043
G1 X65.104 Y19.22 E.01923
G1 X65.104 Y160.78 E7.1043
G1 X64.721 Y160.78 E.01923
G1 X64.721 Y19.22 E7.1043
G1 X64.338 Y19.22 E.01923
G1 X64.338 Y160.78 E7.1043
G1 X63.955 Y160.78 E.01923
G1 X63.955 Y19.22 E7.1043
G1 X63.572 Y19.22 E.01923
G1 X63.571 Y160.78 E7.1043
G1 X63.188 Y160.78 E.01923
G1 X63.188 Y19.22 E7.1043
G1 X62.805 Y19.22 E.01923
G1 X62.805 Y160.78 E7.1043
G1 X62.422 Y160.78 E.01923
G1 X62.422 Y19.22 E7.1043
G1 X62.039 Y19.22 E.01923
G1 X62.039 Y160.78 E7.1043
G1 X61.655 Y160.78 E.01923
G1 X61.655 Y19.22 E7.1043
G1 X61.272 Y19.22 E.01923
G1 X61.272 Y160.78 E7.1043
G1 X60.889 Y160.78 E.01923
M73 P4 R457
G1 X60.889 Y19.22 E7.1043
