; generated by PrusaSlicer 2.5.0+win64 on 2022-12-07 at 00:27:04 UTC

; 

; external perimeters extrusion width = 1.00mm
; perimeters extrusion width = 1.00mm
; infill extrusion width = 1.00mm
; solid infill extrusion width = 1.00mm
; top infill extrusion width = 1.00mm
; support material extrusion width = 1.00mm
; first layer extrusion width = 0.42mm

M73 P0 R346
M107
;TYPE:Custom
G90 ; use absolute coordinates
M83 ; extruder relative mode
M140 S60 ; set final bed temp
M104 S150 ; set temporary nozzle temp to prevent oozing during homing and auto bed leveling
G4 S10 ; allow partial nozzle warmup
G28 ; home all axisG1 Z50 F240
G1 X7.6 Y10 F3000
M104 S210 ; set final nozzle temp
M190 S60 ; wait for bed temp to stabilize
M109 S210 ; wait for nozzle temp to stabilize
G1 Z0.28 F240
G92 E0
G1 Y140 E10 F1500 ; prime the nozzle
G1 X4 F5000
G92 E0
G1 Y10 E10 F1200 ; prime the nozzle
G92 E0
G21 ; set units to millimeters
G90 ; use absolute coordinates
M83 ; use relative distances for extrusion
; Filament gcode
M107
;LAYER_CHANGE
;Z:0.35
;HEIGHT:0.35
;BEFORE_LAYER_CHANGE
G92 E0
;0.35


G1 E-1 F3600
G1 Z.35 F7800
;AFTER_LAYER_CHANGE
;0.35
G1 X59.27 Y29.088
G1 E1 F2400
;TYPE:Support material
;WIDTH:0.42
G1 F1800
G1 X62.663 Y29.088 E.17027
G1 X62.663 Y56.23 E1.36213
G1 X66.055 Y56.23 E.17027
G1 X66.055 Y86.764 E1.53239
G1 X69.448 Y86.764 E.17027
G1 X69.448 Y113.906 E1.36213
G1 X72.841 Y113.906 E.17027
G1 X72.841 Y137.654 E1.19186
G1 X76.233 Y137.654 E.17027
G1 X76.233 Y161.09 E1.17616
G1 X29.049 Y161.09 E2.36802
G1 X29.049 Y18.91 E7.13546
G1 X59.27 Y18.91 E1.51669
G1 X59.27 Y29.036 E.5082
G1 E-.7 F3600
;WIPE_START
G1 F6240
G1 X59.27 Y28.516 E-.285
;WIPE_END
G1 E-.015 F3600
G1 X75.782 Y160.935 F7800
G1 E1 F2400
G1 F1800
G1 X75.782 Y137.965 E1.15279
G1 X75.399 Y137.965 E.01923
G1 X75.399 Y160.78 E1.145
G1 X75.015 Y160.78 E.01923
G1 X75.015 Y137.965 E1.145
G1 X74.632 Y137.965 E.01923
M73 P0 R345
G1 X74.632 Y160.78 E1.145
G1 X74.249 Y160.78 E.01923
G1 X74.249 Y137.965 E1.145
G1 X73.866 Y137.965 E.01923
G1 X73.866 Y160.78 E1.145
G1 X73.483 Y160.78 E.01923
G1 X73.483 Y137.965 E1.145
G1 X73.099 Y137.965 E.01923
G1 X73.099 Y160.78 E1.145
G1 X72.716 Y160.78 E.01923
G1 X72.716 Y137.965 E1.145
G1 X72.53 Y137.965 E.00933
G1 X72.53 Y114.216 E1.19186
G1 X72.333 Y114.216 E.0099
G1 X72.333 Y160.78 E2.33686
G1 X71.95 Y160.78 E.01923
G1 X71.95 Y114.216 E2.33686
G1 X71.567 Y114.216 E.01923
G1 X71.567 Y160.78 E2.33686
G1 X71.183 Y160.78 E.01923
G1 X71.183 Y114.216 E2.33686
G1 X70.8 Y114.216 E.01923
G1 X70.8 Y160.78 E2.33686
G1 X70.417 Y160.78 E.01923
G1 X70.417 Y114.216 E2.33686
G1 X70.034 Y114.216 E.01923
G1 X70.034 Y160.78 E2.33686
G1 X69.651 Y160.78 E.01923
G1 X69.651 Y114.216 E2.33686
G1 X69.267 Y114.216 E.01923
G1 X69.267 Y160.78 E2.33686
G1 X68.884 Y160.78 E.01923
G1 X68.884 Y87.074 E3.69899
G1 X68.501 Y87.074 E.01923
G1 X68.501 Y160.78 E3.69899
G1 X68.118 Y160.78 E.01923
G1 X68.118 Y87.074 E3.69899
G1 X67.734 Y87.074 E.01923
G1 X67.734 Y160.78 E3.69899
G1 X67.351 Y160.78 E.01923
G1 X67.351 Y87.074 E3.69899
G1 X66.968 Y87.074 E.01923
G1 X66.968 Y160.78 E3.69899
G1 X66.585 Y160.78 E.01923
G1 X66.585 Y87.074 E3.69899
G1 X66.202 Y87.074 E.01923
G1 X66.202 Y160.78 E3.69899
G1 X65.818 Y160.78 E.01923
G1 X65.818 Y87.074 E3.69899
G1 X65.745 Y87.074 E.00369
G1 X65.745 Y56.54 E1.53239
G1 X65.435 Y56.54 E.01554
G1 X65.435 Y160.78 E5.23138
G1 X65.052 Y160.78 E.01923
G1 X65.052 Y56.54 E5.23138
G1 X64.669 Y56.54 E.01923
G1 X64.669 Y160.78 E5.23138
G1 X64.286 Y160.78 E.01923
G1 X64.286 Y56.54 E5.23138
G1 X63.902 Y56.54 E.01923
G1 X63.902 Y160.78 E5.23138
G1 X63.519 Y160.78 E.01923
M73 P0 R344
G1 X63.519 Y56.54 E5.23138
G1 X63.136 Y56.54 E.01923
G1 X63.136 Y160.78 E5.23138
G1 X62.753 Y160.78 E.01923
G1 X62.753 Y56.54 E5.23138
G1 X62.37 Y56.54 E.01923
G1 X62.37 Y160.78 E5.23138
G1 X61.986 Y160.78 E.01923
G1 X61.986 Y29.398 E6.5935
G1 X61.603 Y29.398 E.01923
G1 X61.603 Y160.78 E6.5935
G1 X61.22 Y160.78 E.01923
G1 X61.22 Y29.398 E6.5935
G1 X60.837 Y29.398 E.01923
G1 X60.837 Y160.78 E6.5935
G1 X60.453 Y160.78 E.01923
G1 X60.454 Y29.398 E6.5935
G1 X60.07 Y29.398 E.01923
G1 X60.07 Y160.78 E6.5935
G1 X59.687 Y160.78 E.01923
G1 X59.687 Y29.398 E6.5935
G1 X59.304 Y29.398 E.01923
G1 X59.304 Y160.78 E6.5935
G1 X58.921 Y160.78 E.01923
G1 X58.921 Y19.22 E7.1043
G1 X58.537 Y19.22 E.01923
G1 X58.537 Y160.78 E7.1043
G1 X58.154 Y160.78 E.01923
M73 P0 R343
G1 X58.154 Y19.22 E7.1043
G1 X57.771 Y19.22 E.01923
G1 X57.771 Y160.78 E7.1043
G1 X57.388 Y160.78 E.01923
G1 X57.388 Y19.22 E7.1043
G1 X57.005 Y19.22 E.01923
G1 X57.005 Y160.78 E7.1043
G1 X56.621 Y160.78 E.01923
G1 X56.621 Y19.22 E7.1043
G1 X56.238 Y19.22 E.01923
G1 X56.238 Y160.78 E7.1043
G1 X55.855 Y160.78 E.01923
G1 X55.855 Y19.22 E7.1043
G1 X55.472 Y19.22 E.01923
G1 X55.472 Y160.78 E7.1043
G1 X55.089 Y160.78 E.01923
G1 X55.089 Y19.22 E7.1043
G1 X54.705 Y19.22 E.01923
G1 X54.705 Y160.78 E7.1043
G1 X54.322 Y160.78 E.01923
G1 X54.322 Y19.22 E7.1043
G1 X53.939 Y19.22 E.01923
G1 X53.939 Y160.78 E7.1043
G1 X53.556 Y160.78 E.01923
M73 P1 R343
G1 X53.556 Y19.22 E7.1043
G1 X53.173 Y19.22 E.01923
M73 P1 R342
G1 X53.173 Y160.78 E7.1043
G1 X52.789 Y160.78 E.01923
G1 X52.789 Y19.22 E7.1043
G1 X52.406 Y19.22 E.01923
G1 X52.406 Y160.78 E7.1043
G1 X52.023 Y160.78 E.01923
G1 X52.023 Y19.22 E7.1043
G1 X51.64 Y19.22 E.01923
G1 X51.64 Y160.78 E7.1043
G1 X51.256 Y160.78 E.01923
G1 X51.256 Y19.22 E7.1043
G1 X50.873 Y19.22 E.01923
G1 X50.873 Y160.78 E7.1043
G1 X50.49 Y160.78 E.01923
G1 X50.49 Y19.22 E7.1043
G1 X50.107 Y19.22 E.01923
G1 X50.107 Y160.78 E7.1043
G1 X49.724 Y160.78 E.01923
G1 X49.724 Y19.22 E7.1043
G1 X49.34 Y19.22 E.01923
G1 X49.34 Y160.78 E7.1043
G1 X48.957 Y160.78 E.01923
G1 X48.957 Y19.22 E7.1043
G1 X48.574 Y19.22 E.01923
M73 P1 R341
G1 X48.574 Y160.78 E7.1043
G1 X48.191 Y160.78 E.01923
G1 X48.191 Y19.22 E7.1043
G1 X47.808 Y19.22 E.01923
G1 X47.808 Y160.78 E7.1043
G1 X47.424 Y160.78 E.01923
G1 X47.424 Y19.22 E7.1043
G1 X47.041 Y19.22 E.01923
G1 X47.041 Y160.78 E7.1043
G1 X46.658 Y160.78 E.01923
G1 X46.658 Y19.22 E7.1043
G1 X46.275 Y19.22 E.01923
G1 X46.275 Y160.78 E7.1043
G1 X45.892 Y160.78 E.01923
G1 X45.892 Y19.22 E7.1043
G1 X45.508 Y19.22 E.01923
G1 X45.508 Y160.78 E7.1043
G1 X45.125 Y160.78 E.01923
G1 X45.125 Y19.22 E7.1043
G1 X44.742 Y19.22 E.01923
G1 X44.742 Y160.78 E7.1043
G1 X44.359 Y160.78 E.01923
G1 X44.359 Y19.22 E7.1043
G1 X43.975 Y19.22 E.01923
G1 X43.975 Y160.78 E7.1043
G1 X43.592 Y160.78 E.01923
M73 P1 R340
G1 X43.592 Y19.22 E7.1043
G1 X43.209 Y19.22 E.01923
G1 X43.209 Y160.78 E7.1043
G1 X42.826 Y160.78 E.01923
G1 X42.826 Y19.22 E7.1043
G1 X42.443 Y19.22 E.01923
G1 X42.443 Y160.78 E7.1043
G1 X42.059 Y160.78 E.01923
G1 X42.059 Y19.22 E7.1043
G1 X41.676 Y19.22 E.01923
G1 X41.676 Y160.78 E7.1043
G1 X41.293 Y160.78 E.01923
G1 X41.293 Y19.22 E7.1043
G1 X40.91 Y19.22 E.01923
G1 X40.91 Y160.78 E7.1043
G1 X40.527 Y160.78 E.01923
G1 X40.527 Y19.22 E7.1043
G1 X40.143 Y19.22 E.01923
G1 X40.143 Y160.78 E7.1043
G1 X39.76 Y160.78 E.01923
G1 X39.76 Y19.22 E7.1043
G1 X39.377 Y19.22 E.01923
G1 X39.377 Y160.78 E7.1043
G1 X38.994 Y160.78 E.01923
M73 P1 R339
G1 X38.994 Y19.22 E7.1043
G1 X38.611 Y19.22 E.01923
G1 X38.611 Y160.78 E7.1043
G1 X38.227 Y160.78 E.01923
G1 X38.227 Y19.22 E7.1043
G1 X37.844 Y19.22 E.01923
G1 X37.844 Y160.78 E7.1043
G1 X37.461 Y160.78 E.01923
G1 X37.461 Y19.22 E7.1043
G1 X37.078 Y19.22 E.01923
G1 X37.078 Y160.78 E7.1043
G1 X36.694 Y160.78 E.01923
M73 P2 R339
G1 X36.694 Y19.22 E7.1043
G1 X36.311 Y19.22 E.01923
G1 X36.311 Y160.78 E7.1043
G1 X35.928 Y160.78 E.01923
G1 X35.928 Y19.22 E7.1043
G1 X35.545 Y19.22 E.01923
G1 X35.545 Y160.78 E7.1043
G1 X35.162 Y160.78 E.01923
G1 X35.162 Y19.22 E7.1043
G1 X34.778 Y19.22 E.01923
G1 X34.778 Y160.78 E7.1043
G1 X34.395 Y160.78 E.01923
G1 X34.395 Y19.22 E7.1043
G1 X34.012 Y19.22 E.01923
M73 P2 R338
G1 X34.012 Y160.78 E7.1043
G1 X33.629 Y160.78 E.01923
G1 X33.629 Y19.22 E7.1043
G1 X33.246 Y19.22 E.01923
G1 X33.246 Y160.78 E7.1043
G1 X32.862 Y160.78 E.01923
G1 X32.862 Y19.22 E7.1043
G1 X32.479 Y19.22 E.01923
G1 X32.479 Y160.78 E7.1043
G1 X32.096 Y160.78 E.01923
G1 X32.096 Y19.22 E7.1043
G1 X31.713 Y19.22 E.01923
G1 X31.713 Y160.78 E7.1043
G1 X31.33 Y160.78 E.01923
G1 X31.33 Y19.22 E7.1043
G1 X30.946 Y19.22 E.01923
G1 X30.946 Y160.78 E7.1043
G1 X30.563 Y160.78 E.01923
G1 X30.563 Y19.22 E7.1043
G1 X30.18 Y19.22 E.01923
G1 X30.18 Y160.78 E7.1043
G1 X29.797 Y160.78 E.01923
G1 X29.797 Y19.22 E7.1043
G1 X29.413 Y19.22 E.01923
M73 P2 R337
G1 X29.413 Y160.935 E7.11209
G1 E-.7 F3600
;WIPE_START
G1 F6240
G1 X29.413 Y160.415 E-.285
;WIPE_END
G1 E-.015 F3600
G1 X145.572 Y156.653 F7800
G1 E1 F2400
;TYPE:Perimeter
;WIDTH:0.42
G1 F1800
G1 X131.56 Y156.653 E.70316
G1 X130.876 Y146.343 E.51858
G1 X111.14 Y28.276 E6.0075
G1 X110.874 Y25.547 E.13759
G1 X110.502 Y23.355 E.11158
G1 X124.886 Y23.351 E.72191
G1 X144.466 Y140.345 E5.95312
G1 X144.549 Y141.062 E.03622
G1 X145.562 Y156.503 E.77661
G1 X145.94 Y156.998 F7800
;TYPE:External perimeter
G1 F1800
G1 X131.238 Y156.998 E.73784
G1 X130.536 Y146.399 E.53306
G1 X110.798 Y28.321 E6.00809
G1 X110.531 Y25.581 E.13819
G1 X110.093 Y23.011 E.13084
G1 X125.178 Y23.006 E.75707
G1 X144.806 Y140.288 E5.96777
G1 X144.893 Y141.039 E.03795
G1 X145.93 Y156.848 E.79509
G1 X145.063 Y156.518 F7800
G1 E-.7 F3600
;WIPE_START
G1 F6240
G1 X145.41 Y156.854 E-.285
;WIPE_END
G1 E-.015 F3600
G1 X124.096 Y23.455 F7800
G1 E1 F2400
;TYPE:Solid infill
;WIDTH:0.421269
G1 F1800
G1 X124.751 Y24.109 E.04663
G1 X124.849 Y24.697 E.03003
G1 X123.762 Y23.61 E.07744
G1 X123.273 Y23.61 E.02465
G1 X124.948 Y25.285 E.11931
G1 X125.046 Y25.873 E.03003
G1 X122.783 Y23.61 E.16118
G1 X122.294 Y23.61 E.02465
G1 X125.144 Y26.461 E.20306
G1 X125.243 Y27.049 E.03003
G1 X121.804 Y23.61 E.24493
G1 X121.315 Y23.611 E.02465
G1 X125.341 Y27.637 E.2868
G1 X125.44 Y28.225 E.03003
G1 X120.826 Y23.611 E.32867
G1 X120.336 Y23.611 E.02465
G1 X125.538 Y28.813 E.37054
G1 X125.636 Y29.4 E.03003
G1 X119.847 Y23.611 E.41241
G1 X119.358 Y23.611 E.02465
G1 X125.735 Y29.988 E.45428
G1 X125.833 Y30.576 E.03003
G1 X118.868 Y23.611 E.49615
G1 X118.379 Y23.612 E.02465
G1 X125.932 Y31.164 E.53802
G1 X126.03 Y31.752 E.03003
G1 X117.889 Y23.612 E.57989
G1 X117.4 Y23.612 E.02465
G1 X126.128 Y32.34 E.62176
G1 X126.227 Y32.928 E.03003
G1 X116.911 Y23.612 E.66363
G1 X116.421 Y23.612 E.02465
G1 X126.325 Y33.516 E.7055
G1 X126.423 Y34.104 E.03003
G1 X115.932 Y23.612 E.74737
G1 X115.442 Y23.612 E.02465
G1 X126.522 Y34.692 E.78924
G1 X126.62 Y35.28 E.03003
G1 X114.953 Y23.613 E.83111
G1 X114.464 Y23.613 E.02465
G1 X126.719 Y35.868 E.87298
G1 X126.817 Y36.456 E.03003
G1 X113.974 Y23.613 E.91485
G1 X113.485 Y23.613 E.02465
G1 X126.915 Y37.044 E.95672
G1 X127.014 Y37.632 E.03003
G1 X112.995 Y23.613 E.99859
G1 X112.506 Y23.613 E.02465
G1 X127.112 Y38.219 E1.04046
G1 X127.211 Y38.807 E.03003
G1 X112.017 Y23.614 E1.08233
G1 X111.527 Y23.614 E.02465
G1 X127.309 Y39.395 E1.1242
G1 X127.407 Y39.983 E.03003
G1 X111.038 Y23.614 E1.16607
G1 X110.808 Y23.614 E.01158
G1 X110.861 Y23.927 E.01597
G1 X127.506 Y40.571 E1.18568
G1 X127.604 Y41.159 E.03003
G1 X110.961 Y24.516 E1.18555
G1 X111.061 Y25.106 E.03013
G1 X127.703 Y41.747 E1.18543
G1 X127.801 Y42.335 E.03003
G1 X111.147 Y25.681 E1.18631
G1 X111.2 Y26.224 E.02744
G1 X127.899 Y42.923 E1.18956
G1 X127.998 Y43.511 E.03003
G1 X111.253 Y26.766 E1.19282
G1 X111.306 Y27.308 E.02744
G1 X128.096 Y44.099 E1.19607
G1 X128.195 Y44.687 E.03003
G1 X111.358 Y27.851 E1.19932
G1 X111.396 Y28.242 E.01981
G1 X111.424 Y28.406 E.00835
G1 X128.293 Y45.275 E1.20167
G1 X128.391 Y45.863 E.03003
G1 X111.522 Y28.993 E1.20168
G1 X111.62 Y29.581 E.03002
G1 X128.49 Y46.451 E1.20169
G1 X128.588 Y47.039 E.03003
G1 X111.719 Y30.169 E1.2017
G1 X111.817 Y30.757 E.03002
G1 X128.687 Y47.626 E1.20171
G1 X128.785 Y48.214 E.03003
G1 X111.915 Y31.345 E1.20172
G1 X112.013 Y31.932 E.03002
G1 X128.883 Y48.802 E1.20173
G1 X128.982 Y49.39 E.03003
G1 X112.112 Y32.52 E1.20174
G1 X112.21 Y33.108 E.03002
G1 X129.08 Y49.978 E1.20175
G1 X129.178 Y50.566 E.03003
G1 X112.308 Y33.696 E1.20176
G1 X112.406 Y34.284 E.03002
G1 X129.277 Y51.154 E1.20177
G1 X129.375 Y51.742 E.03003
G1 X112.505 Y34.871 E1.20178
G1 X112.603 Y35.459 E.03002
G1 X129.474 Y52.33 E1.20179
G1 X129.572 Y52.918 E.03003
G1 X112.701 Y36.047 E1.2018
G1 X112.799 Y36.635 E.03002
G1 X129.67 Y53.506 E1.2018
G1 X129.769 Y54.094 E.03003
M73 P2 R336
G1 X112.898 Y37.223 E1.20181
G1 X112.996 Y37.81 E.03002
G1 X129.867 Y54.682 E1.20182
G1 X129.966 Y55.27 E.03003
G1 X113.094 Y38.398 E1.20183
G1 X113.192 Y38.986 E.03002
G1 X130.064 Y55.858 E1.20184
G1 X130.162 Y56.445 E.03003
G1 X113.291 Y39.574 E1.20185
G1 X113.389 Y40.162 E.03002
G1 X130.261 Y57.033 E1.20186
G1 X130.359 Y57.621 E.03003
G1 X113.487 Y40.749 E1.20187
G1 X113.585 Y41.337 E.03002
G1 X130.458 Y58.209 E1.20188
G1 X130.556 Y58.797 E.03003
G1 X113.684 Y41.925 E1.20189
G1 X113.782 Y42.513 E.03002
G1 X130.654 Y59.385 E1.2019
G1 X130.753 Y59.973 E.03003
G1 X113.88 Y43.101 E1.20191
G1 X113.979 Y43.688 E.03002
G1 X130.851 Y60.561 E1.20192
G1 X130.95 Y61.149 E.03003
G1 X114.077 Y44.276 E1.20193
G1 X114.175 Y44.864 E.03002
G1 X131.048 Y61.737 E1.20194
G1 X131.146 Y62.325 E.03003
G1 X114.273 Y45.452 E1.20195
G1 X114.372 Y46.04 E.03002
G1 X131.245 Y62.913 E1.20196
G1 X131.343 Y63.501 E.03003
G1 X114.47 Y46.627 E1.20197
G1 X114.568 Y47.215 E.03002
G1 X131.442 Y64.089 E1.20198
G1 X131.54 Y64.677 E.03003
G1 X114.666 Y47.803 E1.20199
G1 X114.765 Y48.391 E.03002
G1 X131.638 Y65.264 E1.20199
G1 X131.737 Y65.852 E.03003
G1 X114.863 Y48.979 E1.202
G1 X114.961 Y49.566 E.03002
G1 X131.835 Y66.44 E1.20201
G1 X131.934 Y67.028 E.03003
G1 X115.059 Y50.154 E1.20202
G1 X115.158 Y50.742 E.03002
G1 X132.032 Y67.616 E1.20203
G1 X132.13 Y68.204 E.03003
G1 X115.256 Y51.33 E1.20204
G1 X115.354 Y51.918 E.03002
G1 X132.229 Y68.792 E1.20205
G1 X132.327 Y69.38 E.03003
G1 X115.452 Y52.505 E1.20206
G1 X115.551 Y53.093 E.03002
G1 X132.425 Y69.968 E1.20207
G1 X132.524 Y70.556 E.03003
G1 X115.649 Y53.681 E1.20208
G1 X115.747 Y54.269 E.03002
G1 X132.622 Y71.144 E1.20209
G1 X132.721 Y71.732 E.03003
G1 X115.845 Y54.857 E1.2021
G1 X115.944 Y55.444 E.03002
G1 X132.819 Y72.32 E1.20211
G1 X132.917 Y72.908 E.03003
G1 X116.042 Y56.032 E1.20212
G1 X116.14 Y56.62 E.03002
G1 X133.016 Y73.496 E1.20213
G1 X133.114 Y74.084 E.03003
G1 X116.238 Y57.208 E1.20214
G1 X116.337 Y57.796 E.03002
G1 X133.213 Y74.671 E1.20215
G1 X133.311 Y75.259 E.03003
G1 X116.435 Y58.383 E1.20216
G1 X116.533 Y58.971 E.03002
G1 X133.409 Y75.847 E1.20217
G1 X133.508 Y76.435 E.03003
G1 X116.632 Y59.559 E1.20218
G1 X116.73 Y60.147 E.03002
G1 X133.606 Y77.023 E1.20219
G1 X133.705 Y77.611 E.03003
G1 X116.828 Y60.735 E1.20219
G1 X116.926 Y61.322 E.03002
G1 X133.803 Y78.199 E1.2022
G1 X133.901 Y78.787 E.03003
G1 X117.025 Y61.91 E1.20221
G1 X117.123 Y62.498 E.03002
G1 X134 Y79.375 E1.20222
G1 X134.098 Y79.963 E.03003
G1 X117.221 Y63.086 E1.20223
G1 X117.319 Y63.674 E.03002
G1 X134.197 Y80.551 E1.20224
G1 X134.295 Y81.139 E.03003
G1 X117.418 Y64.261 E1.20225
G1 X117.516 Y64.849 E.03002
G1 X134.393 Y81.727 E1.20226
G1 X134.492 Y82.315 E.03003
G1 X117.614 Y65.437 E1.20227
G1 X117.712 Y66.025 E.03002
G1 X134.59 Y82.903 E1.20228
G1 X134.689 Y83.49 E.03003
G1 X117.811 Y66.613 E1.20229
G1 X117.909 Y67.2 E.03002
G1 X134.787 Y84.078 E1.2023
G1 X134.885 Y84.666 E.03003
G1 X118.007 Y67.788 E1.20231
G1 X118.105 Y68.376 E.03002
G1 X134.984 Y85.254 E1.20232
G1 X135.082 Y85.842 E.03003
G1 X118.204 Y68.964 E1.20233
G1 X118.302 Y69.552 E.03002
G1 X135.18 Y86.43 E1.20234
G1 X135.279 Y87.018 E.03003
G1 X118.4 Y70.139 E1.20235
G1 X118.498 Y70.727 E.03002
G1 X135.377 Y87.606 E1.20236
G1 X135.476 Y88.194 E.03003
G1 X118.597 Y71.315 E1.20237
G1 X118.695 Y71.903 E.03002
G1 X135.574 Y88.782 E1.20238
G1 X135.672 Y89.37 E.03003
G1 X118.793 Y72.491 E1.20238
G1 X118.892 Y73.078 E.03002
G1 X135.771 Y89.958 E1.20239
G1 X135.869 Y90.546 E.03003
G1 X118.99 Y73.666 E1.2024
G1 X119.088 Y74.254 E.03002
M73 P3 R336
G1 X135.968 Y91.134 E1.20241
G1 X136.066 Y91.722 E.03003
G1 X119.186 Y74.842 E1.20242
G1 X119.285 Y75.43 E.03002
