; generated by PrusaSlicer 2.5.0+win64 on 2022-12-07 at 00:13:42 UTC

; 

; external perimeters extrusion width = 1.00mm
; perimeters extrusion width = 1.00mm
; infill extrusion width = 1.00mm
; solid infill extrusion width = 1.00mm
; top infill extrusion width = 1.00mm
; support material extrusion width = 1.00mm
; first layer extrusion width = 0.42mm

M73 P0 R635
M107
;TYPE:Custom
G90 ; use absolute coordinates
M83 ; extruder relative mode
M140 S60 ; set final bed temp
M104 S150 ; set temporary nozzle temp to prevent oozing during homing and auto bed leveling
G4 S10 ; allow partial nozzle warmup
G28 ; home all axisG1 Z50 F240
G1 X7.6 Y10 F3000
M104 S210 ; set final nozzle temp
M190 S60 ; wait for bed temp to stabilize
M109 S210 ; wait for nozzle temp to stabilize
G1 Z0.28 F240
G92 E0
G1 Y140 E10 F1500 ; prime the nozzle
G1 X4 F5000
G92 E0
G1 Y10 E10 F1200 ; prime the nozzle
G92 E0
G21 ; set units to millimeters
G90 ; use absolute coordinates
M83 ; use relative distances for extrusion
; Filament gcode
M107
;LAYER_CHANGE
;Z:0.35
;HEIGHT:0.35
;BEFORE_LAYER_CHANGE
G92 E0
;0.35


G1 E-1 F3600
G1 Z.35 F7800
;AFTER_LAYER_CHANGE
;0.35
G1 X12.782 Y14.959
G1 E1 F2400
;TYPE:Support material interface
;WIDTH:1
G1 F1800
G1 X12.781 Y165.041 E20.19859
G1 E-.7 F3600
;WIPE_START
G1 F6240
G1 X12.781 Y164.521 E-.285
;WIPE_END
G1 E-.015 F3600
G1 X42.241 Y165.041 F7800
G1 E1 F2400
G1 F1800
G1 X42.241 Y164.321 E.09687
G1 X41.348 Y164.321 E.12014
G1 X41.348 Y164.639 E.04281
G1 X40.455 Y164.639 E.12014
G1 X40.455 Y164.321 E.04281
G1 X39.562 Y164.321 E.12014
G1 X39.562 Y164.639 E.0428
G1 X38.67 Y164.639 E.12014
G1 X38.67 Y164.321 E.0428
G1 X37.777 Y164.321 E.12014
G1 X37.777 Y164.639 E.0428
G1 X36.884 Y164.639 E.12014
G1 X36.884 Y164.321 E.04281
G1 X35.992 Y164.321 E.12014
G1 X35.992 Y164.639 E.04281
G1 X35.099 Y164.639 E.12014
G1 X35.099 Y164.321 E.0428
G1 X34.206 Y164.321 E.12014
G1 X34.206 Y164.639 E.0428
G1 X33.314 Y164.639 E.12014
G1 X33.314 Y164.321 E.0428
G1 X32.421 Y164.321 E.12014
G1 X32.421 Y164.639 E.0428
G1 X31.528 Y164.639 E.12014
G1 X31.528 Y164.321 E.0428
G1 X30.635 Y164.321 E.12014
G1 X30.635 Y164.639 E.0428
G1 X29.743 Y164.639 E.12014
G1 X29.743 Y164.321 E.0428
G1 X28.85 Y164.321 E.12014
G1 X28.85 Y164.639 E.0428
G1 X27.957 Y164.639 E.12014
G1 X27.957 Y164.321 E.0428
G1 X27.065 Y164.321 E.12014
G1 X27.065 Y164.639 E.04281
G1 X26.172 Y164.639 E.12014
G1 X26.172 Y164.321 E.0428
G1 X25.279 Y164.321 E.12014
G1 X25.279 Y164.639 E.0428
G1 X24.387 Y164.639 E.12014
G1 X24.387 Y164.321 E.0428
G1 X23.494 Y164.321 E.12014
G1 X23.494 Y164.639 E.0428
G1 X22.601 Y164.639 E.12014
G1 X22.601 Y164.321 E.0428
G1 X21.708 Y164.321 E.12014
G1 X21.708 Y164.639 E.0428
G1 X20.816 Y164.639 E.12014
G1 X20.816 Y164.321 E.0428
G1 X19.923 Y164.321 E.12014
G1 X19.923 Y164.639 E.0428
G1 X19.03 Y164.639 E.12014
G1 X19.03 Y164.321 E.0428
G1 X18.138 Y164.321 E.12014
G1 X18.138 Y164.639 E.0428
G1 X17.245 Y164.639 E.12014
G1 X17.245 Y164.321 E.0428
G1 X16.352 Y164.321 E.12014
G1 X16.352 Y164.639 E.0428
G1 X15.46 Y164.639 E.12014
G1 X15.46 Y164.321 E.0428
G1 X14.567 Y164.321 E.12014
G1 X14.567 Y164.639 E.0428
G1 X13.674 Y164.639 E.12014
G1 X13.674 Y164.125 E.06928
G1 X13.024 Y163.474 E.12381
G1 X13.024 Y16.528 E19.77653
G1 X13.674 Y15.877 E.12382
G1 X13.674 Y15.361 E.06955
G1 X14.567 Y15.361 E.12014
G1 X14.567 Y15.681 E.04308
G1 X15.46 Y15.681 E.12014
G1 X15.46 Y15.361 E.04308
G1 X16.352 Y15.361 E.12014
G1 X16.352 Y15.681 E.04308
G1 X17.245 Y15.681 E.12014
G1 X17.245 Y15.361 E.04308
G1 X18.138 Y15.361 E.12014
G1 X18.138 Y15.681 E.04308
G1 X19.03 Y15.681 E.12014
G1 X19.03 Y15.361 E.04308
G1 X19.923 Y15.361 E.12014
G1 X19.923 Y15.681 E.04308
G1 X20.816 Y15.681 E.12014
G1 X20.816 Y15.361 E.04308
G1 X21.708 Y15.361 E.12014
G1 X21.708 Y15.681 E.04308
G1 X22.601 Y15.681 E.12014
G1 X22.601 Y15.361 E.04308
G1 X23.494 Y15.361 E.12014
G1 X23.494 Y15.681 E.04308
G1 X24.387 Y15.681 E.12014
G1 X24.387 Y15.361 E.04308
G1 X25.279 Y15.361 E.12014
G1 X25.279 Y15.681 E.04308
G1 X26.172 Y15.681 E.12014
G1 X26.172 Y15.361 E.04308
G1 X27.065 Y15.361 E.12014
G1 X27.065 Y15.681 E.04308
G1 X27.957 Y15.681 E.12014
G1 X27.957 Y15.361 E.04308
G1 X28.85 Y15.361 E.12014
G1 X28.85 Y16.082 E.09714
G1 E-.7 F3600
;WIPE_START
G1 F6240
G1 X28.85 Y15.562 E-.285
;WIPE_END
G1 E-.015 F3600
G1 X46.704 Y16.082 F7800
G1 E1 F2400
G1 F1800
G1 X46.704 Y15.361 E.09714
G1 X47.597 Y15.361 E.12014
G1 X47.597 Y15.681 E.04308
G1 X48.489 Y15.681 E.12014
G1 X48.489 Y15.361 E.04308
G1 X49.382 Y15.361 E.12014
G1 X49.382 Y15.681 E.04308
G1 X50.275 Y15.681 E.12014
G1 X50.275 Y15.361 E.04308
G1 X51.168 Y15.361 E.12014
G1 X51.168 Y15.681 E.04308
G1 X51.72 Y15.681 E.07428
G1 X52.06 Y15.936 E.05734
G1 X52.06 Y15.361 E.0775
G1 X52.953 Y15.361 E.12014
G1 X52.953 Y17.848 E.33478
G1 X53.846 Y20.918 E.43031
G1 X53.846 Y15.361 E.74798
G1 X54.738 Y15.361 E.12014
G1 X54.738 Y23.989 E1.16118
G1 X55.631 Y27.059 E.43031
G1 X55.631 Y15.361 E1.57438
G1 X56.524 Y15.361 E.12014
G1 X56.524 Y30.129 E1.98758
G1 X57.416 Y33.199 E.43031
G1 X57.416 Y15.361 E2.40078
G1 X58.309 Y15.361 E.12014
G1 X58.309 Y36.269 E2.81398
G1 X59.202 Y39.34 E.43031
G1 X59.202 Y15.361 E3.22718
G1 X60.095 Y15.361 E.12014
M73 P0 R634
G1 X60.095 Y42.41 E3.64038
G1 X60.987 Y45.48 E.43031
G1 X60.987 Y15.361 E4.05358
G1 X61.88 Y15.361 E.12014
G1 X61.88 Y48.55 E4.46678
G1 X62.773 Y51.62 E.43031
G1 X62.773 Y15.361 E4.87998
G1 X63.665 Y15.361 E.12014
G1 X63.665 Y54.691 E5.29318
G1 X64.558 Y57.761 E.43031
G1 X64.558 Y15.361 E5.70638
G1 X65.451 Y15.361 E.12014
G1 X65.451 Y60.831 E6.11958
G1 X66.343 Y63.901 E.43031
G1 X66.343 Y25.539 E5.16298
G1 X67.236 Y25.539 E.12014
G1 X67.236 Y66.972 E5.57618
G1 X68.129 Y70.042 E.43031
G1 X68.129 Y25.539 E5.98938
G1 X69.022 Y25.539 E.12014
G1 X69.022 Y73.112 E6.40258
G1 X69.914 Y76.182 E.43031
G1 X69.914 Y39.109 E4.98938
G1 X70.807 Y39.109 E.12014
G1 X70.807 Y79.252 E5.40258
G1 X71.7 Y82.323 E.43031
G1 X71.7 Y39.109 E5.81578
G1 X72.592 Y39.109 E.12014
G1 X72.592 Y85.393 E6.22898
G1 X73.485 Y88.463 E.43031
G1 X73.485 Y49.288 E5.27237
G1 X74.378 Y49.288 E.12014
G1 X74.378 Y91.533 E5.68557
G1 X75.27 Y94.603 E.43031
G1 X75.27 Y49.288 E6.09877
G1 X76.163 Y49.288 E.12014
G1 X76.163 Y97.674 E6.51197
G1 X77.056 Y100.744 E.43031
G1 X77.056 Y62.858 E5.09877
G1 X77.949 Y62.858 E.12014
G1 X77.949 Y103.814 E5.51197
G1 X78.841 Y106.884 E.43031
G1 X78.841 Y62.858 E5.92517
G1 X79.734 Y62.858 E.12014
G1 X79.734 Y109.955 E6.33837
G1 X80.627 Y113.025 E.43031
G1 X80.627 Y73.036 E5.38177
G1 X81.519 Y73.036 E.12014
G1 X81.519 Y116.095 E5.79497
G1 X82.412 Y119.165 E.43031
G1 X82.412 Y73.036 E6.20817
G1 X83.215 Y73.036 E.10802
G1 X83.215 Y86.607 E1.82641
G1 X83.305 Y86.607 E.01212
G1 X83.305 Y122.235 E4.79496
G1 X84.197 Y125.306 E.43031
G1 X84.197 Y86.607 E5.20816
G1 X85.09 Y86.607 E.12014
G1 X85.09 Y128.376 E5.62136
G1 X85.983 Y131.446 E.43031
G1 X85.983 Y86.607 E6.03456
G1 X86.607 Y86.607 E.08405
G1 X86.607 Y96.785 E1.3698
G1 X86.876 Y96.785 E.03609
G1 X86.876 Y134.516 E5.07796
G1 X87.768 Y137.587 E.43031
G1 X87.768 Y96.785 E5.49116
G1 X88.661 Y96.785 E.12014
G1 X88.661 Y140.657 E5.90436
G1 X89.554 Y143.727 E.43031
G1 X89.554 Y96.785 E6.31756
G1 X90 Y96.785 E.06008
G1 X90 Y106.963 E1.3698
G1 X90.446 Y106.963 E.06006
G1 X90.446 Y146.797 E5.36096
G1 X91.339 Y149.867 E.43031
G1 X91.339 Y106.963 E5.77416
G1 X92.232 Y106.963 E.12014
G1 X92.232 Y152.938 E6.18736
G1 X93.124 Y156.008 E.43031
G1 X93.124 Y106.963 E6.60056
G1 X93.393 Y106.963 E.03611
G1 X93.393 Y120.534 E1.82641
G1 X94.017 Y120.534 E.08403
G1 X94.017 Y160.517 E5.38099
G1 E-.7 F3600
;WIPE_START
M73 P0 R633
G1 F6240
G1 X94.017 Y159.997 E-.285
;WIPE_END
G1 E-.015 F3600
G1 X86.876 Y163.92 F7800
G1 E1 F2400
G1 F1800
G1 X86.876 Y164.639 E.09687
G1 X87.768 Y164.639 E.12014
G1 X87.768 Y164.321 E.04281
G1 X88.661 Y164.321 E.12014
G1 X88.661 Y164.639 E.0428
G1 X89.554 Y164.639 E.12014
G1 X89.554 Y164.321 E.0428
G1 X90.446 Y164.321 E.12014
G1 X90.446 Y164.639 E.0428
G1 X91.339 Y164.639 E.12014
G1 X91.339 Y164.321 E.0428
G1 X92.232 Y164.321 E.12014
G1 X92.232 Y164.639 E.0428
G1 X93.124 Y164.639 E.12014
G1 X93.124 Y164.321 E.0428
G1 X94.017 Y164.321 E.12014
G1 X94.017 Y164.639 E.0428
G1 X94.91 Y164.639 E.12014
G1 X94.91 Y120.534 E5.93582
G1 X95.803 Y120.534 E.12014
G1 X95.802 Y164.639 E5.93582
G1 X96.695 Y164.639 E.12014
G1 X96.695 Y120.534 E5.93582
G1 X96.785 Y120.534 E.01214
G1 X96.785 Y130.712 E1.3698
G1 X97.588 Y130.712 E.108
G1 X97.588 Y164.639 E4.56602
G1 X98.481 Y164.639 E.12014
G1 X98.481 Y130.712 E4.56602
G1 X99.373 Y130.712 E.12014
G1 X99.373 Y164.639 E4.56602
G1 X100.266 Y164.639 E.12014
G1 X100.266 Y144.283 E2.73961
G1 X101.159 Y144.283 E.12014
G1 X101.159 Y164.639 E2.73961
G1 X102.051 Y164.639 E.12014
G1 X102.051 Y144.283 E2.73961
G1 X102.944 Y144.283 E.12014
G1 X102.944 Y164.639 E2.73961
G1 X103.837 Y164.639 E.12014
G1 X103.837 Y154.461 E1.36981
G1 X104.729 Y154.461 E.12014
G1 X104.729 Y164.639 E1.36981
G1 X105.622 Y164.639 E.12014
G1 X105.622 Y154.461 E1.36981
G1 X106.515 Y154.461 E.12014
G1 X106.515 Y165.041 E1.42387
G1 E-.7 F3600
;WIPE_START
G1 F6240
G1 X106.515 Y164.521 E-.285
;WIPE_END
G1 E-.015 F3600
G1 X67.386 Y163.689 F7800
G1 E1 F2400
;TYPE:Support material
;WIDTH:0.42
G1 F1800
G1 X67.798 Y164.085 E.0287
G1 X84.302 Y164.085 E.82827
G1 X84.728 Y163.517 E.03562
G1 X84.02 Y161.085 E.12713
G1 X88.951 Y161.085 E.24748
G1 X88.951 Y163.517 E.12206
G1 X88.84 Y163.665 E.00927
G1 X85.951 Y163.665 E.145
G1 X85.951 Y165.296 E.08185
G1 X88.951 Y165.296 E.15056
G1 X88.951 Y167.876 E.12947
G1 X40.159 Y167.876 E2.44868
G1 X40.159 Y165.296 E.12947
G1 X43.159 Y165.296 E.15056
G1 X43.159 Y163.665 E.08185
G1 X40.159 Y163.665 E.15056
G1 X40.159 Y161.085 E.12947
G1 X67.284 Y161.085 E1.36129
G1 X67.384 Y163.637 E.12816
G1 E-.7 F3600
;WIPE_START
G1 F6240
G1 X67.363 Y163.117 E-.285
;WIPE_END
G1 E-.015 F3600
G1 X88.467 Y167.72 F7800
G1 E1 F2400
G1 F1800
G1 X88.467 Y165.606 E.1061
G1 X88.084 Y165.606 E.01923
G1 X88.084 Y167.565 E.09831
G1 X87.701 Y167.565 E.01923
G1 X87.701 Y165.606 E.09831
G1 X87.318 Y165.606 E.01923
G1 X87.318 Y167.565 E.09831
G1 X86.934 Y167.565 E.01923
G1 X86.934 Y165.606 E.09831
G1 X86.551 Y165.606 E.01923
G1 X86.551 Y167.565 E.09831
G1 X86.168 Y167.565 E.01923
G1 X86.168 Y165.451 E.1061
G1 E-.7 F3600
;WIPE_START
G1 F6240
G1 X86.168 Y165.971 E-.285
;WIPE_END
G1 E-.015 F3600
G1 X88.467 Y163.51 F7800
G1 E1 F2400
G1 F1800
G1 X88.467 Y161.395 E.1061
G1 X88.084 Y161.395 E.01923
G1 X88.084 Y163.354 E.09831
G1 X87.701 Y163.354 E.01923
G1 X87.701 Y161.395 E.09831
G1 X87.318 Y161.395 E.01923
G1 X87.318 Y163.354 E.09831
G1 X86.934 Y163.354 E.01923
G1 X86.934 Y161.395 E.09831
G1 X86.551 Y161.395 E.01923
G1 X86.551 Y163.354 E.09831
G1 X86.168 Y163.354 E.01923
G1 X86.168 Y161.395 E.09831
G1 X85.785 Y161.395 E.01923
G1 X85.785 Y167.565 E.30963
G1 X85.401 Y167.565 E.01923
G1 X85.401 Y161.395 E.30963
G1 X85.018 Y161.395 E.01923
G1 X85.018 Y167.565 E.30963
G1 X84.635 Y167.565 E.01923
G1 X84.635 Y164.158 E.17098
G1 X84.457 Y164.395 E.01488
G1 X84.252 Y164.395 E.0103
G1 X84.252 Y167.565 E.15908
G1 X83.869 Y167.565 E.01923
G1 X83.869 Y164.395 E.15908
G1 X83.485 Y164.395 E.01923
G1 X83.485 Y167.565 E.15908
G1 X83.102 Y167.565 E.01923
G1 X83.102 Y164.395 E.15908
G1 X82.719 Y164.395 E.01923
G1 X82.719 Y167.565 E.15908
G1 X82.336 Y167.565 E.01923
G1 X82.336 Y164.395 E.15908
G1 X81.953 Y164.395 E.01923
G1 X81.953 Y167.565 E.15908
G1 X81.569 Y167.565 E.01923
G1 X81.569 Y164.395 E.15908
G1 X81.186 Y164.395 E.01923
G1 X81.186 Y167.565 E.15908
G1 X80.803 Y167.565 E.01923
G1 X80.803 Y164.395 E.15908
G1 X80.42 Y164.395 E.01923
G1 X80.42 Y167.565 E.15908
G1 X80.037 Y167.565 E.01923
G1 X80.037 Y164.395 E.15908
G1 X79.653 Y164.395 E.01923
G1 X79.653 Y167.565 E.15908
G1 X79.27 Y167.565 E.01923
G1 X79.27 Y164.395 E.15908
G1 X78.887 Y164.395 E.01923
G1 X78.887 Y167.565 E.15908
G1 X78.504 Y167.565 E.01923
G1 X78.504 Y164.395 E.15908
G1 X78.12 Y164.395 E.01923
G1 X78.12 Y167.565 E.15908
G1 X77.737 Y167.565 E.01923
G1 X77.737 Y164.395 E.15908
G1 X77.354 Y164.395 E.01923
G1 X77.354 Y167.565 E.15908
G1 X76.971 Y167.565 E.01923
G1 X76.971 Y164.395 E.15908
G1 X76.588 Y164.395 E.01923
G1 X76.588 Y167.565 E.15908
G1 X76.204 Y167.565 E.01923
G1 X76.204 Y164.395 E.15908
G1 X75.821 Y164.395 E.01923
G1 X75.821 Y167.565 E.15908
G1 X75.438 Y167.565 E.01923
G1 X75.438 Y164.395 E.15908
G1 X75.055 Y164.395 E.01923
G1 X75.055 Y167.565 E.15908
G1 X74.672 Y167.565 E.01923
G1 X74.672 Y164.395 E.15908
G1 X74.288 Y164.395 E.01923
G1 X74.288 Y167.565 E.15908
G1 X73.905 Y167.565 E.01923
G1 X73.905 Y164.395 E.15908
G1 X73.522 Y164.395 E.01923
G1 X73.522 Y167.565 E.15908
G1 X73.139 Y167.565 E.01923
G1 X73.139 Y164.395 E.15908
G1 X72.756 Y164.395 E.01923
G1 X72.756 Y167.565 E.15908
G1 X72.372 Y167.565 E.01923
G1 X72.372 Y164.395 E.15908
G1 X71.989 Y164.395 E.01923
G1 X71.989 Y167.565 E.15908
G1 X71.606 Y167.565 E.01923
G1 X71.606 Y164.395 E.15908
G1 X71.223 Y164.395 E.01923
G1 X71.223 Y167.565 E.15908
G1 X70.84 Y167.565 E.01923
G1 X70.84 Y164.395 E.15908
G1 X70.456 Y164.395 E.01923
G1 X70.456 Y167.565 E.15908
G1 X70.073 Y167.565 E.01923
G1 X70.073 Y164.395 E.15908
G1 X69.69 Y164.395 E.01923
G1 X69.69 Y167.565 E.15908
G1 X69.307 Y167.565 E.01923
G1 X69.307 Y164.395 E.15908
G1 X68.923 Y164.395 E.01923
G1 X68.923 Y167.565 E.15908
G1 X68.54 Y167.565 E.01923
G1 X68.54 Y164.395 E.15908
G1 X68.157 Y164.395 E.01923
G1 X68.157 Y167.565 E.15908
G1 X67.774 Y167.565 E.01923
G1 X67.774 Y164.395 E.15908
G1 X67.673 Y164.395 E.00506
G1 X67.391 Y164.124 E.01966
G1 X67.391 Y167.565 E.17271
G1 X67.007 Y167.565 E.01923
G1 X67.007 Y161.964 E.28112
G1 X66.985 Y161.395 E.02853
G1 X66.624 Y161.395 E.01811
G1 X66.624 Y167.565 E.30963
G1 X66.241 Y167.565 E.01923
G1 X66.241 Y161.395 E.30963
G1 X65.858 Y161.395 E.01923
G1 X65.858 Y167.565 E.30963
G1 X65.475 Y167.565 E.01923
G1 X65.475 Y161.395 E.30963
G1 X65.091 Y161.395 E.01923
G1 X65.091 Y167.565 E.30963
G1 X64.708 Y167.565 E.01923
G1 X64.708 Y161.395 E.30963
G1 X64.325 Y161.395 E.01923
G1 X64.325 Y167.565 E.30963
G1 X63.942 Y167.565 E.01923
G1 X63.942 Y161.395 E.30963
G1 X63.559 Y161.395 E.01923
G1 X63.559 Y167.565 E.30963
G1 X63.175 Y167.565 E.01923
G1 X63.175 Y161.395 E.30963
G1 X62.792 Y161.395 E.01923
G1 X62.792 Y167.565 E.30963
G1 X62.409 Y167.565 E.01923
G1 X62.409 Y161.395 E.30963
G1 X62.026 Y161.395 E.01923
G1 X62.026 Y167.565 E.30963
G1 X61.642 Y167.565 E.01923
G1 X61.642 Y161.395 E.30963
G1 X61.259 Y161.395 E.01923
G1 X61.259 Y167.565 E.30963
G1 X60.876 Y167.565 E.01923
G1 X60.876 Y161.395 E.30963
G1 X60.493 Y161.395 E.01923
G1 X60.493 Y167.565 E.30963
G1 X60.11 Y167.565 E.01923
G1 X60.11 Y161.395 E.30963
G1 X59.726 Y161.395 E.01923
G1 X59.726 Y167.565 E.30963
G1 X59.343 Y167.565 E.01923
G1 X59.343 Y161.395 E.30963
G1 X58.96 Y161.395 E.01923
G1 X58.96 Y167.565 E.30963
G1 X58.577 Y167.565 E.01923
G1 X58.577 Y161.395 E.30963
G1 X58.194 Y161.395 E.01923
G1 X58.194 Y167.565 E.30963
G1 X57.81 Y167.565 E.01923
G1 X57.81 Y161.395 E.30963
G1 X57.427 Y161.395 E.01923
G1 X57.427 Y167.565 E.30963
G1 X57.044 Y167.565 E.01923
G1 X57.044 Y161.395 E.30963
G1 X56.661 Y161.395 E.01923
G1 X56.661 Y167.565 E.30963
G1 X56.278 Y167.565 E.01923
G1 X56.278 Y161.395 E.30963
G1 X55.894 Y161.395 E.01923
G1 X55.894 Y167.565 E.30963
G1 X55.511 Y167.565 E.01923
G1 X55.511 Y161.395 E.30963
G1 X55.128 Y161.395 E.01923
G1 X55.128 Y167.565 E.30963
G1 X54.745 Y167.565 E.01923
G1 X54.745 Y161.395 E.30963
G1 X54.361 Y161.395 E.01923
G1 X54.361 Y167.565 E.30963
G1 X53.978 Y167.565 E.01923
G1 X53.978 Y161.395 E.30963
G1 X53.595 Y161.395 E.01923
G1 X53.595 Y167.565 E.30963
G1 X53.212 Y167.565 E.01923
G1 X53.212 Y161.395 E.30963
G1 X52.829 Y161.395 E.01923
G1 X52.829 Y167.565 E.30963
G1 X52.445 Y167.565 E.01923
G1 X52.445 Y161.395 E.30963
G1 X52.062 Y161.395 E.01923
G1 X52.062 Y167.565 E.30963
G1 X51.679 Y167.565 E.01923
G1 X51.679 Y161.395 E.30963
G1 X51.296 Y161.395 E.01923
G1 X51.296 Y167.565 E.30963
G1 X50.913 Y167.565 E.01923
G1 X50.913 Y161.395 E.30963
G1 X50.529 Y161.395 E.01923
G1 X50.529 Y167.565 E.30963
