; generated by PrusaSlicer 2.5.0+win64 on 2022-12-07 at 00:13:25 UTC

; 

; external perimeters extrusion width = 1.00mm
; perimeters extrusion width = 1.00mm
; infill extrusion width = 1.00mm
; solid infill extrusion width = 1.00mm
; top infill extrusion width = 1.00mm
; support material extrusion width = 1.00mm
; first layer extrusion width = 0.42mm

M73 P0 R583
M107
;TYPE:Custom
G90 ; use absolute coordinates
M83 ; extruder relative mode
M140 S60 ; set final bed temp
M104 S150 ; set temporary nozzle temp to prevent oozing during homing and auto bed leveling
G4 S10 ; allow partial nozzle warmup
G28 ; home all axisG1 Z50 F240
G1 X7.6 Y10 F3000
M104 S210 ; set final nozzle temp
M190 S60 ; wait for bed temp to stabilize
M109 S210 ; wait for nozzle temp to stabilize
G1 Z0.28 F240
G92 E0
G1 Y140 E10 F1500 ; prime the nozzle
G1 X4 F5000
G92 E0
G1 Y10 E10 F1200 ; prime the nozzle
G92 E0
G21 ; set units to millimeters
G90 ; use absolute coordinates
M83 ; use relative distances for extrusion
; Filament gcode
M107
;LAYER_CHANGE
;Z:0.35
;HEIGHT:0.35
;BEFORE_LAYER_CHANGE
G92 E0
;0.35


G1 E-1 F3600
M73 P0 R582
G1 Z.35 F7800
;AFTER_LAYER_CHANGE
;0.35
G1 X16.262 Y161.083
G1 E1 F2400
;TYPE:Support material
;WIDTH:0.42
G1 F1800
G1 X75.386 Y161.083 E2.96719
G1 X75.751 Y163.734 E.13427
G1 X76.152 Y164.083 E.0267
G1 X166.322 Y164.083 E4.52526
G1 X166.738 Y163.667 E.02952
G1 X166.738 Y67.024 E4.85013
G1 X165.958 Y66.63 E.04387
G1 X164.604 Y67.631 E.08449
G1 X164.533 Y67.701 E.005
G1 X163.855 Y68.585 E.05589
G1 X163.738 Y68.545 E.00621
G1 X163.738 Y32.481 E1.80992
G1 X171.268 Y32.481 E.37791
G1 X171.268 Y167.876 E6.79493
G1 X8.732 Y167.876 E8.15705
G1 X8.732 Y29.088 E6.96519
G1 X16.262 Y29.088 E.37791
G1 X16.262 Y161.031 E6.62171
G1 E-.7 F3600
;WIPE_START
G1 F6240
G1 X16.262 Y160.511 E-.285
;WIPE_END
G1 E-.015 F3600
G1 X170.857 Y167.72 F7800
G1 E1 F2400
G1 F1800
G1 X170.857 Y32.791 E6.77156
G1 X170.474 Y32.791 E.01923
G1 X170.474 Y167.565 E6.76377
G1 X170.091 Y167.565 E.01923
G1 X170.091 Y32.791 E6.76377
G1 X169.708 Y32.791 E.01923
G1 X169.708 Y167.565 E6.76377
G1 X169.324 Y167.565 E.01923
G1 X169.324 Y32.791 E6.76377
G1 X168.941 Y32.791 E.01923
G1 X168.941 Y167.565 E6.76377
G1 X168.558 Y167.565 E.01923
M73 P0 R581
G1 X168.558 Y32.791 E6.76377
G1 X168.175 Y32.791 E.01923
G1 X168.175 Y167.565 E6.76377
G1 X167.792 Y167.565 E.01923
G1 X167.792 Y32.791 E6.76377
G1 X167.408 Y32.791 E.01923
G1 X167.408 Y167.565 E6.76377
G1 X167.025 Y167.565 E.01923
G1 X167.025 Y32.791 E6.76377
G1 X166.642 Y32.791 E.01923
G1 X166.642 Y66.628 E1.69813
G1 X166.259 Y66.434 E.02154
G1 X166.259 Y32.791 E1.68842
G1 X165.876 Y32.791 E.01923
G1 X165.876 Y66.305 E1.68192
G1 X165.492 Y66.588 E.02391
G1 X165.492 Y32.791 E1.69613
G1 X165.109 Y32.791 E.01923
G1 X165.109 Y66.871 E1.71035
G1 X164.726 Y67.155 E.02392
G1 X164.726 Y32.791 E1.72457
G1 X164.343 Y32.791 E.01923
G1 X164.343 Y67.694 E1.75162
G1 E-.7 F3600
;WIPE_START
G1 F6240
G1 X164.343 Y67.174 E-.285
;WIPE_END
G1 E-.015 F3600
G1 X166.642 Y167.72 F7800
G1 E1 F2400
G1 F1800
G1 X166.642 Y164.202 E.17657
G1 X166.451 Y164.393 E.01358
G1 X166.259 Y164.393 E.00963
G1 X166.259 Y167.565 E.15918
G1 X165.876 Y167.565 E.01923
G1 X165.876 Y164.393 E.15918
G1 X165.492 Y164.393 E.01923
G1 X165.492 Y167.565 E.15918
G1 X165.109 Y167.565 E.01923
G1 X165.109 Y164.393 E.15918
G1 X164.726 Y164.393 E.01923
G1 X164.726 Y167.565 E.15918
G1 X164.343 Y167.565 E.01923
G1 X164.343 Y164.393 E.15918
G1 X163.96 Y164.393 E.01923
G1 X163.96 Y167.565 E.15918
G1 X163.576 Y167.565 E.01923
G1 X163.576 Y164.393 E.15918
G1 X163.193 Y164.393 E.01923
G1 X163.193 Y167.565 E.15918
G1 X162.81 Y167.565 E.01923
G1 X162.81 Y164.393 E.15918
G1 X162.427 Y164.393 E.01923
G1 X162.427 Y167.565 E.15918
G1 X162.043 Y167.565 E.01923
G1 X162.043 Y164.393 E.15918
G1 X161.66 Y164.393 E.01923
G1 X161.66 Y167.565 E.15918
G1 X161.277 Y167.565 E.01923
G1 X161.277 Y164.393 E.15918
G1 X160.894 Y164.393 E.01923
G1 X160.894 Y167.565 E.15918
G1 X160.511 Y167.565 E.01923
G1 X160.511 Y164.393 E.15918
G1 X160.127 Y164.393 E.01923
G1 X160.127 Y167.565 E.15918
G1 X159.744 Y167.565 E.01923
G1 X159.744 Y164.393 E.15918
G1 X159.361 Y164.393 E.01923
G1 X159.361 Y167.565 E.15918
G1 X158.978 Y167.565 E.01923
G1 X158.978 Y164.393 E.15918
G1 X158.595 Y164.393 E.01923
G1 X158.595 Y167.565 E.15918
G1 X158.211 Y167.565 E.01923
G1 X158.211 Y164.393 E.15918
G1 X157.828 Y164.393 E.01923
G1 X157.828 Y167.565 E.15918
G1 X157.445 Y167.565 E.01923
G1 X157.445 Y164.393 E.15918
G1 X157.062 Y164.393 E.01923
G1 X157.062 Y167.565 E.15918
G1 X156.679 Y167.565 E.01923
G1 X156.679 Y164.393 E.15918
G1 X156.295 Y164.393 E.01923
G1 X156.295 Y167.565 E.15918
G1 X155.912 Y167.565 E.01923
G1 X155.912 Y164.393 E.15918
G1 X155.529 Y164.393 E.01923
G1 X155.529 Y167.565 E.15918
G1 X155.146 Y167.565 E.01923
G1 X155.146 Y164.393 E.15918
G1 X154.762 Y164.393 E.01923
G1 X154.762 Y167.565 E.15918
G1 X154.379 Y167.565 E.01923
G1 X154.379 Y164.393 E.15918
G1 X153.996 Y164.393 E.01923
G1 X153.996 Y167.565 E.15918
G1 X153.613 Y167.565 E.01923
G1 X153.613 Y164.393 E.15918
G1 X153.23 Y164.393 E.01923
G1 X153.23 Y167.565 E.15918
G1 X152.846 Y167.565 E.01923
G1 X152.846 Y164.393 E.15918
G1 X152.463 Y164.393 E.01923
G1 X152.463 Y167.565 E.15918
G1 X152.08 Y167.565 E.01923
G1 X152.08 Y164.393 E.15918
G1 X151.697 Y164.393 E.01923
G1 X151.697 Y167.565 E.15918
G1 X151.314 Y167.565 E.01923
G1 X151.314 Y164.393 E.15918
G1 X150.93 Y164.393 E.01923
G1 X150.93 Y167.565 E.15918
G1 X150.547 Y167.565 E.01923
G1 X150.547 Y164.393 E.15918
G1 X150.164 Y164.393 E.01923
G1 X150.164 Y167.565 E.15918
G1 X149.781 Y167.565 E.01923
G1 X149.781 Y164.393 E.15918
G1 X149.398 Y164.393 E.01923
G1 X149.398 Y167.565 E.15918
G1 X149.014 Y167.565 E.01923
G1 X149.014 Y164.393 E.15918
G1 X148.631 Y164.393 E.01923
G1 X148.631 Y167.565 E.15918
G1 X148.248 Y167.565 E.01923
G1 X148.248 Y164.393 E.15918
G1 X147.865 Y164.393 E.01923
G1 X147.865 Y167.565 E.15918
G1 X147.481 Y167.565 E.01923
G1 X147.481 Y164.393 E.15918
G1 X147.098 Y164.393 E.01923
G1 X147.098 Y167.565 E.15918
G1 X146.715 Y167.565 E.01923
G1 X146.715 Y164.393 E.15918
G1 X146.332 Y164.393 E.01923
G1 X146.332 Y167.565 E.15918
G1 X145.949 Y167.565 E.01923
G1 X145.949 Y164.393 E.15918
G1 X145.565 Y164.393 E.01923
G1 X145.565 Y167.565 E.15918
G1 X145.182 Y167.565 E.01923
G1 X145.182 Y164.393 E.15918
G1 X144.799 Y164.393 E.01923
G1 X144.799 Y167.565 E.15918
G1 X144.416 Y167.565 E.01923
G1 X144.416 Y164.393 E.15918
G1 X144.033 Y164.393 E.01923
G1 X144.033 Y167.565 E.15918
G1 X143.649 Y167.565 E.01923
G1 X143.649 Y164.393 E.15918
G1 X143.266 Y164.393 E.01923
G1 X143.266 Y167.565 E.15918
G1 X142.883 Y167.565 E.01923
G1 X142.883 Y164.393 E.15918
G1 X142.5 Y164.393 E.01923
G1 X142.5 Y167.565 E.15918
G1 X142.117 Y167.565 E.01923
G1 X142.117 Y164.393 E.15918
G1 X141.733 Y164.393 E.01923
G1 X141.733 Y167.565 E.15918
G1 X141.35 Y167.565 E.01923
G1 X141.35 Y164.393 E.15918
G1 X140.967 Y164.393 E.01923
G1 X140.967 Y167.565 E.15918
G1 X140.584 Y167.565 E.01923
G1 X140.584 Y164.393 E.15918
G1 X140.201 Y164.393 E.01923
G1 X140.201 Y167.565 E.15918
G1 X139.817 Y167.565 E.01923
G1 X139.817 Y164.393 E.15918
G1 X139.434 Y164.393 E.01923
G1 X139.434 Y167.565 E.15918
G1 X139.051 Y167.565 E.01923
G1 X139.051 Y164.393 E.15918
G1 X138.668 Y164.393 E.01923
G1 X138.668 Y167.565 E.15918
G1 X138.284 Y167.565 E.01923
G1 X138.284 Y164.393 E.15918
G1 X137.901 Y164.393 E.01923
G1 X137.901 Y167.565 E.15918
G1 X137.518 Y167.565 E.01923
G1 X137.518 Y164.393 E.15918
G1 X137.135 Y164.393 E.01923
G1 X137.135 Y167.565 E.15918
G1 X136.752 Y167.565 E.01923
G1 X136.752 Y164.393 E.15918
G1 X136.368 Y164.393 E.01923
G1 X136.368 Y167.565 E.15918
G1 X135.985 Y167.565 E.01923
G1 X135.985 Y164.393 E.15918
G1 X135.602 Y164.393 E.01923
G1 X135.602 Y167.565 E.15918
G1 X135.219 Y167.565 E.01923
G1 X135.219 Y164.393 E.15918
G1 X134.836 Y164.393 E.01923
G1 X134.836 Y167.565 E.15918
G1 X134.452 Y167.565 E.01923
G1 X134.452 Y164.393 E.15918
G1 X134.069 Y164.393 E.01923
G1 X134.069 Y167.565 E.15918
G1 X133.686 Y167.565 E.01923
G1 X133.686 Y164.393 E.15918
G1 X133.303 Y164.393 E.01923
G1 X133.303 Y167.565 E.15918
G1 X132.92 Y167.565 E.01923
G1 X132.92 Y164.393 E.15918
G1 X132.536 Y164.393 E.01923
G1 X132.536 Y167.565 E.15918
G1 X132.153 Y167.565 E.01923
G1 X132.153 Y164.393 E.15918
G1 X131.77 Y164.393 E.01923
G1 X131.77 Y167.565 E.15918
G1 X131.387 Y167.565 E.01923
G1 X131.387 Y164.393 E.15918
G1 X131.003 Y164.393 E.01923
G1 X131.003 Y167.565 E.15918
G1 X130.62 Y167.565 E.01923
G1 X130.62 Y164.393 E.15918
G1 X130.237 Y164.393 E.01923
G1 X130.237 Y167.565 E.15918
G1 X129.854 Y167.565 E.01923
G1 X129.854 Y164.393 E.15918
G1 X129.471 Y164.393 E.01923
G1 X129.471 Y167.565 E.15918
G1 X129.087 Y167.565 E.01923
G1 X129.087 Y164.393 E.15918
G1 X128.704 Y164.393 E.01923
G1 X128.704 Y167.565 E.15918
G1 X128.321 Y167.565 E.01923
G1 X128.321 Y164.393 E.15918
G1 X127.938 Y164.393 E.01923
G1 X127.938 Y167.565 E.15918
G1 X127.555 Y167.565 E.01923
G1 X127.555 Y164.393 E.15918
G1 X127.171 Y164.393 E.01923
G1 X127.171 Y167.565 E.15918
G1 X126.788 Y167.565 E.01923
G1 X126.788 Y164.393 E.15918
G1 X126.405 Y164.393 E.01923
G1 X126.405 Y167.565 E.15918
G1 X126.022 Y167.565 E.01923
G1 X126.022 Y164.393 E.15918
G1 X125.639 Y164.393 E.01923
G1 X125.639 Y167.565 E.15918
G1 X125.255 Y167.565 E.01923
G1 X125.255 Y164.393 E.15918
G1 X124.872 Y164.393 E.01923
G1 X124.872 Y167.565 E.15918
G1 X124.489 Y167.565 E.01923
G1 X124.489 Y164.393 E.15918
G1 X124.106 Y164.393 E.01923
G1 X124.106 Y167.565 E.15918
G1 X123.722 Y167.565 E.01923
G1 X123.722 Y164.393 E.15918
G1 X123.339 Y164.393 E.01923
G1 X123.339 Y167.565 E.15918
G1 X122.956 Y167.565 E.01923
G1 X122.956 Y164.393 E.15918
G1 X122.573 Y164.393 E.01923
G1 X122.573 Y167.565 E.15918
G1 X122.19 Y167.565 E.01923
G1 X122.19 Y164.393 E.15918
G1 X121.806 Y164.393 E.01923
G1 X121.806 Y167.565 E.15918
G1 X121.423 Y167.565 E.01923
G1 X121.423 Y164.393 E.15918
G1 X121.04 Y164.393 E.01923
G1 X121.04 Y167.565 E.15918
G1 X120.657 Y167.565 E.01923
G1 X120.657 Y164.393 E.15918
G1 X120.274 Y164.393 E.01923
G1 X120.274 Y167.565 E.15918
G1 X119.89 Y167.565 E.01923
G1 X119.89 Y164.393 E.15918
G1 X119.507 Y164.393 E.01923
G1 X119.507 Y167.565 E.15918
G1 X119.124 Y167.565 E.01923
G1 X119.124 Y164.393 E.15918
G1 X118.741 Y164.393 E.01923
G1 X118.741 Y167.565 E.15918
G1 X118.358 Y167.565 E.01923
G1 X118.358 Y164.393 E.15918
G1 X117.974 Y164.393 E.01923
G1 X117.974 Y167.565 E.15918
G1 X117.591 Y167.565 E.01923
G1 X117.591 Y164.393 E.15918
G1 X117.208 Y164.393 E.01923
G1 X117.208 Y167.565 E.15918
G1 X116.825 Y167.565 E.01923
G1 X116.825 Y164.393 E.15918
G1 X116.441 Y164.393 E.01923
G1 X116.441 Y167.565 E.15918
G1 X116.058 Y167.565 E.01923
G1 X116.058 Y164.393 E.15918
G1 X115.675 Y164.393 E.01923
G1 X115.675 Y167.565 E.15918
G1 X115.292 Y167.565 E.01923
G1 X115.292 Y164.393 E.15918
G1 X114.909 Y164.393 E.01923
G1 X114.909 Y167.565 E.15918
G1 X114.525 Y167.565 E.01923
G1 X114.525 Y164.393 E.15918
G1 X114.142 Y164.393 E.01923
G1 X114.142 Y167.565 E.15918
G1 X113.759 Y167.565 E.01923
G1 X113.759 Y164.393 E.15918
G1 X113.376 Y164.393 E.01923
G1 X113.376 Y167.565 E.15918
G1 X112.993 Y167.565 E.01923
G1 X112.993 Y164.393 E.15918
G1 X112.609 Y164.393 E.01923
M73 P0 R580
G1 X112.609 Y167.565 E.15918
G1 X112.226 Y167.565 E.01923
G1 X112.226 Y164.393 E.15918
G1 X111.843 Y164.393 E.01923
G1 X111.843 Y167.565 E.15918
G1 X111.46 Y167.565 E.01923
G1 X111.46 Y164.393 E.15918
G1 X111.077 Y164.393 E.01923
G1 X111.077 Y167.565 E.15918
G1 X110.693 Y167.565 E.01923
G1 X110.693 Y164.393 E.15918
G1 X110.31 Y164.393 E.01923
G1 X110.31 Y167.565 E.15918
G1 X109.927 Y167.565 E.01923
G1 X109.927 Y164.393 E.15918
G1 X109.544 Y164.393 E.01923
G1 X109.544 Y167.565 E.15918
G1 X109.16 Y167.565 E.01923
G1 X109.16 Y164.393 E.15918
G1 X108.777 Y164.393 E.01923
G1 X108.777 Y167.565 E.15918
G1 X108.394 Y167.565 E.01923
G1 X108.394 Y164.393 E.15918
G1 X108.011 Y164.393 E.01923
G1 X108.011 Y167.565 E.15918
G1 X107.628 Y167.565 E.01923
G1 X107.628 Y164.393 E.15918
G1 X107.244 Y164.393 E.01923
G1 X107.244 Y167.565 E.15918
G1 X106.861 Y167.565 E.01923
G1 X106.861 Y164.393 E.15918
G1 X106.478 Y164.393 E.01923
G1 X106.478 Y167.565 E.15918
G1 X106.095 Y167.565 E.01923
G1 X106.095 Y164.393 E.15918
G1 X105.712 Y164.393 E.01923
G1 X105.712 Y167.565 E.15918
G1 X105.328 Y167.565 E.01923
G1 X105.328 Y164.393 E.15918
G1 X104.945 Y164.393 E.01923
G1 X104.945 Y167.565 E.15918
G1 X104.562 Y167.565 E.01923
G1 X104.562 Y164.393 E.15918
G1 X104.179 Y164.393 E.01923
G1 X104.179 Y167.565 E.15918
G1 X103.796 Y167.565 E.01923
G1 X103.796 Y164.393 E.15918
G1 X103.412 Y164.393 E.01923
G1 X103.412 Y167.565 E.15918
G1 X103.029 Y167.565 E.01923
G1 X103.029 Y164.393 E.15918
G1 X102.646 Y164.393 E.01923
G1 X102.646 Y167.565 E.15918
G1 X102.263 Y167.565 E.01923
G1 X102.263 Y164.393 E.15918
G1 X101.88 Y164.393 E.01923
G1 X101.88 Y167.565 E.15918
G1 X101.496 Y167.565 E.01923
G1 X101.496 Y164.393 E.15918
G1 X101.113 Y164.393 E.01923
G1 X101.113 Y167.565 E.15918
G1 X100.73 Y167.565 E.01923
G1 X100.73 Y164.393 E.15918
G1 X100.347 Y164.393 E.01923
G1 X100.347 Y167.565 E.15918
G1 X99.963 Y167.565 E.01923
G1 X99.963 Y164.393 E.15918
G1 X99.58 Y164.393 E.01923
G1 X99.58 Y167.565 E.15918
G1 X99.197 Y167.565 E.01923
G1 X99.197 Y164.393 E.15918
G1 X98.814 Y164.393 E.01923
G1 X98.814 Y167.565 E.15918
G1 X98.431 Y167.565 E.01923
G1 X98.431 Y164.393 E.15918
G1 X98.047 Y164.393 E.01923
G1 X98.047 Y167.565 E.15918
G1 X97.664 Y167.565 E.01923
G1 X97.664 Y164.393 E.15918
G1 X97.281 Y164.393 E.01923
G1 X97.281 Y167.565 E.15918
G1 X96.898 Y167.565 E.01923
G1 X96.898 Y164.393 E.15918
G1 X96.515 Y164.393 E.01923
G1 X96.515 Y167.565 E.15918
G1 X96.131 Y167.565 E.01923
G1 X96.131 Y164.393 E.15918
G1 X95.748 Y164.393 E.01923
G1 X95.748 Y167.565 E.15918
G1 X95.365 Y167.565 E.01923
G1 X95.365 Y164.393 E.15918
G1 X94.982 Y164.393 E.01923
G1 X94.982 Y167.565 E.15918
G1 X94.599 Y167.565 E.01923
G1 X94.599 Y164.393 E.15918
G1 X94.215 Y164.393 E.01923
G1 X94.215 Y167.565 E.15918
G1 X93.832 Y167.565 E.01923
G1 X93.832 Y164.393 E.15918
G1 X93.449 Y164.393 E.01923
G1 X93.449 Y167.565 E.15918
G1 X93.066 Y167.565 E.01923
G1 X93.066 Y164.393 E.15918
G1 X92.682 Y164.393 E.01923
G1 X92.682 Y167.565 E.15918
G1 X92.299 Y167.565 E.01923
G1 X92.299 Y164.393 E.15918
G1 X91.916 Y164.393 E.01923
G1 X91.916 Y167.565 E.15918
G1 X91.533 Y167.565 E.01923
G1 X91.533 Y164.393 E.15918
G1 X91.15 Y164.393 E.01923
G1 X91.15 Y167.565 E.15918
G1 X90.766 Y167.565 E.01923
G1 X90.766 Y164.393 E.15918
G1 X90.383 Y164.393 E.01923
G1 X90.383 Y167.565 E.15918
G1 X90 Y167.565 E.01923
G1 X90 Y164.393 E.15918
G1 X89.617 Y164.393 E.01923
G1 X89.617 Y167.565 E.15918
G1 X89.234 Y167.565 E.01923
G1 X89.234 Y164.393 E.15918
G1 X88.85 Y164.393 E.01923
G1 X88.85 Y167.565 E.15918
G1 X88.467 Y167.565 E.01923
G1 X88.467 Y164.393 E.15918
G1 X88.084 Y164.393 E.01923
G1 X88.084 Y167.565 E.15918
G1 X87.701 Y167.565 E.01923
G1 X87.701 Y164.393 E.15918
G1 X87.318 Y164.393 E.01923
G1 X87.318 Y167.565 E.15918
G1 X86.934 Y167.565 E.01923
G1 X86.934 Y164.393 E.15918
G1 X86.551 Y164.393 E.01923
G1 X86.551 Y167.565 E.15918
G1 X86.168 Y167.565 E.01923
G1 X86.168 Y164.393 E.15918
G1 X85.785 Y164.393 E.01923
G1 X85.785 Y167.565 E.15918
G1 X85.401 Y167.565 E.01923
G1 X85.401 Y164.393 E.15918
G1 X85.018 Y164.393 E.01923
G1 X85.018 Y167.565 E.15918
G1 X84.635 Y167.565 E.01923
G1 X84.635 Y164.393 E.15918
G1 X84.252 Y164.393 E.01923
G1 X84.252 Y167.565 E.15918
G1 X83.869 Y167.565 E.01923
G1 X83.869 Y164.393 E.15918
G1 X83.485 Y164.393 E.01923
G1 X83.485 Y167.565 E.15918
G1 X83.102 Y167.565 E.01923
G1 X83.102 Y164.393 E.15918
G1 X82.719 Y164.393 E.01923
G1 X82.719 Y167.565 E.15918
G1 X82.336 Y167.565 E.01923
G1 X82.336 Y164.393 E.15918
G1 X81.953 Y164.393 E.01923
G1 X81.953 Y167.565 E.15918
G1 X81.569 Y167.565 E.01923
G1 X81.569 Y164.393 E.15918
G1 X81.186 Y164.393 E.01923
G1 X81.186 Y167.565 E.15918
G1 X80.803 Y167.565 E.01923
G1 X80.803 Y164.393 E.15918
G1 X80.42 Y164.393 E.01923
G1 X80.42 Y167.565 E.15918
