; generated by PrusaSlicer 2.5.0+win64 on 2022-12-07 at 00:13:26 UTC

; 

; external perimeters extrusion width = 1.00mm
; perimeters extrusion width = 1.00mm
; infill extrusion width = 1.00mm
; solid infill extrusion width = 1.00mm
; top infill extrusion width = 1.00mm
; support material extrusion width = 1.00mm
; first layer extrusion width = 0.42mm

M73 P0 R633
M107
;TYPE:Custom
G90 ; use absolute coordinates
M83 ; extruder relative mode
M140 S60 ; set final bed temp
M104 S150 ; set temporary nozzle temp to prevent oozing during homing and auto bed leveling
G4 S10 ; allow partial nozzle warmup
G28 ; home all axisG1 Z50 F240
G1 X7.6 Y10 F3000
M104 S210 ; set final nozzle temp
M190 S60 ; wait for bed temp to stabilize
M109 S210 ; wait for nozzle temp to stabilize
G1 Z0.28 F240
G92 E0
G1 Y140 E10 F1500 ; prime the nozzle
G1 X4 F5000
G92 E0
G1 Y10 E10 F1200 ; prime the nozzle
G92 E0
G21 ; set units to millimeters
G90 ; use absolute coordinates
M83 ; use relative distances for extrusion
; Filament gcode
M107
;LAYER_CHANGE
;Z:0.35
;HEIGHT:0.35
;BEFORE_LAYER_CHANGE
G92 E0
;0.35


G1 E-1 F3600
G1 Z.35 F7800
;AFTER_LAYER_CHANGE
;0.35
G1 X12.781 Y14.959
G1 E1 F2400
;TYPE:Support material interface
;WIDTH:1
G1 F1800
G1 X12.781 Y165.041 E20.19859
G1 E-.7 F3600
;WIPE_START
G1 F6240
G1 X12.781 Y164.521 E-.285
;WIPE_END
G1 E-.015 F3600
G1 X72.592 Y165.041 F7800
G1 E1 F2400
G1 F1800
G1 X72.592 Y164.319 E.09713
G1 X71.7 Y164.319 E.12014
G1 X71.7 Y164.639 E.04307
G1 X70.807 Y164.639 E.12014
G1 X70.807 Y164.319 E.04307
G1 X69.914 Y164.319 E.12014
G1 X69.914 Y164.639 E.04307
G1 X69.022 Y164.639 E.12014
G1 X69.022 Y164.319 E.04307
G1 X68.129 Y164.319 E.12014
G1 X68.129 Y164.639 E.04307
G1 X67.236 Y164.639 E.12014
G1 X67.236 Y164.319 E.04307
G1 X66.343 Y164.319 E.12014
G1 X66.343 Y164.639 E.04307
G1 X65.451 Y164.639 E.12014
G1 X65.451 Y164.319 E.04307
G1 X64.558 Y164.319 E.12014
G1 X64.558 Y164.639 E.04307
G1 X63.665 Y164.639 E.12014
G1 X63.665 Y164.319 E.04307
G1 X62.773 Y164.319 E.12014
G1 X62.773 Y164.639 E.04307
G1 X61.88 Y164.639 E.12014
G1 X61.88 Y164.319 E.04307
G1 X60.987 Y164.319 E.12014
G1 X60.987 Y164.639 E.04307
G1 X60.095 Y164.639 E.12014
G1 X60.095 Y164.319 E.04307
G1 X59.202 Y164.319 E.12014
G1 X59.202 Y164.639 E.04307
G1 X58.309 Y164.639 E.12014
G1 X58.309 Y164.319 E.04307
G1 X57.416 Y164.319 E.12014
G1 X57.416 Y164.639 E.04307
G1 X56.524 Y164.639 E.12014
G1 X56.524 Y164.319 E.04307
G1 X55.631 Y164.319 E.12014
G1 X55.631 Y164.639 E.04307
G1 X54.738 Y164.639 E.12014
G1 X54.738 Y164.319 E.04307
G1 X53.846 Y164.319 E.12014
G1 X53.846 Y164.639 E.04307
G1 X52.953 Y164.639 E.12014
G1 X52.953 Y164.319 E.04307
G1 X52.06 Y164.319 E.12014
G1 X52.06 Y164.639 E.04307
G1 X51.168 Y164.639 E.12014
G1 X51.168 Y164.319 E.04307
G1 X50.275 Y164.319 E.12014
G1 X50.275 Y164.639 E.04307
G1 X49.382 Y164.639 E.12014
G1 X49.382 Y164.319 E.04307
G1 X48.489 Y164.319 E.12014
G1 X48.489 Y164.639 E.04307
G1 X47.597 Y164.639 E.12014
G1 X47.597 Y164.319 E.04307
G1 X46.704 Y164.319 E.12014
G1 X46.704 Y164.639 E.04307
G1 X45.811 Y164.639 E.12014
G1 X45.811 Y164.319 E.04307
G1 X44.919 Y164.319 E.12014
G1 X44.919 Y164.639 E.04307
G1 X44.026 Y164.639 E.12014
G1 X44.026 Y164.319 E.04307
G1 X43.133 Y164.319 E.12014
G1 X43.133 Y164.639 E.04307
G1 X42.241 Y164.639 E.12014
G1 X42.241 Y164.319 E.04307
G1 X41.348 Y164.319 E.12014
G1 X41.348 Y164.639 E.04307
G1 X40.455 Y164.639 E.12014
G1 X40.455 Y164.319 E.04307
G1 X39.562 Y164.319 E.12014
G1 X39.562 Y164.639 E.04307
G1 X38.67 Y164.639 E.12014
G1 X38.67 Y164.319 E.04307
G1 X37.777 Y164.319 E.12014
G1 X37.777 Y164.639 E.04307
G1 X36.884 Y164.639 E.12014
G1 X36.884 Y164.319 E.04307
G1 X35.992 Y164.319 E.12014
G1 X35.992 Y164.639 E.04307
G1 X35.099 Y164.639 E.12014
G1 X35.099 Y164.319 E.04307
G1 X34.206 Y164.319 E.12014
G1 X34.206 Y164.639 E.04307
G1 X33.314 Y164.639 E.12014
G1 X33.314 Y164.319 E.04307
G1 X32.421 Y164.319 E.12014
G1 X32.421 Y164.639 E.04307
G1 X31.528 Y164.639 E.12014
G1 X31.528 Y164.319 E.04307
G1 X30.635 Y164.319 E.12014
G1 X30.635 Y164.639 E.04307
G1 X29.743 Y164.639 E.12014
G1 X29.743 Y164.319 E.04307
G1 X28.85 Y164.319 E.12014
G1 X28.85 Y164.639 E.04307
G1 X27.957 Y164.639 E.12014
G1 X27.957 Y164.319 E.04307
G1 X27.065 Y164.319 E.12014
G1 X27.065 Y164.639 E.04307
G1 X26.172 Y164.639 E.12014
G1 X26.172 Y164.319 E.04307
G1 X25.279 Y164.319 E.12014
G1 X25.279 Y164.639 E.04307
G1 X24.387 Y164.639 E.12014
G1 X24.387 Y164.319 E.04307
G1 X23.494 Y164.319 E.12014
G1 X23.494 Y164.639 E.04307
G1 X22.601 Y164.639 E.12014
G1 X22.601 Y164.319 E.04307
G1 X21.708 Y164.319 E.12014
G1 X21.708 Y164.639 E.04307
G1 X20.816 Y164.639 E.12014
G1 X20.816 Y164.319 E.04307
G1 X19.923 Y164.319 E.12014
G1 X19.923 Y164.639 E.04307
G1 X19.03 Y164.639 E.12014
G1 X19.03 Y164.319 E.04307
G1 X18.138 Y164.319 E.12014
G1 X18.138 Y164.639 E.04307
G1 X17.245 Y164.639 E.12014
G1 X17.245 Y164.319 E.04307
G1 X16.352 Y164.319 E.12014
G1 X16.352 Y164.639 E.04307
G1 X15.46 Y164.639 E.12014
G1 X15.46 Y164.319 E.04307
G1 X14.567 Y164.319 E.12014
G1 X14.567 Y164.639 E.04307
G1 X13.674 Y164.639 E.12014
G1 X13.674 Y164.123 E.06954
G1 X13.024 Y163.472 E.12381
G1 X13.024 Y16.528 E19.77628
G1 X13.674 Y15.877 E.12382
G1 X13.674 Y15.361 E.06954
G1 X14.567 Y15.361 E.12014
G1 X14.567 Y15.681 E.04307
G1 X15.46 Y15.681 E.12014
G1 X15.46 Y15.361 E.04307
G1 X16.352 Y15.361 E.12014
G1 X16.352 Y15.681 E.04307
G1 X17.245 Y15.681 E.12014
G1 X17.245 Y15.361 E.04307
G1 X18.138 Y15.361 E.12014
G1 X18.138 Y15.681 E.04307
G1 X19.03 Y15.681 E.12014
G1 X19.03 Y15.361 E.04307
G1 X19.923 Y15.361 E.12014
G1 X19.923 Y15.681 E.04307
G1 X20.816 Y15.681 E.12014
G1 X20.816 Y15.361 E.04307
G1 X21.708 Y15.361 E.12014
G1 X21.708 Y15.681 E.04307
G1 X22.601 Y15.681 E.12014
G1 X22.601 Y15.361 E.04307
G1 X23.494 Y15.361 E.12014
G1 X23.494 Y15.681 E.04307
G1 X24.387 Y15.681 E.12014
G1 X24.387 Y15.361 E.04307
G1 X25.279 Y15.361 E.12014
G1 X25.279 Y15.681 E.04307
G1 X26.172 Y15.681 E.12014
G1 X26.172 Y15.361 E.04307
G1 X27.065 Y15.361 E.12014
G1 X27.065 Y15.681 E.04307
G1 X27.957 Y15.681 E.12014
G1 X27.957 Y15.361 E.04307
G1 X28.85 Y15.361 E.12014
G1 X28.85 Y15.681 E.04307
G1 X29.743 Y15.681 E.12014
G1 X29.743 Y15.361 E.04307
G1 X30.635 Y15.361 E.12014
G1 X30.635 Y15.681 E.04307
G1 X31.528 Y15.681 E.12014
G1 X31.528 Y15.361 E.04307
G1 X32.421 Y15.361 E.12014
G1 X32.421 Y15.681 E.04307
G1 X33.314 Y15.681 E.12014
G1 X33.314 Y15.361 E.04307
G1 X34.206 Y15.361 E.12014
G1 X34.206 Y15.681 E.04307
G1 X35.099 Y15.681 E.12014
G1 X35.099 Y15.361 E.04307
G1 X35.992 Y15.361 E.12014
G1 X35.992 Y15.681 E.04307
G1 X36.884 Y15.681 E.12014
G1 X36.884 Y15.361 E.04307
G1 X37.777 Y15.361 E.12014
G1 X37.777 Y15.681 E.04307
G1 X38.67 Y15.681 E.12014
G1 X38.67 Y15.361 E.04307
G1 X39.562 Y15.361 E.12014
G1 X39.562 Y15.681 E.04307
G1 X40.455 Y15.681 E.12014
G1 X40.455 Y15.361 E.04307
G1 X41.348 Y15.361 E.12014
G1 X41.348 Y15.681 E.04307
G1 X42.241 Y15.681 E.12014
G1 X42.241 Y15.361 E.04307
G1 X43.133 Y15.361 E.12014
G1 X43.133 Y15.681 E.04307
G1 X44.026 Y15.681 E.12014
G1 X44.026 Y15.361 E.04307
G1 X44.919 Y15.361 E.12014
G1 X44.919 Y15.681 E.04307
G1 X45.811 Y15.681 E.12014
G1 X45.811 Y15.361 E.04307
G1 X46.704 Y15.361 E.12014
G1 X46.704 Y15.681 E.04307
G1 X47.597 Y15.681 E.12014
G1 X47.597 Y15.361 E.04307
G1 X48.489 Y15.361 E.12014
G1 X48.489 Y15.681 E.04307
G1 X49.382 Y15.681 E.12014
G1 X49.382 Y15.361 E.04307
G1 X50.275 Y15.361 E.12014
G1 X50.275 Y15.681 E.04307
G1 X51.168 Y15.681 E.12014
G1 X51.168 Y15.361 E.04307
G1 X52.06 Y15.361 E.12014
G1 X52.06 Y15.681 E.04307
G1 X52.953 Y15.681 E.12014
G1 X52.953 Y15.361 E.04307
G1 X53.846 Y15.361 E.12014
G1 X53.846 Y15.681 E.04307
G1 X54.738 Y15.681 E.12014
G1 X54.738 Y15.361 E.04307
G1 X55.631 Y15.361 E.12014
G1 X55.631 Y15.681 E.04307
G1 X56.524 Y15.681 E.12014
G1 X56.524 Y15.361 E.04307
G1 X57.416 Y15.361 E.12014
G1 X57.416 Y15.681 E.04307
G1 X58.309 Y15.681 E.12014
G1 X58.309 Y15.361 E.04307
G1 X59.202 Y15.361 E.12014
G1 X59.202 Y15.681 E.04307
G1 X60.095 Y15.681 E.12014
G1 X60.095 Y15.361 E.04307
G1 X60.987 Y15.361 E.12014
G1 X60.987 Y15.681 E.04307
G1 X61.88 Y15.681 E.12014
G1 X61.88 Y15.361 E.04307
G1 X62.773 Y15.361 E.12014
G1 X62.773 Y15.681 E.04307
G1 X63.665 Y15.681 E.12014
G1 X63.665 Y15.361 E.04307
G1 X64.558 Y15.361 E.12014
G1 X64.558 Y15.681 E.04307
G1 X65.451 Y15.681 E.12014
G1 X65.451 Y15.361 E.04307
G1 X66.343 Y15.361 E.12014
G1 X66.343 Y15.681 E.04307
G1 X67.236 Y15.681 E.12014
G1 X67.236 Y15.361 E.04307
G1 X68.129 Y15.361 E.12014
G1 X68.129 Y15.681 E.04307
G1 X69.022 Y15.681 E.12014
G1 X69.022 Y15.361 E.04307
G1 X69.914 Y15.361 E.12014
G1 X69.914 Y15.681 E.04307
G1 X70.807 Y15.681 E.12014
G1 X70.807 Y15.361 E.04307
G1 X71.7 Y15.361 E.12014
G1 X71.7 Y15.681 E.04307
G1 X72.592 Y15.681 E.12014
G1 X72.592 Y14.959 E.09713
G1 E-.7 F3600
;WIPE_START
G1 F6240
G1 X72.592 Y15.479 E-.285
;WIPE_END
G1 E-.015 F3600
G1 X80.627 Y16.082 F7800
G1 E1 F2400
G1 F1800
G1 X80.627 Y15.361 E.09713
G1 X81.519 Y15.361 E.12014
G1 X81.519 Y15.681 E.04307
G1 X82.412 Y15.681 E.12014
G1 X82.412 Y15.361 E.04307
G1 X83.305 Y15.361 E.12014
G1 X83.305 Y15.681 E.04307
G1 X84.197 Y15.681 E.12014
G1 X84.197 Y15.361 E.04307
G1 X85.09 Y15.361 E.12014
G1 X85.09 Y15.681 E.04307
G1 X85.983 Y15.681 E.12014
G1 X85.983 Y15.361 E.04307
G1 X86.876 Y15.361 E.12014
G1 X86.876 Y15.681 E.04307
G1 X87.557 Y15.681 E.09176
G1 X87.768 Y15.839 E.03548
G1 X87.768 Y15.361 E.06437
G1 X88.661 Y15.361 E.12014
G1 X88.661 Y17.4 E.27452
G1 X89.554 Y20.468 E.42993
G1 X89.554 Y15.361 E.68732
G1 X90.446 Y15.361 E.12014
G1 X90.446 Y23.535 E1.10012
G1 X91.339 Y26.602 E.42993
G1 X91.339 Y15.361 E1.51292
G1 X92.232 Y15.361 E.12014
G1 X92.232 Y29.669 E1.92572
G1 X93.124 Y32.737 E.42993
G1 X93.124 Y15.361 E2.33852
G1 X94.017 Y15.361 E.12014
G1 X94.017 Y35.804 E2.75133
G1 X94.91 Y38.871 E.42993
G1 X94.91 Y15.361 E3.16413
G1 X95.802 Y15.361 E.12014
G1 X95.802 Y41.938 E3.57693
G1 X96.695 Y45.006 E.42993
G1 X96.695 Y15.361 E3.98973
G1 X97.588 Y15.361 E.12014
G1 X97.588 Y48.073 E4.40253
G1 X98.481 Y51.14 E.42993
G1 X98.481 Y15.361 E4.81533
G1 X99.373 Y15.361 E.12014
G1 X99.373 Y54.207 E5.22813
G1 X100.266 Y57.275 E.42993
G1 X100.266 Y18.753 E5.18433
G1 X101.159 Y18.753 E.12014
G1 X101.159 Y60.342 E5.59714
G1 X102.051 Y63.409 E.42993
G1 X102.051 Y18.753 E6.00994
G1 X102.944 Y18.753 E.12014
G1 X102.944 Y66.476 E6.42274
G1 X103.837 Y69.544 E.42993
G1 X103.837 Y32.324 E5.00913
G1 X104.729 Y32.324 E.12014
G1 X104.729 Y72.611 E5.42194
G1 X105.622 Y75.678 E.42993
M73 P0 R632
G1 X105.622 Y32.324 E5.83474
G1 X106.515 Y32.324 E.12014
G1 X106.515 Y78.745 E6.24754
G1 X107.408 Y81.813 E.42993
G1 X107.408 Y42.502 E5.29053
G1 X108.3 Y42.502 E.12014
G1 X108.3 Y84.88 E5.70334
G1 X109.193 Y87.947 E.42993
G1 X109.193 Y42.502 E6.11614
G1 X110.086 Y42.502 E.12014
G1 X110.086 Y91.014 E6.52894
G1 X110.978 Y94.082 E.42993
G1 X110.978 Y56.073 E5.11533
G1 X111.871 Y56.073 E.12014
G1 X111.871 Y97.149 E5.52814
G1 X112.764 Y100.216 E.42993
G1 X112.764 Y56.073 E5.94094
G1 X113.656 Y56.073 E.12014
G1 X113.656 Y103.283 E6.35374
G1 X114.549 Y106.351 E.42993
G1 X114.549 Y66.251 E5.39674
G1 X115.442 Y66.251 E.12014
G1 X115.442 Y109.418 E5.80954
G1 X116.335 Y112.485 E.42993
G1 X116.335 Y66.251 E6.22234
G1 X117.142 Y66.251 E.10861
G1 X117.142 Y79.822 E1.82641
G1 X117.227 Y79.822 E.01153
G1 X117.227 Y115.552 E4.80873
G1 X118.12 Y118.62 E.42993
G1 X118.12 Y79.822 E5.22153
G1 X119.013 Y79.822 E.12014
G1 X119.013 Y121.687 E5.63434
G1 X119.905 Y124.754 E.42993
G1 X119.905 Y79.822 E6.04714
G1 X120.534 Y79.822 E.08465
G1 X120.534 Y90 E1.3698
G1 X120.798 Y90 E.0355
G1 X120.798 Y127.821 E5.09013
G1 X121.691 Y130.889 E.42993
G1 X121.691 Y90 E5.50294
G1 X122.583 Y90 E.12014
G1 X122.583 Y133.956 E5.91574
G1 X123.476 Y137.023 E.42993
G1 X123.476 Y90 E6.32854
G1 X123.927 Y90 E.06068
G1 X123.927 Y100.178 E1.3698
G1 X124.369 Y100.178 E.05947
G1 X124.369 Y140.09 E5.37154
G1 X125.262 Y143.158 E.42993
G1 X125.262 Y100.178 E5.78434
G1 X126.154 Y100.178 E.12014
G1 X126.154 Y146.225 E6.19714
G1 X127.047 Y149.292 E.42993
G1 X127.047 Y100.178 E6.60994
G1 X127.32 Y100.178 E.03671
G1 X127.32 Y113.749 E1.82641
G1 X127.94 Y113.749 E.08343
G1 X127.94 Y152.359 E5.19634
G1 X128.832 Y155.427 E.42993
G1 X128.832 Y113.749 E5.60914
G1 X129.725 Y113.749 E.12014
G1 X129.725 Y158.494 E6.02194
G1 X130.618 Y161.561 E.42993
G1 X130.618 Y113.749 E6.43474
G1 X130.712 Y113.749 E.01274
G1 X130.712 Y123.927 E1.3698
G1 X131.51 Y123.927 E.1074
G1 X131.51 Y164.639 E5.47922
G1 X132.403 Y164.639 E.12014
G1 X132.403 Y123.927 E5.47922
G1 X133.296 Y123.927 E.12014
G1 X133.296 Y164.639 E5.47922
G1 X134.189 Y164.639 E.12014
G1 X134.189 Y137.498 E3.65282
G1 X135.081 Y137.498 E.12014
G1 X135.081 Y164.639 E3.65282
G1 X135.974 Y164.639 E.12014
G1 X135.974 Y137.498 E3.65282
G1 X136.867 Y137.498 E.12014
G1 X136.867 Y164.639 E3.65282
G1 X137.759 Y164.639 E.12014
G1 X137.759 Y147.676 E2.28301
G1 X138.652 Y147.676 E.12014
G1 X138.652 Y164.639 E2.28301
G1 X139.545 Y164.639 E.12014
G1 X139.545 Y147.676 E2.28301
G1 X140.437 Y147.676 E.12014
G1 X140.437 Y164.639 E2.28301
G1 X141.33 Y164.639 E.12014
G1 X141.33 Y161.247 E.45661
G1 X142.223 Y161.247 E.12014
G1 X142.223 Y164.639 E.45661
G1 X143.116 Y164.639 E.12014
G1 X143.116 Y161.247 E.45661
G1 X144.008 Y161.247 E.12014
G1 X144.008 Y165.041 E.51067
G1 E-.7 F3600
;WIPE_START
G1 F6240
G1 X144.008 Y164.521 E-.285
;WIPE_END
G1 E-.015 F3600
G1 X130.618 Y165.041 F7800
G1 E1 F2400
G1 F1800
G1 X130.618 Y163.784 E.16916
G1 X130.216 Y164.319 E.09005
G1 X129.725 Y164.319 E.06609
G1 X129.725 Y164.639 E.04307
G1 X128.832 Y164.639 E.12014
G1 X128.832 Y164.319 E.04307
G1 X127.94 Y164.319 E.12014
G1 X127.94 Y164.639 E.04307
G1 X127.047 Y164.639 E.12014
G1 X127.047 Y164.319 E.04307
G1 X126.154 Y164.319 E.12014
G1 X126.154 Y164.639 E.04307
G1 X125.262 Y164.639 E.12014
M73 P0 R631
G1 X125.262 Y164.319 E.04307
G1 X124.369 Y164.319 E.12014
G1 X124.369 Y165.041 E.09713
G1 E-.7 F3600
;WIPE_START
G1 F6240
G1 X124.369 Y164.521 E-.285
;WIPE_END
G1 E-.015 F3600
G1 X111.604 Y163.698 F7800
G1 E1 F2400
;TYPE:Support material
;WIDTH:0.42
G1 F1800
G1 X112.014 Y164.083 E.02823
G1 X120.179 Y164.083 E.40978
G1 X120.605 Y163.516 E.03561
G1 X119.898 Y161.083 E.12712
G1 X126.271 Y161.083 E.31981
G1 X126.271 Y163.663 E.12947
G1 X125.154 Y163.663 E.05606
G1 X125.154 Y163.554 E.00545
G1 X124.866 Y163.459 E.0152
G1 X124.713 Y163.663 E.01282
G1 X123.271 Y163.663 E.07239
G1 X123.271 Y165.296 E.08195
G1 X126.271 Y165.296 E.15056
G1 X126.271 Y167.876 E.12947
G1 X70.693 Y167.876 E2.78921
G1 X70.693 Y165.296 E.12947
G1 X73.693 Y165.296 E.15056
G1 X73.693 Y163.663 E.08195
G1 X70.693 Y163.663 E.15056
G1 X70.693 Y161.083 E.12947
G1 X111.441 Y161.083 E2.04497
G1 X111.601 Y163.646 E.12888
G1 E-.7 F3600
;WIPE_START
G1 F6240
G1 X111.568 Y163.127 E-.285
;WIPE_END
G1 E-.015 F3600
G1 X125.639 Y167.72 F7800
G1 E1 F2400
G1 F1800
G1 X125.639 Y165.606 E.1061
G1 X125.255 Y165.606 E.01923
G1 X125.255 Y167.565 E.09831
G1 X124.872 Y167.565 E.01923
G1 X124.872 Y165.606 E.09831
G1 X124.489 Y165.606 E.01923
G1 X124.489 Y167.565 E.09831
G1 X124.106 Y167.565 E.01923
G1 X124.106 Y165.606 E.09831
G1 X123.722 Y165.606 E.01923
G1 X123.722 Y167.565 E.09831
G1 X123.339 Y167.565 E.01923
G1 X123.339 Y165.606 E.09831
G1 X122.96 Y165.606 E.01903
G1 X122.96 Y163.353 E.1131
G1 X123.339 Y163.353 E.01903
G1 X123.339 Y161.394 E.09831
G1 X123.722 Y161.394 E.01923
G1 X123.722 Y163.353 E.09831
G1 X124.106 Y163.353 E.01923
G1 X124.106 Y161.394 E.09831
G1 X124.489 Y161.394 E.01923
G1 X124.489 Y163.353 E.09831
G1 X124.558 Y163.353 E.00346
G1 X124.752 Y163.093 E.01626
G1 X124.872 Y163.133 E.00633
G1 X124.872 Y161.394 E.08731
G1 X125.255 Y161.394 E.01923
G1 X125.255 Y163.261 E.09373
G1 X125.464 Y163.331 E.01104
G1 X125.464 Y163.353 E.00109
G1 X125.639 Y163.353 E.00876
G1 X125.639 Y161.238 E.1061
G1 E-.7 F3600
;WIPE_START
G1 F6240
G1 X125.639 Y161.758 E-.285
;WIPE_END
G1 E-.015 F3600
G1 X122.956 Y167.72 F7800
G1 E1 F2400
G1 F1800
G1 X122.956 Y161.394 E.31752
G1 X122.573 Y161.394 E.01923
G1 X122.573 Y167.565 E.30973
