; generated by PrusaSlicer 2.5.0+win64 on 2022-12-07 at 00:13:32 UTC

; 

; external perimeters extrusion width = 1.00mm
; perimeters extrusion width = 1.00mm
; infill extrusion width = 1.00mm
; solid infill extrusion width = 1.00mm
; top infill extrusion width = 1.00mm
; support material extrusion width = 1.00mm
; first layer extrusion width = 0.42mm

M73 P0 R748
M107
;TYPE:Custom
G90 ; use absolute coordinates
M83 ; extruder relative mode
M140 S60 ; set final bed temp
M104 S150 ; set temporary nozzle temp to prevent oozing during homing and auto bed leveling
G4 S10 ; allow partial nozzle warmup
G28 ; home all axisG1 Z50 F240
G1 X7.6 Y10 F3000
M104 S210 ; set final nozzle temp
M190 S60 ; wait for bed temp to stabilize
M109 S210 ; wait for nozzle temp to stabilize
G1 Z0.28 F240
G92 E0
G1 Y140 E10 F1500 ; prime the nozzle
G1 X4 F5000
G92 E0
G1 Y10 E10 F1200 ; prime the nozzle
G92 E0
G21 ; set units to millimeters
G90 ; use absolute coordinates
M83 ; use relative distances for extrusion
; Filament gcode
M107
;LAYER_CHANGE
;Z:0.35
;HEIGHT:0.35
;BEFORE_LAYER_CHANGE
G92 E0
;0.35


G1 E-1 F3600
G1 Z.35 F7800
;AFTER_LAYER_CHANGE
;0.35
G1 X110.978 Y14.959
G1 E1 F2400
;TYPE:Support material interface
;WIDTH:1
G1 F1800
G1 X110.978 Y22.146 E.96727
G1 X111.871 Y22.146 E.12014
G1 X111.871 Y15.361 E.91321
G1 X112.764 Y15.361 E.12014
G1 X112.764 Y22.146 E.91321
G1 X113.656 Y22.146 E.12014
G1 X113.656 Y15.361 E.91321
G1 X114.549 Y15.361 E.12014
G1 X114.549 Y32.324 E2.28301
G1 X115.442 Y32.324 E.12014
G1 X115.442 Y15.361 E2.28301
G1 X116.335 Y15.361 E.12014
G1 X116.335 Y32.324 E2.28301
G1 X117.142 Y32.324 E.10861
G1 X117.142 Y42.502 E1.3698
G1 X117.227 Y42.502 E.01153
G1 X117.227 Y15.361 E3.65282
G1 X118.12 Y15.361 E.12014
G1 X118.12 Y42.502 E3.65282
G1 X119.013 Y42.502 E.12014
G1 X119.013 Y15.361 E3.65282
G1 X119.905 Y15.361 E.12014
G1 X119.905 Y42.502 E3.65282
G1 X120.534 Y42.502 E.08464
G1 X120.534 Y52.68 E1.3698
G1 X120.798 Y52.68 E.0355
G1 X120.798 Y15.361 E5.02262
G1 X121.691 Y15.361 E.12014
G1 X121.691 Y52.68 E5.02262
G1 X122.583 Y52.68 E.12014
G1 X122.583 Y15.361 E5.02262
G1 X123.476 Y15.361 E.12014
G1 X123.476 Y53.082 E5.07668
G1 E-.7 F3600
;WIPE_START
G1 F6240
G1 X123.476 Y52.562 E-.285
;WIPE_END
G1 E-.015 F3600
G1 X112.7 Y14.704 F7800
G1 E1 F2400
;TYPE:Support material
;WIDTH:0.42
G1 F1800
G1 X109.7 Y14.704 E.15056
G1 X109.7 Y22.802 E.40642
G1 X113.092 Y22.802 E.17027
G1 X113.092 Y32.981 E.5108
G1 X116.485 Y32.981 E.17027
G1 X116.485 Y43.159 E.5108
G1 X119.878 Y43.159 E.17027
G1 X119.878 Y53.337 E.5108
G1 X123.271 Y53.337 E.17027
G1 X123.271 Y63.515 E.5108
G1 X126.663 Y63.515 E.17027
G1 X126.663 Y73.693 E.5108
G1 X130.056 Y73.693 E.17027
G1 X130.056 Y83.871 E.5108
G1 X133.449 Y83.871 E.17027
G1 X133.449 Y94.049 E.5108
G1 X136.841 Y94.049 E.17027
G1 X136.841 Y107.62 E.68106
G1 X140.234 Y107.62 E.17027
G1 X140.234 Y117.798 E.5108
G1 X143.627 Y117.798 E.17027
G1 X143.627 Y127.976 E.5108
G1 X147.019 Y127.976 E.17027
G1 X147.019 Y138.154 E.5108
G1 X150.412 Y138.154 E.17027
G1 X150.412 Y148.332 E.5108
G1 X153.805 Y148.332 E.17027
G1 X153.805 Y158.51 E.5108
G1 X157.198 Y158.51 E.17027
G1 X157.198 Y165.296 E.34053
G1 X160.198 Y165.296 E.15056
G1 X160.198 Y167.876 E.12947
G1 X8.732 Y167.876 E7.60145
G1 X8.732 Y12.124 E7.81652
G1 X112.7 Y12.124 E5.21773
G1 X112.7 Y14.652 E.12687
G1 E-.7 F3600
;WIPE_START
G1 F6240
G1 X112.7 Y14.132 E-.285
;WIPE_END
G1 E-.015 F3600
G1 X159.744 Y167.72 F7800
G1 E1 F2400
G1 F1800
G1 X159.744 Y165.606 E.1061
G1 X159.361 Y165.606 E.01923
G1 X159.361 Y167.565 E.09831
G1 X158.978 Y167.565 E.01923
G1 X158.978 Y165.606 E.09831
G1 X158.595 Y165.606 E.01923
G1 X158.595 Y167.565 E.09831
G1 X158.211 Y167.565 E.01923
G1 X158.211 Y165.606 E.09831
G1 X157.828 Y165.606 E.01923
G1 X157.828 Y167.565 E.09831
G1 X157.445 Y167.565 E.01923
G1 X157.445 Y165.606 E.09831
G1 X157.062 Y165.606 E.01923
G1 X157.062 Y167.565 E.09831
G1 X156.679 Y167.565 E.01923
G1 X156.679 Y158.821 E.43885
G1 X156.295 Y158.821 E.01923
G1 X156.295 Y167.565 E.43885
G1 X155.912 Y167.565 E.01923
G1 X155.912 Y158.821 E.43885
G1 X155.529 Y158.821 E.01923
G1 X155.529 Y167.565 E.43885
G1 X155.146 Y167.565 E.01923
G1 X155.146 Y158.821 E.43885
G1 X154.762 Y158.821 E.01923
G1 X154.762 Y167.565 E.43885
G1 X154.379 Y167.565 E.01923
G1 X154.379 Y158.821 E.43885
G1 X153.996 Y158.821 E.01923
G1 X153.996 Y167.565 E.43885
G1 X153.613 Y167.565 E.01923
G1 X153.613 Y158.821 E.43885
G1 X153.494 Y158.821 E.00594
G1 X153.494 Y148.643 E.5108
G1 X153.23 Y148.643 E.01329
G1 X153.23 Y167.565 E.94964
G1 X152.846 Y167.565 E.01923
G1 X152.846 Y148.643 E.94964
G1 X152.463 Y148.643 E.01923
G1 X152.463 Y167.565 E.94964
G1 X152.08 Y167.565 E.01923
G1 X152.08 Y148.643 E.94964
G1 X151.697 Y148.643 E.01923
G1 X151.697 Y167.565 E.94964
G1 X151.314 Y167.565 E.01923
G1 X151.314 Y148.643 E.94964
G1 X150.93 Y148.643 E.01923
G1 X150.93 Y167.565 E.94964
G1 X150.547 Y167.565 E.01923
M73 P0 R747
G1 X150.547 Y148.643 E.94964
G1 X150.164 Y148.643 E.01923
G1 X150.164 Y167.565 E.94964
G1 X149.781 Y167.565 E.01923
G1 X149.781 Y138.465 E1.46044
G1 X149.398 Y138.465 E.01923
G1 X149.398 Y167.565 E1.46044
G1 X149.014 Y167.565 E.01923
G1 X149.014 Y138.465 E1.46044
G1 X148.631 Y138.465 E.01923
G1 X148.631 Y167.565 E1.46044
G1 X148.248 Y167.565 E.01923
G1 X148.248 Y138.465 E1.46044
G1 X147.865 Y138.465 E.01923
G1 X147.865 Y167.565 E1.46044
G1 X147.482 Y167.565 E.01923
G1 X147.482 Y138.465 E1.46044
G1 X147.098 Y138.465 E.01923
G1 X147.098 Y167.565 E1.46044
G1 X146.715 Y167.565 E.01923
G1 X146.709 Y128.287 E1.97124
G1 X146.332 Y128.287 E.01893
G1 X146.332 Y167.565 E1.97124
G1 X145.949 Y167.565 E.01923
G1 X145.949 Y128.287 E1.97124
G1 X145.565 Y128.287 E.01923
G1 X145.565 Y167.565 E1.97124
G1 X145.182 Y167.565 E.01923
G1 X145.182 Y128.287 E1.97124
G1 X144.799 Y128.287 E.01923
G1 X144.799 Y167.565 E1.97124
G1 X144.416 Y167.565 E.01923
G1 X144.416 Y128.287 E1.97124
G1 X144.033 Y128.287 E.01923
G1 X144.033 Y167.565 E1.97124
G1 X143.649 Y167.565 E.01923
G1 X143.649 Y128.287 E1.97124
G1 X143.316 Y128.287 E.01672
G1 X143.316 Y118.108 E.5108
G1 X143.266 Y118.108 E.00252
G1 X143.266 Y167.565 E2.48203
G1 X142.883 Y167.565 E.01923
G1 X142.883 Y118.108 E2.48203
G1 X142.5 Y118.108 E.01923
G1 X142.5 Y167.565 E2.48203
G1 X142.117 Y167.565 E.01923
G1 X142.117 Y118.108 E2.48203
G1 X141.733 Y118.108 E.01923
G1 X141.733 Y167.565 E2.48203
G1 X141.35 Y167.565 E.01923
G1 X141.35 Y118.108 E2.48203
G1 X140.967 Y118.108 E.01923
G1 X140.967 Y167.565 E2.48203
G1 X140.584 Y167.565 E.01923
G1 X140.584 Y118.108 E2.48203
G1 X140.201 Y118.108 E.01923
G1 X140.201 Y167.565 E2.48203
G1 X139.817 Y167.565 E.01923
G1 X139.817 Y107.93 E2.99283
G1 X139.434 Y107.93 E.01923
G1 X139.434 Y167.565 E2.99283
G1 X139.051 Y167.565 E.01923
G1 X139.051 Y107.93 E2.99283
G1 X138.668 Y107.93 E.01923
G1 X138.668 Y167.565 E2.99283
G1 X138.284 Y167.565 E.01923
G1 X138.284 Y107.93 E2.99283
G1 X137.901 Y107.93 E.01923
G1 X137.901 Y167.565 E2.99283
G1 X137.518 Y167.565 E.01923
G1 X137.518 Y107.93 E2.99283
G1 X137.135 Y107.93 E.01923
G1 X137.135 Y167.565 E2.99283
G1 X136.752 Y167.565 E.01923
G1 X136.752 Y107.93 E2.99283
G1 X136.531 Y107.93 E.01108
G1 X136.531 Y94.36 E.68106
G1 X136.368 Y94.36 E.00816
G1 X136.368 Y167.565 E3.67389
G1 X135.985 Y167.565 E.01923
G1 X135.985 Y94.36 E3.67389
G1 X135.602 Y94.36 E.01923
M73 P0 R746
G1 X135.602 Y167.565 E3.67389
G1 X135.219 Y167.565 E.01923
G1 X135.219 Y94.36 E3.67389
G1 X134.836 Y94.36 E.01923
G1 X134.836 Y167.565 E3.67389
G1 X134.452 Y167.565 E.01923
G1 X134.452 Y94.36 E3.67389
G1 X134.069 Y94.36 E.01923
G1 X134.069 Y167.565 E3.67389
G1 X133.686 Y167.565 E.01923
G1 X133.686 Y94.36 E3.67389
G1 X133.303 Y94.36 E.01923
G1 X133.303 Y167.565 E3.67389
G1 X132.92 Y167.565 E.01923
G1 X132.92 Y84.181 E4.18469
G1 X132.536 Y84.181 E.01923
G1 X132.536 Y167.565 E4.18469
G1 X132.153 Y167.565 E.01923
G1 X132.153 Y84.181 E4.18469
G1 X131.77 Y84.181 E.01923
G1 X131.77 Y167.565 E4.18469
G1 X131.387 Y167.565 E.01923
G1 X131.387 Y84.181 E4.18469
G1 X131.003 Y84.181 E.01923
G1 X131.003 Y167.565 E4.18469
G1 X130.62 Y167.565 E.01923
G1 X130.62 Y84.181 E4.18469
G1 X130.237 Y84.181 E.01923
G1 X130.237 Y167.565 E4.18469
G1 X129.854 Y167.565 E.01923
G1 X129.854 Y84.181 E4.18469
G1 X129.746 Y84.181 E.00544
G1 X129.746 Y74.003 E.5108
G1 X129.471 Y74.003 E.0138
G1 X129.471 Y167.565 E4.69549
G1 X129.087 Y167.565 E.01923
G1 X129.087 Y74.003 E4.69549
G1 X128.704 Y74.003 E.01923
G1 X128.704 Y167.565 E4.69549
G1 X128.321 Y167.565 E.01923
G1 X128.321 Y74.003 E4.69549
G1 X127.938 Y74.003 E.01923
G1 X127.938 Y167.565 E4.69549
G1 X127.555 Y167.565 E.01923
M73 P0 R745
G1 X127.555 Y74.003 E4.69549
G1 X127.171 Y74.003 E.01923
G1 X127.171 Y167.565 E4.69549
G1 X126.788 Y167.565 E.01923
G1 X126.788 Y74.003 E4.69549
G1 X126.405 Y74.003 E.01923
G1 X126.405 Y167.565 E4.69549
G1 X126.022 Y167.565 E.01923
G1 X126.022 Y63.825 E5.20629
G1 X125.639 Y63.825 E.01923
G1 X125.639 Y167.565 E5.20629
G1 X125.255 Y167.565 E.01923
G1 X125.255 Y63.825 E5.20629
G1 X124.872 Y63.825 E.01923
G1 X124.872 Y167.565 E5.20629
G1 X124.489 Y167.565 E.01923
G1 X124.489 Y63.825 E5.20629
G1 X124.106 Y63.825 E.01923
G1 X124.106 Y167.565 E5.20629
G1 X123.722 Y167.565 E.01923
G1 X123.722 Y63.825 E5.20629
G1 X123.339 Y63.825 E.01923
G1 X123.339 Y167.565 E5.20629
G1 X122.956 Y167.565 E.01923
G1 X122.956 Y53.647 E5.71708
G1 X122.573 Y53.647 E.01923
G1 X122.573 Y167.565 E5.71708
G1 X122.19 Y167.565 E.01923
G1 X122.19 Y53.647 E5.71708
G1 X121.806 Y53.647 E.01923
G1 X121.806 Y167.565 E5.71708
G1 X121.423 Y167.565 E.01923
G1 X121.423 Y53.647 E5.71708
G1 X121.04 Y53.647 E.01923
M73 P0 R744
G1 X121.04 Y167.565 E5.71708
G1 X120.657 Y167.565 E.01923
G1 X120.657 Y53.647 E5.71708
G1 X120.274 Y53.647 E.01923
G1 X120.274 Y167.565 E5.71708
G1 X119.89 Y167.565 E.01923
G1 X119.89 Y53.647 E5.71708
G1 X119.567 Y53.647 E.01621
G1 X119.567 Y43.469 E.5108
G1 X119.507 Y43.469 E.00302
G1 X119.507 Y167.565 E6.22788
G1 X119.124 Y167.565 E.01923
G1 X119.124 Y43.469 E6.22788
G1 X118.741 Y43.469 E.01923
G1 X118.741 Y167.565 E6.22788
G1 X118.358 Y167.565 E.01923
G1 X118.358 Y43.469 E6.22788
G1 X117.974 Y43.469 E.01923
G1 X117.974 Y167.565 E6.22788
G1 X117.591 Y167.565 E.01923
G1 X117.591 Y43.469 E6.22788
G1 X117.208 Y43.469 E.01923
G1 X117.208 Y167.565 E6.22788
G1 X116.825 Y167.565 E.01923
G1 X116.825 Y43.469 E6.22788
G1 X116.442 Y43.469 E.01923
G1 X116.441 Y167.565 E6.22788
G1 X116.058 Y167.565 E.01923
G1 X116.058 Y33.291 E6.73868
G1 X115.675 Y33.291 E.01923
M73 P0 R743
G1 X115.675 Y167.565 E6.73868
G1 X115.292 Y167.565 E.01923
G1 X115.292 Y33.291 E6.73868
G1 X114.909 Y33.291 E.01923
G1 X114.909 Y167.565 E6.73868
G1 X114.525 Y167.565 E.01923
G1 X114.525 Y33.291 E6.73868
G1 X114.142 Y33.291 E.01923
G1 X114.142 Y167.565 E6.73868
G1 X113.759 Y167.565 E.01923
G1 X113.759 Y33.291 E6.73868
G1 X113.376 Y33.291 E.01923
G1 X113.376 Y167.565 E6.73868
G1 X112.993 Y167.565 E.01923
G1 X112.993 Y33.291 E6.73868
G1 X112.782 Y33.291 E.01057
G1 X112.782 Y23.113 E.5108
G1 X112.609 Y23.113 E.00866
G1 X112.609 Y167.565 E7.24947
G1 X112.226 Y167.565 E.01923
G1 X112.226 Y23.113 E7.24947
G1 X111.843 Y23.113 E.01923
G1 X111.843 Y167.565 E7.24947
G1 X111.46 Y167.565 E.01923
G1 X111.46 Y23.113 E7.24947
G1 X111.077 Y23.113 E.01923
G1 X111.077 Y167.565 E7.24947
G1 X110.693 Y167.565 E.01923
M73 P0 R742
G1 X110.693 Y23.113 E7.24947
G1 X110.31 Y23.113 E.01923
G1 X110.31 Y167.565 E7.24947
G1 X109.927 Y167.565 E.01923
G1 X109.927 Y22.958 E7.25726
G1 E-.7 F3600
;WIPE_START
G1 F6240
G1 X109.927 Y23.478 E-.285
;WIPE_END
G1 E-.015 F3600
G1 X112.226 Y14.549 F7800
G1 E1 F2400
G1 F1800
G1 X112.226 Y12.435 E.1061
G1 X111.843 Y12.435 E.01923
G1 X111.843 Y14.394 E.09831
G1 X111.46 Y14.394 E.01923
G1 X111.46 Y12.435 E.09831
G1 X111.077 Y12.435 E.01923
G1 X111.077 Y14.394 E.09831
G1 X110.693 Y14.394 E.01923
G1 X110.693 Y12.435 E.09831
G1 X110.31 Y12.435 E.01923
G1 X110.31 Y14.394 E.09831
G1 X109.927 Y14.394 E.01923
G1 X109.927 Y12.435 E.09831
G1 X109.544 Y12.435 E.01923
G1 X109.544 Y167.565 E7.78536
G1 X109.161 Y167.565 E.01923
G1 X109.161 Y12.435 E7.78536
G1 X108.777 Y12.435 E.01923
G1 X108.777 Y167.565 E7.78536
G1 X108.394 Y167.565 E.01923
G1 X108.394 Y12.435 E7.78536
G1 X108.011 Y12.435 E.01923
G1 X108.011 Y167.565 E7.78536
G1 X107.628 Y167.565 E.01923
G1 X107.628 Y12.435 E7.78536
G1 X107.244 Y12.435 E.01923
G1 X107.244 Y167.565 E7.78536
G1 X106.861 Y167.565 E.01923
G1 X106.861 Y12.435 E7.78536
G1 X106.478 Y12.435 E.01923
G1 X106.478 Y167.565 E7.78536
G1 X106.095 Y167.565 E.01923
M73 P0 R741
G1 X106.095 Y12.435 E7.78536
G1 X105.712 Y12.435 E.01923
G1 X105.712 Y167.565 E7.78536
G1 X105.328 Y167.565 E.01923
G1 X105.328 Y12.435 E7.78536
G1 X104.945 Y12.435 E.01923
G1 X104.945 Y167.565 E7.78536
G1 X104.562 Y167.565 E.01923
G1 X104.562 Y12.435 E7.78536
G1 X104.179 Y12.435 E.01923
M73 P1 R741
G1 X104.179 Y167.565 E7.78536
G1 X103.796 Y167.565 E.01923
G1 X103.796 Y12.435 E7.78536
G1 X103.412 Y12.435 E.01923
G1 X103.412 Y167.565 E7.78536
G1 X103.029 Y167.565 E.01923
G1 X103.029 Y12.435 E7.78536
G1 X102.646 Y12.435 E.01923
G1 X102.646 Y167.565 E7.78536
G1 X102.263 Y167.565 E.01923
G1 X102.263 Y12.435 E7.78536
G1 X101.88 Y12.435 E.01923
M73 P1 R740
G1 X101.88 Y167.565 E7.78536
G1 X101.496 Y167.565 E.01923
G1 X101.496 Y12.435 E7.78536
G1 X101.113 Y12.435 E.01923
G1 X101.113 Y167.565 E7.78536
G1 X100.73 Y167.565 E.01923
G1 X100.73 Y12.435 E7.78536
G1 X100.347 Y12.435 E.01923
G1 X100.347 Y167.565 E7.78536
G1 X99.963 Y167.565 E.01923
G1 X99.963 Y12.435 E7.78536
G1 X99.58 Y12.435 E.01923
G1 X99.58 Y167.565 E7.78536
G1 X99.197 Y167.565 E.01923
G1 X99.197 Y12.435 E7.78536
G1 X98.814 Y12.435 E.01923
G1 X98.814 Y167.565 E7.78536
G1 X98.431 Y167.565 E.01923
G1 X98.431 Y12.435 E7.78536
G1 X98.047 Y12.435 E.01923
G1 X98.047 Y167.565 E7.78536
G1 X97.664 Y167.565 E.01923
G1 X97.664 Y12.435 E7.78536
G1 X97.281 Y12.435 E.01923
M73 P1 R739
G1 X97.281 Y167.565 E7.78536
G1 X96.898 Y167.565 E.01923
G1 X96.898 Y12.435 E7.78536
G1 X96.515 Y12.435 E.01923
G1 X96.515 Y167.565 E7.78536
G1 X96.131 Y167.565 E.01923
G1 X96.131 Y12.435 E7.78536
G1 X95.748 Y12.435 E.01923
G1 X95.748 Y167.565 E7.78536
G1 X95.365 Y167.565 E.01923
G1 X95.365 Y12.435 E7.78536
G1 X94.982 Y12.435 E.01923
G1 X94.982 Y167.565 E7.78536
G1 X94.599 Y167.565 E.01923
G1 X94.599 Y12.435 E7.78536
G1 X94.215 Y12.435 E.01923
G1 X94.215 Y167.565 E7.78536
G1 X93.832 Y167.565 E.01923
G1 X93.832 Y12.435 E7.78536
G1 X93.449 Y12.435 E.01923
G1 X93.449 Y167.565 E7.78536
G1 X93.066 Y167.565 E.01923
M73 P1 R738
G1 X93.066 Y12.435 E7.78536
G1 X92.682 Y12.435 E.01923
G1 X92.682 Y167.565 E7.78536
G1 X92.299 Y167.565 E.01923
G1 X92.299 Y12.435 E7.78536
G1 X91.916 Y12.435 E.01923
G1 X91.916 Y167.565 E7.78536
G1 X91.533 Y167.565 E.01923
G1 X91.533 Y12.435 E7.78536
G1 X91.15 Y12.435 E.01923
G1 X91.15 Y167.565 E7.78536
G1 X90.766 Y167.565 E.01923
G1 X90.766 Y12.435 E7.78536
G1 X90.383 Y12.435 E.01923
G1 X90.383 Y167.565 E7.78536
G1 X90 Y167.565 E.01923
G1 X90 Y12.435 E7.78536
G1 X89.617 Y12.435 E.01923
G1 X89.617 Y167.565 E7.78536
G1 X89.234 Y167.565 E.01923
G1 X89.234 Y12.435 E7.78536
G1 X88.85 Y12.435 E.01923
G1 X88.85 Y167.565 E7.78536
G1 X88.467 Y167.565 E.01923
M73 P1 R737
G1 X88.467 Y12.435 E7.78536
G1 X88.084 Y12.435 E.01923
G1 X88.084 Y167.565 E7.78536
G1 X87.701 Y167.565 E.01923
G1 X87.701 Y12.435 E7.78536
G1 X87.318 Y12.435 E.01923
G1 X87.318 Y167.565 E7.78536
G1 X86.934 Y167.565 E.01923
G1 X86.934 Y12.435 E7.78536
G1 X86.551 Y12.435 E.01923
G1 X86.551 Y167.565 E7.78536
G1 X86.168 Y167.565 E.01923
G1 X86.168 Y12.435 E7.78536
G1 X85.785 Y12.435 E.01923
G1 X85.785 Y167.565 E7.78536
G1 X85.401 Y167.565 E.01923
G1 X85.401 Y12.435 E7.78536
G1 X85.018 Y12.435 E.01923
G1 X85.018 Y167.565 E7.78536
G1 X84.635 Y167.565 E.01923
G1 X84.635 Y12.435 E7.78536
G1 X84.252 Y12.435 E.01923
M73 P1 R736
G1 X84.252 Y167.565 E7.78536
G1 X83.869 Y167.565 E.01923
G1 X83.869 Y12.435 E7.78536
G1 X83.485 Y12.435 E.01923
G1 X83.485 Y167.565 E7.78536
G1 X83.102 Y167.565 E.01923
G1 X83.102 Y12.435 E7.78536
G1 X82.719 Y12.435 E.01923
