; generated by PrusaSlicer 2.5.0+win64 on 2022-12-07 at 00:13:31 UTC

; 

; external perimeters extrusion width = 1.00mm
; perimeters extrusion width = 1.00mm
; infill extrusion width = 1.00mm
; solid infill extrusion width = 1.00mm
; top infill extrusion width = 1.00mm
; support material extrusion width = 1.00mm
; first layer extrusion width = 0.42mm

M73 P0 R630
M107
;TYPE:Custom
G90 ; use absolute coordinates
M83 ; extruder relative mode
M140 S60 ; set final bed temp
M104 S150 ; set temporary nozzle temp to prevent oozing during homing and auto bed leveling
G4 S10 ; allow partial nozzle warmup
G28 ; home all axisG1 Z50 F240
G1 X7.6 Y10 F3000
M104 S210 ; set final nozzle temp
M190 S60 ; wait for bed temp to stabilize
M109 S210 ; wait for nozzle temp to stabilize
G1 Z0.28 F240
G92 E0
G1 Y140 E10 F1500 ; prime the nozzle
G1 X4 F5000
G92 E0
G1 Y10 E10 F1200 ; prime the nozzle
G92 E0
G21 ; set units to millimeters
G90 ; use absolute coordinates
M83 ; use relative distances for extrusion
; Filament gcode
M107
;LAYER_CHANGE
;Z:0.35
;HEIGHT:0.35
;BEFORE_LAYER_CHANGE
G92 E0
;0.35


G1 E-1 F3600
G1 Z.35 F7800
;AFTER_LAYER_CHANGE
;0.35
G1 X102.944 Y16.08
G1 E1 F2400
;TYPE:Support material interface
;WIDTH:1
G1 F1800
G1 X102.944 Y15.361 E.09687
G1 X102.051 Y15.361 E.12014
G1 X102.051 Y15.679 E.0428
G1 X101.159 Y15.679 E.12014
G1 X101.159 Y15.361 E.0428
G1 X100.266 Y15.361 E.12014
G1 X100.266 Y15.679 E.0428
G1 X99.373 Y15.679 E.12014
G1 X99.373 Y15.361 E.0428
G1 X98.481 Y15.361 E.12014
G1 X98.481 Y15.679 E.0428
G1 X97.588 Y15.679 E.12014
G1 X97.588 Y15.361 E.0428
G1 X96.695 Y15.361 E.12014
G1 X96.695 Y15.679 E.0428
G1 X95.802 Y15.679 E.12014
G1 X95.802 Y15.361 E.0428
G1 X94.91 Y15.361 E.12014
G1 X94.91 Y15.679 E.0428
G1 X94.017 Y15.679 E.12014
G1 X94.017 Y15.361 E.0428
G1 X93.124 Y15.361 E.12014
G1 X93.124 Y15.679 E.0428
G1 X92.232 Y15.679 E.12014
G1 X92.232 Y15.361 E.0428
G1 X91.339 Y15.361 E.12014
G1 X91.339 Y15.679 E.0428
G1 X90.446 Y15.679 E.12014
G1 X90.446 Y15.361 E.0428
G1 X89.554 Y15.361 E.12014
G1 X89.554 Y15.679 E.0428
G1 X88.661 Y15.679 E.12014
G1 X88.661 Y15.361 E.0428
G1 X87.768 Y15.361 E.12014
G1 X87.768 Y15.679 E.0428
G1 X86.876 Y15.679 E.12014
G1 X86.876 Y15.361 E.0428
G1 X85.983 Y15.361 E.12014
G1 X85.983 Y15.679 E.0428
G1 X85.09 Y15.679 E.12014
G1 X85.09 Y15.361 E.0428
G1 X84.197 Y15.361 E.12014
G1 X84.197 Y15.679 E.0428
G1 X83.305 Y15.679 E.12014
G1 X83.305 Y15.361 E.0428
G1 X82.412 Y15.361 E.12014
G1 X82.412 Y15.679 E.0428
G1 X81.519 Y15.679 E.12014
G1 X81.519 Y15.361 E.0428
G1 X80.627 Y15.361 E.12014
G1 X80.627 Y15.679 E.0428
G1 X79.734 Y15.679 E.12014
G1 X79.734 Y15.361 E.0428
G1 X78.841 Y15.361 E.12014
G1 X78.841 Y15.679 E.0428
G1 X77.949 Y15.679 E.12014
G1 X77.949 Y15.361 E.0428
G1 X77.056 Y15.361 E.12014
G1 X77.056 Y15.679 E.0428
G1 X76.163 Y15.679 E.12014
G1 X76.163 Y15.361 E.0428
G1 X75.27 Y15.361 E.12014
G1 X75.27 Y15.679 E.0428
G1 X74.378 Y15.679 E.12014
G1 X74.378 Y15.361 E.0428
G1 X73.485 Y15.361 E.12014
G1 X73.485 Y15.679 E.0428
G1 X72.592 Y15.679 E.12014
G1 X72.592 Y15.361 E.0428
G1 X71.7 Y15.361 E.12014
G1 X71.7 Y15.679 E.0428
G1 X70.807 Y15.679 E.12014
G1 X70.807 Y15.361 E.0428
G1 X69.914 Y15.361 E.12014
G1 X69.914 Y15.679 E.0428
G1 X69.022 Y15.679 E.12014
G1 X69.022 Y15.361 E.0428
G1 X68.129 Y15.361 E.12014
G1 X68.129 Y15.679 E.0428
G1 X67.236 Y15.679 E.12014
G1 X67.236 Y15.361 E.0428
G1 X66.343 Y15.361 E.12014
G1 X66.343 Y15.679 E.0428
G1 X65.451 Y15.679 E.12014
G1 X65.451 Y15.361 E.0428
G1 X64.558 Y15.361 E.12014
G1 X64.558 Y15.679 E.0428
G1 X63.665 Y15.679 E.12014
G1 X63.665 Y15.361 E.0428
G1 X62.773 Y15.361 E.12014
G1 X62.773 Y15.679 E.0428
G1 X61.88 Y15.679 E.12014
G1 X61.88 Y15.361 E.0428
G1 X60.987 Y15.361 E.12014
G1 X60.987 Y15.679 E.0428
G1 X60.095 Y15.679 E.12014
G1 X60.095 Y15.361 E.0428
G1 X59.202 Y15.361 E.12014
G1 X59.202 Y15.679 E.0428
G1 X58.309 Y15.679 E.12014
G1 X58.309 Y15.361 E.0428
G1 X57.416 Y15.361 E.12014
G1 X57.416 Y15.679 E.0428
G1 X56.524 Y15.679 E.12014
G1 X56.524 Y15.361 E.0428
G1 X55.631 Y15.361 E.12014
G1 X55.631 Y15.679 E.0428
G1 X54.738 Y15.679 E.12014
G1 X54.738 Y15.361 E.0428
G1 X53.846 Y15.361 E.12014
G1 X53.846 Y15.679 E.0428
G1 X52.953 Y15.679 E.12014
G1 X52.953 Y15.361 E.0428
G1 X52.06 Y15.361 E.12014
G1 X52.06 Y15.679 E.04281
G1 X51.168 Y15.679 E.12014
G1 X51.168 Y15.361 E.0428
G1 X50.275 Y15.361 E.12014
G1 X50.275 Y15.679 E.0428
G1 X49.382 Y15.679 E.12014
G1 X49.382 Y15.361 E.0428
G1 X48.489 Y15.361 E.12014
G1 X48.489 Y15.679 E.0428
G1 X47.597 Y15.679 E.12014
G1 X47.597 Y15.361 E.0428
G1 X46.704 Y15.361 E.12014
G1 X46.704 Y15.679 E.0428
G1 X45.811 Y15.679 E.12014
G1 X45.811 Y15.361 E.0428
G1 X44.919 Y15.361 E.12014
G1 X44.919 Y15.679 E.0428
G1 X44.026 Y15.679 E.12014
G1 X44.026 Y15.361 E.0428
G1 X43.133 Y15.361 E.12014
G1 X43.133 Y15.679 E.0428
G1 X42.241 Y15.679 E.12014
G1 X42.241 Y15.361 E.0428
G1 X41.348 Y15.361 E.12014
G1 X41.348 Y15.679 E.0428
G1 X40.455 Y15.679 E.12014
G1 X40.455 Y15.361 E.0428
G1 X39.562 Y15.361 E.12014
G1 X39.562 Y15.679 E.0428
G1 X38.67 Y15.679 E.12014
G1 X38.67 Y15.361 E.0428
G1 X37.777 Y15.361 E.12014
G1 X37.777 Y15.679 E.0428
G1 X36.884 Y15.679 E.12014
G1 X36.884 Y15.361 E.0428
G1 X35.992 Y15.361 E.12014
G1 X35.992 Y15.679 E.0428
G1 X35.099 Y15.679 E.12014
G1 X35.099 Y15.361 E.0428
G1 X34.206 Y15.361 E.12014
G1 X34.206 Y15.679 E.0428
G1 X33.314 Y15.679 E.12014
G1 X33.314 Y15.361 E.0428
G1 X32.421 Y15.361 E.12014
G1 X32.421 Y15.679 E.0428
G1 X31.528 Y15.679 E.12014
G1 X31.528 Y15.361 E.0428
G1 X30.635 Y15.361 E.12014
G1 X30.635 Y15.679 E.0428
G1 X29.743 Y15.679 E.12014
G1 X29.743 Y15.361 E.04281
G1 X28.85 Y15.361 E.12014
G1 X28.85 Y15.679 E.0428
G1 X27.957 Y15.679 E.12014
G1 X27.957 Y15.361 E.0428
G1 X27.065 Y15.361 E.12014
G1 X27.065 Y15.679 E.0428
G1 X26.172 Y15.679 E.12014
G1 X26.172 Y15.361 E.0428
G1 X25.279 Y15.361 E.12014
G1 X25.279 Y15.679 E.0428
G1 X24.387 Y15.679 E.12014
G1 X24.387 Y15.361 E.0428
G1 X23.494 Y15.361 E.12014
G1 X23.494 Y15.679 E.0428
G1 X22.601 Y15.679 E.12014
G1 X22.601 Y15.361 E.0428
G1 X21.708 Y15.361 E.12014
G1 X21.708 Y15.679 E.0428
G1 X20.816 Y15.679 E.12014
G1 X20.816 Y15.361 E.0428
G1 X19.923 Y15.361 E.12014
G1 X19.923 Y15.679 E.0428
G1 X19.03 Y15.679 E.12014
G1 X19.03 Y15.361 E.04281
G1 X18.138 Y15.361 E.12014
G1 X18.138 Y15.679 E.04281
G1 X17.245 Y15.679 E.12014
G1 X17.245 Y15.361 E.0428
G1 X16.352 Y15.361 E.12014
G1 X16.352 Y15.679 E.0428
G1 X15.46 Y15.679 E.12014
G1 X15.46 Y15.361 E.0428
G1 X14.567 Y15.361 E.12014
G1 X14.567 Y15.679 E.0428
G1 X13.871 Y15.679 E.09367
G1 X13.674 Y15.875 E.03744
G1 X13.674 Y15.361 E.06928
G1 X12.781 Y15.361 E.12014
G1 X12.781 Y164.639 E20.09046
G1 X13.674 Y164.639 E.12014
G1 X13.674 Y164.125 E.06928
G1 X13.871 Y164.321 E.03744
G1 X14.567 Y164.321 E.09367
G1 X14.567 Y164.639 E.04281
G1 X15.46 Y164.639 E.12014
G1 X15.46 Y164.321 E.04281
G1 X16.352 Y164.321 E.12014
G1 X16.352 Y164.639 E.04281
G1 X17.245 Y164.639 E.12014
G1 X17.245 Y164.321 E.04281
G1 X18.138 Y164.321 E.12014
G1 X18.138 Y164.639 E.0428
G1 X19.03 Y164.639 E.12014
G1 X19.03 Y164.321 E.0428
G1 X19.923 Y164.321 E.12014
G1 X19.923 Y164.639 E.0428
G1 X20.816 Y164.639 E.12014
G1 X20.816 Y164.321 E.04281
G1 X21.708 Y164.321 E.12014
G1 X21.708 Y164.639 E.04281
G1 X22.601 Y164.639 E.12014
G1 X22.601 Y164.321 E.04281
G1 X23.494 Y164.321 E.12014
G1 X23.494 Y164.639 E.04281
G1 X24.387 Y164.639 E.12014
G1 X24.387 Y164.321 E.04281
G1 X25.279 Y164.321 E.12014
G1 X25.279 Y164.639 E.04281
G1 X26.172 Y164.639 E.12014
G1 X26.172 Y164.321 E.04281
G1 X27.065 Y164.321 E.12014
G1 X27.065 Y164.639 E.04281
G1 X27.957 Y164.639 E.12014
G1 X27.957 Y164.321 E.04281
G1 X28.85 Y164.321 E.12014
G1 X28.85 Y164.639 E.04281
G1 X29.743 Y164.639 E.12014
G1 X29.743 Y164.321 E.0428
G1 X30.635 Y164.321 E.12014
G1 X30.635 Y164.639 E.0428
G1 X31.528 Y164.639 E.12014
G1 X31.528 Y164.321 E.0428
G1 X32.421 Y164.321 E.12014
G1 X32.421 Y164.639 E.0428
G1 X33.314 Y164.639 E.12014
G1 X33.314 Y164.321 E.04281
G1 X34.206 Y164.321 E.12014
G1 X34.206 Y164.639 E.04281
G1 X35.099 Y164.639 E.12014
G1 X35.099 Y164.321 E.04281
G1 X35.992 Y164.321 E.12014
G1 X35.992 Y164.639 E.04281
G1 X36.884 Y164.639 E.12014
G1 X36.884 Y164.321 E.04281
G1 X37.777 Y164.321 E.12014
G1 X37.777 Y164.639 E.04281
G1 X38.67 Y164.639 E.12014
G1 X38.67 Y164.321 E.04281
G1 X39.562 Y164.321 E.12014
G1 X39.562 Y164.639 E.04281
G1 X40.455 Y164.639 E.12014
G1 X40.455 Y164.321 E.04281
G1 X41.348 Y164.321 E.12014
G1 X41.348 Y164.639 E.0428
G1 X42.241 Y164.639 E.12014
G1 X42.241 Y164.321 E.0428
G1 X43.133 Y164.321 E.12014
G1 X43.133 Y164.639 E.0428
G1 X44.026 Y164.639 E.12014
G1 X44.026 Y164.321 E.0428
G1 X44.919 Y164.321 E.12014
G1 X44.919 Y164.639 E.0428
G1 X45.811 Y164.639 E.12014
G1 X45.811 Y164.321 E.04281
G1 X46.704 Y164.321 E.12014
G1 X46.704 Y164.639 E.04281
G1 X47.597 Y164.639 E.12014
G1 X47.597 Y164.321 E.04281
G1 X48.489 Y164.321 E.12014
G1 X48.489 Y164.639 E.04281
G1 X49.382 Y164.639 E.12014
G1 X49.382 Y164.321 E.04281
G1 X50.275 Y164.321 E.12014
G1 X50.275 Y164.639 E.04281
G1 X51.168 Y164.639 E.12014
G1 X51.168 Y164.321 E.04281
G1 X52.06 Y164.321 E.12014
G1 X52.06 Y164.639 E.04281
G1 X52.953 Y164.639 E.12014
G1 X52.953 Y164.321 E.0428
G1 X53.846 Y164.321 E.12014
G1 X53.846 Y164.639 E.0428
G1 X54.738 Y164.639 E.12014
G1 X54.738 Y164.321 E.0428
G1 X55.631 Y164.321 E.12014
G1 X55.631 Y164.639 E.0428
G1 X56.524 Y164.639 E.12014
G1 X56.524 Y164.321 E.0428
G1 X57.416 Y164.321 E.12014
G1 X57.416 Y164.639 E.0428
G1 X58.309 Y164.639 E.12014
G1 X58.309 Y164.321 E.0428
G1 X59.202 Y164.321 E.12014
G1 X59.202 Y164.639 E.04281
G1 X60.095 Y164.639 E.12014
G1 X60.095 Y164.321 E.04281
M73 P0 R629
G1 X60.987 Y164.321 E.12014
G1 X60.987 Y164.639 E.04281
G1 X61.88 Y164.639 E.12014
G1 X61.88 Y164.321 E.04281
G1 X62.773 Y164.321 E.12014
G1 X62.773 Y164.639 E.04281
G1 X63.665 Y164.639 E.12014
G1 X63.665 Y164.321 E.04281
G1 X64.558 Y164.321 E.12014
G1 X64.558 Y164.639 E.0428
G1 X65.451 Y164.639 E.12014
G1 X65.451 Y164.321 E.0428
G1 X66.343 Y164.321 E.12014
G1 X66.343 Y164.639 E.0428
G1 X67.236 Y164.639 E.12014
G1 X67.236 Y164.321 E.0428
G1 X68.129 Y164.321 E.12014
G1 X68.129 Y164.639 E.0428
G1 X69.022 Y164.639 E.12014
G1 X69.022 Y164.321 E.0428
G1 X69.914 Y164.321 E.12014
G1 X69.914 Y164.639 E.0428
G1 X70.807 Y164.639 E.12014
G1 X70.807 Y164.321 E.0428
G1 X71.7 Y164.321 E.12014
G1 X71.7 Y164.639 E.04281
G1 X72.592 Y164.639 E.12014
G1 X72.592 Y164.321 E.04281
G1 X73.485 Y164.321 E.12014
G1 X73.485 Y164.639 E.04281
G1 X74.378 Y164.639 E.12014
G1 X74.378 Y164.321 E.04281
G1 X75.27 Y164.321 E.12014
G1 X75.27 Y164.639 E.04281
G1 X76.163 Y164.639 E.12014
G1 X76.163 Y164.321 E.0428
G1 X77.056 Y164.321 E.12014
G1 X77.056 Y164.639 E.0428
G1 X77.949 Y164.639 E.12014
G1 X77.949 Y164.321 E.0428
G1 X78.841 Y164.321 E.12014
G1 X78.841 Y164.639 E.0428
G1 X79.734 Y164.639 E.12014
G1 X79.734 Y164.321 E.0428
G1 X80.627 Y164.321 E.12014
G1 X80.627 Y164.639 E.0428
G1 X81.519 Y164.639 E.12014
G1 X81.519 Y164.321 E.0428
G1 X82.412 Y164.321 E.12014
G1 X82.412 Y164.639 E.0428
G1 X83.305 Y164.639 E.12014
G1 X83.305 Y164.321 E.0428
G1 X84.197 Y164.321 E.12014
G1 X84.197 Y164.639 E.04281
G1 X85.09 Y164.639 E.12014
G1 X85.09 Y164.321 E.04281
G1 X85.983 Y164.321 E.12014
G1 X85.983 Y164.639 E.04281
G1 X86.875 Y164.639 E.12014
G1 X86.875 Y164.321 E.04281
G1 X87.768 Y164.321 E.12014
G1 X87.768 Y164.639 E.0428
G1 X88.661 Y164.639 E.12014
G1 X88.661 Y164.321 E.0428
G1 X89.554 Y164.321 E.12014
G1 X89.554 Y164.639 E.0428
G1 X90.446 Y164.639 E.12014
G1 X90.446 Y164.321 E.0428
G1 X91.339 Y164.321 E.12014
G1 X91.339 Y164.639 E.0428
G1 X92.232 Y164.639 E.12014
G1 X92.232 Y164.321 E.04281
G1 X93.124 Y164.321 E.12014
G1 X93.124 Y165.041 E.09687
G1 E-.7 F3600
;WIPE_START
G1 F6240
G1 X93.124 Y164.521 E-.285
;WIPE_END
G1 E-.015 F3600
G1 X143.115 Y162.997 F7800
G1 E1 F2400
;TYPE:Support material
;WIDTH:0.42
G1 F1800
G1 X143.156 Y163.698 E.03523
G1 X143.566 Y164.085 E.0283
G1 X159.588 Y164.085 E.80404
G1 X160.014 Y163.517 E.03562
G1 X159.306 Y161.085 E.12713
G1 X163.59 Y161.085 E.21502
G1 X163.59 Y163.665 E.12947
G1 X160.59 Y163.665 E.15056
G1 X160.59 Y165.296 E.08185
G1 X163.59 Y165.296 E.15056
G1 X163.59 Y167.876 E.12947
G1 X91.049 Y167.876 E3.64054
G1 X91.049 Y165.296 E.12947
G1 X94.049 Y165.296 E.15056
G1 X94.049 Y163.665 E.08185
G1 X91.049 Y163.665 E.15056
G1 X91.049 Y161.085 E.12947
G1 X143.017 Y161.085 E2.60807
G1 X143.112 Y162.946 E.09349
G1 E-.7 F3600
;WIPE_START
G1 F6240
G1 X143.086 Y162.426 E-.285
;WIPE_END
G1 E-.015 F3600
G1 X163.193 Y167.72 F7800
G1 E1 F2400
G1 F1800
G1 X163.193 Y165.606 E.1061
G1 X162.81 Y165.606 E.01923
G1 X162.81 Y167.565 E.09831
G1 X162.427 Y167.565 E.01923
G1 X162.427 Y165.606 E.09831
G1 X162.043 Y165.606 E.01923
G1 X162.043 Y167.565 E.09831
G1 X161.66 Y167.565 E.01923
G1 X161.66 Y165.606 E.09831
G1 X161.277 Y165.606 E.01923
G1 X161.277 Y167.565 E.09831
G1 X160.894 Y167.565 E.01923
G1 X160.894 Y165.606 E.09831
G1 X160.511 Y165.606 E.01923
G1 X160.511 Y167.565 E.09831
G1 X160.127 Y167.565 E.01923
G1 X160.127 Y163.883 E.1848
G1 X159.744 Y164.394 E.03204
G1 X159.744 Y167.565 E.15917
G1 X159.361 Y167.565 E.01923
G1 X159.361 Y164.395 E.15908
G1 X158.978 Y164.395 E.01923
G1 X158.978 Y167.565 E.15908
G1 X158.595 Y167.565 E.01923
G1 X158.595 Y164.395 E.15908
G1 X158.211 Y164.395 E.01923
G1 X158.211 Y167.565 E.15908
G1 X157.828 Y167.565 E.01923
G1 X157.828 Y164.395 E.15908
G1 X157.445 Y164.395 E.01923
G1 X157.445 Y167.565 E.15908
G1 X157.062 Y167.565 E.01923
G1 X157.062 Y164.395 E.15908
G1 X156.679 Y164.395 E.01923
G1 X156.679 Y167.565 E.15908
G1 X156.295 Y167.565 E.01923
G1 X156.295 Y164.395 E.15908
G1 X155.912 Y164.395 E.01923
G1 X155.912 Y167.565 E.15908
G1 X155.529 Y167.565 E.01923
G1 X155.529 Y164.395 E.15908
G1 X155.146 Y164.395 E.01923
G1 X155.146 Y167.565 E.15908
G1 X154.762 Y167.565 E.01923
G1 X154.762 Y164.395 E.15908
G1 X154.379 Y164.395 E.01923
G1 X154.379 Y167.565 E.15908
G1 X153.996 Y167.565 E.01923
G1 X153.996 Y164.395 E.15908
G1 X153.613 Y164.395 E.01923
G1 X153.613 Y167.565 E.15908
G1 X153.23 Y167.565 E.01923
G1 X153.23 Y164.395 E.15908
G1 X152.846 Y164.395 E.01923
G1 X152.846 Y167.565 E.15908
G1 X152.463 Y167.565 E.01923
G1 X152.463 Y164.395 E.15908
G1 X152.08 Y164.395 E.01923
G1 X152.08 Y167.565 E.15908
G1 X151.697 Y167.565 E.01923
G1 X151.697 Y164.395 E.15908
G1 X151.314 Y164.395 E.01923
G1 X151.314 Y167.565 E.15908
G1 X150.93 Y167.565 E.01923
G1 X150.93 Y164.395 E.15908
G1 X150.547 Y164.395 E.01923
G1 X150.547 Y167.565 E.15908
G1 X150.164 Y167.565 E.01923
G1 X150.164 Y164.395 E.15908
G1 X149.781 Y164.395 E.01923
G1 X149.781 Y167.565 E.15908
G1 X149.398 Y167.565 E.01923
G1 X149.398 Y164.395 E.15908
G1 X149.014 Y164.395 E.01923
G1 X149.014 Y167.565 E.15908
G1 X148.631 Y167.565 E.01923
G1 X148.631 Y164.395 E.15908
G1 X148.248 Y164.395 E.01923
G1 X148.248 Y167.565 E.15908
G1 X147.865 Y167.565 E.01923
G1 X147.865 Y164.395 E.15908
G1 X147.481 Y164.395 E.01923
G1 X147.481 Y167.565 E.15908
G1 X147.098 Y167.565 E.01923
G1 X147.098 Y164.395 E.15908
G1 X146.715 Y164.395 E.01923
G1 X146.715 Y167.565 E.15908
G1 X146.332 Y167.565 E.01923
G1 X146.332 Y164.395 E.15908
G1 X145.949 Y164.395 E.01923
G1 X145.949 Y167.565 E.15908
G1 X145.565 Y167.565 E.01923
G1 X145.565 Y164.395 E.15908
G1 X145.182 Y164.395 E.01923
G1 X145.182 Y167.565 E.15908
G1 X144.799 Y167.565 E.01923
G1 X144.799 Y164.395 E.15908
G1 X144.416 Y164.395 E.01923
G1 X144.416 Y167.565 E.15908
G1 X144.033 Y167.565 E.01923
G1 X144.033 Y164.395 E.15908
G1 X143.649 Y164.395 E.01923
G1 X143.649 Y167.565 E.15908
G1 X143.266 Y167.565 E.01923
G1 X143.266 Y164.229 E.16746
G1 X142.883 Y163.867 E.02644
G1 X142.883 Y167.565 E.18559
G1 X142.5 Y167.565 E.01923
G1 X142.5 Y161.396 E.30963
G1 X142.117 Y161.396 E.01923
G1 X142.117 Y167.565 E.30963
G1 X141.733 Y167.565 E.01923
G1 X141.733 Y161.396 E.30963
G1 X141.35 Y161.396 E.01923
G1 X141.35 Y167.565 E.30963
G1 X140.967 Y167.565 E.01923
G1 X140.967 Y161.396 E.30963
G1 X140.584 Y161.396 E.01923
G1 X140.584 Y167.565 E.30963
G1 X140.2 Y167.565 E.01923
G1 X140.2 Y161.396 E.30963
