; generated by PrusaSlicer 2.5.0+win64 on 2022-12-07 at 00:13:27 UTC

; 

; external perimeters extrusion width = 1.00mm
; perimeters extrusion width = 1.00mm
; infill extrusion width = 1.00mm
; solid infill extrusion width = 1.00mm
; top infill extrusion width = 1.00mm
; support material extrusion width = 1.00mm
; first layer extrusion width = 0.42mm

M73 P0 R731
M107
;TYPE:Custom
G90 ; use absolute coordinates
M83 ; extruder relative mode
M140 S60 ; set final bed temp
M104 S150 ; set temporary nozzle temp to prevent oozing during homing and auto bed leveling
G4 S10 ; allow partial nozzle warmup
G28 ; home all axisG1 Z50 F240
G1 X7.6 Y10 F3000
M104 S210 ; set final nozzle temp
M190 S60 ; wait for bed temp to stabilize
M109 S210 ; wait for nozzle temp to stabilize
G1 Z0.28 F240
G92 E0
G1 Y140 E10 F1500 ; prime the nozzle
G1 X4 F5000
G92 E0
G1 Y10 E10 F1200 ; prime the nozzle
G92 E0
G21 ; set units to millimeters
G90 ; use absolute coordinates
M83 ; use relative distances for extrusion
; Filament gcode
M107
;LAYER_CHANGE
;Z:0.35
;HEIGHT:0.35
;BEFORE_LAYER_CHANGE
G92 E0
;0.35


G1 E-1 F3600
G1 Z.35 F7800
;AFTER_LAYER_CHANGE
;0.35
G1 X56.524 Y14.959
G1 E1 F2400
;TYPE:Support material interface
;WIDTH:1
G1 F1800
G1 X56.524 Y18.753 E.51067
G1 X57.416 Y18.753 E.12014
G1 X57.416 Y15.361 E.45661
G1 X58.309 Y15.361 E.12014
G1 X58.309 Y18.753 E.45661
G1 X59.202 Y18.753 E.12014
G1 X59.202 Y15.361 E.45661
G1 X60.095 Y15.361 E.12014
G1 X60.095 Y28.931 E1.82641
G1 X60.987 Y28.931 E.12014
G1 X60.987 Y15.361 E1.82641
G1 X61.88 Y15.361 E.12014
G1 X61.88 Y28.931 E1.82641
G1 X62.773 Y28.931 E.12014
G1 X62.773 Y15.361 E1.82641
G1 X63.665 Y15.361 E.12014
G1 X63.665 Y39.11 E3.19621
G1 X64.558 Y39.11 E.12014
G1 X64.558 Y15.361 E3.19621
G1 X65.451 Y15.361 E.12014
G1 X65.451 Y39.11 E3.19621
G1 X66.251 Y39.11 E.10771
G1 X66.251 Y49.288 E1.3698
G1 X66.343 Y49.288 E.01243
G1 X66.343 Y15.361 E4.56602
G1 X67.236 Y15.361 E.12014
G1 X67.236 Y49.288 E4.56602
G1 X68.129 Y49.288 E.12014
G1 X68.129 Y15.361 E4.56602
G1 X69.022 Y15.361 E.12014
G1 X69.022 Y49.288 E4.56602
G1 X69.644 Y49.288 E.08374
G1 X69.644 Y59.466 E1.3698
G1 X69.914 Y59.466 E.0364
G1 X69.914 Y15.361 E5.93582
G1 X70.807 Y15.361 E.12014
G1 X70.807 Y59.466 E5.93582
G1 X71.7 Y59.466 E.12014
G1 X71.7 Y15.361 E5.93582
G1 X72.592 Y15.361 E.12014
G1 X72.592 Y59.867 E5.98989
G1 E-.7 F3600
;WIPE_START
G1 F6240
G1 X72.592 Y59.347 E-.285
;WIPE_END
G1 E-.015 F3600
G1 X84.197 Y59.287 F7800
G1 E1 F2400
G1 F1800
G1 X84.197 Y103.571 E5.95984
G1 X85.09 Y103.571 E.12014
G1 X85.09 Y63.379 E5.40913
G1 X85.983 Y66.158 E.39279
G1 X85.983 Y103.571 E5.03516
G1 X86.607 Y103.571 E.08404
G1 X86.607 Y113.749 E1.3698
G1 X86.876 Y113.749 E.0361
G1 X86.876 Y68.937 E6.03101
G1 X87.768 Y71.715 E.39279
G1 X87.768 Y113.749 E5.65704
G1 X88.661 Y113.749 E.12014
G1 X88.661 Y74.494 E5.28308
G1 X89.554 Y77.273 E.39279
G1 X89.554 Y113.749 E4.90912
G1 X90 Y113.749 E.06007
G1 X90 Y123.927 E1.3698
G1 X90.446 Y123.927 E.06007
G1 X90.446 Y80.051 E5.90496
G1 X91.339 Y82.83 E.39279
G1 X91.339 Y123.927 E5.531
G1 X92.232 Y123.927 E.12014
G1 X92.232 Y85.609 E5.15704
G1 X93.124 Y88.387 E.39279
G1 X93.124 Y123.927 E4.78308
G1 X93.393 Y123.927 E.03611
G1 X93.393 Y134.105 E1.3698
G1 X94.017 Y134.105 E.08404
G1 X94.017 Y91.166 E5.77892
G1 X94.91 Y93.944 E.39279
G1 X94.91 Y134.105 E5.40496
G1 X95.802 Y134.105 E.12014
M73 P0 R730
G1 X95.803 Y96.723 E5.03099
G1 X96.695 Y99.502 E.39279
G1 X96.695 Y134.105 E4.65703
G1 X96.785 Y134.105 E.01214
G1 X96.785 Y144.283 E1.3698
G1 X97.588 Y144.283 E.10801
G1 X97.588 Y102.28 E5.65287
G1 X98.481 Y105.059 E.39279
G1 X98.481 Y144.283 E5.27891
G1 X99.373 Y144.283 E.12014
G1 X99.373 Y107.838 E4.90495
G1 X100.266 Y110.616 E.39279
G1 X100.266 Y154.461 E5.90079
G1 X101.159 Y154.461 E.12014
G1 X101.159 Y113.395 E5.52683
G1 X102.051 Y116.174 E.39279
G1 X102.051 Y154.461 E5.15287
G1 X102.944 Y154.461 E.12014
G1 X102.944 Y118.952 E4.77891
G1 X103.837 Y121.731 E.39279
G1 X103.837 Y164.639 E5.77475
G1 X104.729 Y164.639 E.12014
G1 X104.729 Y124.51 E5.40079
G1 X105.622 Y127.288 E.39279
G1 X105.622 Y164.639 E5.02682
G1 X106.515 Y164.639 E.12014
G1 X106.515 Y130.067 E4.65286
G1 X107.408 Y132.846 E.39279
G1 X107.408 Y164.639 E4.2789
G1 X108.3 Y164.639 E.12014
G1 X108.3 Y135.624 E3.90494
G1 X109.193 Y138.403 E.39279
G1 X109.193 Y164.639 E3.53098
G1 X110.086 Y164.639 E.12014
G1 X110.086 Y141.182 E3.15701
G1 X110.978 Y143.96 E.39279
G1 X110.978 Y164.639 E2.78305
G1 X111.871 Y164.639 E.12014
G1 X111.871 Y146.739 E2.40909
G1 X112.764 Y149.518 E.39279
G1 X112.764 Y164.639 E2.03513
G1 X113.656 Y164.639 E.12014
G1 X113.656 Y152.296 E1.66117
G1 X114.549 Y155.075 E.39279
G1 X114.549 Y164.639 E1.2872
G1 X115.442 Y164.639 E.12014
G1 X115.442 Y157.854 E.91324
G1 X116.335 Y160.632 E.39279
G1 X116.335 Y164.639 E.53928
G1 X117.227 Y164.639 E.12014
G1 X117.227 Y163.411 E.16532
G1 X117.333 Y163.741 E.04669
G1 X118.12 Y163.489 E.11119
G1 X118.12 Y164.639 E.15487
G1 X119.013 Y164.639 E.12014
G1 X119.013 Y164.32 E.04294
G1 X119.905 Y164.32 E.12014
G1 X119.905 Y164.639 E.04294
G1 X120.798 Y164.639 E.12014
G1 X120.798 Y164.32 E.04294
G1 X121.691 Y164.32 E.12014
G1 X121.691 Y164.639 E.04294
G1 X122.583 Y164.639 E.12014
G1 X122.583 Y164.32 E.04294
G1 X123.476 Y164.32 E.12014
G1 X123.476 Y165.041 E.097
G1 E-.7 F3600
;WIPE_START
G1 F6240
G1 X123.476 Y164.521 E-.285
;WIPE_END
G1 E-.015 F3600
G1 X166.32 Y66.908 F7800
G1 E1 F2400
;TYPE:Support material
;WIDTH:0.42
G1 F1800
G1 X168.689 Y66.908 E.11887
G1 X168.689 Y63.908 E.15056
G1 X171.268 Y63.908 E.12947
G1 X171.268 Y167.876 E5.21773
G1 X121.583 Y167.876 E2.49348
G1 X121.583 Y165.296 E.12947
G1 X124.583 Y165.296 E.15056
G1 X124.583 Y163.664 E.0819
G1 X123.948 Y163.664 E.0319
G1 X123.795 Y163.553 E.00948
G1 X123.502 Y162.639 E.04817
G1 X123.147 Y162.694 E.01804
G1 X123.147 Y163.664 E.04866
G1 X121.583 Y163.664 E.07845
G1 X121.583 Y161.084 E.12947
G1 X134.759 Y161.084 E.66123
G1 X132.656 Y163.211 E.15013
G1 X133.02 Y164.084 E.04747
G1 X166.324 Y164.084 E1.67139
G1 X166.74 Y163.668 E.02952
G1 X166.74 Y133.496 E1.51421
G1 X165.877 Y133.128 E.04707
G1 X163.74 Y135.176 E.14856
G1 X163.74 Y63.908 E3.57668
G1 X166.32 Y63.908 E.12947
G1 X166.32 Y66.856 E.14796
G1 X170.857 Y167.72 F7800
G1 F1800
G1 X170.857 Y64.218 E5.19437
G1 X170.474 Y64.218 E.01923
G1 X170.474 Y167.565 E5.18658
G1 X170.091 Y167.565 E.01923
G1 X170.091 Y64.218 E5.18658
G1 X169.708 Y64.218 E.01923
G1 X169.708 Y167.565 E5.18658
G1 X169.324 Y167.565 E.01923
G1 X169.324 Y64.218 E5.18658
G1 X168.999 Y64.218 E.01634
G1 X168.999 Y67.218 E.15056
G1 X168.941 Y67.218 E.00289
G1 X168.941 Y167.565 E5.03602
G1 X168.558 Y167.565 E.01923
M73 P0 R729
G1 X168.558 Y67.218 E5.03602
G1 X168.175 Y67.218 E.01923
G1 X168.175 Y167.565 E5.03602
G1 X167.792 Y167.565 E.01923
G1 X167.792 Y67.218 E5.03602
G1 X167.408 Y67.218 E.01923
G1 X167.408 Y167.565 E5.03602
G1 X167.025 Y167.565 E.01923
G1 X167.025 Y67.218 E5.03602
G1 X166.642 Y67.218 E.01923
G1 X166.642 Y133.117 E3.30719
G1 X166.259 Y132.953 E.02091
G1 X166.259 Y67.218 E3.29899
G1 X166.01 Y67.218 E.01251
G1 X166.01 Y64.218 E.15056
G1 X165.876 Y64.218 E.00672
G1 X165.876 Y132.79 E3.44134
G1 X165.811 Y132.762 E.00355
G1 X165.492 Y133.067 E.02212
G1 X165.492 Y64.218 E3.45525
G1 X165.109 Y64.218 E.01923
G1 X165.109 Y133.434 E3.47368
G1 X164.726 Y133.801 E.02664
G1 X164.726 Y64.218 E3.49211
G1 X164.343 Y64.218 E.01923
G1 X164.343 Y134.384 E3.52133
G1 E-.7 F3600
;WIPE_START
G1 F6240
G1 X164.343 Y133.864 E-.285
;WIPE_END
G1 E-.015 F3600
G1 X166.642 Y167.72 F7800
G1 E1 F2400
G1 F1800
G1 X166.642 Y164.205 E.17642
G1 X166.453 Y164.394 E.01344
G1 X166.259 Y164.394 E.00973
G1 X166.259 Y167.565 E.15913
G1 X165.876 Y167.565 E.01923
G1 X165.876 Y164.394 E.15913
G1 X165.492 Y164.394 E.01923
G1 X165.492 Y167.565 E.15913
G1 X165.109 Y167.565 E.01923
G1 X165.109 Y164.394 E.15913
G1 X164.726 Y164.394 E.01923
G1 X164.726 Y167.565 E.15913
G1 X164.343 Y167.565 E.01923
G1 X164.343 Y164.394 E.15913
G1 X163.96 Y164.394 E.01923
G1 X163.96 Y167.565 E.15913
G1 X163.576 Y167.565 E.01923
G1 X163.576 Y164.394 E.15913
G1 X163.193 Y164.394 E.01923
G1 X163.193 Y167.565 E.15913
G1 X162.81 Y167.565 E.01923
G1 X162.81 Y164.394 E.15913
G1 X162.427 Y164.394 E.01923
G1 X162.427 Y167.565 E.15913
G1 X162.043 Y167.565 E.01923
G1 X162.043 Y164.394 E.15913
G1 X161.66 Y164.394 E.01923
G1 X161.66 Y167.565 E.15913
G1 X161.277 Y167.565 E.01923
G1 X161.277 Y164.394 E.15913
G1 X160.894 Y164.394 E.01923
G1 X160.894 Y167.565 E.15913
G1 X160.511 Y167.565 E.01923
G1 X160.511 Y164.394 E.15913
G1 X160.127 Y164.394 E.01923
G1 X160.127 Y167.565 E.15913
G1 X159.744 Y167.565 E.01923
G1 X159.744 Y164.394 E.15913
G1 X159.361 Y164.394 E.01923
G1 X159.361 Y167.565 E.15913
G1 X158.978 Y167.565 E.01923
G1 X158.978 Y164.394 E.15913
G1 X158.595 Y164.394 E.01923
G1 X158.595 Y167.565 E.15913
G1 X158.211 Y167.565 E.01923
G1 X158.211 Y164.394 E.15913
G1 X157.828 Y164.394 E.01923
G1 X157.828 Y167.565 E.15913
G1 X157.445 Y167.565 E.01923
G1 X157.445 Y164.394 E.15913
G1 X157.062 Y164.394 E.01923
G1 X157.062 Y167.565 E.15913
G1 X156.679 Y167.565 E.01923
G1 X156.679 Y164.394 E.15913
G1 X156.295 Y164.394 E.01923
G1 X156.295 Y167.565 E.15913
G1 X155.912 Y167.565 E.01923
G1 X155.912 Y164.394 E.15913
G1 X155.529 Y164.394 E.01923
G1 X155.529 Y167.565 E.15913
G1 X155.146 Y167.565 E.01923
G1 X155.146 Y164.394 E.15913
G1 X154.762 Y164.394 E.01923
G1 X154.762 Y167.565 E.15913
G1 X154.379 Y167.565 E.01923
G1 X154.379 Y164.394 E.15913
G1 X153.996 Y164.394 E.01923
G1 X153.996 Y167.565 E.15913
G1 X153.613 Y167.565 E.01923
G1 X153.613 Y164.394 E.15913
G1 X153.23 Y164.394 E.01923
G1 X153.23 Y167.565 E.15913
G1 X152.846 Y167.565 E.01923
G1 X152.846 Y164.394 E.15913
G1 X152.463 Y164.394 E.01923
G1 X152.463 Y167.565 E.15913
G1 X152.08 Y167.565 E.01923
G1 X152.08 Y164.394 E.15913
G1 X151.697 Y164.394 E.01923
G1 X151.697 Y167.565 E.15913
G1 X151.314 Y167.565 E.01923
G1 X151.314 Y164.394 E.15913
G1 X150.93 Y164.394 E.01923
G1 X150.93 Y167.565 E.15913
G1 X150.547 Y167.565 E.01923
G1 X150.547 Y164.394 E.15913
G1 X150.164 Y164.394 E.01923
G1 X150.164 Y167.565 E.15913
G1 X149.781 Y167.565 E.01923
G1 X149.781 Y164.394 E.15913
G1 X149.398 Y164.394 E.01923
G1 X149.398 Y167.565 E.15913
G1 X149.014 Y167.565 E.01923
G1 X149.014 Y164.394 E.15913
G1 X148.631 Y164.394 E.01923
G1 X148.631 Y167.565 E.15913
G1 X148.248 Y167.565 E.01923
G1 X148.248 Y164.394 E.15913
G1 X147.865 Y164.394 E.01923
G1 X147.865 Y167.565 E.15913
G1 X147.482 Y167.565 E.01923
G1 X147.482 Y164.394 E.15913
G1 X147.098 Y164.394 E.01923
G1 X147.098 Y167.565 E.15913
G1 X146.715 Y167.565 E.01923
G1 X146.715 Y164.394 E.15913
G1 X146.332 Y164.394 E.01923
G1 X146.332 Y167.565 E.15913
G1 X145.949 Y167.565 E.01923
G1 X145.949 Y164.394 E.15913
G1 X145.565 Y164.394 E.01923
G1 X145.565 Y167.565 E.15913
G1 X145.182 Y167.565 E.01923
G1 X145.182 Y164.394 E.15913
G1 X144.799 Y164.394 E.01923
G1 X144.799 Y167.565 E.15913
G1 X144.416 Y167.565 E.01923
G1 X144.416 Y164.394 E.15913
G1 X144.033 Y164.394 E.01923
G1 X144.033 Y167.565 E.15913
G1 X143.649 Y167.565 E.01923
G1 X143.649 Y164.394 E.15913
G1 X143.266 Y164.394 E.01923
G1 X143.266 Y167.565 E.15913
G1 X142.883 Y167.565 E.01923
G1 X142.883 Y164.394 E.15913
G1 X142.5 Y164.394 E.01923
G1 X142.5 Y167.565 E.15913
G1 X142.117 Y167.565 E.01923
G1 X142.117 Y164.394 E.15913
G1 X141.733 Y164.394 E.01923
G1 X141.733 Y167.565 E.15913
G1 X141.35 Y167.565 E.01923
G1 X141.35 Y164.394 E.15913
G1 X140.967 Y164.394 E.01923
G1 X140.967 Y167.565 E.15913
G1 X140.584 Y167.565 E.01923
G1 X140.584 Y164.394 E.15913
G1 X140.201 Y164.394 E.01923
G1 X140.201 Y167.565 E.15913
G1 X139.817 Y167.565 E.01923
G1 X139.817 Y164.394 E.15913
G1 X139.434 Y164.394 E.01923
G1 X139.434 Y167.565 E.15913
G1 X139.051 Y167.565 E.01923
G1 X139.051 Y164.394 E.15913
G1 X138.668 Y164.394 E.01923
G1 X138.668 Y167.565 E.15913
G1 X138.284 Y167.565 E.01923
G1 X138.284 Y164.394 E.15913
G1 X137.901 Y164.394 E.01923
G1 X137.901 Y167.565 E.15913
G1 X137.518 Y167.565 E.01923
G1 X137.518 Y164.394 E.15913
G1 X137.135 Y164.394 E.01923
G1 X137.135 Y167.565 E.15913
G1 X136.752 Y167.565 E.01923
G1 X136.752 Y164.394 E.15913
G1 X136.368 Y164.394 E.01923
G1 X136.368 Y167.565 E.15913
G1 X135.985 Y167.565 E.01923
G1 X135.985 Y164.394 E.15913
G1 X135.602 Y164.394 E.01923
G1 X135.602 Y167.565 E.15913
G1 X135.219 Y167.565 E.01923
G1 X135.219 Y164.394 E.15913
G1 X134.836 Y164.394 E.01923
G1 X134.836 Y167.565 E.15913
G1 X134.452 Y167.565 E.01923
G1 X134.452 Y164.394 E.15913
G1 X134.069 Y164.394 E.01923
G1 X134.069 Y167.565 E.15913
G1 X133.686 Y167.565 E.01923
G1 X133.686 Y164.394 E.15913
G1 X133.303 Y164.394 E.01923
G1 X133.303 Y167.565 E.15913
G1 X132.92 Y167.565 E.01923
G1 X132.92 Y164.394 E.15913
G1 X132.813 Y164.394 E.00533
G1 X132.536 Y163.731 E.03608
G1 X132.536 Y167.565 E.19243
G1 X132.153 Y167.565 E.01923
G1 X132.153 Y161.395 E.30968
G1 X132.536 Y161.395 E.01923
G1 X132.536 Y162.89 E.07507
G1 X132.92 Y162.503 E.02735
G1 X132.92 Y161.395 E.05562
G1 X133.303 Y161.395 E.01923
G1 X133.303 Y162.115 E.03618
G1 X133.686 Y161.728 E.02735
G1 X133.686 Y161.239 E.02452
G1 E-.7 F3600
;WIPE_START
G1 F6240
G1 X133.686 Y161.728 E-.26776
G1 X133.664 Y161.75 E-.01724
;WIPE_END
G1 E-.015 F3600
G1 X131.77 Y167.72 F7800
G1 E1 F2400
G1 F1800
G1 X131.77 Y161.395 E.31747
G1 X131.387 Y161.395 E.01923
G1 X131.387 Y167.565 E.30968
G1 X131.003 Y167.565 E.01923
G1 X131.003 Y161.395 E.30968
G1 X130.62 Y161.395 E.01923
G1 X130.62 Y167.565 E.30968
G1 X130.237 Y167.565 E.01923
G1 X130.237 Y161.395 E.30968
G1 X129.854 Y161.395 E.01923
G1 X129.854 Y167.565 E.30968
G1 X129.471 Y167.565 E.01923
G1 X129.471 Y161.395 E.30968
G1 X129.087 Y161.395 E.01923
G1 X129.087 Y167.565 E.30968
G1 X128.704 Y167.565 E.01923
G1 X128.704 Y161.395 E.30968
G1 X128.321 Y161.395 E.01923
G1 X128.321 Y167.565 E.30968
G1 X127.938 Y167.565 E.01923
G1 X127.938 Y161.395 E.30968
G1 X127.555 Y161.395 E.01923
G1 X127.555 Y167.565 E.30968
G1 X127.171 Y167.565 E.01923
G1 X127.171 Y161.395 E.30968
G1 X126.788 Y161.395 E.01923
G1 X126.788 Y167.565 E.30968
G1 X126.405 Y167.565 E.01923
G1 X126.405 Y161.395 E.30968
G1 X126.022 Y161.395 E.01923
G1 X126.022 Y167.565 E.30968
G1 X125.639 Y167.565 E.01923
G1 X125.639 Y161.395 E.30968
G1 X125.255 Y161.395 E.01923
G1 X125.255 Y167.565 E.30968
G1 X124.872 Y167.565 E.01923
G1 X124.872 Y161.395 E.30968
G1 X124.489 Y161.395 E.01923
G1 X124.489 Y163.353 E.09831
G1 X124.106 Y163.353 E.01923
G1 X124.106 Y161.395 E.09831
G1 X123.722 Y161.395 E.01923
G1 X123.722 Y162.31 E.04594
G1 X123.716 Y162.291 E.001
G1 X123.339 Y162.35 E.01916
G1 X123.339 Y161.395 E.04795
G1 X122.956 Y161.395 E.01923
G1 X122.956 Y162.41 E.05096
G1 X122.836 Y162.429 E.00608
G1 X122.836 Y163.353 E.04642
G1 X122.573 Y163.353 E.01322
G1 X122.573 Y161.395 E.09831
G1 X122.19 Y161.395 E.01923
G1 X122.19 Y163.509 E.1061
G1 E-.7 F3600
;WIPE_START
G1 F6240
G1 X122.19 Y162.989 E-.285
;WIPE_END
G1 E-.015 F3600
G1 X124.489 Y167.72 F7800
G1 E1 F2400
M73 P0 R728
G1 F1800
G1 X124.489 Y165.606 E.1061
G1 X124.106 Y165.606 E.01923
G1 X124.106 Y167.565 E.09831
G1 X123.722 Y167.565 E.01923
G1 X123.722 Y165.606 E.09831
G1 X123.339 Y165.606 E.01923
G1 X123.339 Y167.565 E.09831
G1 X122.956 Y167.565 E.01923
G1 X122.956 Y165.606 E.09831
G1 X122.573 Y165.606 E.01923
G1 X122.573 Y167.565 E.09831
G1 X122.19 Y167.565 E.01923
G1 X122.19 Y165.451 E.1061
G1 E-.7 F3600
;WIPE_START
G1 F6240
G1 X122.19 Y165.971 E-.285
;WIPE_END
G1 E-.015 F3600
G1 X167.218 Y66.653 F7800
G1 E1 F2400
;TYPE:Support material interface
;WIDTH:1
G1 F1800
G1 X167.218 Y15.361 E6.90309
G1 X166.326 Y15.361 E.12014
G1 X166.326 Y15.878 E.06967
G1 X166.129 Y15.682 E.03742
G1 X165.433 Y15.682 E.09368
G1 X165.433 Y15.361 E.04321
G1 X164.54 Y15.361 E.12014
G1 X164.54 Y15.682 E.04321
G1 X163.648 Y15.682 E.12014
G1 X163.648 Y15.361 E.04321
G1 X162.755 Y15.361 E.12014
G1 X162.755 Y15.682 E.04321
G1 X161.862 Y15.682 E.12014
G1 X161.862 Y15.361 E.04321
G1 X160.97 Y15.361 E.12014
G1 X160.97 Y15.682 E.04321
G1 X160.077 Y15.682 E.12014
G1 X160.077 Y15.361 E.04321
G1 X159.184 Y15.361 E.12014
