; generated by PrusaSlicer 2.5.0+win64 on 2022-12-07 at 00:13:57 UTC

; 

; external perimeters extrusion width = 1.00mm
; perimeters extrusion width = 1.00mm
; infill extrusion width = 1.00mm
; solid infill extrusion width = 1.00mm
; top infill extrusion width = 1.00mm
; support material extrusion width = 1.00mm
; first layer extrusion width = 0.42mm

M73 P0 R19
M107
;TYPE:Custom
G90 ; use absolute coordinates
M83 ; extruder relative mode
M140 S60 ; set final bed temp
M104 S150 ; set temporary nozzle temp to prevent oozing during homing and auto bed leveling
G4 S10 ; allow partial nozzle warmup
G28 ; home all axisG1 Z50 F240
G1 X7.6 Y10 F3000
M104 S210 ; set final nozzle temp
M190 S60 ; wait for bed temp to stabilize
M109 S210 ; wait for nozzle temp to stabilize
G1 Z0.28 F240
G92 E0
G1 Y140 E10 F1500 ; prime the nozzle
G1 X4 F5000
G92 E0
G1 Y10 E10 F1200 ; prime the nozzle
G92 E0
G21 ; set units to millimeters
G90 ; use absolute coordinates
M83 ; use relative distances for extrusion
; Filament gcode
M107
;LAYER_CHANGE
;Z:0.35
;HEIGHT:0.35
;BEFORE_LAYER_CHANGE
G92 E0
;0.35


G1 E-1 F3600
M73 P1 R19
G1 Z.35 F7800
;AFTER_LAYER_CHANGE
;0.35
G1 X85.614 Y67.123
G1 E1 F2400
;TYPE:Perimeter
;WIDTH:0.42
G1 F1800
G1 X94.787 Y67.123 E.46035
G1 X94.787 Y108.052 E2.05406
G1 X85.647 Y67.269 E2.09749
G1 X85.183 Y66.778 F7800
;TYPE:External perimeter
G1 F1800
G1 X95.132 Y66.778 E.49928
G1 X95.132 Y111.168 E2.22775
G1 X85.216 Y66.924 E2.27548
G1 X84.683 Y67.644 F7800
G1 E-.7 F3600
;WIPE_START
G1 F6240
G1 X85.736 Y66.917 E-.285
;WIPE_END
G1 E-.015 F3600
G1 X94.683 Y67.931 F7800
G1 E1 F2400
;TYPE:Solid infill
;WIDTH:0.423249
G1 F1800
G1 X94.134 Y67.382 E.03932
G1 X93.642 Y67.382 E.02494
G1 X94.528 Y68.268 E.06348
G1 X94.528 Y68.76 E.02494
G1 X93.15 Y67.382 E.09875
G1 X92.657 Y67.382 E.02494
G1 X94.528 Y69.252 E.13402
G1 X94.528 Y69.745 E.02494
G1 X92.165 Y67.382 E.16929
G1 X91.673 Y67.382 E.02494
G1 X94.528 Y70.237 E.20457
G1 X94.528 Y70.729 E.02494
G1 X91.18 Y67.382 E.23984
G1 X90.688 Y67.382 E.02494
G1 X94.528 Y71.222 E.27511
G1 X94.528 Y71.714 E.02494
G1 X90.196 Y67.382 E.31038
G1 X89.703 Y67.382 E.02494
G1 X94.528 Y72.206 E.34566
G1 X94.528 Y72.699 E.02494
G1 X89.211 Y67.382 E.38093
G1 X88.719 Y67.382 E.02494
G1 X94.528 Y73.191 E.4162
G1 X94.528 Y73.683 E.02494
G1 X88.226 Y67.382 E.45147
G1 X87.734 Y67.382 E.02494
G1 X94.528 Y74.176 E.48675
G1 X94.528 Y74.668 E.02494
M73 P2 R19
G1 X87.242 Y67.382 E.52202
G1 X86.749 Y67.382 E.02494
G1 X94.528 Y75.16 E.55729
G1 X94.528 Y75.653 E.02494
G1 X86.257 Y67.382 E.59256
G1 X85.937 Y67.382 E.01621
G1 X85.987 Y67.604 E.01153
G1 X94.528 Y76.145 E.61193
G1 X94.528 Y76.638 E.02494
G1 X86.129 Y68.238 E.60174
G1 X86.271 Y68.873 E.03294
G1 X94.528 Y77.13 E.59155
G1 X94.528 Y77.622 E.02494
G1 X86.413 Y69.507 E.58136
G1 X86.556 Y70.142 E.03294
G1 X94.528 Y78.115 E.57117
G1 X94.528 Y78.607 E.02494
G1 X86.698 Y70.777 E.56098
G1 X86.84 Y71.411 E.03294
G1 X94.528 Y79.099 E.55079
G1 X94.528 Y79.592 E.02494
G1 X86.982 Y72.046 E.54061
G1 X87.124 Y72.68 E.03294
G1 X94.528 Y80.084 E.53042
G1 X94.528 Y80.576 E.02494
G1 X87.267 Y73.315 E.52023
G1 X87.409 Y73.949 E.03294
G1 X94.528 Y81.069 E.51004
G1 X94.528 Y81.561 E.02494
G1 X87.551 Y74.584 E.49985
G1 X87.693 Y75.218 E.03294
G1 X94.528 Y82.053 E.48966
G1 X94.528 Y82.546 E.02494
G1 X87.835 Y75.853 E.47947
G1 X87.978 Y76.488 E.03294
G1 X94.528 Y83.038 E.46929
G1 X94.528 Y83.53 E.02494
G1 X88.12 Y77.122 E.4591
G1 X88.262 Y77.757 E.03294
G1 X94.528 Y84.023 E.44891
G1 X94.528 Y84.515 E.02494
G1 X88.404 Y78.391 E.43872
G1 X88.547 Y79.026 E.03294
G1 X94.528 Y85.007 E.42853
G1 X94.528 Y85.5 E.02494
G1 X88.689 Y79.66 E.41834
G1 X88.831 Y80.295 E.03294
G1 X94.528 Y85.992 E.40815
G1 X94.528 Y86.484 E.02494
G1 X88.973 Y80.929 E.39797
G1 X89.115 Y81.564 E.03294
G1 X94.528 Y86.977 E.38778
G1 X94.528 Y87.469 E.02494
G1 X89.258 Y82.199 E.37759
G1 X89.4 Y82.833 E.03294
G1 X94.528 Y87.961 E.3674
G1 X94.528 Y88.454 E.02494
G1 X89.542 Y83.468 E.35721
G1 X89.684 Y84.102 E.03294
G1 X94.528 Y88.946 E.34702
G1 X94.528 Y89.438 E.02494
G1 X89.826 Y84.737 E.33684
G1 X89.969 Y85.371 E.03294
M73 P3 R19
G1 X94.528 Y89.931 E.32665
G1 X94.528 Y90.423 E.02494
G1 X90.111 Y86.006 E.31646
G1 X90.253 Y86.64 E.03294
G1 X94.528 Y90.915 E.30627
G1 X94.528 Y91.408 E.02494
G1 X90.395 Y87.275 E.29608
G1 X90.538 Y87.91 E.03294
G1 X94.528 Y91.9 E.28589
G1 X94.528 Y92.392 E.02494
G1 X90.68 Y88.544 E.2757
G1 X90.822 Y89.179 E.03294
G1 X94.528 Y92.885 E.26552
G1 X94.528 Y93.377 E.02494
G1 X90.964 Y89.813 E.25533
G1 X91.106 Y90.448 E.03294
G1 X94.528 Y93.869 E.24514
G1 X94.528 Y94.362 E.02494
G1 X91.249 Y91.082 E.23495
G1 X91.391 Y91.717 E.03294
G1 X94.528 Y94.854 E.22476
G1 X94.528 Y95.346 E.02494
G1 X91.533 Y92.351 E.21457
G1 X91.675 Y92.986 E.03294
G1 X94.528 Y95.839 E.20438
G1 X94.528 Y96.331 E.02494
G1 X91.818 Y93.621 E.1942
G1 X91.96 Y94.255 E.03294
G1 X94.528 Y96.824 E.18401
G1 X94.528 Y97.316 E.02494
G1 X92.102 Y94.89 E.17382
G1 X92.244 Y95.524 E.03294
G1 X94.528 Y97.808 E.16363
G1 X94.528 Y98.301 E.02494
G1 X92.386 Y96.159 E.15344
G1 X92.529 Y96.793 E.03294
G1 X94.528 Y98.793 E.14325
G1 X94.528 Y99.285 E.02494
G1 X92.671 Y97.428 E.13306
G1 X92.813 Y98.062 E.03294
G1 X94.528 Y99.778 E.12288
G1 X94.528 Y100.27 E.02494
G1 X92.955 Y98.697 E.11269
G1 X93.097 Y99.332 E.03294
G1 X94.528 Y100.762 E.1025
G1 X94.528 Y101.255 E.02494
G1 X93.24 Y99.966 E.09231
G1 X93.382 Y100.601 E.03294
G1 X94.528 Y101.747 E.08212
G1 X94.528 Y102.239 E.02494
G1 X93.524 Y101.235 E.07193
G1 X93.666 Y101.87 E.03294
G1 X94.528 Y102.732 E.06174
G1 X94.528 Y103.224 E.02494
G1 X93.809 Y102.504 E.05156
G1 X93.951 Y103.139 E.03294
G1 X94.528 Y103.716 E.04137
G1 X94.528 Y104.209 E.02494
G1 X94.093 Y103.773 E.03118
G1 X94.235 Y104.408 E.03294
G1 X94.528 Y104.701 E.02099
G1 X94.528 Y105.193 E.02494
G1 X94.172 Y104.838 E.02549
M106 S255
;LAYER_CHANGE
;Z:0.85
;HEIGHT:0.5
;BEFORE_LAYER_CHANGE
G92 E0
;0.85


G1 E-.7 F3600
;WIPE_START
G1 F6240
G1 X94.528 Y105.193 E-.27575
G1 X94.528 Y105.176 E-.00925
;WIPE_END
G1 E-.015 F3600
G1 Z.85 F7800
;AFTER_LAYER_CHANGE
;0.85
M104 S205 ; set temperature
G1 X86.709 Y67.961
G1 E1 F2400
;TYPE:Perimeter
;WIDTH:1
G1 F900
G1 X93.949 Y67.961 E1.34356
G1 X93.949 Y100.266 E5.9949
M73 P3 R18
G1 X86.742 Y68.107 E6.11578
G1 X85.594 Y67.068 F7800
;TYPE:External perimeter
G1 F900
G1 X94.842 Y67.068 E1.71611
G1 X94.842 Y108.331 E7.65722
M73 P4 R18
G1 X85.627 Y67.214 E7.81933
G1 X85.094 Y67.934 F7800
G1 E-.7 F3600
;WIPE_START
G1 F6240
G1 X86.147 Y67.206 E-.285
;WIPE_END
G1 E-.015 F3600
G1 X93.681 Y92.33 F7800
G1 E1 F2400
;TYPE:Solid infill
;WIDTH:1.03525
G1 F900
G1 X93.007 Y93.003 E.1838
G1 X92.767 Y91.931 E.21193
G1 X93.279 Y91.419 E.13976
G1 X93.279 Y90.107 E.25314
G1 X92.527 Y90.859 E.2053
G1 X92.287 Y89.787 E.21193
G1 X93.279 Y88.794 E.27084
G1 X93.279 Y87.482 E.25314
G1 X92.046 Y88.715 E.33639
G1 X91.806 Y87.643 E.21193
G1 X93.279 Y86.17 E.40193
G1 X93.279 Y84.858 E.25314
G1 X91.566 Y86.571 E.46748
G1 X91.326 Y85.499 E.21193
G1 X93.279 Y83.545 E.53302
G1 X93.279 Y82.233 E.25314
G1 X91.085 Y84.427 E.59856
G1 X90.845 Y83.355 E.21193
G1 X93.279 Y80.921 E.66411
G1 X93.279 Y79.608 E.25314
G1 X90.605 Y82.283 E.72965
G1 X90.365 Y81.211 E.21193
G1 X93.279 Y78.296 E.79519
G1 X93.279 Y76.984 E.25314
G1 X90.124 Y80.139 E.86074
G1 X89.884 Y79.067 E.21193
G1 X93.279 Y75.671 E.92628
G1 X93.279 Y74.359 E.25314
G1 X89.644 Y77.995 E.99182
G1 X89.403 Y76.923 E.21193
G1 X93.279 Y73.047 E1.05737
G1 X93.279 Y71.734 E.25314
G1 X89.163 Y75.851 E1.12291
G1 X88.923 Y74.779 E.21193
G1 X93.279 Y70.422 E1.18846
G1 X93.279 Y69.11 E.25314
M73 P5 R18
G1 X88.683 Y73.707 E1.254
G1 X88.442 Y72.634 E.21193
G1 X92.447 Y68.63 E1.09233
G1 X91.134 Y68.63 E.25314
G1 X88.202 Y71.562 E.79987
G1 X87.962 Y70.49 E.21193
G1 X89.822 Y68.63 E.50742
G1 X88.51 Y68.63 E.25314
G1 X87.385 Y69.755 E.30671
;LAYER_CHANGE
;Z:1.35
;HEIGHT:0.5
;BEFORE_LAYER_CHANGE
G92 E0
;1.35


G1 E-.7 F3600
;WIPE_START
G1 F6240
G1 X87.753 Y69.387 E-.285
;WIPE_END
G1 E-.015 F3600
G1 Z1.35 F7800
;AFTER_LAYER_CHANGE
;1.35
G1 X86.766 Y67.961
G1 E1 F2400
;TYPE:Perimeter
;WIDTH:1
G1 F900
G1 X93.949 Y67.961 E1.33295
G1 X93.949 Y100.011 E5.94758
G1 X86.799 Y68.107 E6.06728
G1 X85.651 Y67.068 F7800
;TYPE:External perimeter
G1 F900
G1 X94.842 Y67.068 E1.70551
G1 X94.842 Y108.076 E7.6099
G1 X85.684 Y67.214 E7.77083
G1 X85.151 Y67.934 F7800
M73 P6 R18
G1 E-.7 F3600
;WIPE_START
G1 F6240
G1 X86.204 Y67.206 E-.285
;WIPE_END
G1 E-.015 F3600
G1 X93.681 Y70.053 F7800
G1 E1 F2400
;TYPE:Solid infill
;WIDTH:1.00921
G1 F900
G1 X92.259 Y68.63 E.37712
G1 X90.983 Y68.63 E.23913
G1 X93.279 Y70.926 E.60879
G1 X93.279 Y72.202 E.23913
G1 X89.708 Y68.63 E.94698
G1 X88.432 Y68.63 E.23913
G1 X93.279 Y73.477 E1.28517
G1 X93.279 Y74.753 E.23913
G1 X87.731 Y69.204 E1.4712
G1 X88.099 Y70.848 E.31585
G1 X93.279 Y76.028 E1.37351
G1 X93.279 Y77.304 E.23913
G1 X88.468 Y72.492 E1.27583
G1 X88.836 Y74.136 E.31585
G1 X93.279 Y78.579 E1.17814
G1 X93.279 Y79.855 E.23913
G1 X89.204 Y75.78 E1.08045
G1 X89.573 Y77.424 E.31585
G1 X93.279 Y81.13 E.98277
G1 X93.279 Y82.406 E.23913
G1 X89.941 Y79.068 E.88508
G1 X90.31 Y80.712 E.31585
G1 X93.279 Y83.681 E.78739
G1 X93.279 Y84.957 E.23913
G1 X90.678 Y82.356 E.68971
G1 X91.047 Y83.999 E.31585
G1 X93.279 Y86.232 E.59202
G1 X93.279 Y87.508 E.23913
G1 X91.415 Y85.643 E.49433
G1 X91.783 Y87.287 E.31585
G1 X93.279 Y88.783 E.39665
G1 X93.279 Y90.059 E.23913
G1 X92.152 Y88.931 E.29896
G1 X92.52 Y90.575 E.31585
G1 X93.279 Y91.334 E.20127
G1 X93.279 Y92.61 E.23913
G1 X92.358 Y91.688 E.24427
;LAYER_CHANGE
;Z:1.85
;HEIGHT:0.5
;BEFORE_LAYER_CHANGE
G92 E0
;1.85


G1 E-.7 F3600
;WIPE_START
G1 F6240
G1 X92.726 Y92.056 E-.285
;WIPE_END
G1 E-.015 F3600
G1 Z1.85 F7800
;AFTER_LAYER_CHANGE
;1.85
G1 X86.823 Y67.961
G1 E1 F2400
;TYPE:Perimeter
;WIDTH:1
G1 F900
G1 X93.949 Y67.961 E1.32235
G1 X93.949 Y99.756 E5.90025
G1 X86.856 Y68.107 E6.01878
M73 P7 R18
G1 X85.708 Y67.068 F7800
;TYPE:External perimeter
G1 F900
G1 X94.842 Y67.068 E1.6949
G1 X94.842 Y107.821 E7.56257
G1 X85.741 Y67.214 E7.72233
G1 X85.208 Y67.934 F7800
G1 E-.7 F3600
;WIPE_START
G1 F6240
G1 X86.261 Y67.206 E-.285
;WIPE_END
G1 E-.015 F3600
G1 X91.807 Y68.63 F7800
G1 E1 F2400
;TYPE:Internal infill
;WIDTH:0.842699
;HEIGHT:1
G1 F900
G1 X87.659 Y68.63 E.96175
G1 X87.924 Y69.81 E.28026
G1 X93.279 Y75.163 E1.75588
G1 X93.279 Y86.706 E2.67669
G1 X91.997 Y87.985 E.42005
G1 X90.826 Y82.759 E1.24201
;LAYER_CHANGE
;Z:2.35
;HEIGHT:0.5
;BEFORE_LAYER_CHANGE
G92 E0
;2.35


G1 E-.7 F3600
;WIPE_START
G1 F6240
G1 X90.939 Y83.266 E-.285
;WIPE_END
G1 E-.015 F3600
G1 Z2.35 F7800
;AFTER_LAYER_CHANGE
;2.35
G1 X86.88 Y67.961
M73 P8 R18
G1 E1 F2400
;TYPE:Perimeter
;WIDTH:1
G1 F900
G1 X93.949 Y67.961 E1.31174
G1 X93.949 Y99.501 E5.85293
G1 X86.913 Y68.107 E5.97028
G1 X85.765 Y67.068 F7800
;TYPE:External perimeter
G1 F900
G1 X94.842 Y67.068 E1.68429
G1 X94.842 Y107.566 E7.51524
G1 X85.798 Y67.214 E7.67383
M73 P8 R17
G1 X85.265 Y67.934 F7800
G1 E-.7 F3600
;WIPE_START
G1 F6240
G1 X86.318 Y67.206 E-.285
;WIPE_END
G1 E-.015 F3600
G1 X87.997 Y69.883 F7800
G1 E1 F2400
;TYPE:Internal infill
;WIDTH:0.842699
;HEIGHT:1
G1 F900
G1 X92.923 Y74.809 E1.61532
G1 X92.923 Y87.06 E2.84066
M73 P9 R17
G1 X92.044 Y87.939 E.28833
;LAYER_CHANGE
;Z:2.85
;HEIGHT:0.5
;BEFORE_LAYER_CHANGE
G92 E0
;2.85


G1 E-.7 F3600
;WIPE_START
G1 F6240
G1 X92.412 Y87.571 E-.285
;WIPE_END
G1 E-.015 F3600
G1 Z2.85 F7800
;AFTER_LAYER_CHANGE
;2.85
G1 X86.937 Y67.961
G1 E1 F2400
;TYPE:Perimeter
;WIDTH:1
G1 F900
G1 X93.949 Y67.961 E1.30114
G1 X93.949 Y99.246 E5.8056
G1 X86.97 Y68.107 E5.92178
G1 X85.823 Y67.068 F7800
;TYPE:External perimeter
G1 F900
G1 X94.842 Y67.068 E1.67369
G1 X94.842 Y107.311 E7.46792
G1 X85.855 Y67.214 E7.62533
G1 X85.323 Y67.934 F7800
M73 P10 R17
G1 E-.7 F3600
;WIPE_START
G1 F6240
G1 X86.375 Y67.206 E-.285
;WIPE_END
G1 E-.015 F3600
G1 X89.242 Y75.184 F7800
G1 E1 F2400
;TYPE:Internal infill
;WIDTH:0.842699
;HEIGHT:1
G1 F900
G1 X88.071 Y69.957 E1.24201
G1 X92.57 Y74.456 E1.47522
G1 X93.279 Y74.456 E.16462
G1 X93.279 Y87.413 E3.00462
G1 X92.57 Y87.413 E.16462
G1 X92.091 Y87.892 E.15708
G1 X90.919 Y82.666 E1.24201
;LAYER_CHANGE
;Z:3.35
;HEIGHT:0.5
;BEFORE_LAYER_CHANGE
G92 E0
;3.35


G1 E-.7 F3600
;WIPE_START
G1 F6240
G1 X91.033 Y83.173 E-.285
;WIPE_END
G1 E-.015 F3600
G1 Z3.35 F7800
;AFTER_LAYER_CHANGE
;3.35
G1 X86.995 Y67.961
G1 E1 F2400
;TYPE:Perimeter
;WIDTH:1
G1 F900
G1 X93.949 Y67.961 E1.29053
G1 X93.949 Y98.991 E5.75828
G1 X87.027 Y68.107 E5.87328
G1 X85.88 Y67.068 F7800
;TYPE:External perimeter
G1 F900
G1 X94.842 Y67.068 E1.66308
G1 X94.842 Y107.056 E7.42059
G1 X85.912 Y67.214 E7.57683
M73 P11 R17
G1 X85.38 Y67.934 F7800
G1 E-.7 F3600
;WIPE_START
G1 F6240
G1 X86.432 Y67.206 E-.285
;WIPE_END
G1 E-.015 F3600
G1 X93.279 Y68.734 F7800
G1 E1 F2400
;TYPE:Internal infill
;WIDTH:0.842699
;HEIGHT:1
G1 F900
G1 X93.279 Y68.63 E.02396
G1 X88.027 Y68.63 E1.21805
G1 X88.027 Y69.504 E.2026
G1 X88.145 Y70.031 E.12515
G1 X92.216 Y74.102 E1.33512
G1 X92.216 Y87.767 E3.16859
G1 X92.137 Y87.845 E.02583
G1 X93.2 Y92.588 E1.1269
G1 X93.279 Y92.579 E.01853
G1 X93.279 Y92.162 E.09657
;LAYER_CHANGE
;Z:3.85
;HEIGHT:0.5
;BEFORE_LAYER_CHANGE
G92 E0
;3.85


G1 E-.7 F3600
;WIPE_START
G1 F6240
G1 X93.279 Y92.579 E-.22826
G1 X93.2 Y92.588 E-.04381
G1 X93.195 Y92.565 E-.01293
;WIPE_END
G1 E-.015 F3600
G1 Z3.85 F7800
;AFTER_LAYER_CHANGE
;3.85
G1 X87.052 Y67.961
G1 E1 F2400
;TYPE:Perimeter
;WIDTH:1
G1 F900
G1 X93.949 Y67.961 E1.27992
G1 X93.949 Y98.736 E5.71095
G1 X87.085 Y68.107 E5.82478
G1 X85.937 Y67.068 F7800
;TYPE:External perimeter
G1 F900
G1 X94.842 Y67.068 E1.65248
G1 X94.842 Y106.801 E7.37326
G1 X85.97 Y67.214 E7.52833
M73 P12 R17
G1 X85.437 Y67.934 F7800
G1 E-.7 F3600
;WIPE_START
G1 F6240
G1 X86.49 Y67.206 E-.285
;WIPE_END
G1 E-.015 F3600
G1 X89.426 Y75.493 F7800
G1 E1 F2400
;TYPE:Internal infill
;WIDTH:0.842699
;HEIGHT:1
G1 F900
G1 X88.255 Y70.266 E1.24201
G1 X88.38 Y70.266 E.02912
G1 X91.862 Y73.749 E1.14195
G1 X93.279 Y73.749 E.32859
G1 X93.279 Y88.12 E3.33256
G1 X92.256 Y88.12 E.23733
G1 X91.085 Y82.894 E1.24201
;LAYER_CHANGE
;Z:4.35
;HEIGHT:0.5
;BEFORE_LAYER_CHANGE
G92 E0
;4.35


G1 E-.7 F3600
;WIPE_START
G1 F6240
G1 X91.198 Y83.401 E-.285
;WIPE_END
G1 E-.015 F3600
G1 Z4.35 F7800
;AFTER_LAYER_CHANGE
;4.35
G1 X87.109 Y67.961
G1 E1 F2400
;TYPE:Perimeter
;WIDTH:1
G1 F900
G1 X93.949 Y67.961 E1.26932
G1 X93.949 Y98.481 E5.66362
G1 X87.142 Y68.107 E5.77628
G1 X85.994 Y67.068 F7800
;TYPE:External perimeter
M73 P13 R17
G1 F900
G1 X94.842 Y67.068 E1.64187
G1 X94.842 Y106.546 E7.32594
G1 X86.027 Y67.214 E7.47983
G1 X85.494 Y67.934 F7800
G1 E-.7 F3600
;WIPE_START
G1 F6240
G1 X86.547 Y67.206 E-.285
;WIPE_END
G1 E-.015 F3600
G1 X88.734 Y68.63 F7800
G1 E1 F2400
;TYPE:Internal infill
;WIDTH:0.842699
;HEIGHT:1
G1 F900
G1 X88.734 Y70.62 E.46132
G1 X91.509 Y73.395 E.91006
G1 X91.509 Y84.532 E2.58243
;LAYER_CHANGE
;Z:4.85
;HEIGHT:0.5
;BEFORE_LAYER_CHANGE
G92 E0
;4.85


G1 E-.7 F3600
;WIPE_START
M73 P13 R16
G1 F6240
G1 X91.509 Y84.012 E-.285
;WIPE_END
G1 E-.015 F3600
G1 Z4.85 F7800
;AFTER_LAYER_CHANGE
;4.85
G1 X87.166 Y67.961
G1 E1 F2400
;TYPE:Perimeter
;WIDTH:1
G1 F900
G1 X93.949 Y67.961 E1.25871
G1 X93.949 Y98.226 E5.6163
G1 X87.199 Y68.107 E5.72779
M73 P14 R16
G1 X86.051 Y67.068 F7800
;TYPE:External perimeter
G1 F900
G1 X94.842 Y67.068 E1.63127
G1 X94.842 Y106.291 E7.27861
G1 X86.084 Y67.214 E7.43133
G1 X85.551 Y67.934 F7800
G1 E-.7 F3600
;WIPE_START
G1 F6240
G1 X86.604 Y67.206 E-.285
;WIPE_END
G1 E-.015 F3600
G1 X89.699 Y76.2 F7800
G1 E1 F2400
;TYPE:Internal infill
;WIDTH:0.842699
;HEIGHT:1
G1 F900
G1 X88.527 Y70.973 E1.24201
G1 X89.087 Y70.973 E.12983
G1 X91.155 Y73.041 E.67818
G1 X93.279 Y73.041 E.49255
G1 X93.279 Y88.827 E3.66049
G1 X92.529 Y88.827 E.17408
G1 X91.357 Y83.601 E1.24201
;LAYER_CHANGE
;Z:5.35
;HEIGHT:0.5
;BEFORE_LAYER_CHANGE
G92 E0
;5.35


G1 E-.7 F3600
;WIPE_START
G1 F6240
G1 X91.471 Y84.108 E-.285
;WIPE_END
G1 E-.015 F3600
G1 Z5.35 F7800
;AFTER_LAYER_CHANGE
;5.35
G1 X87.223 Y67.961
G1 E1 F2400
;TYPE:Perimeter
;WIDTH:1
G1 F900
G1 X93.949 Y67.961 E1.24811
G1 X93.949 Y97.971 E5.56897
