; generated by PrusaSlicer 2.5.0+win64 on 2022-12-07 at 00:14:22 UTC

; 

; external perimeters extrusion width = 1.00mm
; perimeters extrusion width = 1.00mm
; infill extrusion width = 1.00mm
; solid infill extrusion width = 1.00mm
; top infill extrusion width = 1.00mm
; support material extrusion width = 1.00mm
; first layer extrusion width = 0.42mm

M73 P0 R241
M107
;TYPE:Custom
G90 ; use absolute coordinates
M83 ; extruder relative mode
M140 S60 ; set final bed temp
M104 S150 ; set temporary nozzle temp to prevent oozing during homing and auto bed leveling
G4 S10 ; allow partial nozzle warmup
G28 ; home all axisG1 Z50 F240
G1 X7.6 Y10 F3000
M104 S210 ; set final nozzle temp
M190 S60 ; wait for bed temp to stabilize
M109 S210 ; wait for nozzle temp to stabilize
G1 Z0.28 F240
G92 E0
G1 Y140 E10 F1500 ; prime the nozzle
G1 X4 F5000
G92 E0
G1 Y10 E10 F1200 ; prime the nozzle
G92 E0
G21 ; set units to millimeters
G90 ; use absolute coordinates
M83 ; use relative distances for extrusion
; Filament gcode
M107
;LAYER_CHANGE
;Z:0.35
;HEIGHT:0.35
;BEFORE_LAYER_CHANGE
G92 E0
;0.35


G1 E-1 F3600
G1 Z.35 F7800
;AFTER_LAYER_CHANGE
;0.35
G1 X171.268 Y35.326
G1 E1 F2400
;TYPE:Support material
;WIDTH:0.42
G1 F1800
G1 X159.294 Y35.326 E.60094
G1 X157.39 Y25.545 E.50006
G1 X156.997 Y25.221 E.02556
G1 X141.78 Y25.221 E.76368
G1 X141.354 Y25.737 E.03354
G1 X142.539 Y31.933 E.31661
G1 X18.597 Y31.933 E6.22014
G1 X18.597 Y38.719 E.34053
G1 X8.732 Y38.719 E.49509
G1 X8.732 Y22.068 E.83563
G1 X171.268 Y22.068 E8.15705
G1 X171.268 Y35.274 E.66276
G1 X170.857 Y35.171 F7800
G1 F1800
G1 X170.857 Y22.378 E.64199
G1 X170.474 Y22.378 E.01923
G1 X170.474 Y35.015 E.6342
G1 X170.091 Y35.015 E.01923
G1 X170.091 Y22.378 E.6342
G1 X169.708 Y22.378 E.01923
G1 X169.708 Y35.015 E.6342
G1 X169.325 Y35.015 E.01923
G1 X169.325 Y22.378 E.6342
G1 X168.941 Y22.378 E.01923
G1 X168.941 Y35.015 E.6342
G1 X168.558 Y35.015 E.01923
G1 X168.558 Y22.378 E.6342
G1 X168.175 Y22.378 E.01923
G1 X168.175 Y35.015 E.6342
G1 X167.792 Y35.015 E.01923
G1 X167.792 Y22.378 E.6342
G1 X167.408 Y22.378 E.01923
G1 X167.408 Y35.015 E.6342
G1 X167.025 Y35.015 E.01923
G1 X167.025 Y22.378 E.6342
G1 X166.642 Y22.378 E.01923
G1 X166.642 Y35.015 E.6342
G1 X166.259 Y35.015 E.01923
G1 X166.259 Y22.378 E.6342
G1 X165.876 Y22.378 E.01923
G1 X165.876 Y35.015 E.6342
G1 X165.492 Y35.015 E.01923
G1 X165.492 Y22.378 E.6342
G1 X165.109 Y22.378 E.01923
G1 X165.109 Y35.015 E.6342
G1 X164.726 Y35.015 E.01923
G1 X164.726 Y22.378 E.6342
G1 X164.343 Y22.378 E.01923
G1 X164.343 Y35.015 E.6342
G1 X163.96 Y35.015 E.01923
G1 X163.96 Y22.378 E.6342
G1 X163.576 Y22.378 E.01923
G1 X163.576 Y35.015 E.6342
G1 X163.193 Y35.015 E.01923
G1 X163.193 Y22.378 E.6342
G1 X162.81 Y22.378 E.01923
G1 X162.81 Y35.015 E.6342
G1 X162.427 Y35.015 E.01923
G1 X162.427 Y22.378 E.6342
G1 X162.044 Y22.378 E.01923
G1 X162.044 Y35.015 E.6342
G1 X161.66 Y35.015 E.01923
G1 X161.66 Y22.378 E.6342
G1 X161.277 Y22.378 E.01923
G1 X161.277 Y35.015 E.6342
G1 X160.894 Y35.015 E.01923
G1 X160.894 Y22.378 E.6342
G1 X160.511 Y22.378 E.01923
G1 X160.511 Y35.015 E.6342
G1 X160.127 Y35.015 E.01923
G1 X160.127 Y22.378 E.6342
G1 X159.744 Y22.378 E.01923
G1 X159.744 Y35.015 E.6342
G1 X159.55 Y35.015 E.00975
G1 X159.361 Y34.045 E.04963
G1 X159.361 Y22.378 E.58549
G1 X158.978 Y22.378 E.01923
G1 X158.978 Y32.075 E.48666
G1 X158.595 Y30.107 E.10065
G1 X158.595 Y22.378 E.38787
G1 X158.211 Y22.378 E.01923
G1 X158.211 Y28.137 E.28903
G1 X157.828 Y26.168 E.10069
G1 X157.828 Y22.378 E.19019
G1 X157.445 Y22.378 E.01923
G1 X157.445 Y25.188 E.14102
G1 X157.108 Y24.911 E.02189
G1 X157.062 Y24.911 E.00233
G1 X157.062 Y22.378 E.12711
G1 X156.679 Y22.378 E.01923
G1 X156.679 Y24.911 E.12711
G1 X156.295 Y24.911 E.01923
G1 X156.295 Y22.378 E.12711
G1 X155.912 Y22.378 E.01923
G1 X155.912 Y24.911 E.12711
G1 X155.529 Y24.911 E.01923
G1 X155.529 Y22.378 E.12711
G1 X155.146 Y22.378 E.01923
G1 X155.146 Y24.911 E.12711
G1 X154.763 Y24.911 E.01923
G1 X154.763 Y22.378 E.12711
G1 X154.379 Y22.378 E.01923
G1 X154.379 Y24.911 E.12711
G1 X153.996 Y24.911 E.01923
G1 X153.996 Y22.378 E.12711
G1 X153.613 Y22.378 E.01923
G1 X153.613 Y24.911 E.12711
G1 X153.23 Y24.911 E.01923
G1 X153.23 Y22.378 E.12711
G1 X152.846 Y22.378 E.01923
G1 X152.846 Y24.911 E.12711
G1 X152.463 Y24.911 E.01923
G1 X152.463 Y22.378 E.12711
G1 X152.08 Y22.378 E.01923
G1 X152.08 Y24.911 E.12711
G1 X151.697 Y24.911 E.01923
G1 X151.697 Y22.378 E.12711
G1 X151.314 Y22.378 E.01923
G1 X151.314 Y24.911 E.12711
G1 X150.93 Y24.911 E.01923
G1 X150.93 Y22.378 E.12711
G1 X150.547 Y22.378 E.01923
G1 X150.547 Y24.911 E.12711
G1 X150.164 Y24.911 E.01923
G1 X150.164 Y22.378 E.12711
G1 X149.781 Y22.378 E.01923
G1 X149.781 Y24.911 E.12711
G1 X149.398 Y24.911 E.01923
G1 X149.398 Y22.378 E.12711
G1 X149.014 Y22.378 E.01923
G1 X149.014 Y24.911 E.12711
G1 X148.631 Y24.911 E.01923
G1 X148.631 Y22.378 E.12711
G1 X148.248 Y22.378 E.01923
G1 X148.248 Y24.911 E.12711
G1 X147.865 Y24.911 E.01923
G1 X147.865 Y22.378 E.12711
G1 X147.482 Y22.378 E.01923
G1 X147.482 Y24.911 E.12711
G1 X147.098 Y24.911 E.01923
G1 X147.098 Y22.378 E.12711
G1 X146.715 Y22.378 E.01923
G1 X146.715 Y24.911 E.12711
G1 X146.332 Y24.911 E.01923
G1 X146.332 Y22.378 E.12711
G1 X145.949 Y22.378 E.01923
G1 X145.949 Y24.911 E.12711
G1 X145.565 Y24.911 E.01923
G1 X145.565 Y22.378 E.12711
G1 X145.182 Y22.378 E.01923
G1 X145.182 Y24.911 E.12711
G1 X144.799 Y24.911 E.01923
G1 X144.799 Y22.378 E.12711
G1 X144.416 Y22.378 E.01923
G1 X144.416 Y24.911 E.12711
G1 X144.033 Y24.911 E.01923
G1 X144.033 Y22.378 E.12711
G1 X143.649 Y22.378 E.01923
G1 X143.649 Y24.911 E.12711
G1 X143.266 Y24.911 E.01923
G1 X143.266 Y22.378 E.12711
G1 X142.883 Y22.378 E.01923
G1 X142.883 Y24.911 E.12711
G1 X142.5 Y24.911 E.01923
G1 X142.5 Y22.378 E.12711
G1 X142.117 Y22.378 E.01923
G1 X142.117 Y24.911 E.12711
G1 X141.733 Y24.911 E.01923
G1 X141.733 Y22.378 E.12711
G1 X141.35 Y22.378 E.01923
G1 X141.35 Y25.254 E.14432
G1 X141.022 Y25.651 E.02587
G1 X141.35 Y27.369 E.08778
G1 X141.35 Y31.623 E.21346
G1 X141.733 Y31.623 E.01923
G1 X141.733 Y29.373 E.11289
G1 X142.117 Y31.377 E.1024
G1 X142.117 Y31.778 E.0201
G1 X140.967 Y31.778 F7800
G1 F1800
G1 X140.967 Y22.378 E.47173
G1 X140.584 Y22.378 E.01923
G1 X140.584 Y31.623 E.46394
G1 X140.201 Y31.623 E.01923
G1 X140.201 Y22.378 E.46394
G1 X139.817 Y22.378 E.01923
G1 X139.817 Y31.623 E.46394
G1 X139.434 Y31.623 E.01923
G1 X139.434 Y22.378 E.46394
G1 X139.051 Y22.378 E.01923
G1 X139.051 Y31.623 E.46394
G1 X138.668 Y31.623 E.01923
G1 X138.668 Y22.378 E.46394
G1 X138.285 Y22.378 E.01923
G1 X138.285 Y31.623 E.46394
G1 X137.901 Y31.623 E.01923
G1 X137.901 Y22.378 E.46394
G1 X137.518 Y22.378 E.01923
G1 X137.518 Y31.623 E.46394
G1 X137.135 Y31.623 E.01923
G1 X137.135 Y22.378 E.46394
G1 X136.752 Y22.378 E.01923
G1 X136.752 Y31.623 E.46394
G1 X136.368 Y31.623 E.01923
G1 X136.368 Y22.378 E.46394
G1 X135.985 Y22.378 E.01923
G1 X135.985 Y31.623 E.46394
G1 X135.602 Y31.623 E.01923
M73 P0 R240
G1 X135.602 Y22.378 E.46394
G1 X135.219 Y22.378 E.01923
G1 X135.219 Y31.623 E.46394
G1 X134.836 Y31.623 E.01923
G1 X134.836 Y22.378 E.46394
G1 X134.452 Y22.378 E.01923
G1 X134.452 Y31.623 E.46394
G1 X134.069 Y31.623 E.01923
G1 X134.069 Y22.378 E.46394
G1 X133.686 Y22.378 E.01923
G1 X133.686 Y31.623 E.46394
G1 X133.303 Y31.623 E.01923
G1 X133.303 Y22.378 E.46394
G1 X132.92 Y22.378 E.01923
G1 X132.92 Y31.623 E.46394
G1 X132.536 Y31.623 E.01923
G1 X132.536 Y22.378 E.46394
G1 X132.153 Y22.378 E.01923
G1 X132.153 Y31.623 E.46394
G1 X131.77 Y31.623 E.01923
G1 X131.77 Y22.378 E.46394
G1 X131.387 Y22.378 E.01923
G1 X131.387 Y31.623 E.46394
G1 X131.004 Y31.623 E.01923
G1 X131.004 Y22.378 E.46394
G1 X130.62 Y22.378 E.01923
G1 X130.62 Y31.623 E.46394
G1 X130.237 Y31.623 E.01923
G1 X130.237 Y22.378 E.46394
G1 X129.854 Y22.378 E.01923
G1 X129.854 Y31.623 E.46394
G1 X129.471 Y31.623 E.01923
G1 X129.471 Y22.378 E.46394
G1 X129.087 Y22.378 E.01923
G1 X129.087 Y31.623 E.46394
G1 X128.704 Y31.623 E.01923
G1 X128.704 Y22.378 E.46394
G1 X128.321 Y22.378 E.01923
G1 X128.321 Y31.623 E.46394
G1 X127.938 Y31.623 E.01923
G1 X127.938 Y22.378 E.46394
G1 X127.555 Y22.378 E.01923
G1 X127.555 Y31.623 E.46394
G1 X127.171 Y31.623 E.01923
G1 X127.171 Y22.378 E.46394
G1 X126.788 Y22.378 E.01923
G1 X126.788 Y31.623 E.46394
G1 X126.405 Y31.623 E.01923
G1 X126.405 Y22.378 E.46394
G1 X126.022 Y22.378 E.01923
G1 X126.022 Y31.623 E.46394
G1 X125.639 Y31.623 E.01923
G1 X125.639 Y22.378 E.46394
G1 X125.255 Y22.378 E.01923
G1 X125.255 Y31.623 E.46394
G1 X124.872 Y31.623 E.01923
G1 X124.872 Y22.378 E.46394
G1 X124.489 Y22.378 E.01923
G1 X124.489 Y31.623 E.46394
G1 X124.106 Y31.623 E.01923
G1 X124.106 Y22.378 E.46394
G1 X123.723 Y22.378 E.01923
G1 X123.723 Y31.623 E.46394
G1 X123.339 Y31.623 E.01923
G1 X123.339 Y22.378 E.46394
G1 X122.956 Y22.378 E.01923
G1 X122.956 Y31.623 E.46394
G1 X122.573 Y31.623 E.01923
G1 X122.573 Y22.378 E.46394
G1 X122.19 Y22.378 E.01923
G1 X122.19 Y31.623 E.46394
G1 X121.806 Y31.623 E.01923
G1 X121.806 Y22.378 E.46394
G1 X121.423 Y22.378 E.01923
G1 X121.423 Y31.623 E.46394
G1 X121.04 Y31.623 E.01923
G1 X121.04 Y22.378 E.46394
G1 X120.657 Y22.378 E.01923
G1 X120.657 Y31.623 E.46394
G1 X120.274 Y31.623 E.01923
G1 X120.274 Y22.378 E.46394
G1 X119.89 Y22.378 E.01923
G1 X119.89 Y31.623 E.46394
G1 X119.507 Y31.623 E.01923
G1 X119.507 Y22.378 E.46394
G1 X119.124 Y22.378 E.01923
G1 X119.124 Y31.623 E.46394
G1 X118.741 Y31.623 E.01923
G1 X118.741 Y22.378 E.46394
G1 X118.358 Y22.378 E.01923
G1 X118.358 Y31.623 E.46394
G1 X117.974 Y31.623 E.01923
G1 X117.974 Y22.378 E.46394
G1 X117.591 Y22.378 E.01923
G1 X117.591 Y31.623 E.46394
G1 X117.208 Y31.623 E.01923
G1 X117.208 Y22.378 E.46394
G1 X116.825 Y22.378 E.01923
G1 X116.825 Y31.623 E.46394
G1 X116.442 Y31.623 E.01923
G1 X116.442 Y22.378 E.46394
G1 X116.058 Y22.378 E.01923
G1 X116.058 Y31.623 E.46394
G1 X115.675 Y31.623 E.01923
G1 X115.675 Y22.378 E.46394
G1 X115.292 Y22.378 E.01923
G1 X115.292 Y31.623 E.46394
G1 X114.909 Y31.623 E.01923
G1 X114.909 Y22.378 E.46394
G1 X114.525 Y22.378 E.01923
G1 X114.525 Y31.623 E.46394
G1 X114.142 Y31.623 E.01923
G1 X114.142 Y22.378 E.46394
G1 X113.759 Y22.378 E.01923
G1 X113.759 Y31.623 E.46394
G1 X113.376 Y31.623 E.01923
G1 X113.376 Y22.378 E.46394
G1 X112.993 Y22.378 E.01923
G1 X112.993 Y31.623 E.46394
G1 X112.609 Y31.623 E.01923
G1 X112.609 Y22.378 E.46394
G1 X112.226 Y22.378 E.01923
G1 X112.226 Y31.623 E.46394
G1 X111.843 Y31.623 E.01923
G1 X111.843 Y22.378 E.46394
G1 X111.46 Y22.378 E.01923
G1 X111.46 Y31.623 E.46394
G1 X111.077 Y31.623 E.01923
G1 X111.077 Y22.378 E.46394
G1 X110.693 Y22.378 E.01923
G1 X110.693 Y31.623 E.46394
G1 X110.31 Y31.623 E.01923
G1 X110.31 Y22.378 E.46394
G1 X109.927 Y22.378 E.01923
G1 X109.927 Y31.623 E.46394
G1 X109.544 Y31.623 E.01923
G1 X109.544 Y22.378 E.46394
G1 X109.161 Y22.378 E.01923
G1 X109.161 Y31.623 E.46394
G1 X108.777 Y31.623 E.01923
G1 X108.777 Y22.378 E.46394
G1 X108.394 Y22.378 E.01923
G1 X108.394 Y31.623 E.46394
G1 X108.011 Y31.623 E.01923
G1 X108.011 Y22.378 E.46394
G1 X107.628 Y22.378 E.01923
G1 X107.628 Y31.623 E.46394
G1 X107.244 Y31.623 E.01923
G1 X107.244 Y22.378 E.46394
G1 X106.861 Y22.378 E.01923
G1 X106.861 Y31.623 E.46394
G1 X106.478 Y31.623 E.01923
G1 X106.478 Y22.378 E.46394
G1 X106.095 Y22.378 E.01923
G1 X106.095 Y31.623 E.46394
G1 X105.712 Y31.623 E.01923
G1 X105.712 Y22.378 E.46394
G1 X105.328 Y22.378 E.01923
G1 X105.328 Y31.623 E.46394
G1 X104.945 Y31.623 E.01923
G1 X104.945 Y22.378 E.46394
G1 X104.562 Y22.378 E.01923
G1 X104.562 Y31.623 E.46394
G1 X104.179 Y31.623 E.01923
G1 X104.179 Y22.378 E.46394
G1 X103.796 Y22.378 E.01923
G1 X103.796 Y31.623 E.46394
G1 X103.412 Y31.623 E.01923
G1 X103.412 Y22.378 E.46394
G1 X103.029 Y22.378 E.01923
G1 X103.029 Y31.623 E.46394
G1 X102.646 Y31.623 E.01923
G1 X102.646 Y22.378 E.46394
G1 X102.263 Y22.378 E.01923
G1 X102.263 Y31.623 E.46394
G1 X101.88 Y31.623 E.01923
G1 X101.88 Y22.378 E.46394
G1 X101.496 Y22.378 E.01923
G1 X101.496 Y31.623 E.46394
G1 X101.113 Y31.623 E.01923
G1 X101.113 Y22.378 E.46394
G1 X100.73 Y22.378 E.01923
G1 X100.73 Y31.623 E.46394
G1 X100.347 Y31.623 E.01923
G1 X100.347 Y22.378 E.46394
G1 X99.964 Y22.378 E.01923
G1 X99.964 Y31.623 E.46394
G1 X99.58 Y31.623 E.01923
G1 X99.58 Y22.378 E.46394
G1 X99.197 Y22.378 E.01923
G1 X99.197 Y31.623 E.46394
G1 X98.814 Y31.623 E.01923
G1 X98.814 Y22.378 E.46394
G1 X98.431 Y22.378 E.01923
G1 X98.431 Y31.623 E.46394
G1 X98.047 Y31.623 E.01923
G1 X98.047 Y22.378 E.46394
G1 X97.664 Y22.378 E.01923
G1 X97.664 Y31.623 E.46394
G1 X97.281 Y31.623 E.01923
G1 X97.281 Y22.378 E.46394
G1 X96.898 Y22.378 E.01923
G1 X96.898 Y31.623 E.46394
G1 X96.515 Y31.623 E.01923
G1 X96.515 Y22.378 E.46394
G1 X96.131 Y22.378 E.01923
G1 X96.131 Y31.623 E.46394
G1 X95.748 Y31.623 E.01923
G1 X95.748 Y22.378 E.46394
G1 X95.365 Y22.378 E.01923
G1 X95.365 Y31.623 E.46394
G1 X94.982 Y31.623 E.01923
G1 X94.982 Y22.378 E.46394
G1 X94.599 Y22.378 E.01923
G1 X94.599 Y31.623 E.46394
G1 X94.215 Y31.623 E.01923
G1 X94.215 Y22.378 E.46394
G1 X93.832 Y22.378 E.01923
G1 X93.832 Y31.623 E.46394
G1 X93.449 Y31.623 E.01923
G1 X93.449 Y22.378 E.46394
G1 X93.066 Y22.378 E.01923
G1 X93.066 Y31.623 E.46394
G1 X92.683 Y31.623 E.01923
G1 X92.683 Y22.378 E.46394
G1 X92.299 Y22.378 E.01923
G1 X92.299 Y31.623 E.46394
G1 X91.916 Y31.623 E.01923
G1 X91.916 Y22.378 E.46394
G1 X91.533 Y22.378 E.01923
G1 X91.533 Y31.623 E.46394
G1 X91.15 Y31.623 E.01923
G1 X91.15 Y22.378 E.46394
G1 X90.766 Y22.378 E.01923
G1 X90.766 Y31.623 E.46394
G1 X90.383 Y31.623 E.01923
G1 X90.383 Y22.378 E.46394
G1 X90 Y22.378 E.01923
G1 X90 Y31.623 E.46394
G1 X89.617 Y31.623 E.01923
G1 X89.617 Y22.378 E.46394
G1 X89.234 Y22.378 E.01923
G1 X89.234 Y31.623 E.46394
G1 X88.85 Y31.623 E.01923
G1 X88.85 Y22.378 E.46394
G1 X88.467 Y22.378 E.01923
G1 X88.467 Y31.623 E.46394
G1 X88.084 Y31.623 E.01923
G1 X88.084 Y22.378 E.46394
G1 X87.701 Y22.378 E.01923
G1 X87.701 Y31.623 E.46394
G1 X87.318 Y31.623 E.01923
G1 X87.318 Y22.378 E.46394
G1 X86.934 Y22.378 E.01923
G1 X86.934 Y31.623 E.46394
G1 X86.551 Y31.623 E.01923
G1 X86.551 Y22.378 E.46394
G1 X86.168 Y22.378 E.01923
G1 X86.168 Y31.623 E.46394
G1 X85.785 Y31.623 E.01923
G1 X85.785 Y22.378 E.46394
G1 X85.402 Y22.378 E.01923
G1 X85.402 Y31.623 E.46394
G1 X85.018 Y31.623 E.01923
G1 X85.018 Y22.378 E.46394
G1 X84.635 Y22.378 E.01923
G1 X84.635 Y31.623 E.46394
G1 X84.252 Y31.623 E.01923
G1 X84.252 Y22.378 E.46394
G1 X83.869 Y22.378 E.01923
G1 X83.869 Y31.623 E.46394
G1 X83.485 Y31.623 E.01923
G1 X83.485 Y22.378 E.46394
G1 X83.102 Y22.378 E.01923
G1 X83.102 Y31.623 E.46394
G1 X82.719 Y31.623 E.01923
G1 X82.719 Y22.378 E.46394
G1 X82.336 Y22.378 E.01923
G1 X82.336 Y31.623 E.46394
G1 X81.953 Y31.623 E.01923
G1 X81.953 Y22.378 E.46394
G1 X81.569 Y22.378 E.01923
G1 X81.569 Y31.623 E.46394
G1 X81.186 Y31.623 E.01923
G1 X81.186 Y22.378 E.46394
G1 X80.803 Y22.378 E.01923
G1 X80.803 Y31.623 E.46394
G1 X80.42 Y31.623 E.01923
G1 X80.42 Y22.378 E.46394
G1 X80.037 Y22.378 E.01923
G1 X80.037 Y31.623 E.46394
G1 X79.653 Y31.623 E.01923
G1 X79.653 Y22.378 E.46394
G1 X79.27 Y22.378 E.01923
G1 X79.27 Y31.623 E.46394
G1 X78.887 Y31.623 E.01923
G1 X78.887 Y22.378 E.46394
G1 X78.504 Y22.378 E.01923
G1 X78.504 Y31.623 E.46394
G1 X78.121 Y31.623 E.01923
G1 X78.121 Y22.378 E.46394
G1 X77.737 Y22.378 E.01923
G1 X77.737 Y31.623 E.46394
G1 X77.354 Y31.623 E.01923
G1 X77.354 Y22.378 E.46394
G1 X76.971 Y22.378 E.01923
G1 X76.971 Y31.623 E.46394
G1 X76.588 Y31.623 E.01923
G1 X76.588 Y22.378 E.46394
G1 X76.204 Y22.378 E.01923
G1 X76.204 Y31.623 E.46394
G1 X75.821 Y31.623 E.01923
G1 X75.821 Y22.378 E.46394
G1 X75.438 Y22.378 E.01923
G1 X75.438 Y31.623 E.46394
G1 X75.055 Y31.623 E.01923
G1 X75.055 Y22.378 E.46394
G1 X74.672 Y22.378 E.01923
G1 X74.672 Y31.623 E.46394
G1 X74.288 Y31.623 E.01923
G1 X74.288 Y22.378 E.46394
G1 X73.905 Y22.378 E.01923
M73 P0 R239
G1 X73.905 Y31.623 E.46394
G1 X73.522 Y31.623 E.01923
G1 X73.522 Y22.378 E.46394
G1 X73.139 Y22.378 E.01923
G1 X73.139 Y31.623 E.46394
G1 X72.756 Y31.623 E.01923
G1 X72.756 Y22.378 E.46394
