; generated by PrusaSlicer 2.5.0+win64 on 2022-12-07 at 00:14:19 UTC

; 

; external perimeters extrusion width = 1.00mm
; perimeters extrusion width = 1.00mm
; infill extrusion width = 1.00mm
; solid infill extrusion width = 1.00mm
; top infill extrusion width = 1.00mm
; support material extrusion width = 1.00mm
; first layer extrusion width = 0.42mm

M73 P0 R101
M107
;TYPE:Custom
G90 ; use absolute coordinates
M83 ; extruder relative mode
M140 S60 ; set final bed temp
M104 S150 ; set temporary nozzle temp to prevent oozing during homing and auto bed leveling
G4 S10 ; allow partial nozzle warmup
G28 ; home all axisG1 Z50 F240
G1 X7.6 Y10 F3000
M104 S210 ; set final nozzle temp
M190 S60 ; wait for bed temp to stabilize
M109 S210 ; wait for nozzle temp to stabilize
G1 Z0.28 F240
G92 E0
G1 Y140 E10 F1500 ; prime the nozzle
G1 X4 F5000
G92 E0
G1 Y10 E10 F1200 ; prime the nozzle
G92 E0
G21 ; set units to millimeters
G90 ; use absolute coordinates
M83 ; use relative distances for extrusion
; Filament gcode
M107
;LAYER_CHANGE
;Z:0.35
;HEIGHT:0.35
;BEFORE_LAYER_CHANGE
G92 E0
;0.35


G1 E-1 F3600
G1 Z.35 F7800
;AFTER_LAYER_CHANGE
;0.35
G1 X131.51 Y72.62
G1 E1 F2400
;TYPE:Support material interface
;WIDTH:1
G1 F1800
G1 X131.51 Y76.415 E.51067
G1 X132.403 Y76.415 E.12014
G1 X132.403 Y73.022 E.45661
G1 X133.296 Y73.022 E.12014
G1 X133.296 Y76.415 E.45661
G1 X134.189 Y76.415 E.12014
G1 X134.189 Y73.022 E.45661
G1 X135.081 Y73.022 E.12014
G1 X135.081 Y76.415 E.45661
G1 X135.974 Y76.415 E.12014
G1 X135.974 Y73.022 E.45661
G1 X136.867 Y73.022 E.12014
G1 X136.867 Y76.415 E.45661
G1 X137.759 Y76.415 E.12014
G1 X137.759 Y73.022 E.45661
G1 X138.652 Y73.022 E.12014
G1 X138.652 Y76.415 E.45661
G1 X139.545 Y76.415 E.12014
G1 X139.545 Y73.022 E.45661
G1 X140.437 Y73.022 E.12014
G1 X140.437 Y76.415 E.45661
G1 X141.33 Y76.415 E.12014
G1 X141.33 Y73.022 E.45661
G1 X142.223 Y73.022 E.12014
G1 X142.223 Y76.415 E.45661
G1 X143.116 Y76.415 E.12014
G1 X143.116 Y73.022 E.45661
G1 X144.008 Y73.022 E.12014
G1 X144.008 Y76.415 E.45661
G1 X144.901 Y76.415 E.12014
G1 X144.901 Y73.022 E.45661
G1 X145.794 Y73.022 E.12014
G1 X145.794 Y76.415 E.45661
G1 X146.686 Y76.415 E.12014
G1 X146.686 Y73.022 E.45661
G1 X147.579 Y73.022 E.12014
G1 X147.579 Y76.415 E.45661
G1 X148.472 Y76.415 E.12014
G1 X148.472 Y73.022 E.45661
G1 X149.364 Y73.022 E.12014
G1 X149.364 Y76.415 E.45661
G1 X150.257 Y76.415 E.12014
G1 X150.257 Y73.022 E.45661
G1 X151.15 Y73.022 E.12014
G1 X151.15 Y76.817 E.51067
G1 E-.7 F3600
;WIPE_START
G1 F6240
G1 X151.15 Y76.297 E-.285
;WIPE_END
G1 E-.015 F3600
G1 X153.828 Y76.817 F7800
G1 E1 F2400
G1 F1800
G1 X153.828 Y75.605 E.16306
G1 X152.935 Y75.571 E.12023
G1 X152.935 Y76.415 E.11357
G1 X152.043 Y76.415 E.12014
G1 X152.043 Y73.022 E.45661
G1 X152.935 Y73.022 E.12014
G1 X152.935 Y73.698 E.09092
G1 X153.828 Y73.698 E.12014
G1 X153.828 Y72.62 E.14498
G1 E-.7 F3600
;WIPE_START
G1 F6240
G1 X153.828 Y73.14 E-.285
;WIPE_END
G1 E-.015 F3600
G1 X133.056 Y72.366 F7800
G1 E1 F2400
;TYPE:Support material
;WIDTH:0.42
G1 F1800
G1 X130.056 Y72.366 E.15056
G1 X130.056 Y77.071 E.23616
G1 X133.056 Y77.071 E.15056
G1 X133.056 Y79.651 E.12947
G1 X8.732 Y79.651 E6.23933
G1 X8.732 Y69.786 E.49509
G1 X133.056 Y69.786 E6.23933
M73 P0 R100
G1 X133.056 Y72.314 E.12687
G1 E-.7 F3600
;WIPE_START
G1 F6240
G1 X133.056 Y71.794 E-.285
;WIPE_END
G1 E-.015 F3600
G1 X132.536 Y79.496 F7800
G1 E1 F2400
G1 F1800
G1 X132.536 Y77.382 E.1061
G1 X132.153 Y77.382 E.01923
G1 X132.153 Y79.341 E.09831
G1 X131.77 Y79.341 E.01923
G1 X131.77 Y77.382 E.09831
G1 X131.387 Y77.382 E.01923
G1 X131.387 Y79.341 E.09831
G1 X131.003 Y79.341 E.01923
G1 X131.003 Y77.382 E.09831
G1 X130.62 Y77.382 E.01923
G1 X130.62 Y79.341 E.09831
G1 X130.237 Y79.341 E.01923
G1 X130.237 Y77.227 E.1061
G1 E-.7 F3600
;WIPE_START
G1 F6240
G1 X130.237 Y77.747 E-.285
;WIPE_END
G1 E-.015 F3600
G1 X132.536 Y72.211 F7800
G1 E1 F2400
G1 F1800
G1 X132.536 Y70.096 E.1061
G1 X132.153 Y70.096 E.01923
G1 X132.153 Y72.055 E.09831
G1 X131.77 Y72.055 E.01923
G1 X131.77 Y70.096 E.09831
G1 X131.387 Y70.096 E.01923
G1 X131.387 Y72.055 E.09831
G1 X131.003 Y72.055 E.01923
G1 X131.003 Y70.096 E.09831
G1 X130.62 Y70.096 E.01923
G1 X130.62 Y72.055 E.09831
G1 X130.237 Y72.055 E.01923
G1 X130.237 Y70.096 E.09831
G1 X129.854 Y70.096 E.01923
G1 X129.854 Y79.341 E.46394
G1 X129.471 Y79.341 E.01923
G1 X129.471 Y70.096 E.46394
G1 X129.087 Y70.096 E.01923
G1 X129.087 Y79.341 E.46394
G1 X128.704 Y79.341 E.01923
G1 X128.704 Y70.096 E.46394
G1 X128.321 Y70.096 E.01923
G1 X128.321 Y79.341 E.46394
G1 X127.938 Y79.341 E.01923
G1 X127.938 Y70.096 E.46394
G1 X127.555 Y70.096 E.01923
G1 X127.555 Y79.341 E.46394
G1 X127.171 Y79.341 E.01923
G1 X127.171 Y70.096 E.46394
G1 X126.788 Y70.096 E.01923
G1 X126.788 Y79.341 E.46394
G1 X126.405 Y79.341 E.01923
G1 X126.405 Y70.096 E.46394
G1 X126.022 Y70.096 E.01923
G1 X126.022 Y79.341 E.46394
G1 X125.639 Y79.341 E.01923
G1 X125.639 Y70.096 E.46394
G1 X125.255 Y70.096 E.01923
G1 X125.255 Y79.341 E.46394
G1 X124.872 Y79.341 E.01923
G1 X124.872 Y70.096 E.46394
G1 X124.489 Y70.096 E.01923
G1 X124.489 Y79.341 E.46394
G1 X124.106 Y79.341 E.01923
G1 X124.106 Y70.096 E.46394
G1 X123.722 Y70.096 E.01923
G1 X123.722 Y79.341 E.46394
G1 X123.339 Y79.341 E.01923
G1 X123.339 Y70.096 E.46394
G1 X122.956 Y70.096 E.01923
G1 X122.956 Y79.341 E.46394
G1 X122.573 Y79.341 E.01923
G1 X122.573 Y70.096 E.46394
G1 X122.19 Y70.096 E.01923
G1 X122.19 Y79.341 E.46394
G1 X121.806 Y79.341 E.01923
G1 X121.806 Y70.096 E.46394
G1 X121.423 Y70.096 E.01923
G1 X121.423 Y79.341 E.46394
G1 X121.04 Y79.341 E.01923
G1 X121.04 Y70.096 E.46394
G1 X120.657 Y70.096 E.01923
G1 X120.657 Y79.341 E.46394
G1 X120.274 Y79.341 E.01923
G1 X120.274 Y70.096 E.46394
G1 X119.89 Y70.096 E.01923
G1 X119.89 Y79.341 E.46394
G1 X119.507 Y79.341 E.01923
G1 X119.507 Y70.096 E.46394
G1 X119.124 Y70.096 E.01923
G1 X119.124 Y79.341 E.46394
G1 X118.741 Y79.341 E.01923
G1 X118.741 Y70.096 E.46394
G1 X118.358 Y70.096 E.01923
G1 X118.358 Y79.341 E.46394
G1 X117.974 Y79.341 E.01923
G1 X117.974 Y70.096 E.46394
G1 X117.591 Y70.096 E.01923
G1 X117.591 Y79.341 E.46394
G1 X117.208 Y79.341 E.01923
G1 X117.208 Y70.096 E.46394
G1 X116.825 Y70.096 E.01923
G1 X116.825 Y79.341 E.46394
G1 X116.441 Y79.341 E.01923
G1 X116.441 Y70.096 E.46394
G1 X116.058 Y70.096 E.01923
G1 X116.058 Y79.341 E.46394
G1 X115.675 Y79.341 E.01923
G1 X115.675 Y70.096 E.46394
G1 X115.292 Y70.096 E.01923
G1 X115.292 Y79.341 E.46394
G1 X114.909 Y79.341 E.01923
G1 X114.909 Y70.096 E.46394
G1 X114.525 Y70.096 E.01923
G1 X114.525 Y79.341 E.46394
G1 X114.142 Y79.341 E.01923
G1 X114.142 Y70.096 E.46394
G1 X113.759 Y70.096 E.01923
G1 X113.759 Y79.341 E.46394
G1 X113.376 Y79.341 E.01923
G1 X113.376 Y70.096 E.46394
G1 X112.993 Y70.096 E.01923
G1 X112.993 Y79.341 E.46394
G1 X112.609 Y79.341 E.01923
G1 X112.609 Y70.096 E.46394
G1 X112.226 Y70.096 E.01923
G1 X112.226 Y79.341 E.46394
G1 X111.843 Y79.341 E.01923
G1 X111.843 Y70.096 E.46394
G1 X111.46 Y70.096 E.01923
G1 X111.46 Y79.341 E.46394
G1 X111.077 Y79.341 E.01923
G1 X111.077 Y70.096 E.46394
G1 X110.693 Y70.096 E.01923
G1 X110.693 Y79.341 E.46394
G1 X110.31 Y79.341 E.01923
G1 X110.31 Y70.096 E.46394
G1 X109.927 Y70.096 E.01923
G1 X109.927 Y79.341 E.46394
G1 X109.544 Y79.341 E.01923
G1 X109.544 Y70.096 E.46394
G1 X109.161 Y70.096 E.01923
G1 X109.161 Y79.341 E.46394
G1 X108.777 Y79.341 E.01923
G1 X108.777 Y70.096 E.46394
G1 X108.394 Y70.096 E.01923
G1 X108.394 Y79.341 E.46394
G1 X108.011 Y79.341 E.01923
G1 X108.011 Y70.096 E.46394
G1 X107.628 Y70.096 E.01923
G1 X107.628 Y79.341 E.46394
G1 X107.244 Y79.341 E.01923
G1 X107.244 Y70.096 E.46394
G1 X106.861 Y70.096 E.01923
G1 X106.861 Y79.341 E.46394
G1 X106.478 Y79.341 E.01923
G1 X106.478 Y70.096 E.46394
G1 X106.095 Y70.096 E.01923
G1 X106.095 Y79.341 E.46394
G1 X105.712 Y79.341 E.01923
G1 X105.712 Y70.096 E.46394
G1 X105.328 Y70.096 E.01923
G1 X105.328 Y79.341 E.46394
G1 X104.945 Y79.341 E.01923
G1 X104.945 Y70.096 E.46394
G1 X104.562 Y70.096 E.01923
G1 X104.562 Y79.341 E.46394
G1 X104.179 Y79.341 E.01923
G1 X104.179 Y70.096 E.46394
G1 X103.796 Y70.096 E.01923
G1 X103.796 Y79.341 E.46394
G1 X103.412 Y79.341 E.01923
G1 X103.412 Y70.096 E.46394
G1 X103.029 Y70.096 E.01923
G1 X103.029 Y79.341 E.46394
G1 X102.646 Y79.341 E.01923
G1 X102.646 Y70.096 E.46394
G1 X102.263 Y70.096 E.01923
G1 X102.263 Y79.341 E.46394
G1 X101.88 Y79.341 E.01923
G1 X101.88 Y70.096 E.46394
G1 X101.496 Y70.096 E.01923
G1 X101.496 Y79.341 E.46394
G1 X101.113 Y79.341 E.01923
G1 X101.113 Y70.096 E.46394
G1 X100.73 Y70.096 E.01923
G1 X100.73 Y79.341 E.46394
G1 X100.347 Y79.341 E.01923
G1 X100.347 Y70.096 E.46394
G1 X99.963 Y70.096 E.01923
G1 X99.963 Y79.341 E.46394
G1 X99.58 Y79.341 E.01923
M73 P1 R100
G1 X99.58 Y70.096 E.46394
G1 X99.197 Y70.096 E.01923
G1 X99.197 Y79.341 E.46394
G1 X98.814 Y79.341 E.01923
G1 X98.814 Y70.096 E.46394
G1 X98.431 Y70.096 E.01923
G1 X98.431 Y79.341 E.46394
G1 X98.047 Y79.341 E.01923
G1 X98.047 Y70.096 E.46394
G1 X97.664 Y70.096 E.01923
G1 X97.664 Y79.341 E.46394
G1 X97.281 Y79.341 E.01923
G1 X97.281 Y70.096 E.46394
G1 X96.898 Y70.096 E.01923
G1 X96.898 Y79.341 E.46394
G1 X96.515 Y79.341 E.01923
G1 X96.515 Y70.096 E.46394
G1 X96.131 Y70.096 E.01923
G1 X96.131 Y79.341 E.46394
G1 X95.748 Y79.341 E.01923
G1 X95.748 Y70.096 E.46394
G1 X95.365 Y70.096 E.01923
G1 X95.365 Y79.341 E.46394
G1 X94.982 Y79.341 E.01923
G1 X94.982 Y70.096 E.46394
G1 X94.599 Y70.096 E.01923
G1 X94.599 Y79.341 E.46394
G1 X94.215 Y79.341 E.01923
G1 X94.215 Y70.096 E.46394
G1 X93.832 Y70.096 E.01923
G1 X93.832 Y79.341 E.46394
G1 X93.449 Y79.341 E.01923
G1 X93.449 Y70.096 E.46394
G1 X93.066 Y70.096 E.01923
G1 X93.066 Y79.341 E.46394
G1 X92.682 Y79.341 E.01923
G1 X92.682 Y70.096 E.46394
G1 X92.299 Y70.096 E.01923
G1 X92.299 Y79.341 E.46394
G1 X91.916 Y79.341 E.01923
G1 X91.916 Y70.096 E.46394
G1 X91.533 Y70.096 E.01923
G1 X91.533 Y79.341 E.46394
G1 X91.15 Y79.341 E.01923
G1 X91.15 Y70.096 E.46394
G1 X90.766 Y70.096 E.01923
G1 X90.766 Y79.341 E.46394
G1 X90.383 Y79.341 E.01923
G1 X90.383 Y70.096 E.46394
G1 X90 Y70.096 E.01923
G1 X90 Y79.341 E.46394
G1 X89.617 Y79.341 E.01923
G1 X89.617 Y70.096 E.46394
G1 X89.234 Y70.096 E.01923
G1 X89.234 Y79.341 E.46394
G1 X88.85 Y79.341 E.01923
G1 X88.85 Y70.096 E.46394
G1 X88.467 Y70.096 E.01923
G1 X88.467 Y79.341 E.46394
G1 X88.084 Y79.341 E.01923
G1 X88.084 Y70.096 E.46394
G1 X87.701 Y70.096 E.01923
G1 X87.701 Y79.341 E.46394
G1 X87.318 Y79.341 E.01923
G1 X87.318 Y70.096 E.46394
G1 X86.934 Y70.096 E.01923
G1 X86.934 Y79.341 E.46394
G1 X86.551 Y79.341 E.01923
G1 X86.551 Y70.096 E.46394
G1 X86.168 Y70.096 E.01923
G1 X86.168 Y79.341 E.46394
G1 X85.785 Y79.341 E.01923
G1 X85.785 Y70.096 E.46394
G1 X85.401 Y70.096 E.01923
G1 X85.401 Y79.341 E.46394
G1 X85.018 Y79.341 E.01923
G1 X85.018 Y70.096 E.46394
G1 X84.635 Y70.096 E.01923
G1 X84.635 Y79.341 E.46394
G1 X84.252 Y79.341 E.01923
G1 X84.252 Y70.096 E.46394
G1 X83.869 Y70.096 E.01923
G1 X83.869 Y79.341 E.46394
G1 X83.485 Y79.341 E.01923
G1 X83.485 Y70.096 E.46394
G1 X83.102 Y70.096 E.01923
G1 X83.102 Y79.341 E.46394
G1 X82.719 Y79.341 E.01923
G1 X82.719 Y70.096 E.46394
G1 X82.336 Y70.096 E.01923
G1 X82.336 Y79.341 E.46394
G1 X81.953 Y79.341 E.01923
G1 X81.953 Y70.096 E.46394
G1 X81.569 Y70.096 E.01923
G1 X81.569 Y79.341 E.46394
G1 X81.186 Y79.341 E.01923
G1 X81.186 Y70.096 E.46394
G1 X80.803 Y70.096 E.01923
G1 X80.803 Y79.341 E.46394
G1 X80.42 Y79.341 E.01923
G1 X80.42 Y70.096 E.46394
G1 X80.037 Y70.096 E.01923
G1 X80.037 Y79.341 E.46394
G1 X79.653 Y79.341 E.01923
G1 X79.653 Y70.096 E.46394
G1 X79.27 Y70.096 E.01923
G1 X79.27 Y79.341 E.46394
G1 X78.887 Y79.341 E.01923
G1 X78.887 Y70.096 E.46394
G1 X78.504 Y70.096 E.01923
G1 X78.504 Y79.341 E.46394
G1 X78.12 Y79.341 E.01923
G1 X78.12 Y70.096 E.46394
G1 X77.737 Y70.096 E.01923
G1 X77.737 Y79.341 E.46394
G1 X77.354 Y79.341 E.01923
G1 X77.354 Y70.096 E.46394
G1 X76.971 Y70.096 E.01923
G1 X76.971 Y79.341 E.46394
G1 X76.588 Y79.341 E.01923
G1 X76.588 Y70.096 E.46394
G1 X76.204 Y70.096 E.01923
G1 X76.204 Y79.341 E.46394
G1 X75.821 Y79.341 E.01923
G1 X75.821 Y70.096 E.46394
G1 X75.438 Y70.096 E.01923
G1 X75.438 Y79.341 E.46394
G1 X75.055 Y79.341 E.01923
M73 P1 R99
G1 X75.055 Y70.096 E.46394
G1 X74.672 Y70.096 E.01923
G1 X74.672 Y79.341 E.46394
G1 X74.288 Y79.341 E.01923
G1 X74.288 Y70.096 E.46394
G1 X73.905 Y70.096 E.01923
G1 X73.905 Y79.341 E.46394
G1 X73.522 Y79.341 E.01923
G1 X73.522 Y70.096 E.46394
G1 X73.139 Y70.096 E.01923
G1 X73.139 Y79.341 E.46394
G1 X72.756 Y79.341 E.01923
G1 X72.756 Y70.096 E.46394
G1 X72.372 Y70.096 E.01923
G1 X72.372 Y79.341 E.46394
G1 X71.989 Y79.341 E.01923
G1 X71.989 Y70.096 E.46394
G1 X71.606 Y70.096 E.01923
G1 X71.606 Y79.341 E.46394
G1 X71.223 Y79.341 E.01923
G1 X71.223 Y70.096 E.46394
G1 X70.84 Y70.096 E.01923
G1 X70.84 Y79.341 E.46394
G1 X70.456 Y79.341 E.01923
G1 X70.456 Y70.096 E.46394
G1 X70.073 Y70.096 E.01923
G1 X70.073 Y79.341 E.46394
G1 X69.69 Y79.341 E.01923
G1 X69.69 Y70.096 E.46394
G1 X69.307 Y70.096 E.01923
G1 X69.307 Y79.341 E.46394
G1 X68.923 Y79.341 E.01923
G1 X68.923 Y70.096 E.46394
G1 X68.54 Y70.096 E.01923
G1 X68.54 Y79.341 E.46394
G1 X68.157 Y79.341 E.01923
G1 X68.157 Y70.096 E.46394
G1 X67.774 Y70.096 E.01923
G1 X67.774 Y79.341 E.46394
G1 X67.391 Y79.341 E.01923
G1 X67.391 Y70.096 E.46394
G1 X67.007 Y70.096 E.01923
G1 X67.007 Y79.341 E.46394
G1 X66.624 Y79.341 E.01923
G1 X66.624 Y70.096 E.46394
G1 X66.241 Y70.096 E.01923
G1 X66.241 Y79.341 E.46394
G1 X65.858 Y79.341 E.01923
G1 X65.858 Y70.096 E.46394
G1 X65.475 Y70.096 E.01923
G1 X65.475 Y79.341 E.46394
G1 X65.091 Y79.341 E.01923
G1 X65.091 Y70.096 E.46394
G1 X64.708 Y70.096 E.01923
G1 X64.708 Y79.341 E.46394
G1 X64.325 Y79.341 E.01923
G1 X64.325 Y70.096 E.46394
G1 X63.942 Y70.096 E.01923
G1 X63.942 Y79.341 E.46394
G1 X63.559 Y79.341 E.01923
G1 X63.559 Y70.096 E.46394
G1 X63.175 Y70.096 E.01923
G1 X63.175 Y79.341 E.46394
G1 X62.792 Y79.341 E.01923
G1 X62.792 Y70.096 E.46394
G1 X62.409 Y70.096 E.01923
G1 X62.409 Y79.341 E.46394
G1 X62.026 Y79.341 E.01923
G1 X62.026 Y70.096 E.46394
G1 X61.642 Y70.096 E.01923
G1 X61.642 Y79.341 E.46394
G1 X61.259 Y79.341 E.01923
G1 X61.259 Y70.096 E.46394
G1 X60.876 Y70.096 E.01923
G1 X60.876 Y79.341 E.46394
G1 X60.493 Y79.341 E.01923
G1 X60.493 Y70.096 E.46394
G1 X60.11 Y70.096 E.01923
G1 X60.11 Y79.341 E.46394
G1 X59.726 Y79.341 E.01923
G1 X59.726 Y70.096 E.46394
G1 X59.343 Y70.096 E.01923
G1 X59.343 Y79.341 E.46394
G1 X58.96 Y79.341 E.01923
G1 X58.96 Y70.096 E.46394
G1 X58.577 Y70.096 E.01923
G1 X58.577 Y79.341 E.46394
G1 X58.194 Y79.341 E.01923
G1 X58.194 Y70.096 E.46394
G1 X57.81 Y70.096 E.01923
G1 X57.81 Y79.341 E.46394
G1 X57.427 Y79.341 E.01923
G1 X57.427 Y70.096 E.46394
G1 X57.044 Y70.096 E.01923
G1 X57.044 Y79.341 E.46394
G1 X56.661 Y79.341 E.01923
G1 X56.661 Y70.096 E.46394
G1 X56.278 Y70.096 E.01923
G1 X56.278 Y79.341 E.46394
G1 X55.894 Y79.341 E.01923
G1 X55.894 Y70.096 E.46394
G1 X55.511 Y70.096 E.01923
G1 X55.511 Y79.341 E.46394
G1 X55.128 Y79.341 E.01923
G1 X55.128 Y70.096 E.46394
G1 X54.745 Y70.096 E.01923
G1 X54.745 Y79.341 E.46394
G1 X54.361 Y79.341 E.01923
G1 X54.361 Y70.096 E.46394
G1 X53.978 Y70.096 E.01923
G1 X53.978 Y79.341 E.46394
G1 X53.595 Y79.341 E.01923
G1 X53.595 Y70.096 E.46394
G1 X53.212 Y70.096 E.01923
G1 X53.212 Y79.341 E.46394
G1 X52.829 Y79.341 E.01923
G1 X52.829 Y70.096 E.46394
G1 X52.445 Y70.096 E.01923
G1 X52.445 Y79.341 E.46394
G1 X52.062 Y79.341 E.01923
G1 X52.062 Y70.096 E.46394
G1 X51.679 Y70.096 E.01923
G1 X51.679 Y79.341 E.46394
G1 X51.296 Y79.341 E.01923
G1 X51.296 Y70.096 E.46394
G1 X50.913 Y70.096 E.01923
G1 X50.913 Y79.341 E.46394
G1 X50.529 Y79.341 E.01923
G1 X50.529 Y70.096 E.46394
G1 X50.146 Y70.096 E.01923
G1 X50.146 Y79.341 E.46394
G1 X49.763 Y79.341 E.01923
G1 X49.763 Y70.096 E.46394
G1 X49.38 Y70.096 E.01923
G1 X49.38 Y79.341 E.46394
G1 X48.997 Y79.341 E.01923
G1 X48.997 Y70.096 E.46394
G1 X48.613 Y70.096 E.01923
G1 X48.613 Y79.341 E.46394
G1 X48.23 Y79.341 E.01923
G1 X48.23 Y70.096 E.46394
G1 X47.847 Y70.096 E.01923
G1 X47.847 Y79.341 E.46394
