; generated by PrusaSlicer 2.5.0+win64 on 2022-12-07 at 00:14:20 UTC

; 

; external perimeters extrusion width = 1.00mm
; perimeters extrusion width = 1.00mm
; infill extrusion width = 1.00mm
; solid infill extrusion width = 1.00mm
; top infill extrusion width = 1.00mm
; support material extrusion width = 1.00mm
; first layer extrusion width = 0.42mm

M73 P0 R124
M107
;TYPE:Custom
G90 ; use absolute coordinates
M83 ; extruder relative mode
M140 S60 ; set final bed temp
M104 S150 ; set temporary nozzle temp to prevent oozing during homing and auto bed leveling
G4 S10 ; allow partial nozzle warmup
G28 ; home all axisG1 Z50 F240
G1 X7.6 Y10 F3000
M104 S210 ; set final nozzle temp
M190 S60 ; wait for bed temp to stabilize
M109 S210 ; wait for nozzle temp to stabilize
G1 Z0.28 F240
G92 E0
G1 Y140 E10 F1500 ; prime the nozzle
G1 X4 F5000
G92 E0
G1 Y10 E10 F1200 ; prime the nozzle
G92 E0
G21 ; set units to millimeters
G90 ; use absolute coordinates
M83 ; use relative distances for extrusion
; Filament gcode
M107
;LAYER_CHANGE
;Z:0.35
;HEIGHT:0.35
;BEFORE_LAYER_CHANGE
G92 E0
;0.35


G1 E-1 F3600
G1 Z.35 F7800
;AFTER_LAYER_CHANGE
;0.35
G1 X131.51 Y69.228
G1 E1 F2400
;TYPE:Support material interface
;WIDTH:1
M73 P0 R123
G1 F1800
G1 X131.51 Y73.022 E.51067
G1 X132.403 Y73.022 E.12014
G1 X132.403 Y69.629 E.45661
G1 X133.296 Y69.629 E.12014
G1 X133.296 Y73.022 E.45661
G1 X134.105 Y73.022 E.10891
G1 X134.105 Y76.415 E.4566
G1 X134.189 Y76.415 E.01124
G1 X134.189 Y69.629 E.91321
G1 X135.081 Y69.629 E.12014
G1 X135.081 Y76.415 E.91321
G1 X135.974 Y76.415 E.12014
G1 X135.974 Y69.629 E.91321
G1 X136.867 Y69.629 E.12014
G1 X136.867 Y76.415 E.91321
G1 X137.759 Y76.415 E.12014
G1 X137.759 Y69.629 E.91321
G1 X138.652 Y69.629 E.12014
G1 X138.652 Y76.415 E.91321
G1 X139.545 Y76.415 E.12014
G1 X139.545 Y69.629 E.91321
G1 X140.437 Y69.629 E.12014
G1 X140.437 Y76.415 E.91321
G1 X141.33 Y76.415 E.12014
G1 X141.33 Y69.629 E.91321
G1 X142.223 Y69.629 E.12014
G1 X142.223 Y76.415 E.91321
G1 X143.116 Y76.415 E.12014
G1 X143.116 Y69.629 E.91321
G1 X144.008 Y69.629 E.12014
G1 X144.008 Y76.415 E.91321
G1 X144.901 Y76.415 E.12014
G1 X144.901 Y69.629 E.91321
G1 X145.794 Y69.629 E.12014
G1 X145.794 Y76.415 E.91321
G1 X146.686 Y76.415 E.12014
G1 X146.686 Y69.629 E.91321
G1 X147.579 Y69.629 E.12014
G1 X147.579 Y76.415 E.91321
G1 X148.472 Y76.415 E.12014
G1 X148.472 Y69.629 E.91321
G1 X149.364 Y69.629 E.12014
G1 X149.364 Y76.415 E.91321
G1 X150.257 Y76.415 E.12014
G1 X150.257 Y69.629 E.91321
G1 X151.15 Y69.629 E.12014
G1 X151.15 Y76.817 E.96727
G1 E-.7 F3600
;WIPE_START
G1 F6240
G1 X151.15 Y76.297 E-.285
;WIPE_END
G1 E-.015 F3600
G1 X153.828 Y76.817 F7800
G1 E1 F2400
G1 F1800
G1 X153.828 Y73.822 E.40307
G1 X152.935 Y73.788 E.12023
G1 X152.935 Y76.415 E.35358
G1 X152.043 Y76.415 E.12014
G1 X152.043 Y69.629 E.91321
G1 X152.935 Y69.629 E.12014
G1 X152.935 Y71.914 E.30753
G1 X153.828 Y71.914 E.12014
G1 X153.828 Y69.228 E.3616
G1 E-.7 F3600
;WIPE_START
G1 F6240
G1 X153.828 Y69.748 E-.285
;WIPE_END
G1 E-.015 F3600
G1 X133.056 Y68.973 F7800
G1 E1 F2400
;TYPE:Support material
;WIDTH:0.42
G1 F1800
G1 X130.056 Y68.973 E.15056
G1 X130.056 Y73.679 E.23616
G1 X133.449 Y73.679 E.17027
G1 X133.449 Y77.071 E.17027
G1 X136.449 Y77.071 E.15056
G1 X136.449 Y79.651 E.12947
G1 X18.597 Y79.651 E5.9145
G1 X18.597 Y86.436 E.34053
G1 X8.732 Y86.436 E.49509
G1 X8.732 Y66.393 E1.00589
G1 X133.056 Y66.393 E6.23933
G1 X133.056 Y68.921 E.12687
G1 E-.7 F3600
;WIPE_START
G1 F6240
G1 X133.056 Y68.401 E-.285
;WIPE_END
G1 E-.015 F3600
G1 X135.985 Y79.496 F7800
G1 E1 F2400
G1 F1800
G1 X135.985 Y77.382 E.1061
G1 X135.602 Y77.382 E.01923
G1 X135.602 Y79.341 E.09831
G1 X135.219 Y79.341 E.01923
G1 X135.219 Y77.382 E.09831
G1 X134.836 Y77.382 E.01923
G1 X134.836 Y79.341 E.09831
G1 X134.452 Y79.341 E.01923
G1 X134.452 Y77.382 E.09831
G1 X134.069 Y77.382 E.01923
G1 X134.069 Y79.341 E.09831
G1 X133.686 Y79.341 E.01923
G1 X133.686 Y77.382 E.09831
G1 X133.303 Y77.382 E.01923
G1 X133.303 Y79.341 E.09831
G1 X132.92 Y79.341 E.01923
G1 X132.92 Y73.989 E.26858
G1 X132.536 Y73.989 E.01923
G1 X132.536 Y79.341 E.26858
G1 X132.153 Y79.341 E.01923
G1 X132.153 Y73.989 E.26858
G1 X131.77 Y73.989 E.01923
G1 X131.77 Y79.341 E.26858
G1 X131.387 Y79.341 E.01923
G1 X131.387 Y73.989 E.26858
G1 X131.003 Y73.989 E.01923
G1 X131.003 Y79.341 E.26858
G1 X130.62 Y79.341 E.01923
G1 X130.62 Y73.989 E.26858
G1 X130.237 Y73.989 E.01923
G1 X130.237 Y79.341 E.26858
G1 X129.854 Y79.341 E.01923
G1 X129.854 Y66.704 E.6342
G1 X130.237 Y66.704 E.01923
G1 X130.237 Y68.663 E.09831
G1 X130.62 Y68.663 E.01923
G1 X130.62 Y66.704 E.09831
G1 X131.003 Y66.704 E.01923
G1 X131.003 Y68.663 E.09831
G1 X131.387 Y68.663 E.01923
G1 X131.387 Y66.704 E.09831
G1 X131.77 Y66.704 E.01923
G1 X131.77 Y68.663 E.09831
G1 X132.153 Y68.663 E.01923
G1 X132.153 Y66.704 E.09831
G1 X132.536 Y66.704 E.01923
G1 X132.536 Y68.818 E.1061
G1 E-.7 F3600
;WIPE_START
G1 F6240
G1 X132.536 Y68.298 E-.285
;WIPE_END
G1 E-.015 F3600
G1 X129.471 Y79.496 F7800
G1 E1 F2400
G1 F1800
G1 X129.471 Y66.704 E.64199
G1 X129.087 Y66.704 E.01923
G1 X129.087 Y79.341 E.6342
G1 X128.704 Y79.341 E.01923
G1 X128.704 Y66.704 E.6342
G1 X128.321 Y66.704 E.01923
G1 X128.321 Y79.341 E.6342
G1 X127.938 Y79.341 E.01923
G1 X127.938 Y66.704 E.6342
G1 X127.555 Y66.704 E.01923
G1 X127.555 Y79.341 E.6342
G1 X127.171 Y79.341 E.01923
G1 X127.171 Y66.704 E.6342
G1 X126.788 Y66.704 E.01923
G1 X126.788 Y79.341 E.6342
G1 X126.405 Y79.341 E.01923
G1 X126.405 Y66.704 E.6342
G1 X126.022 Y66.704 E.01923
G1 X126.022 Y79.341 E.6342
G1 X125.639 Y79.341 E.01923
G1 X125.639 Y66.704 E.6342
G1 X125.255 Y66.704 E.01923
G1 X125.255 Y79.341 E.6342
G1 X124.872 Y79.341 E.01923
G1 X124.872 Y66.704 E.6342
G1 X124.489 Y66.704 E.01923
G1 X124.489 Y79.341 E.6342
G1 X124.106 Y79.341 E.01923
G1 X124.106 Y66.704 E.6342
G1 X123.722 Y66.704 E.01923
G1 X123.722 Y79.341 E.6342
G1 X123.339 Y79.341 E.01923
G1 X123.339 Y66.704 E.6342
G1 X122.956 Y66.704 E.01923
G1 X122.956 Y79.341 E.6342
G1 X122.573 Y79.341 E.01923
G1 X122.573 Y66.704 E.6342
G1 X122.19 Y66.704 E.01923
G1 X122.19 Y79.341 E.6342
G1 X121.806 Y79.341 E.01923
G1 X121.806 Y66.704 E.6342
G1 X121.423 Y66.704 E.01923
G1 X121.423 Y79.341 E.6342
G1 X121.04 Y79.341 E.01923
G1 X121.04 Y66.704 E.6342
G1 X120.657 Y66.704 E.01923
G1 X120.657 Y79.341 E.6342
G1 X120.274 Y79.341 E.01923
G1 X120.274 Y66.704 E.6342
G1 X119.89 Y66.704 E.01923
G1 X119.89 Y79.341 E.6342
G1 X119.507 Y79.341 E.01923
G1 X119.507 Y66.704 E.6342
G1 X119.124 Y66.704 E.01923
G1 X119.124 Y79.341 E.6342
G1 X118.741 Y79.341 E.01923
G1 X118.741 Y66.704 E.6342
G1 X118.358 Y66.704 E.01923
G1 X118.358 Y79.341 E.6342
G1 X117.974 Y79.341 E.01923
G1 X117.974 Y66.704 E.6342
G1 X117.591 Y66.704 E.01923
G1 X117.591 Y79.341 E.6342
G1 X117.208 Y79.341 E.01923
G1 X117.208 Y66.704 E.6342
G1 X116.825 Y66.704 E.01923
G1 X116.825 Y79.341 E.6342
G1 X116.441 Y79.341 E.01923
G1 X116.441 Y66.704 E.6342
G1 X116.058 Y66.704 E.01923
G1 X116.058 Y79.341 E.6342
G1 X115.675 Y79.341 E.01923
G1 X115.675 Y66.704 E.6342
G1 X115.292 Y66.704 E.01923
G1 X115.292 Y79.341 E.6342
G1 X114.909 Y79.341 E.01923
G1 X114.909 Y66.704 E.6342
G1 X114.525 Y66.704 E.01923
G1 X114.525 Y79.341 E.6342
G1 X114.142 Y79.341 E.01923
G1 X114.142 Y66.704 E.6342
G1 X113.759 Y66.704 E.01923
G1 X113.759 Y79.341 E.6342
G1 X113.376 Y79.341 E.01923
G1 X113.376 Y66.704 E.6342
G1 X112.993 Y66.704 E.01923
G1 X112.993 Y79.341 E.6342
G1 X112.609 Y79.341 E.01923
G1 X112.609 Y66.704 E.6342
G1 X112.226 Y66.704 E.01923
G1 X112.226 Y79.341 E.6342
G1 X111.843 Y79.341 E.01923
G1 X111.843 Y66.704 E.6342
G1 X111.46 Y66.704 E.01923
G1 X111.46 Y79.341 E.6342
G1 X111.077 Y79.341 E.01923
G1 X111.077 Y66.704 E.6342
G1 X110.693 Y66.704 E.01923
G1 X110.693 Y79.341 E.6342
G1 X110.31 Y79.341 E.01923
G1 X110.31 Y66.704 E.6342
G1 X109.927 Y66.704 E.01923
G1 X109.927 Y79.341 E.6342
G1 X109.544 Y79.341 E.01923
G1 X109.544 Y66.704 E.6342
G1 X109.16 Y66.704 E.01923
G1 X109.16 Y79.341 E.6342
G1 X108.777 Y79.341 E.01923
G1 X108.777 Y66.704 E.6342
G1 X108.394 Y66.704 E.01923
G1 X108.394 Y79.341 E.6342
G1 X108.011 Y79.341 E.01923
G1 X108.011 Y66.704 E.6342
G1 X107.628 Y66.704 E.01923
G1 X107.628 Y79.341 E.6342
G1 X107.244 Y79.341 E.01923
G1 X107.244 Y66.704 E.6342
G1 X106.861 Y66.704 E.01923
G1 X106.861 Y79.341 E.6342
G1 X106.478 Y79.341 E.01923
G1 X106.478 Y66.704 E.6342
G1 X106.095 Y66.704 E.01923
G1 X106.095 Y79.341 E.6342
G1 X105.712 Y79.341 E.01923
G1 X105.712 Y66.704 E.6342
G1 X105.328 Y66.704 E.01923
G1 X105.328 Y79.341 E.6342
G1 X104.945 Y79.341 E.01923
G1 X104.945 Y66.704 E.6342
G1 X104.562 Y66.704 E.01923
G1 X104.562 Y79.341 E.6342
G1 X104.179 Y79.341 E.01923
G1 X104.179 Y66.704 E.6342
G1 X103.796 Y66.704 E.01923
G1 X103.796 Y79.341 E.6342
G1 X103.412 Y79.341 E.01923
G1 X103.412 Y66.704 E.6342
G1 X103.029 Y66.704 E.01923
G1 X103.029 Y79.341 E.6342
G1 X102.646 Y79.341 E.01923
G1 X102.646 Y66.704 E.6342
G1 X102.263 Y66.704 E.01923
G1 X102.263 Y79.341 E.6342
G1 X101.88 Y79.341 E.01923
M73 P0 R122
G1 X101.88 Y66.704 E.6342
G1 X101.496 Y66.704 E.01923
G1 X101.496 Y79.341 E.6342
G1 X101.113 Y79.341 E.01923
G1 X101.113 Y66.704 E.6342
G1 X100.73 Y66.704 E.01923
M73 P1 R122
G1 X100.73 Y79.341 E.6342
G1 X100.347 Y79.341 E.01923
G1 X100.347 Y66.704 E.6342
G1 X99.963 Y66.704 E.01923
G1 X99.963 Y79.341 E.6342
G1 X99.58 Y79.341 E.01923
G1 X99.58 Y66.704 E.6342
G1 X99.197 Y66.704 E.01923
G1 X99.197 Y79.341 E.6342
G1 X98.814 Y79.341 E.01923
G1 X98.814 Y66.704 E.6342
G1 X98.431 Y66.704 E.01923
G1 X98.431 Y79.341 E.6342
G1 X98.047 Y79.341 E.01923
G1 X98.047 Y66.704 E.6342
G1 X97.664 Y66.704 E.01923
G1 X97.664 Y79.341 E.6342
G1 X97.281 Y79.341 E.01923
G1 X97.281 Y66.704 E.6342
G1 X96.898 Y66.704 E.01923
G1 X96.898 Y79.341 E.6342
G1 X96.515 Y79.341 E.01923
G1 X96.515 Y66.704 E.6342
G1 X96.131 Y66.704 E.01923
G1 X96.131 Y79.341 E.6342
G1 X95.748 Y79.341 E.01923
G1 X95.748 Y66.704 E.6342
G1 X95.365 Y66.704 E.01923
G1 X95.365 Y79.341 E.6342
G1 X94.982 Y79.341 E.01923
G1 X94.982 Y66.704 E.6342
G1 X94.599 Y66.704 E.01923
G1 X94.599 Y79.341 E.6342
G1 X94.215 Y79.341 E.01923
G1 X94.215 Y66.704 E.6342
G1 X93.832 Y66.704 E.01923
G1 X93.832 Y79.341 E.6342
G1 X93.449 Y79.341 E.01923
G1 X93.449 Y66.704 E.6342
G1 X93.066 Y66.704 E.01923
G1 X93.066 Y79.341 E.6342
G1 X92.682 Y79.341 E.01923
G1 X92.682 Y66.704 E.6342
G1 X92.299 Y66.704 E.01923
G1 X92.299 Y79.341 E.6342
G1 X91.916 Y79.341 E.01923
G1 X91.916 Y66.704 E.6342
G1 X91.533 Y66.704 E.01923
G1 X91.533 Y79.341 E.6342
G1 X91.15 Y79.341 E.01923
G1 X91.15 Y66.704 E.6342
G1 X90.766 Y66.704 E.01923
G1 X90.766 Y79.341 E.6342
G1 X90.383 Y79.341 E.01923
G1 X90.383 Y66.704 E.6342
G1 X90 Y66.704 E.01923
G1 X90 Y79.341 E.6342
G1 X89.617 Y79.341 E.01923
G1 X89.617 Y66.704 E.6342
G1 X89.234 Y66.704 E.01923
G1 X89.234 Y79.341 E.6342
G1 X88.85 Y79.341 E.01923
G1 X88.85 Y66.704 E.6342
G1 X88.467 Y66.704 E.01923
G1 X88.467 Y79.341 E.6342
G1 X88.084 Y79.341 E.01923
G1 X88.084 Y66.704 E.6342
G1 X87.701 Y66.704 E.01923
G1 X87.701 Y79.341 E.6342
G1 X87.318 Y79.341 E.01923
G1 X87.318 Y66.704 E.6342
G1 X86.934 Y66.704 E.01923
G1 X86.934 Y79.341 E.6342
G1 X86.551 Y79.341 E.01923
G1 X86.551 Y66.704 E.6342
G1 X86.168 Y66.704 E.01923
G1 X86.168 Y79.341 E.6342
G1 X85.785 Y79.341 E.01923
G1 X85.785 Y66.704 E.6342
G1 X85.401 Y66.704 E.01923
G1 X85.401 Y79.341 E.6342
G1 X85.018 Y79.341 E.01923
G1 X85.018 Y66.704 E.6342
G1 X84.635 Y66.704 E.01923
G1 X84.635 Y79.341 E.6342
G1 X84.252 Y79.341 E.01923
G1 X84.252 Y66.704 E.6342
G1 X83.869 Y66.704 E.01923
G1 X83.869 Y79.341 E.6342
G1 X83.485 Y79.341 E.01923
G1 X83.485 Y66.704 E.6342
G1 X83.102 Y66.704 E.01923
G1 X83.102 Y79.341 E.6342
G1 X82.719 Y79.341 E.01923
G1 X82.719 Y66.704 E.6342
G1 X82.336 Y66.704 E.01923
G1 X82.336 Y79.341 E.6342
G1 X81.953 Y79.341 E.01923
G1 X81.953 Y66.704 E.6342
G1 X81.569 Y66.704 E.01923
G1 X81.569 Y79.341 E.6342
G1 X81.186 Y79.341 E.01923
G1 X81.186 Y66.704 E.6342
G1 X80.803 Y66.704 E.01923
G1 X80.803 Y79.341 E.6342
G1 X80.42 Y79.341 E.01923
G1 X80.42 Y66.704 E.6342
G1 X80.037 Y66.704 E.01923
G1 X80.037 Y79.341 E.6342
G1 X79.653 Y79.341 E.01923
G1 X79.653 Y66.704 E.6342
G1 X79.27 Y66.704 E.01923
G1 X79.27 Y79.341 E.6342
G1 X78.887 Y79.341 E.01923
G1 X78.887 Y66.704 E.6342
G1 X78.504 Y66.704 E.01923
G1 X78.504 Y79.341 E.6342
G1 X78.12 Y79.341 E.01923
G1 X78.12 Y66.704 E.6342
G1 X77.737 Y66.704 E.01923
G1 X77.737 Y79.341 E.6342
G1 X77.354 Y79.341 E.01923
G1 X77.354 Y66.704 E.6342
G1 X76.971 Y66.704 E.01923
G1 X76.971 Y79.341 E.6342
G1 X76.588 Y79.341 E.01923
G1 X76.588 Y66.704 E.6342
G1 X76.204 Y66.704 E.01923
G1 X76.204 Y79.341 E.6342
G1 X75.821 Y79.341 E.01923
G1 X75.821 Y66.704 E.6342
G1 X75.438 Y66.704 E.01923
G1 X75.438 Y79.341 E.6342
G1 X75.055 Y79.341 E.01923
G1 X75.055 Y66.704 E.6342
G1 X74.672 Y66.704 E.01923
G1 X74.672 Y79.341 E.6342
G1 X74.288 Y79.341 E.01923
G1 X74.288 Y66.704 E.6342
G1 X73.905 Y66.704 E.01923
G1 X73.905 Y79.341 E.6342
G1 X73.522 Y79.341 E.01923
G1 X73.522 Y66.704 E.6342
G1 X73.139 Y66.704 E.01923
G1 X73.139 Y79.341 E.6342
G1 X72.756 Y79.341 E.01923
G1 X72.756 Y66.704 E.6342
G1 X72.372 Y66.704 E.01923
G1 X72.372 Y79.341 E.6342
G1 X71.989 Y79.341 E.01923
G1 X71.989 Y66.704 E.6342
G1 X71.606 Y66.704 E.01923
G1 X71.606 Y79.341 E.6342
G1 X71.223 Y79.341 E.01923
G1 X71.223 Y66.704 E.6342
G1 X70.839 Y66.704 E.01923
G1 X70.839 Y79.341 E.6342
G1 X70.456 Y79.341 E.01923
G1 X70.456 Y66.704 E.6342
G1 X70.073 Y66.704 E.01923
G1 X70.073 Y79.341 E.6342
G1 X69.69 Y79.341 E.01923
G1 X69.69 Y66.704 E.6342
G1 X69.307 Y66.704 E.01923
G1 X69.307 Y79.341 E.6342
G1 X68.923 Y79.341 E.01923
G1 X68.923 Y66.704 E.6342
G1 X68.54 Y66.704 E.01923
G1 X68.54 Y79.341 E.6342
G1 X68.157 Y79.341 E.01923
G1 X68.157 Y66.704 E.6342
G1 X67.774 Y66.704 E.01923
G1 X67.774 Y79.341 E.6342
G1 X67.391 Y79.341 E.01923
G1 X67.391 Y66.704 E.6342
G1 X67.007 Y66.704 E.01923
G1 X67.007 Y79.341 E.6342
G1 X66.624 Y79.341 E.01923
G1 X66.624 Y66.704 E.6342
G1 X66.241 Y66.704 E.01923
G1 X66.241 Y79.341 E.6342
G1 X65.858 Y79.341 E.01923
G1 X65.858 Y66.704 E.6342
G1 X65.475 Y66.704 E.01923
G1 X65.475 Y79.341 E.6342
G1 X65.091 Y79.341 E.01923
G1 X65.091 Y66.704 E.6342
G1 X64.708 Y66.704 E.01923
G1 X64.708 Y79.341 E.6342
G1 X64.325 Y79.341 E.01923
G1 X64.325 Y66.704 E.6342
G1 X63.942 Y66.704 E.01923
G1 X63.942 Y79.341 E.6342
G1 X63.559 Y79.341 E.01923
G1 X63.559 Y66.704 E.6342
G1 X63.175 Y66.704 E.01923
G1 X63.175 Y79.341 E.6342
G1 X62.792 Y79.341 E.01923
G1 X62.792 Y66.704 E.6342
G1 X62.409 Y66.704 E.01923
G1 X62.409 Y79.341 E.6342
G1 X62.026 Y79.341 E.01923
G1 X62.026 Y66.704 E.6342
G1 X61.642 Y66.704 E.01923
G1 X61.642 Y79.341 E.6342
G1 X61.259 Y79.341 E.01923
G1 X61.259 Y66.704 E.6342
G1 X60.876 Y66.704 E.01923
G1 X60.876 Y79.341 E.6342
G1 X60.493 Y79.341 E.01923
G1 X60.493 Y66.704 E.6342
G1 X60.11 Y66.704 E.01923
G1 X60.11 Y79.341 E.6342
G1 X59.726 Y79.341 E.01923
G1 X59.726 Y66.704 E.6342
G1 X59.343 Y66.704 E.01923
G1 X59.343 Y79.341 E.6342
G1 X58.96 Y79.341 E.01923
G1 X58.96 Y66.704 E.6342
G1 X58.577 Y66.704 E.01923
G1 X58.577 Y79.341 E.6342
G1 X58.194 Y79.341 E.01923
G1 X58.194 Y66.704 E.6342
G1 X57.81 Y66.704 E.01923
G1 X57.81 Y79.341 E.6342
G1 X57.427 Y79.341 E.01923
G1 X57.427 Y66.704 E.6342
G1 X57.044 Y66.704 E.01923
G1 X57.044 Y79.341 E.6342
G1 X56.661 Y79.341 E.01923
G1 X56.661 Y66.704 E.6342
G1 X56.278 Y66.704 E.01923
G1 X56.278 Y79.341 E.6342
G1 X55.894 Y79.341 E.01923
G1 X55.894 Y66.704 E.6342
G1 X55.511 Y66.704 E.01923
G1 X55.511 Y79.341 E.6342
G1 X55.128 Y79.341 E.01923
G1 X55.128 Y66.704 E.6342
G1 X54.745 Y66.704 E.01923
G1 X54.745 Y79.341 E.6342
G1 X54.361 Y79.341 E.01923
M73 P1 R121
G1 X54.361 Y66.704 E.6342
G1 X53.978 Y66.704 E.01923
G1 X53.978 Y79.341 E.6342
G1 X53.595 Y79.341 E.01923
G1 X53.595 Y66.704 E.6342
G1 X53.212 Y66.704 E.01923
G1 X53.212 Y79.341 E.6342
G1 X52.829 Y79.341 E.01923
G1 X52.829 Y66.704 E.6342
G1 X52.445 Y66.704 E.01923
G1 X52.445 Y79.341 E.6342
G1 X52.062 Y79.341 E.01923
G1 X52.062 Y66.704 E.6342
G1 X51.679 Y66.704 E.01923
G1 X51.679 Y79.341 E.6342
G1 X51.296 Y79.341 E.01923
G1 X51.296 Y66.704 E.6342
