; generated by PrusaSlicer 2.5.0+win64 on 2022-12-07 at 00:03:18 UTC

; 

; external perimeters extrusion width = 1.00mm
; perimeters extrusion width = 1.00mm
; infill extrusion width = 1.00mm
; solid infill extrusion width = 1.00mm
; top infill extrusion width = 1.00mm
; support material extrusion width = 1.00mm
; first layer extrusion width = 0.42mm

M73 P0 R278
M107
;TYPE:Custom
G90 ; use absolute coordinates
M83 ; extruder relative mode
M140 S60 ; set final bed temp
M104 S150 ; set temporary nozzle temp to prevent oozing during homing and auto bed leveling
G4 S10 ; allow partial nozzle warmup
G28 ; home all axisG1 Z50 F240
G1 X7.6 Y10 F3000
M104 S210 ; set final nozzle temp
M190 S60 ; wait for bed temp to stabilize
M109 S210 ; wait for nozzle temp to stabilize
G1 Z0.28 F240
G92 E0
G1 Y140 E10 F1500 ; prime the nozzle
G1 X4 F5000
G92 E0
G1 Y10 E10 F1200 ; prime the nozzle
G92 E0
G21 ; set units to millimeters
G90 ; use absolute coordinates
M83 ; use relative distances for extrusion
; Filament gcode
M107
;LAYER_CHANGE
;Z:0.35
;HEIGHT:0.35
;BEFORE_LAYER_CHANGE
G92 E0
;0.35


G1 E-1 F3600
G1 Z.35 F7800
;AFTER_LAYER_CHANGE
;0.35
G1 X34.668 Y48.643
G1 E1 F2400
;TYPE:Support material
;WIDTH:0.42
G1 F1800
G1 X31.668 Y48.643 E.15056
G1 X31.668 Y55.429 E.34053
G1 X28.275 Y55.429 E.17027
G1 X28.275 Y62.714 E.36563
G1 X21.99 Y62.714 E.31544
G1 X21.99 Y113.105 E2.52889
G1 X21.49 Y113.105 E.02509
G1 X21.49 Y138.166 E1.25775
G1 X24.49 Y138.166 E.15056
G1 X24.49 Y140.746 E.12947
G1 X8.732 Y140.746 E.79082
G1 X8.732 Y52.849 E4.41121
G1 X12.124 Y52.849 E.17027
G1 X12.124 Y49.456 E.17027
G1 X22.302 Y49.456 E.5108
G1 X22.302 Y46.063 E.17027
G1 X34.668 Y46.063 E.62056
G1 X34.668 Y48.592 E.12687
G1 X34.051 Y48.488 F7800
G1 F1800
G1 X34.051 Y46.374 E.1061
G1 X33.668 Y46.374 E.01923
G1 X33.668 Y48.333 E.09831
G1 X33.285 Y48.333 E.01923
G1 X33.285 Y46.374 E.09831
G1 X32.902 Y46.374 E.01923
G1 X32.902 Y48.333 E.09831
G1 X32.518 Y48.333 E.01923
G1 X32.518 Y46.374 E.09831
G1 X32.135 Y46.374 E.01923
G1 X32.135 Y48.333 E.09831
G1 X31.752 Y48.333 E.01923
G1 X31.752 Y46.374 E.09831
G1 X31.369 Y46.374 E.01923
G1 X31.357 Y55.118 E.43885
G1 X30.986 Y55.118 E.01865
G1 X30.986 Y46.374 E.43885
G1 X30.602 Y46.374 E.01923
G1 X30.602 Y55.118 E.43885
G1 X30.219 Y55.118 E.01923
G1 X30.219 Y46.374 E.43885
G1 X29.836 Y46.374 E.01923
G1 X29.836 Y55.118 E.43885
G1 X29.453 Y55.118 E.01923
G1 X29.453 Y46.374 E.43885
G1 X29.07 Y46.374 E.01923
G1 X29.07 Y55.118 E.43885
G1 X28.686 Y55.118 E.01923
G1 X28.686 Y46.374 E.43885
G1 X28.303 Y46.374 E.01923
G1 X28.303 Y55.118 E.43885
G1 X27.965 Y55.118 E.01699
G1 X27.965 Y62.404 E.36563
G1 X27.92 Y62.404 E.00224
G1 X27.92 Y46.374 E.80447
G1 X27.537 Y46.374 E.01923
G1 X27.537 Y62.404 E.80447
G1 X27.154 Y62.404 E.01923
G1 X27.154 Y46.374 E.80447
G1 X26.77 Y46.374 E.01923
G1 X26.77 Y62.404 E.80447
G1 X26.387 Y62.404 E.01923
G1 X26.387 Y46.374 E.80447
G1 X26.004 Y46.374 E.01923
G1 X26.004 Y62.404 E.80447
G1 X25.621 Y62.404 E.01923
G1 X25.621 Y46.374 E.80447
G1 X25.238 Y46.374 E.01923
G1 X25.238 Y62.404 E.80447
G1 X24.854 Y62.404 E.01923
G1 X24.854 Y46.374 E.80447
G1 X24.471 Y46.374 E.01923
G1 X24.471 Y62.404 E.80447
G1 X24.088 Y62.404 E.01923
G1 X24.088 Y46.374 E.80447
G1 X23.705 Y46.374 E.01923
G1 X23.705 Y62.404 E.80447
G1 X23.321 Y62.404 E.01923
G1 X23.321 Y46.374 E.80447
G1 X22.938 Y46.374 E.01923
G1 X22.938 Y62.404 E.80447
G1 X22.555 Y62.404 E.01923
G1 X22.555 Y49.767 E.6342
G1 X22.172 Y49.767 E.01923
G1 X22.172 Y62.404 E.6342
G1 X21.789 Y62.404 E.01923
G1 X21.789 Y49.767 E.6342
G1 X21.405 Y49.767 E.01923
G1 X21.405 Y112.794 E3.1631
G1 X21.179 Y112.794 E.01135
G1 X21.179 Y138.477 E1.2889
G1 X21.405 Y138.477 E.01135
G1 X21.405 Y140.436 E.09831
G1 X21.789 Y140.436 E.01923
G1 X21.789 Y138.477 E.09831
G1 X22.172 Y138.477 E.01923
G1 X22.172 Y140.436 E.09831
G1 X22.555 Y140.436 E.01923
G1 X22.555 Y138.477 E.09831
G1 X22.938 Y138.477 E.01923
G1 X22.938 Y140.436 E.09831
G1 X23.321 Y140.436 E.01923
G1 X23.321 Y138.477 E.09831
G1 X23.705 Y138.477 E.01923
G1 X23.705 Y140.436 E.09831
G1 X24.088 Y140.436 E.01923
G1 X24.088 Y138.322 E.1061
G1 X21.022 Y140.591 F7800
G1 F1800
G1 X21.022 Y49.767 E4.55811
G1 X20.639 Y49.767 E.01923
G1 X20.639 Y140.436 E4.55032
G1 X20.256 Y140.436 E.01923
G1 X20.256 Y49.767 E4.55032
G1 X19.873 Y49.767 E.01923
M73 P0 R277
G1 X19.873 Y140.436 E4.55032
G1 X19.489 Y140.436 E.01923
G1 X19.489 Y49.767 E4.55032
G1 X19.106 Y49.767 E.01923
G1 X19.106 Y140.436 E4.55032
G1 X18.723 Y140.436 E.01923
G1 X18.723 Y49.767 E4.55032
G1 X18.34 Y49.767 E.01923
G1 X18.34 Y140.436 E4.55032
G1 X17.957 Y140.436 E.01923
G1 X17.957 Y49.767 E4.55032
G1 X17.573 Y49.767 E.01923
G1 X17.573 Y140.436 E4.55032
G1 X17.19 Y140.436 E.01923
G1 X17.19 Y49.767 E4.55032
G1 X16.807 Y49.767 E.01923
G1 X16.807 Y140.436 E4.55032
G1 X16.424 Y140.436 E.01923
G1 X16.424 Y49.767 E4.55032
G1 X16.04 Y49.767 E.01923
G1 X16.04 Y140.436 E4.55032
G1 X15.657 Y140.436 E.01923
G1 X15.657 Y49.767 E4.55032
G1 X15.274 Y49.767 E.01923
G1 X15.274 Y140.436 E4.55032
G1 X14.891 Y140.436 E.01923
G1 X14.891 Y49.767 E4.55032
G1 X14.508 Y49.767 E.01923
G1 X14.508 Y140.436 E4.55032
G1 X14.124 Y140.436 E.01923
G1 X14.124 Y49.767 E4.55032
G1 X13.741 Y49.767 E.01923
G1 X13.741 Y140.436 E4.55032
G1 X13.358 Y140.436 E.01923
G1 X13.358 Y49.767 E4.55032
G1 X12.975 Y49.767 E.01923
G1 X12.975 Y140.436 E4.55032
G1 X12.592 Y140.436 E.01923
G1 X12.592 Y49.767 E4.55032
G1 X12.435 Y49.767 E.00787
M73 P0 R276
G1 X12.435 Y53.159 E.17027
G1 X12.208 Y53.159 E.01136
G1 X12.208 Y140.436 E4.38005
G1 X11.825 Y140.436 E.01923
G1 X11.825 Y53.159 E4.38005
G1 X11.442 Y53.159 E.01923
G1 X11.442 Y140.436 E4.38005
G1 X11.059 Y140.436 E.01923
G1 X11.059 Y53.159 E4.38005
G1 X10.676 Y53.159 E.01923
G1 X10.676 Y140.436 E4.38005
G1 X10.292 Y140.436 E.01923
G1 X10.292 Y53.159 E4.38005
G1 X9.909 Y53.159 E.01923
G1 X9.909 Y140.436 E4.38005
G1 X9.526 Y140.436 E.01923
G1 X9.526 Y53.159 E4.38005
G1 X9.143 Y53.159 E.01923
G1 X9.143 Y140.591 E4.38784
G1 E-.7 F3600
;WIPE_START
G1 F6240
G1 X9.143 Y140.071 E-.285
;WIPE_END
G1 E-.015 F3600
G1 X22.601 Y137.912 F7800
G1 E1 F2400
;TYPE:Support material interface
;WIDTH:1
G1 F1800
G1 X22.601 Y113.761 E3.25028
G1 X23.494 Y113.761 E.12014
G1 X23.494 Y137.51 E3.19621
G1 X24.387 Y137.51 E.12014
G1 X24.387 Y113.761 E3.19621
G1 X25.279 Y113.761 E.12014
G1 X25.279 Y137.51 E3.19621
G1 X26.172 Y137.51 E.12014
G1 X26.172 Y83.227 E7.30563
G1 X27.065 Y83.227 E.12014
G1 X27.065 Y137.51 E7.30563
G1 X27.957 Y137.51 E.12014
G1 X27.957 Y83.227 E7.30563
G1 X28.85 Y83.227 E.12014
G1 X28.85 Y137.912 E7.35969
G1 E-.7 F3600
;WIPE_START
G1 F6240
G1 X28.85 Y137.392 E-.285
;WIPE_END
G1 E-.015 F3600
G1 X63.665 Y130.323 F7800
G1 E1 F2400
G1 F1800
G1 X63.665 Y137.51 E.96727
G1 X64.558 Y137.51 E.12014
G1 X64.558 Y130.724 E.91321
G1 X65.451 Y130.724 E.12014
G1 X65.451 Y137.51 E.91321
G1 X66.343 Y137.51 E.12014
G1 X66.343 Y130.724 E.91321
G1 X67.236 Y130.724 E.12014
G1 X67.236 Y137.51 E.91321
G1 X68.129 Y137.51 E.12014
G1 X68.129 Y130.724 E.91321
G1 X69.022 Y130.724 E.12014
G1 X69.022 Y137.51 E.91321
G1 X69.914 Y137.51 E.12014
G1 X69.914 Y130.724 E.91321
G1 X70.807 Y130.724 E.12014
G1 X70.807 Y137.51 E.91321
G1 X71.7 Y137.51 E.12014
G1 X71.7 Y130.724 E.91321
G1 X72.592 Y130.724 E.12014
G1 X72.592 Y137.51 E.91321
G1 X73.485 Y137.51 E.12014
G1 X73.485 Y130.724 E.91321
G1 X74.378 Y130.724 E.12014
G1 X74.378 Y137.51 E.91321
G1 X75.27 Y137.51 E.12014
G1 X75.27 Y130.724 E.91321
G1 X76.163 Y130.724 E.12014
G1 X76.163 Y137.51 E.91321
G1 X77.056 Y137.51 E.12014
G1 X77.056 Y130.724 E.91321
G1 X77.949 Y130.724 E.12014
G1 X77.949 Y137.51 E.91321
G1 X78.841 Y137.51 E.12014
G1 X78.841 Y130.724 E.91321
G1 X79.734 Y130.724 E.12014
G1 X79.734 Y137.51 E.91321
G1 X80.627 Y137.51 E.12014
G1 X80.627 Y130.724 E.91321
G1 X81.519 Y130.724 E.12014
G1 X81.519 Y137.51 E.91321
G1 X82.412 Y137.51 E.12014
G1 X82.412 Y130.724 E.91321
G1 X83.305 Y130.724 E.12014
G1 X83.305 Y137.51 E.91321
G1 X84.197 Y137.51 E.12014
G1 X84.197 Y130.724 E.91321
G1 X85.09 Y130.724 E.12014
G1 X85.09 Y137.51 E.91321
G1 X85.983 Y137.51 E.12014
G1 X85.983 Y130.724 E.91321
G1 X86.875 Y130.724 E.12014
G1 X86.875 Y137.51 E.91321
G1 X87.768 Y137.51 E.12014
G1 X87.768 Y130.724 E.91321
G1 X88.661 Y130.724 E.12014
G1 X88.661 Y137.51 E.91321
G1 X89.554 Y137.51 E.12014
G1 X89.554 Y130.724 E.91321
G1 X90 Y130.724 E.06008
G1 X90 Y117.154 E1.82641
G1 X90.446 Y117.154 E.06007
G1 X90.446 Y137.912 E2.79368
G1 E-.7 F3600
;WIPE_START
G1 F6240
G1 X90.446 Y137.392 E-.285
;WIPE_END
G1 E-.015 F3600
G1 X92.232 Y125.727 F7800
G1 E1 F2400
G1 F1800
G1 X92.232 Y117.154 E1.15386
G1 X91.339 Y117.154 E.12014
G1 X91.339 Y130.073 E1.73874
G1 X90.675 Y135.983 E.80033
G1 X91.339 Y136.726 E.13413
G1 X91.339 Y137.51 E.10555
G1 X92.232 Y137.51 E.12014
G1 X92.232 Y136.947 E.0757
G1 X93.124 Y136.947 E.12014
G1 X93.124 Y137.51 E.0757
G1 X94.017 Y137.51 E.12014
G1 X94.017 Y136.947 E.0757
G1 X94.91 Y136.947 E.12014
G1 X94.91 Y137.51 E.0757
G1 X95.802 Y137.51 E.12014
G1 X95.802 Y136.947 E.0757
G1 X96.695 Y136.947 E.12014
G1 X96.695 Y137.51 E.0757
G1 X97.588 Y137.51 E.12014
G1 X97.588 Y136.947 E.0757
G1 X98.481 Y136.947 E.12014
G1 X98.481 Y137.51 E.0757
G1 X99.373 Y137.51 E.12014
G1 X99.373 Y136.947 E.0757
G1 X100.266 Y136.947 E.12014
G1 X100.266 Y137.51 E.0757
G1 X101.159 Y137.51 E.12014
G1 X101.159 Y136.947 E.0757
G1 X102.051 Y136.947 E.12014
G1 X102.051 Y137.51 E.0757
G1 X102.944 Y137.51 E.12014
G1 X102.944 Y136.947 E.0757
G1 X103.837 Y136.947 E.12014
G1 X103.837 Y137.51 E.0757
G1 X104.729 Y137.51 E.12014
G1 X104.729 Y136.947 E.0757
G1 X105.622 Y136.947 E.12014
G1 X105.622 Y137.51 E.0757
G1 X106.515 Y137.51 E.12014
G1 X106.515 Y136.947 E.0757
G1 X107.408 Y136.947 E.12014
G1 X107.408 Y137.51 E.0757
G1 X108.3 Y137.51 E.12014
G1 X108.3 Y136.947 E.0757
G1 X109.193 Y136.947 E.12014
G1 X109.193 Y137.51 E.0757
G1 X110.086 Y137.51 E.12014
G1 X110.086 Y136.947 E.0757
G1 X110.978 Y136.947 E.12014
G1 X110.978 Y137.51 E.0757
G1 X111.871 Y137.51 E.12014
G1 X111.871 Y136.947 E.0757
G1 X112.764 Y136.947 E.12014
G1 X112.764 Y137.51 E.0757
G1 X113.656 Y137.51 E.12014
G1 X113.656 Y136.947 E.0757
G1 X114.549 Y136.947 E.12014
G1 X114.549 Y137.51 E.0757
G1 X115.442 Y137.51 E.12014
G1 X115.442 Y136.947 E.0757
G1 X116.335 Y136.947 E.12014
G1 X116.335 Y137.51 E.0757
G1 X117.227 Y137.51 E.12014
G1 X117.227 Y136.947 E.0757
G1 X118.12 Y136.947 E.12014
G1 X118.12 Y137.51 E.0757
G1 X119.013 Y137.51 E.12014
G1 X119.013 Y136.947 E.0757
G1 X119.905 Y136.947 E.12014
G1 X119.905 Y137.51 E.0757
G1 X120.798 Y137.51 E.12014
G1 X120.798 Y136.947 E.0757
G1 X121.691 Y136.947 E.12014
G1 X121.691 Y137.51 E.0757
G1 X122.583 Y137.51 E.12014
G1 X122.583 Y136.947 E.0757
G1 X123.476 Y136.947 E.12014
G1 X123.476 Y137.51 E.0757
G1 X124.369 Y137.51 E.12014
G1 X124.369 Y136.947 E.0757
G1 X125.262 Y136.947 E.12014
G1 X125.262 Y137.51 E.0757
G1 X126.154 Y137.51 E.12014
G1 X126.154 Y136.947 E.0757
G1 X127.047 Y136.947 E.12014
G1 X127.047 Y137.912 E.12976
G1 E-.7 F3600
;WIPE_START
G1 F6240
G1 X127.047 Y137.392 E-.285
;WIPE_END
G1 E-.015 F3600
G1 X171.268 Y140.746 F7800
G1 E1 F2400
;TYPE:Support material
;WIDTH:0.42
M73 P1 R276
G1 F1800
G1 X124.976 Y140.746 E2.32322
G1 X124.976 Y138.166 E.12947
M73 P1 R275
G1 X127.976 Y138.166 E.15056
G1 X127.976 Y136.291 E.09411
G1 X126.126 Y136.291 E.09287
G1 X125.604 Y135.701 E.03953
G1 X125.604 Y136.291 E.0296
G1 X124.976 Y136.291 E.03149
G1 X124.976 Y133.711 E.12947
G1 X154.002 Y133.711 E1.45671
G1 X153.684 Y136.23 E.12742
G1 X154.108 Y136.711 E.03218
G1 X166.324 Y136.711 E.61305
G1 X166.74 Y136.295 E.02952
G1 X166.74 Y76.598 E2.99597
G1 X171.268 Y76.598 E.22728
G1 X171.268 Y140.694 E3.21675
G1 X170.857 Y140.591 F7800
G1 F1800
G1 X170.857 Y76.908 E3.19598
G1 X170.474 Y76.908 E.01923
G1 X170.474 Y140.436 E3.18819
G1 X170.091 Y140.436 E.01923
G1 X170.091 Y76.908 E3.18819
G1 X169.708 Y76.908 E.01923
G1 X169.708 Y140.436 E3.18819
G1 X169.324 Y140.436 E.01923
G1 X169.324 Y76.908 E3.18819
G1 X168.941 Y76.908 E.01923
G1 X168.941 Y140.436 E3.18819
G1 X168.558 Y140.436 E.01923
G1 X168.558 Y76.908 E3.18819
G1 X168.175 Y76.908 E.01923
G1 X168.175 Y140.436 E3.18819
G1 X167.792 Y140.436 E.01923
G1 X167.792 Y76.908 E3.18819
G1 X167.408 Y76.908 E.01923
G1 X167.408 Y140.436 E3.18819
G1 X167.025 Y140.436 E.01923
G1 X167.025 Y136.448 E.2001
G1 X166.642 Y136.832 E.0272
G1 X166.642 Y140.436 E.18087
G1 X166.259 Y140.436 E.01923
G1 X166.259 Y137.021 E.17135
G1 X165.876 Y137.021 E.01923
G1 X165.876 Y140.436 E.17135
G1 X165.492 Y140.436 E.01923
G1 X165.492 Y137.021 E.17135
G1 X165.109 Y137.021 E.01923
G1 X165.109 Y140.436 E.17135
G1 X164.726 Y140.436 E.01923
G1 X164.726 Y137.021 E.17135
G1 X164.343 Y137.021 E.01923
G1 X164.343 Y140.436 E.17135
G1 X163.96 Y140.436 E.01923
G1 X163.96 Y137.021 E.17135
G1 X163.576 Y137.021 E.01923
G1 X163.576 Y140.436 E.17135
G1 X163.193 Y140.436 E.01923
G1 X163.193 Y137.021 E.17135
G1 X162.81 Y137.021 E.01923
G1 X162.81 Y140.436 E.17135
G1 X162.427 Y140.436 E.01923
G1 X162.427 Y137.021 E.17135
G1 X162.043 Y137.021 E.01923
G1 X162.043 Y140.436 E.17135
G1 X161.66 Y140.436 E.01923
G1 X161.66 Y137.021 E.17135
G1 X161.277 Y137.021 E.01923
G1 X161.277 Y140.436 E.17135
G1 X160.894 Y140.436 E.01923
G1 X160.894 Y137.021 E.17135
G1 X160.511 Y137.021 E.01923
G1 X160.511 Y140.436 E.17135
G1 X160.127 Y140.436 E.01923
G1 X160.127 Y137.021 E.17135
G1 X159.744 Y137.021 E.01923
G1 X159.744 Y140.436 E.17135
G1 X159.361 Y140.436 E.01923
G1 X159.361 Y137.021 E.17135
G1 X158.978 Y137.021 E.01923
G1 X158.978 Y140.436 E.17135
G1 X158.595 Y140.436 E.01923
G1 X158.595 Y137.021 E.17135
G1 X158.211 Y137.021 E.01923
G1 X158.211 Y140.436 E.17135
G1 X157.828 Y140.436 E.01923
G1 X157.828 Y137.021 E.17135
G1 X157.445 Y137.021 E.01923
G1 X157.445 Y140.436 E.17135
G1 X157.062 Y140.436 E.01923
G1 X157.062 Y137.021 E.17135
G1 X156.679 Y137.021 E.01923
G1 X156.679 Y140.436 E.17135
G1 X156.295 Y140.436 E.01923
G1 X156.295 Y137.021 E.17135
G1 X155.912 Y137.021 E.01923
G1 X155.912 Y140.436 E.17135
G1 X155.529 Y140.436 E.01923
G1 X155.529 Y137.021 E.17135
G1 X155.146 Y137.021 E.01923
G1 X155.146 Y140.436 E.17135
G1 X154.762 Y140.436 E.01923
G1 X154.762 Y137.021 E.17135
G1 X154.379 Y137.021 E.01923
G1 X154.379 Y140.436 E.17135
G1 X153.996 Y140.436 E.01923
G1 X153.996 Y137.021 E.17135
G1 X153.968 Y137.021 E.00141
G1 X153.613 Y136.619 E.02694
G1 X153.613 Y140.436 E.19156
G1 X153.23 Y140.436 E.01923
G1 X153.23 Y134.022 E.3219
G1 X153.613 Y134.022 E.01923
G1 X153.613 Y135.555 E.07698
G1 X152.846 Y140.591 F7800
G1 F1800
G1 X152.846 Y134.022 E.32969
G1 X152.463 Y134.022 E.01923
G1 X152.463 Y140.436 E.3219
G1 X152.08 Y140.436 E.01923
G1 X152.08 Y134.022 E.3219
G1 X151.697 Y134.022 E.01923
G1 X151.697 Y140.436 E.3219
G1 X151.314 Y140.436 E.01923
G1 X151.314 Y134.022 E.3219
G1 X150.93 Y134.022 E.01923
G1 X150.93 Y140.436 E.3219
G1 X150.547 Y140.436 E.01923
G1 X150.547 Y134.022 E.3219
G1 X150.164 Y134.022 E.01923
G1 X150.164 Y140.436 E.3219
G1 X149.781 Y140.436 E.01923
G1 X149.781 Y134.022 E.3219
G1 X149.398 Y134.022 E.01923
G1 X149.398 Y140.436 E.3219
G1 X149.014 Y140.436 E.01923
G1 X149.014 Y134.022 E.3219
G1 X148.631 Y134.022 E.01923
G1 X148.631 Y140.436 E.3219
G1 X148.248 Y140.436 E.01923
G1 X148.248 Y134.022 E.3219
G1 X147.865 Y134.022 E.01923
G1 X147.865 Y140.436 E.3219
G1 X147.481 Y140.436 E.01923
G1 X147.481 Y134.022 E.3219
G1 X147.098 Y134.022 E.01923
G1 X147.098 Y140.436 E.3219
G1 X146.715 Y140.436 E.01923
G1 X146.715 Y134.022 E.3219
G1 X146.332 Y134.022 E.01923
G1 X146.332 Y140.436 E.3219
G1 X145.949 Y140.436 E.01923
G1 X145.949 Y134.022 E.3219
G1 X145.565 Y134.022 E.01923
G1 X145.565 Y140.436 E.3219
G1 X145.182 Y140.436 E.01923
G1 X145.182 Y134.022 E.3219
G1 X144.799 Y134.022 E.01923
G1 X144.799 Y140.436 E.3219
G1 X144.416 Y140.436 E.01923
G1 X144.416 Y134.022 E.3219
G1 X144.033 Y134.022 E.01923
G1 X144.033 Y140.436 E.3219
G1 X143.649 Y140.436 E.01923
G1 X143.649 Y134.022 E.3219
G1 X143.266 Y134.022 E.01923
G1 X143.266 Y140.436 E.3219
G1 X142.883 Y140.436 E.01923
G1 X142.883 Y134.022 E.3219
G1 X142.5 Y134.022 E.01923
