; generated by PrusaSlicer 2.5.0+win64 on 2022-12-07 at 00:03:39 UTC

; 

; external perimeters extrusion width = 1.00mm
; perimeters extrusion width = 1.00mm
; infill extrusion width = 1.00mm
; solid infill extrusion width = 1.00mm
; top infill extrusion width = 1.00mm
; support material extrusion width = 1.00mm
; first layer extrusion width = 0.42mm

M73 P0 R189
M107
;TYPE:Custom
G90 ; use absolute coordinates
M83 ; extruder relative mode
M140 S60 ; set final bed temp
M104 S150 ; set temporary nozzle temp to prevent oozing during homing and auto bed leveling
G4 S10 ; allow partial nozzle warmup
G28 ; home all axisG1 Z50 F240
G1 X7.6 Y10 F3000
M104 S210 ; set final nozzle temp
M190 S60 ; wait for bed temp to stabilize
M109 S210 ; wait for nozzle temp to stabilize
G1 Z0.28 F240
G92 E0
G1 Y140 E10 F1500 ; prime the nozzle
G1 X4 F5000
G92 E0
G1 Y10 E10 F1200 ; prime the nozzle
G92 E0
G21 ; set units to millimeters
G90 ; use absolute coordinates
M83 ; use relative distances for extrusion
; Filament gcode
M107
;LAYER_CHANGE
;Z:0.35
;HEIGHT:0.35
;BEFORE_LAYER_CHANGE
G92 E0
;0.35


G1 E-1 F3600
G1 Z.35 F7800
;AFTER_LAYER_CHANGE
;0.35
G1 X44.846 Y14.704
G1 E1 F2400
;TYPE:Support material
;WIDTH:0.42
G1 F1800
G1 X41.846 Y14.704 E.15056
G1 X41.846 Y24.882 E.5108
G1 X38.453 Y24.882 E.17027
G1 X38.453 Y25.382 E.02509
G1 X25.382 Y25.382 E.65597
G1 X25.382 Y130.869 E5.29394
G1 X28.775 Y130.869 E.17027
G1 X28.775 Y154.618 E1.19186
G1 X35.06 Y154.618 E.31544
G1 X35.06 Y165.296 E.53589
G1 X38.06 Y165.296 E.15056
G1 X38.06 Y167.876 E.12947
G1 X8.732 Y167.876 E1.47189
G1 X8.732 Y12.124 E7.81652
G1 X44.846 Y12.124 E1.81242
G1 X44.846 Y14.652 E.12687
G1 X44.398 Y14.549 F7800
G1 F1800
G1 X44.398 Y12.435 E.1061
G1 X44.015 Y12.435 E.01923
G1 X44.015 Y14.394 E.09831
G1 X43.632 Y14.394 E.01923
G1 X43.632 Y12.435 E.09831
G1 X43.248 Y12.435 E.01923
G1 X43.248 Y14.394 E.09831
G1 X42.865 Y14.394 E.01923
G1 X42.865 Y12.435 E.09831
G1 X42.482 Y12.435 E.01923
G1 X42.482 Y14.394 E.09831
G1 X42.099 Y14.394 E.01923
G1 X42.099 Y12.435 E.09831
G1 X41.716 Y12.435 E.01923
G1 X41.716 Y14.394 E.09831
G1 X41.535 Y14.394 E.00904
G1 X41.535 Y24.572 E.5108
G1 X41.332 Y24.572 E.01019
G1 X41.332 Y12.435 E.60911
G1 X40.949 Y12.435 E.01923
G1 X40.949 Y24.572 E.60911
G1 X40.566 Y24.572 E.01923
G1 X40.566 Y12.435 E.60911
G1 X40.183 Y12.435 E.01923
G1 X40.183 Y24.572 E.60911
G1 X39.8 Y24.572 E.01923
M73 P0 R188
G1 X39.8 Y12.435 E.60911
G1 X39.416 Y12.435 E.01923
G1 X39.416 Y24.572 E.60911
G1 X39.033 Y24.572 E.01923
G1 X39.033 Y12.435 E.60911
G1 X38.65 Y12.435 E.01923
G1 X38.65 Y24.572 E.60911
G1 X38.267 Y24.572 E.01923
G1 X38.267 Y12.435 E.60911
G1 X37.883 Y12.435 E.01923
G1 X37.883 Y25.072 E.6342
G1 X37.5 Y25.072 E.01923
G1 X37.5 Y12.435 E.6342
G1 X37.117 Y12.435 E.01923
G1 X37.117 Y25.072 E.6342
G1 X36.734 Y25.072 E.01923
G1 X36.734 Y12.435 E.6342
G1 X36.351 Y12.435 E.01923
G1 X36.351 Y25.072 E.6342
G1 X35.967 Y25.072 E.01923
G1 X35.967 Y12.435 E.6342
G1 X35.584 Y12.435 E.01923
G1 X35.584 Y25.072 E.6342
G1 X35.201 Y25.072 E.01923
G1 X35.201 Y12.435 E.6342
G1 X34.818 Y12.435 E.01923
G1 X34.818 Y25.072 E.6342
G1 X34.435 Y25.072 E.01923
G1 X34.435 Y12.435 E.6342
G1 X34.051 Y12.435 E.01923
G1 X34.051 Y25.072 E.6342
G1 X33.668 Y25.072 E.01923
G1 X33.668 Y12.435 E.6342
G1 X33.285 Y12.435 E.01923
G1 X33.285 Y25.072 E.6342
G1 X32.902 Y25.072 E.01923
G1 X32.902 Y12.435 E.6342
G1 X32.519 Y12.435 E.01923
G1 X32.519 Y25.072 E.6342
G1 X32.135 Y25.072 E.01923
G1 X32.135 Y12.435 E.6342
G1 X31.752 Y12.435 E.01923
G1 X31.752 Y25.072 E.6342
G1 X31.369 Y25.072 E.01923
G1 X31.369 Y12.435 E.6342
G1 X30.986 Y12.435 E.01923
G1 X30.986 Y25.072 E.6342
G1 X30.603 Y25.072 E.01923
G1 X30.603 Y12.435 E.6342
G1 X30.219 Y12.435 E.01923
G1 X30.219 Y25.072 E.6342
G1 X29.836 Y25.072 E.01923
G1 X29.836 Y12.435 E.6342
G1 X29.453 Y12.435 E.01923
G1 X29.453 Y25.072 E.6342
G1 X29.07 Y25.072 E.01923
G1 X29.07 Y12.435 E.6342
G1 X28.686 Y12.435 E.01923
G1 X28.686 Y25.072 E.6342
G1 X28.303 Y25.072 E.01923
G1 X28.303 Y12.435 E.6342
G1 X27.92 Y12.435 E.01923
G1 X27.92 Y25.072 E.6342
G1 X27.537 Y25.072 E.01923
G1 X27.537 Y12.435 E.6342
G1 X27.154 Y12.435 E.01923
G1 X27.154 Y25.072 E.6342
G1 X26.77 Y25.072 E.01923
G1 X26.77 Y12.435 E.6342
G1 X26.387 Y12.435 E.01923
G1 X26.387 Y25.072 E.6342
G1 X26.004 Y25.072 E.01923
G1 X26.004 Y12.435 E.6342
G1 X25.621 Y12.435 E.01923
G1 X25.621 Y25.072 E.6342
G1 X25.238 Y25.072 E.01923
G1 X25.238 Y12.435 E.6342
G1 X24.854 Y12.435 E.01923
G1 X24.854 Y167.565 E7.78536
G1 X25.238 Y167.565 E.01923
G1 X25.238 Y131.179 E1.82606
G1 X25.621 Y131.179 E.01923
G1 X25.621 Y167.565 E1.82606
G1 X26.004 Y167.565 E.01923
G1 X26.004 Y131.179 E1.82606
G1 X26.387 Y131.179 E.01923
G1 X26.387 Y167.565 E1.82606
G1 X26.77 Y167.565 E.01923
G1 X26.77 Y131.179 E1.82606
G1 X27.154 Y131.179 E.01923
G1 X27.154 Y167.565 E1.82606
G1 X27.537 Y167.565 E.01923
G1 X27.537 Y131.179 E1.82606
G1 X27.92 Y131.179 E.01923
G1 X27.92 Y167.565 E1.82606
G1 X28.303 Y167.565 E.01923
G1 X28.303 Y131.179 E1.82606
G1 X28.465 Y131.179 E.0081
G1 X28.465 Y154.928 E1.19186
G1 X28.686 Y154.928 E.01113
G1 X28.686 Y167.565 E.6342
G1 X29.07 Y167.565 E.01923
G1 X29.07 Y154.928 E.6342
G1 X29.453 Y154.928 E.01923
G1 X29.453 Y167.565 E.6342
G1 X29.836 Y167.565 E.01923
G1 X29.836 Y154.928 E.6342
G1 X30.219 Y154.928 E.01923
G1 X30.219 Y167.565 E.6342
G1 X30.602 Y167.565 E.01923
G1 X30.602 Y154.928 E.6342
G1 X30.986 Y154.928 E.01923
G1 X30.986 Y167.565 E.6342
G1 X31.369 Y167.565 E.01923
G1 X31.369 Y154.928 E.6342
G1 X31.752 Y154.928 E.01923
G1 X31.752 Y167.565 E.6342
G1 X32.135 Y167.565 E.01923
G1 X32.135 Y154.928 E.6342
G1 X32.519 Y154.928 E.01923
G1 X32.519 Y167.565 E.6342
G1 X32.902 Y167.565 E.01923
G1 X32.902 Y154.928 E.6342
G1 X33.285 Y154.928 E.01923
G1 X33.285 Y167.565 E.6342
G1 X33.668 Y167.565 E.01923
G1 X33.668 Y154.928 E.6342
G1 X34.051 Y154.928 E.01923
G1 X34.051 Y167.565 E.6342
G1 X34.435 Y167.565 E.01923
G1 X34.435 Y154.928 E.6342
G1 X34.75 Y154.928 E.01583
G1 X34.75 Y165.606 E.53589
G1 X34.818 Y165.606 E.0034
G1 X34.818 Y167.565 E.09831
G1 X35.201 Y167.565 E.01923
G1 X35.201 Y165.606 E.09831
G1 X35.584 Y165.606 E.01923
G1 X35.584 Y167.565 E.09831
G1 X35.967 Y167.565 E.01923
G1 X35.967 Y165.606 E.09831
G1 X36.351 Y165.606 E.01923
G1 X36.351 Y167.565 E.09831
G1 X36.734 Y167.565 E.01923
G1 X36.734 Y165.606 E.09831
G1 X37.117 Y165.606 E.01923
G1 X37.117 Y167.565 E.09831
G1 X37.5 Y167.565 E.01923
G1 X37.5 Y165.451 E.1061
G1 X24.471 Y167.72 F7800
G1 F1800
G1 X24.471 Y12.435 E7.79315
G1 X24.088 Y12.435 E.01923
G1 X24.088 Y167.565 E7.78536
G1 X23.705 Y167.565 E.01923
G1 X23.705 Y12.435 E7.78536
G1 X23.322 Y12.435 E.01923
M73 P0 R187
G1 X23.321 Y167.565 E7.78536
G1 X22.938 Y167.565 E.01923
G1 X22.938 Y12.435 E7.78536
G1 X22.555 Y12.435 E.01923
G1 X22.555 Y167.565 E7.78536
G1 X22.172 Y167.565 E.01923
G1 X22.172 Y12.435 E7.78536
G1 X21.789 Y12.435 E.01923
G1 X21.789 Y167.565 E7.78536
G1 X21.405 Y167.565 E.01923
M73 P1 R187
G1 X21.405 Y12.435 E7.78536
G1 X21.022 Y12.435 E.01923
G1 X21.022 Y167.565 E7.78536
G1 X20.639 Y167.565 E.01923
G1 X20.639 Y12.435 E7.78536
G1 X20.256 Y12.435 E.01923
G1 X20.256 Y167.565 E7.78536
G1 X19.873 Y167.565 E.01923
G1 X19.873 Y12.435 E7.78536
G1 X19.489 Y12.435 E.01923
G1 X19.489 Y167.565 E7.78536
G1 X19.106 Y167.565 E.01923
G1 X19.106 Y12.435 E7.78536
G1 X18.723 Y12.435 E.01923
M73 P1 R186
G1 X18.723 Y167.565 E7.78536
G1 X18.34 Y167.565 E.01923
G1 X18.34 Y12.435 E7.78536
G1 X17.957 Y12.435 E.01923
G1 X17.957 Y167.565 E7.78536
G1 X17.573 Y167.565 E.01923
G1 X17.573 Y12.435 E7.78536
G1 X17.19 Y12.435 E.01923
G1 X17.19 Y167.565 E7.78536
G1 X16.807 Y167.565 E.01923
G1 X16.807 Y12.435 E7.78536
G1 X16.424 Y12.435 E.01923
G1 X16.424 Y167.565 E7.78536
G1 X16.041 Y167.565 E.01923
G1 X16.041 Y12.435 E7.78536
G1 X15.657 Y12.435 E.01923
G1 X15.657 Y167.565 E7.78536
G1 X15.274 Y167.565 E.01923
G1 X15.274 Y12.435 E7.78536
G1 X14.891 Y12.435 E.01923
G1 X14.891 Y167.565 E7.78536
G1 X14.508 Y167.565 E.01923
M73 P1 R185
G1 X14.508 Y12.435 E7.78536
G1 X14.124 Y12.435 E.01923
G1 X14.124 Y167.565 E7.78536
G1 X13.741 Y167.565 E.01923
G1 X13.741 Y12.435 E7.78536
G1 X13.358 Y12.435 E.01923
M73 P2 R185
G1 X13.358 Y167.565 E7.78536
G1 X12.975 Y167.565 E.01923
G1 X12.975 Y12.435 E7.78536
G1 X12.592 Y12.435 E.01923
G1 X12.592 Y167.565 E7.78536
G1 X12.208 Y167.565 E.01923
G1 X12.208 Y12.435 E7.78536
G1 X11.825 Y12.435 E.01923
G1 X11.825 Y167.565 E7.78536
G1 X11.442 Y167.565 E.01923
G1 X11.442 Y12.435 E7.78536
G1 X11.059 Y12.435 E.01923
G1 X11.059 Y167.565 E7.78536
G1 X10.676 Y167.565 E.01923
G1 X10.676 Y12.435 E7.78536
G1 X10.292 Y12.435 E.01923
G1 X10.292 Y167.565 E7.78536
G1 X9.909 Y167.565 E.01923
M73 P2 R184
G1 X9.909 Y12.435 E7.78536
G1 X9.526 Y12.435 E.01923
G1 X9.526 Y167.565 E7.78536
G1 X9.143 Y167.565 E.01923
G1 X9.143 Y12.28 E7.79315
G1 E-.7 F3600
;WIPE_START
G1 F6240
G1 X9.143 Y12.8 E-.285
;WIPE_END
G1 E-.015 F3600
G1 X75.27 Y80.224 F7800
G1 E1 F2400
;TYPE:Support material interface
;WIDTH:1
G1 F1800
G1 X75.27 Y25.539 E7.35969
G1 X74.378 Y25.539 E.12014
G1 X74.378 Y79.822 E7.30563
G1 X73.485 Y79.822 E.12014
G1 X73.485 Y25.539 E7.30563
G1 X73.037 Y25.539 E.06037
G1 X73.037 Y52.68 E3.65281
G1 X72.592 Y52.68 E.05978
G1 X72.592 Y106.964 E7.30563
G1 X71.7 Y106.964 E.12014
G1 X71.7 Y52.68 E7.30563
G1 X70.807 Y52.68 E.12014
G1 X70.807 Y106.964 E7.30563
G1 X69.914 Y106.964 E.12014
G1 X69.914 Y52.68 E7.30563
G1 X69.644 Y52.68 E.0364
G1 X69.644 Y79.822 E3.65281
G1 X69.022 Y79.822 E.08375
G1 X69.022 Y130.712 E6.84902
G1 X68.129 Y130.712 E.12014
G1 X68.129 Y79.822 E6.84902
G1 X67.236 Y79.822 E.12014
G1 X67.236 Y131.114 E6.90309
G1 E-.7 F3600
;WIPE_START
G1 F6240
G1 X67.236 Y130.594 E-.285
;WIPE_END
G1 E-.015 F3600
G1 X95.803 Y137.483 F7800
G1 E1 F2400
G1 F1800
G1 X95.803 Y134.105 E.45459
G1 X94.91 Y134.105 E.12014
G1 X94.91 Y141.216 E.957
G1 X94.017 Y148.051 E.92769
G1 X94.017 Y133.703 E1.93094
G1 E-.7 F3600
;WIPE_START
G1 F6240
G1 X94.017 Y134.223 E-.285
;WIPE_END
G1 E-.015 F3600
G1 X99.373 Y110.143 F7800
G1 E1 F2400
G1 F1800
G1 X99.373 Y106.963 E.4279
G1 X98.481 Y106.963 E.12014
G1 X98.481 Y113.876 E.93031
G1 X97.588 Y120.711 E.92769
G1 X97.588 Y106.562 E1.90425
G1 E-.7 F3600
;WIPE_START
G1 F6240
G1 X97.588 Y107.082 E-.285
;WIPE_END
G1 E-.015 F3600
G1 X102.051 Y89.137 F7800
G1 E1 F2400
G1 F1800
G1 X102.051 Y79.822 E1.25366
G1 X101.159 Y79.822 E.12014
G1 X101.159 Y93.163 E1.79543
G1 X100.806 Y96.07 E.39414
G1 X100.266 Y100.206 E.5614
G1 X100.266 Y79.42 E2.79744
G1 E-.7 F3600
;WIPE_START
G1 F6240
G1 X100.266 Y79.94 E-.285
;WIPE_END
G1 E-.015 F3600
G1 X105.622 Y59.684 F7800
G1 E1 F2400
G1 F1800
G1 X105.622 Y52.68 E.94257
G1 X104.73 Y52.68 E.12014
G1 X104.73 Y63.709 E1.48434
G1 X103.837 Y71.073 E.99823
G1 X103.837 Y52.279 E2.52938
G1 E-.7 F3600
;WIPE_START
G1 F6240
G1 X103.837 Y52.799 E-.285
;WIPE_END
G1 E-.015 F3600
G1 X147.579 Y16.081 F7800
G1 E1 F2400
G1 F1800
G1 X147.579 Y15.361 E.097
G1 X146.686 Y15.361 E.12014
G1 X146.686 Y15.68 E.04294
G1 X145.794 Y15.68 E.12014
G1 X145.794 Y15.361 E.04294
G1 X144.901 Y15.361 E.12014
G1 X144.901 Y15.68 E.04294
G1 X144.008 Y15.68 E.12014
G1 X144.008 Y15.361 E.04294
G1 X143.116 Y15.361 E.12014
G1 X143.116 Y15.68 E.04294
G1 X142.223 Y15.68 E.12014
G1 X142.223 Y15.361 E.04294
G1 X141.33 Y15.361 E.12014
G1 X141.33 Y15.68 E.04294
G1 X140.437 Y15.68 E.12014
G1 X140.437 Y15.361 E.04294
G1 X139.545 Y15.361 E.12014
G1 X139.545 Y15.68 E.04294
G1 X138.652 Y15.68 E.12014
G1 X138.652 Y15.361 E.04294
G1 X137.759 Y15.361 E.12014
G1 X137.759 Y15.68 E.04294
G1 X136.867 Y15.68 E.12014
G1 X136.867 Y15.361 E.04294
G1 X135.974 Y15.361 E.12014
G1 X135.974 Y15.68 E.04294
G1 X135.081 Y15.68 E.12014
G1 X135.081 Y15.361 E.04294
G1 X134.189 Y15.361 E.12014
G1 X134.189 Y15.68 E.04294
G1 X133.296 Y15.68 E.12014
G1 X133.296 Y15.361 E.04294
G1 X132.403 Y15.361 E.12014
G1 X132.403 Y15.68 E.04294
G1 X131.511 Y15.68 E.12014
G1 X131.511 Y15.361 E.04294
G1 X130.618 Y15.361 E.12014
G1 X130.618 Y15.68 E.04294
G1 X129.725 Y15.68 E.12014
G1 X129.725 Y15.361 E.04294
G1 X128.832 Y15.361 E.12014
G1 X128.832 Y15.68 E.04294
G1 X127.94 Y15.68 E.12014
G1 X127.94 Y15.361 E.04294
G1 X127.047 Y15.361 E.12014
G1 X127.047 Y15.68 E.04294
G1 X126.154 Y15.68 E.12014
G1 X126.154 Y15.361 E.04294
G1 X125.262 Y15.361 E.12014
G1 X125.262 Y15.68 E.04294
G1 X124.369 Y15.68 E.12014
G1 X124.369 Y15.361 E.04294
G1 X123.476 Y15.361 E.12014
G1 X123.476 Y15.68 E.04294
G1 X122.584 Y15.68 E.12014
G1 X122.584 Y15.361 E.04294
G1 X121.691 Y15.361 E.12014
G1 X121.691 Y15.68 E.04294
G1 X120.798 Y15.68 E.12014
G1 X120.798 Y15.361 E.04294
G1 X119.905 Y15.361 E.12014
G1 X119.905 Y15.68 E.04294
G1 X119.013 Y15.68 E.12014
G1 X119.013 Y15.361 E.04294
G1 X118.12 Y15.361 E.12014
G1 X118.12 Y15.68 E.04294
G1 X117.227 Y15.68 E.12014
G1 X117.227 Y15.361 E.04294
G1 X116.335 Y15.361 E.12014
G1 X116.335 Y15.68 E.04294
G1 X115.442 Y15.68 E.12014
G1 X115.442 Y15.361 E.04294
G1 X114.549 Y15.361 E.12014
G1 X114.549 Y15.68 E.04294
G1 X113.657 Y15.68 E.12014
G1 X113.657 Y15.361 E.04294
G1 X112.764 Y15.361 E.12014
G1 X112.764 Y15.68 E.04294
G1 X111.871 Y15.68 E.12014
G1 X111.871 Y15.361 E.04294
G1 X110.978 Y15.361 E.12014
G1 X110.978 Y15.98 E.08338
G1 X110.497 Y16.406 E.08642
G1 X110.086 Y19.751 E.45365
G1 X110.086 Y15.361 E.59088
G1 X109.193 Y15.361 E.12014
G1 X109.193 Y27.005 E1.56719
G1 X108.3 Y34.26 E.98367
G1 X108.3 Y15.361 E2.54349
G1 X107.408 Y15.361 E.12014
G1 X107.408 Y41.514 E3.51979
G1 X106.964 Y45.123 E.48936
G1 X106.964 Y22.146 E3.09228
G1 X106.515 Y22.146 E.06037
G1 X106.515 Y15.361 E.91321
G1 X105.622 Y15.361 E.12014
G1 X105.622 Y22.146 E.91321
G1 X104.73 Y22.146 E.12014
G1 X104.73 Y15.361 E.91321
G1 X103.837 Y15.361 E.12014
G1 X103.837 Y22.146 E.91321
G1 X102.944 Y22.146 E.12014
G1 X102.944 Y15.361 E.91321
G1 X102.051 Y15.361 E.12014
M73 P2 R183
G1 X102.051 Y22.146 E.91321
G1 X101.159 Y22.146 E.12014
G1 X101.159 Y15.361 E.91321
G1 X100.266 Y15.361 E.12014
G1 X100.266 Y22.146 E.91321
G1 X99.373 Y22.146 E.12014
G1 X99.373 Y15.361 E.91321
G1 X98.481 Y15.361 E.12014
G1 X98.481 Y22.146 E.91321
G1 X97.588 Y22.146 E.12014
G1 X97.588 Y15.361 E.91321
G1 X96.695 Y15.361 E.12014
G1 X96.695 Y22.146 E.91321
G1 X95.803 Y22.146 E.12014
G1 X95.803 Y15.361 E.91321
G1 X94.91 Y15.361 E.12014
G1 X94.91 Y22.146 E.91321
G1 X94.017 Y22.146 E.12014
G1 X94.017 Y15.361 E.91321
G1 X93.124 Y15.361 E.12014
G1 X93.124 Y22.146 E.91321
G1 X92.232 Y22.146 E.12014
G1 X92.232 Y15.361 E.91321
G1 X91.339 Y15.361 E.12014
G1 X91.339 Y22.146 E.91321
G1 X90.446 Y22.146 E.12014
G1 X90.446 Y15.361 E.91321
G1 X89.554 Y15.361 E.12014
G1 X89.554 Y22.146 E.91321
G1 X88.661 Y22.146 E.12014
G1 X88.661 Y15.361 E.91321
G1 X87.768 Y15.361 E.12014
G1 X87.768 Y22.146 E.91321
G1 X86.876 Y22.146 E.12014
G1 X86.876 Y15.361 E.91321
G1 X85.983 Y15.361 E.12014
G1 X85.983 Y22.146 E.91321
G1 X85.09 Y22.146 E.12014
G1 X85.09 Y15.361 E.91321
G1 X84.197 Y15.361 E.12014
G1 X84.197 Y22.146 E.91321
G1 X83.305 Y22.146 E.12014
G1 X83.305 Y15.361 E.91321
G1 X82.412 Y15.361 E.12014
G1 X82.412 Y25.539 E1.36981
G1 X81.519 Y25.539 E.12014
G1 X81.519 Y15.361 E1.36981
G1 X80.627 Y15.361 E.12014
G1 X80.627 Y25.539 E1.36981
G1 X79.822 Y25.539 E.1083
G1 X79.822 Y52.68 E3.65281
G1 X79.734 Y52.68 E.01184
G1 X79.734 Y15.361 E5.02262
G1 X78.841 Y15.361 E.12014
G1 X78.841 Y52.68 E5.02262
G1 X77.949 Y52.68 E.12014
M73 P3 R183
G1 X77.949 Y15.361 E5.02262
G1 X77.056 Y15.361 E.12014
G1 X77.056 Y52.68 E5.02262
G1 X76.429 Y52.68 E.08433
G1 X76.429 Y79.822 E3.65281
G1 X76.163 Y79.822 E.03581
G1 X76.163 Y15.361 E8.67543
G1 X75.27 Y15.361 E.12014
G1 X75.27 Y22.146 E.91321
G1 X74.378 Y22.146 E.12014
G1 X74.378 Y15.361 E.91321
G1 X73.485 Y15.361 E.12014
G1 X73.485 Y22.146 E.91321
G1 X72.592 Y22.146 E.12014
G1 X72.592 Y15.361 E.91321
G1 X71.7 Y15.361 E.12014
G1 X71.7 Y22.146 E.91321
G1 X70.807 Y22.146 E.12014
G1 X70.807 Y15.361 E.91321
G1 X69.914 Y15.361 E.12014
G1 X69.914 Y22.146 E.91321
G1 X69.022 Y22.146 E.12014
G1 X69.022 Y15.361 E.91321
G1 X68.129 Y15.361 E.12014
G1 X68.129 Y22.146 E.91321
G1 X67.236 Y22.146 E.12014
G1 X67.236 Y15.361 E.91321
