; generated by PrusaSlicer 2.5.0+win64 on 2022-12-07 at 00:03:35 UTC

; 

; external perimeters extrusion width = 1.00mm
; perimeters extrusion width = 1.00mm
; infill extrusion width = 1.00mm
; solid infill extrusion width = 1.00mm
; top infill extrusion width = 1.00mm
; support material extrusion width = 1.00mm
; first layer extrusion width = 0.42mm

M73 P0 R186
M107
;TYPE:Custom
G90 ; use absolute coordinates
M83 ; extruder relative mode
M140 S60 ; set final bed temp
M104 S150 ; set temporary nozzle temp to prevent oozing during homing and auto bed leveling
G4 S10 ; allow partial nozzle warmup
G28 ; home all axisG1 Z50 F240
G1 X7.6 Y10 F3000
M104 S210 ; set final nozzle temp
M190 S60 ; wait for bed temp to stabilize
M109 S210 ; wait for nozzle temp to stabilize
G1 Z0.28 F240
G92 E0
G1 Y140 E10 F1500 ; prime the nozzle
G1 X4 F5000
G92 E0
G1 Y10 E10 F1200 ; prime the nozzle
G92 E0
G21 ; set units to millimeters
G90 ; use absolute coordinates
M83 ; use relative distances for extrusion
; Filament gcode
M107
;LAYER_CHANGE
;Z:0.35
;HEIGHT:0.35
;BEFORE_LAYER_CHANGE
G92 E0
;0.35


G1 E-1 F3600
G1 Z.35 F7800
;AFTER_LAYER_CHANGE
;0.35
G1 X39.562 Y14.959
G1 E1 F2400
;TYPE:Support material interface
;WIDTH:1
G1 F1800
G1 X39.562 Y18.753 E.51067
G1 X40.455 Y18.753 E.12014
G1 X40.455 Y15.361 E.45661
G1 X41.348 Y15.361 E.12014
G1 X41.348 Y18.753 E.45661
G1 X42.241 Y18.753 E.12014
G1 X42.241 Y15.361 E.45661
G1 X43.133 Y15.361 E.12014
G1 X43.133 Y73.037 E7.76223
G1 X44.026 Y73.037 E.12014
G1 X44.026 Y15.361 E7.76223
G1 X44.919 Y15.361 E.12014
G1 X44.919 Y73.037 E7.76223
G1 X45.811 Y73.037 E.12014
G1 X45.811 Y15.361 E7.76223
G1 X46.704 Y15.361 E.12014
M73 P0 R185
G1 X46.704 Y130.712 E15.52445
G1 X47.597 Y130.712 E.12014
G1 X47.597 Y15.361 E15.52445
G1 X48.489 Y15.361 E.12014
G1 X48.489 Y130.712 E15.52445
G1 X49.288 Y130.712 E.10742
G1 X49.288 Y164.639 E4.56601
G1 X49.382 Y164.639 E.01273
G1 X49.382 Y15.361 E20.09046
G1 X50.275 Y15.361 E.12014
G1 X50.275 Y22.146 E.91321
G1 X51.168 Y22.146 E.12014
G1 X51.168 Y15.361 E.91321
G1 X52.06 Y15.361 E.12014
G1 X52.06 Y22.146 E.91321
G1 X52.953 Y22.146 E.12014
G1 X52.953 Y15.361 E.91321
G1 X53.846 Y15.361 E.12014
G1 X53.846 Y22.146 E.91321
G1 X54.738 Y22.146 E.12014
G1 X54.738 Y15.361 E.91321
G1 X55.631 Y15.361 E.12014
G1 X55.631 Y22.146 E.91321
G1 X56.524 Y22.146 E.12014
G1 X56.524 Y15.361 E.91321
G1 X57.416 Y15.361 E.12014
G1 X57.416 Y22.146 E.91321
G1 X58.309 Y22.146 E.12014
G1 X58.309 Y15.361 E.91321
G1 X59.202 Y15.361 E.12014
G1 X59.202 Y22.146 E.91321
G1 X60.095 Y22.146 E.12014
G1 X60.095 Y15.361 E.91321
G1 X60.987 Y15.361 E.12014
G1 X60.987 Y22.146 E.91321
G1 X61.88 Y22.146 E.12014
G1 X61.88 Y15.361 E.91321
G1 X62.773 Y15.361 E.12014
G1 X62.773 Y22.146 E.91321
G1 X63.665 Y22.146 E.12014
G1 X63.665 Y15.361 E.91321
G1 X64.558 Y15.361 E.12014
G1 X64.558 Y22.146 E.91321
G1 X65.451 Y22.146 E.12014
G1 X65.451 Y15.361 E.91321
G1 X66.343 Y15.361 E.12014
G1 X66.343 Y22.146 E.91321
G1 X67.236 Y22.146 E.12014
G1 X67.236 Y15.361 E.91321
G1 X68.129 Y15.361 E.12014
G1 X68.129 Y22.146 E.91321
G1 X69.022 Y22.146 E.12014
G1 X69.022 Y15.361 E.91321
G1 X69.914 Y15.361 E.12014
G1 X69.914 Y22.146 E.91321
G1 X70.807 Y22.146 E.12014
G1 X70.807 Y15.361 E.91321
G1 X71.7 Y15.361 E.12014
G1 X71.7 Y22.146 E.91321
G1 X72.592 Y22.146 E.12014
G1 X72.592 Y15.361 E.91321
G1 X73.485 Y15.361 E.12014
G1 X73.485 Y22.146 E.91321
G1 X74.378 Y22.146 E.12014
G1 X74.378 Y15.361 E.91321
G1 X75.27 Y15.361 E.12014
G1 X75.27 Y22.146 E.91321
G1 X76.163 Y22.146 E.12014
G1 X76.163 Y15.361 E.91321
G1 X77.056 Y15.361 E.12014
G1 X77.056 Y45.895 E4.10942
G1 X77.949 Y45.895 E.12014
G1 X77.949 Y15.361 E4.10942
G1 X78.841 Y15.361 E.12014
G1 X78.841 Y45.895 E4.10942
G1 X79.734 Y45.895 E.12014
G1 X79.734 Y15.361 E4.10942
G1 X80.627 Y15.361 E.12014
G1 X80.627 Y103.571 E11.87164
G1 X81.519 Y103.571 E.12014
G1 X81.519 Y15.361 E11.87164
G1 X82.412 Y15.361 E.12014
G1 X82.412 Y103.973 E11.9257
G1 E-.7 F3600
;WIPE_START
G1 F6240
G1 X82.412 Y103.453 E-.285
;WIPE_END
G1 E-.015 F3600
G1 X117.227 Y82.662 F7800
G1 E1 F2400
G1 F1800
G1 X117.227 Y137.498 E7.37994
G1 X118.12 Y137.498 E.12014
G1 X118.12 Y106.807 E4.13046
G1 X119.013 Y123.451 E2.24324
G1 X119.013 Y137.9 E1.9445
G1 E-.7 F3600
;WIPE_START
G1 F6240
G1 X119.013 Y137.38 E-.285
;WIPE_END
G1 E-.015 F3600
G1 X144.008 Y165.041 F7800
G1 E1 F2400
G1 F1800
G1 X144.008 Y164.321 E.09687
G1 X143.116 Y164.321 E.12014
G1 X143.116 Y164.639 E.0428
G1 X142.223 Y164.639 E.12014
G1 X142.223 Y164.321 E.0428
G1 X141.33 Y164.321 E.12014
G1 X141.33 Y164.639 E.0428
G1 X140.437 Y164.639 E.12014
G1 X140.437 Y164.321 E.0428
G1 X139.545 Y164.321 E.12014
G1 X139.545 Y164.639 E.0428
G1 X138.652 Y164.639 E.12014
G1 X138.652 Y164.321 E.04281
G1 X137.759 Y164.321 E.12014
G1 X137.759 Y164.639 E.0428
G1 X136.867 Y164.639 E.12014
G1 X136.867 Y164.321 E.0428
G1 X135.974 Y164.321 E.12014
G1 X135.974 Y164.639 E.0428
G1 X135.081 Y164.639 E.12014
G1 X135.081 Y164.321 E.0428
G1 X134.189 Y164.321 E.12014
G1 X134.189 Y164.639 E.0428
G1 X133.296 Y164.639 E.12014
G1 X133.296 Y164.321 E.0428
G1 X132.403 Y164.321 E.12014
G1 X132.403 Y164.639 E.0428
G1 X131.51 Y164.639 E.12014
G1 X131.51 Y164.321 E.0428
G1 X130.618 Y164.321 E.12014
G1 X130.618 Y164.639 E.0428
G1 X129.725 Y164.639 E.12014
G1 X129.725 Y164.321 E.0428
G1 X128.832 Y164.321 E.12014
G1 X128.832 Y164.639 E.0428
G1 X127.94 Y164.639 E.12014
G1 X127.94 Y164.321 E.04281
G1 X127.047 Y164.321 E.12014
G1 X127.047 Y164.639 E.0428
G1 X126.154 Y164.639 E.12014
G1 X126.154 Y164.321 E.0428
G1 X125.262 Y164.321 E.12014
G1 X125.262 Y164.639 E.0428
G1 X124.369 Y164.639 E.12014
G1 X124.369 Y164.321 E.0428
G1 X123.476 Y164.321 E.12014
G1 X123.476 Y164.639 E.0428
G1 X122.583 Y164.639 E.12014
G1 X122.583 Y164.321 E.0428
G1 X121.961 Y164.321 E.08383
G1 X121.691 Y164.064 E.05015
G1 X121.691 Y164.639 E.0774
G1 X120.798 Y164.639 E.12014
G1 X120.798 Y156.812 E1.05345
G1 X120.534 Y151.821 E.6726
G1 X120.534 Y157.854 E.81191
G1 X119.905 Y157.854 E.08464
G1 X119.905 Y164.639 E.91321
G1 X119.013 Y164.639 E.12014
G1 X119.013 Y157.854 E.91321
G1 X118.12 Y157.854 E.12014
G1 X118.12 Y164.639 E.91321
G1 X117.227 Y164.639 E.12014
G1 X117.227 Y157.854 E.91321
G1 X116.335 Y157.854 E.12014
G1 X116.335 Y164.639 E.91321
G1 X115.442 Y164.639 E.12014
G1 X115.442 Y157.854 E.91321
G1 X114.549 Y157.854 E.12014
G1 X114.549 Y164.639 E.91321
G1 X113.656 Y164.639 E.12014
G1 X113.656 Y157.854 E.91321
G1 X112.764 Y157.854 E.12014
G1 X112.764 Y164.639 E.91321
G1 X111.871 Y164.639 E.12014
G1 X111.871 Y157.854 E.91321
G1 X110.978 Y157.854 E.12014
G1 X110.978 Y164.639 E.91321
G1 X110.086 Y164.639 E.12014
G1 X110.086 Y157.854 E.91321
G1 X109.193 Y157.854 E.12014
G1 X109.193 Y164.639 E.91321
G1 X108.3 Y164.639 E.12014
G1 X108.3 Y157.854 E.91321
G1 X107.408 Y157.854 E.12014
G1 X107.408 Y164.639 E.91321
G1 X106.515 Y164.639 E.12014
G1 X106.515 Y157.854 E.91321
G1 X105.622 Y157.854 E.12014
G1 X105.622 Y164.639 E.91321
G1 X104.729 Y164.639 E.12014
G1 X104.729 Y157.854 E.91321
G1 X103.837 Y157.854 E.12014
G1 X103.837 Y164.639 E.91321
G1 X102.944 Y164.639 E.12014
G1 X102.944 Y157.854 E.91321
G1 X102.051 Y157.854 E.12014
G1 X102.051 Y164.639 E.91321
G1 X101.159 Y164.639 E.12014
G1 X101.159 Y157.854 E.91321
G1 X100.266 Y157.854 E.12014
G1 X100.266 Y164.639 E.91321
G1 X99.373 Y164.639 E.12014
G1 X99.373 Y157.854 E.91321
G1 X98.481 Y157.854 E.12014
G1 X98.481 Y164.639 E.91321
G1 X97.588 Y164.639 E.12014
G1 X97.588 Y157.854 E.91321
G1 X96.695 Y157.854 E.12014
G1 X96.695 Y164.639 E.91321
G1 X95.802 Y164.639 E.12014
G1 X95.802 Y157.854 E.91321
G1 X94.91 Y157.854 E.12014
G1 X94.91 Y164.639 E.91321
G1 X94.017 Y164.639 E.12014
G1 X94.017 Y157.854 E.91321
G1 X93.124 Y157.854 E.12014
G1 X93.124 Y164.639 E.91321
G1 X92.232 Y164.639 E.12014
M73 P0 R184
G1 X92.232 Y157.854 E.91321
G1 X91.339 Y157.854 E.12014
G1 X91.339 Y164.639 E.91321
G1 X90.446 Y164.639 E.12014
G1 X90.446 Y157.854 E.91321
G1 X90 Y157.854 E.06006
G1 X90 Y103.571 E7.30562
G1 X89.554 Y103.571 E.06008
G1 X89.554 Y164.639 E8.21883
G1 X88.661 Y164.639 E.12014
G1 X88.661 Y103.571 E8.21883
G1 X87.768 Y103.571 E.12014
G1 X87.768 Y164.639 E8.21883
G1 X86.875 Y164.639 E.12014
G1 X86.876 Y103.571 E8.21883
G1 X86.607 Y103.571 E.03609
G1 X86.607 Y49.288 E7.30562
G1 X85.983 Y49.288 E.08405
G1 X85.983 Y164.639 E15.52445
G1 X85.09 Y164.639 E.12014
G1 X85.09 Y49.288 E15.52445
G1 X84.197 Y49.288 E.12014
G1 X84.197 Y164.639 E15.52445
G1 X83.305 Y164.639 E.12014
G1 X83.305 Y15.361 E20.09046
G1 X84.197 Y15.361 E.12014
G1 X84.197 Y22.146 E.91321
G1 X85.09 Y22.146 E.12014
G1 X85.09 Y15.361 E.91321
G1 X85.983 Y15.361 E.12014
G1 X85.983 Y22.146 E.91321
M73 P1 R184
G1 X86.876 Y22.146 E.12014
G1 X86.876 Y15.361 E.91321
G1 X87.768 Y15.361 E.12014
G1 X87.768 Y22.146 E.91321
G1 X88.661 Y22.146 E.12014
G1 X88.661 Y15.361 E.91321
G1 X89.554 Y15.361 E.12014
G1 X89.554 Y22.146 E.91321
G1 X90.446 Y22.146 E.12014
G1 X90.446 Y15.361 E.91321
G1 X91.339 Y15.361 E.12014
G1 X91.339 Y22.146 E.91321
G1 X92.232 Y22.146 E.12014
G1 X92.232 Y15.361 E.91321
G1 X93.124 Y15.361 E.12014
G1 X93.124 Y22.146 E.91321
G1 X94.017 Y22.146 E.12014
G1 X94.017 Y15.361 E.91321
G1 X94.91 Y15.361 E.12014
G1 X94.91 Y22.146 E.91321
G1 X95.803 Y22.146 E.12014
G1 X95.803 Y15.361 E.91321
G1 X96.695 Y15.361 E.12014
G1 X96.695 Y22.146 E.91321
G1 X97.588 Y22.146 E.12014
G1 X97.588 Y15.361 E.91321
G1 X98.481 Y15.361 E.12014
G1 X98.481 Y22.146 E.91321
G1 X99.373 Y22.146 E.12014
G1 X99.373 Y15.361 E.91321
G1 X100.266 Y15.361 E.12014
G1 X100.266 Y22.146 E.91321
G1 X101.159 Y22.146 E.12014
G1 X101.159 Y15.361 E.91321
G1 X102.051 Y15.361 E.12014
G1 X102.051 Y22.146 E.91321
G1 X102.944 Y22.146 E.12014
G1 X102.944 Y15.361 E.91321
G1 X103.837 Y15.361 E.12014
G1 X103.837 Y22.146 E.91321
G1 X104.729 Y22.146 E.12014
G1 X104.729 Y15.361 E.91321
G1 X105.622 Y15.361 E.12014
G1 X105.622 Y22.146 E.91321
G1 X106.515 Y22.146 E.12014
G1 X106.515 Y15.361 E.91321
G1 X107.408 Y15.361 E.12014
G1 X107.408 Y22.146 E.91321
G1 X108.3 Y22.146 E.12014
G1 X108.3 Y15.361 E.91321
G1 X109.193 Y15.361 E.12014
G1 X109.193 Y22.146 E.91321
G1 X110.086 Y22.146 E.12014
G1 X110.086 Y15.361 E.91321
G1 X110.978 Y15.361 E.12014
G1 X110.978 Y22.146 E.91321
G1 X111.871 Y22.146 E.12014
G1 X111.871 Y15.361 E.91321
G1 X112.764 Y15.361 E.12014
G1 X112.764 Y22.146 E.91321
G1 X113.118 Y22.146 E.04772
G1 X112.777 Y16.59 E.74922
G1 X113.634 Y15.679 E.16829
G1 X113.656 Y15.679 E.00302
G1 X113.656 Y15.361 E.0428
G1 X114.549 Y15.361 E.12014
G1 X114.549 Y15.679 E.0428
G1 X115.442 Y15.679 E.12014
G1 X115.442 Y15.361 E.0428
G1 X116.335 Y15.361 E.12014
G1 X116.335 Y15.679 E.0428
G1 X117.227 Y15.679 E.12014
G1 X117.227 Y15.361 E.0428
G1 X118.12 Y15.361 E.12014
G1 X118.12 Y15.679 E.0428
G1 X119.013 Y15.679 E.12014
G1 X119.013 Y15.361 E.0428
G1 X119.905 Y15.361 E.12014
G1 X119.905 Y15.679 E.0428
G1 X120.798 Y15.679 E.12014
G1 X120.798 Y15.361 E.0428
G1 X121.691 Y15.361 E.12014
G1 X121.691 Y15.679 E.0428
G1 X122.583 Y15.679 E.12014
G1 X122.583 Y15.361 E.0428
G1 X123.476 Y15.361 E.12014
G1 X123.476 Y15.679 E.0428
G1 X124.369 Y15.679 E.12014
G1 X124.369 Y15.361 E.0428
G1 X125.262 Y15.361 E.12014
G1 X125.262 Y15.679 E.0428
G1 X126.154 Y15.679 E.12014
G1 X126.154 Y15.361 E.0428
G1 X127.047 Y15.361 E.12014
G1 X127.047 Y15.679 E.0428
G1 X127.94 Y15.679 E.12014
G1 X127.94 Y15.361 E.0428
G1 X128.832 Y15.361 E.12014
G1 X128.832 Y15.679 E.0428
G1 X129.725 Y15.679 E.12014
G1 X129.725 Y15.361 E.0428
G1 X130.618 Y15.361 E.12014
G1 X130.618 Y15.679 E.0428
G1 X131.51 Y15.679 E.12014
G1 X131.51 Y15.361 E.0428
G1 X132.403 Y15.361 E.12014
G1 X132.403 Y15.679 E.0428
G1 X133.296 Y15.679 E.12014
G1 X133.296 Y15.361 E.0428
G1 X134.189 Y15.361 E.12014
G1 X134.189 Y15.679 E.0428
G1 X135.081 Y15.679 E.12014
G1 X135.081 Y15.361 E.0428
G1 X135.974 Y15.361 E.12014
G1 X135.974 Y15.679 E.0428
G1 X136.867 Y15.679 E.12014
G1 X136.867 Y15.361 E.0428
G1 X137.759 Y15.361 E.12014
G1 X137.759 Y15.679 E.0428
G1 X138.652 Y15.679 E.12014
G1 X138.652 Y15.361 E.0428
G1 X139.545 Y15.361 E.12014
G1 X139.545 Y15.679 E.0428
G1 X140.437 Y15.679 E.12014
G1 X140.437 Y15.361 E.0428
G1 X141.33 Y15.361 E.12014
G1 X141.33 Y15.679 E.0428
G1 X141.559 Y15.679 E.03079
G1 X142.223 Y15.679 E.08935
G1 X142.223 Y15.361 E.04281
G1 X143.116 Y15.361 E.12014
G1 X143.116 Y15.679 E.0428
G1 X144.008 Y15.679 E.12014
G1 X144.008 Y14.959 E.09687
G1 E-.7 F3600
;WIPE_START
G1 F6240
G1 X144.008 Y15.479 E-.285
;WIPE_END
G1 E-.015 F3600
G1 X115.442 Y73.438 F7800
G1 E1 F2400
G1 F1800
G1 X115.442 Y60.003 E1.80817
G1 X114.549 Y45.458 E1.96118
G1 X114.549 Y73.438 E3.76567
G1 E-.7 F3600
;WIPE_START
G1 F6240
G1 X114.549 Y72.918 E-.285
;WIPE_END
G1 E-.015 F3600
G1 X50.275 Y76.027 F7800
G1 E1 F2400
G1 F1800
G1 X50.275 Y164.639 E11.9257
G1 X51.168 Y164.639 E.12014
G1 X51.168 Y76.429 E11.87164
G1 X52.06 Y76.429 E.12014
G1 X52.06 Y164.639 E11.87164
G1 X52.953 Y164.639 E.12014
G1 X52.953 Y130.712 E4.56602
G1 X53.846 Y130.712 E.12014
G1 X53.846 Y164.639 E4.56602
G1 X54.738 Y164.639 E.12014
G1 X54.738 Y130.712 E4.56602
G1 X55.631 Y130.712 E.12014
M73 P1 R183
G1 X55.631 Y164.639 E4.56602
G1 X56.524 Y164.639 E.12014
G1 X56.524 Y157.854 E.91321
G1 X57.416 Y157.854 E.12014
G1 X57.416 Y164.639 E.91321
G1 X58.309 Y164.639 E.12014
G1 X58.309 Y157.854 E.91321
G1 X59.202 Y157.854 E.12014
G1 X59.202 Y164.639 E.91321
G1 X60.095 Y164.639 E.12014
G1 X60.095 Y157.854 E.91321
G1 X60.987 Y157.854 E.12014
G1 X60.987 Y164.639 E.91321
G1 X61.88 Y164.639 E.12014
G1 X61.88 Y157.854 E.91321
G1 X62.773 Y157.854 E.12014
G1 X62.773 Y164.639 E.91321
G1 X63.665 Y164.639 E.12014
G1 X63.665 Y157.854 E.91321
G1 X64.558 Y157.854 E.12014
G1 X64.558 Y164.639 E.91321
G1 X65.451 Y164.639 E.12014
G1 X65.451 Y157.854 E.91321
G1 X66.343 Y157.854 E.12014
G1 X66.343 Y164.639 E.91321
G1 X67.236 Y164.639 E.12014
G1 X67.236 Y157.854 E.91321
G1 X68.129 Y157.854 E.12014
G1 X68.129 Y164.639 E.91321
G1 X69.022 Y164.639 E.12014
G1 X69.022 Y157.854 E.91321
G1 X69.914 Y157.854 E.12014
G1 X69.914 Y164.639 E.91321
G1 X70.807 Y164.639 E.12014
G1 X70.807 Y157.854 E.91321
G1 X71.7 Y157.854 E.12014
G1 X71.7 Y164.639 E.91321
G1 X72.592 Y164.639 E.12014
G1 X72.592 Y157.854 E.91321
G1 X73.485 Y157.854 E.12014
G1 X73.485 Y164.639 E.91321
G1 X74.378 Y164.639 E.12014
G1 X74.378 Y157.854 E.91321
G1 X75.27 Y157.854 E.12014
G1 X75.27 Y164.639 E.91321
G1 X76.163 Y164.639 E.12014
G1 X76.163 Y157.854 E.91321
G1 X77.056 Y157.854 E.12014
G1 X77.056 Y164.639 E.91321
G1 X77.949 Y164.639 E.12014
G1 X77.949 Y157.854 E.91321
G1 X78.841 Y157.854 E.12014
G1 X78.841 Y164.639 E.91321
G1 X79.734 Y164.639 E.12014
G1 X79.734 Y157.854 E.91321
G1 X80.627 Y157.854 E.12014
G1 X80.627 Y164.639 E.91321
G1 X81.519 Y164.639 E.12014
G1 X81.519 Y157.854 E.91321
G1 X82.412 Y157.854 E.12014
G1 X82.412 Y165.041 E.96727
G1 E-.7 F3600
;WIPE_START
G1 F6240
G1 X82.412 Y164.521 E-.285
;WIPE_END
G1 E-.015 F3600
G1 X41.453 Y14.704 F7800
G1 E1 F2400
;TYPE:Support material
;WIDTH:0.42
G1 F1800
G1 X38.453 Y14.704 E.15056
G1 X38.453 Y19.41 E.23616
G1 X41.846 Y19.41 E.17027
G1 X41.846 Y25.382 E.29973
G1 X21.99 Y25.382 E.9965
G1 X21.99 Y154.618 E6.4858
G1 X48.631 Y154.618 E1.33703
G1 X48.631 Y165.296 E.53589
G1 X51.631 Y165.296 E.15056
G1 X51.631 Y167.876 E.12947
G1 X8.732 Y167.876 E2.15295
G1 X8.732 Y12.124 E7.81652
G1 X41.453 Y12.124 E1.64215
G1 X41.453 Y14.652 E.12687
G1 E-.7 F3600
;WIPE_START
G1 F6240
G1 X41.453 Y14.132 E-.285
;WIPE_END
G1 E-.015 F3600
G1 X51.296 Y167.72 F7800
G1 E1 F2400
G1 F1800
G1 X51.296 Y165.606 E.1061
G1 X50.913 Y165.606 E.01923
G1 X50.913 Y167.565 E.09831
G1 X50.529 Y167.565 E.01923
G1 X50.529 Y165.606 E.09831
G1 X50.146 Y165.606 E.01923
G1 X50.146 Y167.565 E.09831
G1 X49.763 Y167.565 E.01923
G1 X49.763 Y165.606 E.09831
G1 X49.38 Y165.606 E.01923
G1 X49.38 Y167.565 E.09831
G1 X48.997 Y167.565 E.01923
G1 X48.997 Y165.606 E.09831
G1 X48.613 Y165.606 E.01923
G1 X48.613 Y167.565 E.09831
G1 X48.23 Y167.565 E.01923
G1 X48.23 Y154.928 E.6342
G1 X47.847 Y154.928 E.01923
G1 X47.847 Y167.565 E.6342
G1 X47.464 Y167.565 E.01923
G1 X47.464 Y154.928 E.6342
