; generated by PrusaSlicer 2.5.0+win64 on 2022-12-07 at 00:03:50 UTC

; 

; external perimeters extrusion width = 1.00mm
; perimeters extrusion width = 1.00mm
; infill extrusion width = 1.00mm
; solid infill extrusion width = 1.00mm
; top infill extrusion width = 1.00mm
; support material extrusion width = 1.00mm
; first layer extrusion width = 0.42mm

M73 P0 R127
M107
;TYPE:Custom
G90 ; use absolute coordinates
M83 ; extruder relative mode
M140 S60 ; set final bed temp
M104 S150 ; set temporary nozzle temp to prevent oozing during homing and auto bed leveling
G4 S10 ; allow partial nozzle warmup
G28 ; home all axisG1 Z50 F240
G1 X7.6 Y10 F3000
M104 S210 ; set final nozzle temp
M190 S60 ; wait for bed temp to stabilize
M109 S210 ; wait for nozzle temp to stabilize
G1 Z0.28 F240
G92 E0
G1 Y140 E10 F1500 ; prime the nozzle
G1 X4 F5000
G92 E0
G1 Y10 E10 F1200 ; prime the nozzle
G92 E0
G21 ; set units to millimeters
G90 ; use absolute coordinates
M83 ; use relative distances for extrusion
; Filament gcode
M107
;LAYER_CHANGE
;Z:0.35
;HEIGHT:0.35
;BEFORE_LAYER_CHANGE
G92 E0
;0.35


G1 E-1 F3600
G1 Z.35 F7800
;AFTER_LAYER_CHANGE
;0.35
G1 X85.407 Y17.18
G1 E1 F2400
;TYPE:Perimeter
;WIDTH:0.42
G1 F1800
G1 X88.586 Y17.18 E.15954
G1 X90.851 Y162.82 E7.30996
G1 X85.407 Y162.82 E.27322
G1 X85.407 Y17.33 E7.30155
G1 X85.062 Y16.835 F7800
;TYPE:External perimeter
M73 P0 R126
G1 F1800
G1 X88.926 Y16.835 E.19389
G1 X91.202 Y163.165 E7.34459
G1 X85.062 Y163.165 E.30811
G1 X85.062 Y16.985 E7.33617
G1 X85.935 Y17.323 F7800
G1 E-.7 F3600
;WIPE_START
G1 F6240
G1 X85.582 Y16.965 E-.285
;WIPE_END
G1 E-.015 F3600
G1 X88.495 Y17.993 F7800
G1 E1 F2400
;TYPE:Solid infill
;WIDTH:0.420466
G1 F1800
G1 X87.941 Y17.439 E.03939
G1 X87.453 Y17.439 E.02454
G1 X88.345 Y18.331 E.06345
G1 X88.353 Y18.827 E.02493
G1 X86.964 Y17.439 E.09871
G1 X86.476 Y17.439 E.02454
G1 X88.361 Y19.324 E.13397
G1 X88.368 Y19.82 E.02493
G1 X85.987 Y17.439 E.16922
G1 X85.666 Y17.439 E.01616
G1 X85.666 Y17.605 E.00838
G1 X88.376 Y20.316 E.19263
G1 X88.384 Y20.812 E.02493
G1 X85.666 Y18.094 E.19317
G1 X85.666 Y18.582 E.02454
G1 X88.392 Y21.308 E.19372
G1 X88.399 Y21.804 E.02493
G1 X85.666 Y19.071 E.19427
G1 X85.666 Y19.559 E.02454
G1 X88.407 Y22.3 E.19482
G1 X88.415 Y22.796 E.02493
G1 X85.666 Y20.047 E.19537
G1 X85.666 Y20.536 E.02454
G1 X88.422 Y23.292 E.19592
G1 X88.43 Y23.789 E.02493
G1 X85.666 Y21.024 E.19646
G1 X85.666 Y21.513 E.02454
G1 X88.438 Y24.285 E.19701
G1 X88.446 Y24.781 E.02493
G1 X85.666 Y22.001 E.19756
G1 X85.666 Y22.489 E.02454
G1 X88.453 Y25.277 E.19811
G1 X88.461 Y25.773 E.02493
G1 X85.666 Y22.978 E.19866
G1 X85.666 Y23.466 E.02454
G1 X88.469 Y26.269 E.19921
G1 X88.476 Y26.765 E.02493
G1 X85.666 Y23.955 E.19975
G1 X85.666 Y24.443 E.02454
G1 X88.484 Y27.261 E.2003
G1 X88.492 Y27.758 E.02493
G1 X85.666 Y24.931 E.20085
G1 X85.666 Y25.42 E.02454
G1 X88.5 Y28.254 E.2014
G1 X88.507 Y28.75 E.02493
G1 X85.666 Y25.908 E.20195
G1 X85.666 Y26.397 E.02454
G1 X88.515 Y29.246 E.2025
G1 X88.523 Y29.742 E.02493
G1 X85.666 Y26.885 E.20305
G1 X85.666 Y27.373 E.02454
G1 X88.53 Y30.238 E.20359
G1 X88.538 Y30.734 E.02493
G1 X85.666 Y27.862 E.20414
G1 X85.666 Y28.35 E.02454
G1 X88.546 Y31.23 E.20469
G1 X88.554 Y31.727 E.02493
G1 X85.666 Y28.839 E.20524
G1 X85.666 Y29.327 E.02454
G1 X88.561 Y32.223 E.20579
G1 X88.569 Y32.719 E.02493
G1 X85.666 Y29.816 E.20634
G1 X85.666 Y30.304 E.02454
G1 X88.577 Y33.215 E.20688
G1 X88.584 Y33.711 E.02493
G1 X85.666 Y30.792 E.20743
G1 X85.666 Y31.281 E.02454
G1 X88.592 Y34.207 E.20798
G1 X88.6 Y34.703 E.02493
G1 X85.666 Y31.769 E.20853
G1 X85.666 Y32.258 E.02454
G1 X88.608 Y35.199 E.20908
G1 X88.615 Y35.696 E.02493
G1 X85.666 Y32.746 E.20963
G1 X85.666 Y33.234 E.02454
G1 X88.623 Y36.192 E.21017
G1 X88.631 Y36.688 E.02493
G1 X85.666 Y33.723 E.21072
G1 X85.666 Y34.211 E.02454
G1 X88.638 Y37.184 E.21127
G1 X88.646 Y37.68 E.02493
G1 X85.666 Y34.7 E.21182
G1 X85.666 Y35.188 E.02454
G1 X88.654 Y38.176 E.21237
G1 X88.662 Y38.672 E.02493
G1 X85.666 Y35.676 E.21292
G1 X85.666 Y36.165 E.02454
G1 X88.669 Y39.168 E.21346
G1 X88.677 Y39.665 E.02493
G1 X85.666 Y36.653 E.21401
G1 X85.666 Y37.142 E.02454
G1 X88.685 Y40.161 E.21456
G1 X88.692 Y40.657 E.02493
G1 X85.666 Y37.63 E.21511
G1 X85.666 Y38.118 E.02454
G1 X88.7 Y41.153 E.21566
G1 X88.708 Y41.649 E.02493
G1 X85.666 Y38.607 E.21621
G1 X85.666 Y39.095 E.02454
G1 X88.716 Y42.145 E.21675
G1 X88.723 Y42.641 E.02493
G1 X85.666 Y39.584 E.2173
G1 X85.666 Y40.072 E.02454
G1 X88.731 Y43.137 E.21785
G1 X88.739 Y43.634 E.02493
G1 X85.666 Y40.56 E.2184
G1 X85.666 Y41.049 E.02454
G1 X88.747 Y44.13 E.21895
G1 X88.754 Y44.626 E.02493
G1 X85.666 Y41.537 E.2195
G1 X85.666 Y42.026 E.02454
G1 X88.762 Y45.122 E.22005
G1 X88.77 Y45.618 E.02493
G1 X85.666 Y42.514 E.22059
G1 X85.666 Y43.002 E.02454
G1 X88.777 Y46.114 E.22114
G1 X88.785 Y46.61 E.02493
G1 X85.666 Y43.491 E.22169
G1 X85.666 Y43.979 E.02454
G1 X88.793 Y47.106 E.22224
G1 X88.801 Y47.602 E.02493
G1 X85.666 Y44.468 E.22279
G1 X85.666 Y44.956 E.02454
G1 X88.808 Y48.099 E.22334
G1 X88.816 Y48.595 E.02493
G1 X85.666 Y45.445 E.22388
G1 X85.666 Y45.933 E.02454
G1 X88.824 Y49.091 E.22443
G1 X88.831 Y49.587 E.02493
G1 X85.666 Y46.421 E.22498
G1 X85.666 Y46.91 E.02454
G1 X88.839 Y50.083 E.22553
G1 X88.847 Y50.579 E.02493
G1 X85.666 Y47.398 E.22608
G1 X85.666 Y47.887 E.02454
G1 X88.855 Y51.075 E.22663
G1 X88.862 Y51.571 E.02493
G1 X85.666 Y48.375 E.22717
G1 X85.666 Y48.863 E.02454
G1 X88.87 Y52.068 E.22772
G1 X88.878 Y52.564 E.02493
G1 X85.666 Y49.352 E.22827
G1 X85.666 Y49.84 E.02454
G1 X88.885 Y53.06 E.22882
G1 X88.893 Y53.556 E.02493
G1 X85.666 Y50.329 E.22937
G1 X85.666 Y50.817 E.02454
G1 X88.901 Y54.052 E.22992
G1 X88.909 Y54.548 E.02493
G1 X85.666 Y51.305 E.23046
G1 X85.666 Y51.794 E.02454
G1 X88.916 Y55.044 E.23101
G1 X88.924 Y55.54 E.02493
G1 X85.666 Y52.282 E.23156
G1 X85.666 Y52.771 E.02454
G1 X88.932 Y56.037 E.23211
G1 X88.939 Y56.533 E.02493
G1 X85.666 Y53.259 E.23266
G1 X85.666 Y53.747 E.02454
G1 X88.947 Y57.029 E.23321
G1 X88.955 Y57.525 E.02493
G1 X85.666 Y54.236 E.23376
G1 X85.666 Y54.724 E.02454
G1 X88.963 Y58.021 E.2343
G1 X88.97 Y58.517 E.02493
G1 X85.666 Y55.213 E.23485
G1 X85.666 Y55.701 E.02454
G1 X88.978 Y59.013 E.2354
G1 X88.986 Y59.509 E.02493
G1 X85.666 Y56.189 E.23595
G1 X85.666 Y56.678 E.02454
G1 X88.993 Y60.006 E.2365
G1 X89.001 Y60.502 E.02493
G1 X85.666 Y57.166 E.23705
G1 X85.666 Y57.655 E.02454
G1 X89.009 Y60.998 E.23759
G1 X89.017 Y61.494 E.02493
G1 X85.666 Y58.143 E.23814
G1 X85.666 Y58.631 E.02454
G1 X89.024 Y61.99 E.23869
G1 X89.032 Y62.486 E.02493
G1 X85.666 Y59.12 E.23924
G1 X85.666 Y59.608 E.02454
G1 X89.04 Y62.982 E.23979
G1 X89.047 Y63.478 E.02493
G1 X85.666 Y60.097 E.24034
G1 X85.666 Y60.585 E.02454
G1 X89.055 Y63.975 E.24088
G1 X89.063 Y64.471 E.02493
G1 X85.666 Y61.073 E.24143
G1 X85.666 Y61.562 E.02454
G1 X89.071 Y64.967 E.24198
G1 X89.078 Y65.463 E.02493
G1 X85.666 Y62.05 E.24253
G1 X85.666 Y62.539 E.02454
G1 X89.086 Y65.959 E.24308
G1 X89.094 Y66.455 E.02493
G1 X85.666 Y63.027 E.24363
G1 X85.666 Y63.516 E.02454
G1 X89.101 Y66.951 E.24417
G1 X89.109 Y67.447 E.02493
G1 X85.666 Y64.004 E.24472
G1 X85.666 Y64.492 E.02454
G1 X89.117 Y67.943 E.24527
G1 X89.125 Y68.44 E.02493
G1 X85.666 Y64.981 E.24582
G1 X85.666 Y65.469 E.02454
G1 X89.132 Y68.936 E.24637
G1 X89.14 Y69.432 E.02493
G1 X85.666 Y65.958 E.24692
G1 X85.666 Y66.446 E.02454
G1 X89.148 Y69.928 E.24747
G1 X89.155 Y70.424 E.02493
G1 X85.666 Y66.934 E.24801
G1 X85.666 Y67.423 E.02454
G1 X89.163 Y70.92 E.24856
G1 X89.171 Y71.416 E.02493
G1 X85.666 Y67.911 E.24911
G1 X85.666 Y68.4 E.02454
G1 X89.179 Y71.912 E.24966
G1 X89.186 Y72.409 E.02493
G1 X85.666 Y68.888 E.25021
G1 X85.666 Y69.376 E.02454
G1 X89.194 Y72.905 E.25076
G1 X89.202 Y73.401 E.02493
G1 X85.666 Y69.865 E.2513
G1 X85.666 Y70.353 E.02454
G1 X89.209 Y73.897 E.25185
G1 X89.217 Y74.393 E.02493
G1 X85.666 Y70.842 E.2524
G1 X85.666 Y71.33 E.02454
G1 X89.225 Y74.889 E.25295
G1 X89.233 Y75.385 E.02493
G1 X85.666 Y71.818 E.2535
G1 X85.666 Y72.307 E.02454
G1 X89.24 Y75.881 E.25405
G1 X89.248 Y76.378 E.02493
G1 X85.666 Y72.795 E.25459
G1 X85.666 Y73.284 E.02454
G1 X89.256 Y76.874 E.25514
G1 X89.264 Y77.37 E.02493
G1 X85.666 Y73.772 E.25569
G1 X85.666 Y74.26 E.02454
G1 X89.271 Y77.866 E.25624
G1 X89.279 Y78.362 E.02493
G1 X85.666 Y74.749 E.25679
G1 X85.666 Y75.237 E.02454
G1 X89.287 Y78.858 E.25734
G1 X89.294 Y79.354 E.02493
G1 X85.666 Y75.726 E.25788
G1 X85.666 Y76.214 E.02454
G1 X89.302 Y79.85 E.25843
G1 X89.31 Y80.347 E.02493
G1 X85.666 Y76.702 E.25898
G1 X85.666 Y77.191 E.02454
G1 X89.318 Y80.843 E.25953
G1 X89.325 Y81.339 E.02493
G1 X85.666 Y77.679 E.26008
G1 X85.666 Y78.168 E.02454
G1 X89.333 Y81.835 E.26063
G1 X89.341 Y82.331 E.02493
G1 X85.666 Y78.656 E.26117
G1 X85.666 Y79.145 E.02454
G1 X89.348 Y82.827 E.26172
G1 X89.356 Y83.323 E.02493
G1 X85.666 Y79.633 E.26227
G1 X85.666 Y80.121 E.02454
G1 X89.364 Y83.819 E.26282
G1 X89.372 Y84.316 E.02493
G1 X85.666 Y80.61 E.26337
G1 X85.666 Y81.098 E.02454
G1 X89.379 Y84.812 E.26392
G1 X89.387 Y85.308 E.02493
G1 X85.666 Y81.587 E.26447
G1 X85.666 Y82.075 E.02454
G1 X89.395 Y85.804 E.26501
G1 X89.402 Y86.3 E.02493
G1 X85.666 Y82.563 E.26556
G1 X85.666 Y83.052 E.02454
G1 X89.41 Y86.796 E.26611
G1 X89.418 Y87.292 E.02493
G1 X85.666 Y83.54 E.26666
G1 X85.666 Y84.029 E.02454
G1 X89.426 Y87.788 E.26721
G1 X89.433 Y88.284 E.02493
G1 X85.666 Y84.517 E.26776
G1 X85.666 Y85.005 E.02454
G1 X89.441 Y88.781 E.2683
G1 X89.449 Y89.277 E.02493
G1 X85.666 Y85.494 E.26885
G1 X85.666 Y85.982 E.02454
G1 X89.456 Y89.773 E.2694
G1 X89.464 Y90.269 E.02493
G1 X85.666 Y86.471 E.26995
G1 X85.666 Y86.959 E.02454
G1 X89.472 Y90.765 E.2705
G1 X89.48 Y91.261 E.02493
G1 X85.666 Y87.447 E.27105
G1 X85.666 Y87.936 E.02454
G1 X89.487 Y91.757 E.27159
G1 X89.495 Y92.253 E.02493
G1 X85.666 Y88.424 E.27214
G1 X85.666 Y88.913 E.02454
G1 X89.503 Y92.75 E.27269
G1 X89.51 Y93.246 E.02493
G1 X85.666 Y89.401 E.27324
G1 X85.666 Y89.889 E.02454
G1 X89.518 Y93.742 E.27379
G1 X89.526 Y94.238 E.02493
G1 X85.666 Y90.378 E.27434
G1 X85.666 Y90.866 E.02454
G1 X89.534 Y94.734 E.27488
G1 X89.541 Y95.23 E.02493
G1 X85.666 Y91.355 E.27543
G1 X85.666 Y91.843 E.02454
G1 X89.549 Y95.726 E.27598
G1 X89.557 Y96.222 E.02493
G1 X85.666 Y92.331 E.27653
G1 X85.666 Y92.82 E.02454
G1 X89.564 Y96.719 E.27708
G1 X89.572 Y97.215 E.02493
G1 X85.666 Y93.308 E.27763
G1 X85.666 Y93.797 E.02454
G1 X89.58 Y97.711 E.27817
G1 X89.588 Y98.207 E.02493
G1 X85.666 Y94.285 E.27872
G1 X85.666 Y94.773 E.02454
G1 X89.595 Y98.703 E.27927
G1 X89.603 Y99.199 E.02493
G1 X85.666 Y95.262 E.27982
G1 X85.666 Y95.75 E.02454
G1 X89.611 Y99.695 E.28037
G1 X89.618 Y100.191 E.02493
G1 X85.666 Y96.239 E.28092
G1 X85.666 Y96.727 E.02454
G1 X89.626 Y100.688 E.28147
G1 X89.634 Y101.184 E.02493
G1 X85.666 Y97.216 E.28201
G1 X85.666 Y97.704 E.02454
G1 X89.642 Y101.68 E.28256
G1 X89.649 Y102.176 E.02493
G1 X85.666 Y98.192 E.28311
G1 X85.666 Y98.681 E.02454
G1 X89.657 Y102.672 E.28366
G1 X89.665 Y103.168 E.02493
G1 X85.666 Y99.169 E.28421
G1 X85.666 Y99.658 E.02454
G1 X89.672 Y103.664 E.28476
G1 X89.68 Y104.16 E.02493
G1 X85.666 Y100.146 E.2853
G1 X85.666 Y100.634 E.02454
G1 X89.688 Y104.657 E.28585
G1 X89.696 Y105.153 E.02493
G1 X85.666 Y101.123 E.2864
G1 X85.666 Y101.611 E.02454
G1 X89.703 Y105.649 E.28695
G1 X89.711 Y106.145 E.02493
G1 X85.666 Y102.1 E.2875
G1 X85.666 Y102.588 E.02454
G1 X89.719 Y106.641 E.28805
G1 X89.726 Y107.137 E.02493
G1 X85.666 Y103.076 E.28859
G1 X85.666 Y103.565 E.02454
G1 X89.734 Y107.633 E.28914
G1 X89.742 Y108.129 E.02493
G1 X85.666 Y104.053 E.28969
G1 X85.666 Y104.542 E.02454
G1 X89.75 Y108.625 E.29024
G1 X89.757 Y109.122 E.02493
G1 X85.666 Y105.03 E.29079
G1 X85.666 Y105.518 E.02454
G1 X89.765 Y109.618 E.29134
G1 X89.773 Y110.114 E.02493
G1 X85.666 Y106.007 E.29188
G1 X85.666 Y106.495 E.02454
G1 X89.78 Y110.61 E.29243
G1 X89.788 Y111.106 E.02493
G1 X85.666 Y106.984 E.29298
G1 X85.666 Y107.472 E.02454
G1 X89.796 Y111.602 E.29353
G1 X89.804 Y112.098 E.02493
G1 X85.666 Y107.96 E.29408
G1 X85.666 Y108.449 E.02454
G1 X89.811 Y112.594 E.29463
G1 X89.819 Y113.091 E.02493
M73 P1 R126
G1 X85.666 Y108.937 E.29518
G1 X85.666 Y109.426 E.02454
G1 X89.827 Y113.587 E.29572
G1 X89.835 Y114.083 E.02493
G1 X85.666 Y109.914 E.29627
G1 X85.666 Y110.402 E.02454
G1 X89.842 Y114.579 E.29682
G1 X89.85 Y115.075 E.02494
G1 X85.666 Y110.891 E.29737
G1 X85.666 Y111.379 E.02454
G1 X89.858 Y115.571 E.29792
G1 X89.865 Y116.067 E.02494
G1 X85.666 Y111.868 E.29847
G1 X85.666 Y112.356 E.02454
G1 X89.873 Y116.563 E.29901
G1 X89.881 Y117.06 E.02494
G1 X85.666 Y112.844 E.29956
G1 X85.666 Y113.333 E.02454
G1 X89.889 Y117.556 E.30011
G1 X89.896 Y118.052 E.02494
G1 X85.666 Y113.821 E.30066
G1 X85.666 Y114.31 E.02454
G1 X89.904 Y118.548 E.30121
G1 X89.912 Y119.044 E.02493
G1 X85.666 Y114.798 E.30176
G1 X85.666 Y115.287 E.02454
G1 X89.919 Y119.54 E.3023
G1 X89.927 Y120.036 E.02493
G1 X85.666 Y115.775 E.30285
G1 X85.666 Y116.263 E.02454
G1 X89.935 Y120.532 E.3034
G1 X89.943 Y121.029 E.02493
G1 X85.666 Y116.752 E.30395
G1 X85.666 Y117.24 E.02454
G1 X89.95 Y121.525 E.3045
G1 X89.958 Y122.021 E.02493
G1 X85.666 Y117.729 E.30505
G1 X85.666 Y118.217 E.02454
G1 X89.966 Y122.517 E.30559
G1 X89.973 Y123.013 E.02493
M73 P1 R125
G1 X85.666 Y118.705 E.30614
G1 X85.666 Y119.194 E.02454
G1 X89.981 Y123.509 E.30669
G1 X89.989 Y124.005 E.02493
G1 X85.666 Y119.682 E.30724
G1 X85.666 Y120.171 E.02454
G1 X89.997 Y124.501 E.30779
G1 X90.004 Y124.998 E.02493
G1 X85.666 Y120.659 E.30834
G1 X85.666 Y121.147 E.02454
G1 X90.012 Y125.494 E.30888
G1 X90.02 Y125.99 E.02493
G1 X85.666 Y121.636 E.30943
G1 X85.666 Y122.124 E.02454
G1 X90.027 Y126.486 E.30998
G1 X90.035 Y126.982 E.02493
G1 X85.666 Y122.613 E.31053
G1 X85.666 Y123.101 E.02454
G1 X90.043 Y127.478 E.31108
G1 X90.051 Y127.974 E.02493
G1 X85.666 Y123.589 E.31163
G1 X85.666 Y124.078 E.02454
G1 X90.058 Y128.47 E.31218
G1 X90.066 Y128.966 E.02493
G1 X85.666 Y124.566 E.31272
G1 X85.666 Y125.055 E.02454
G1 X90.074 Y129.463 E.31327
G1 X90.081 Y129.959 E.02494
G1 X85.666 Y125.543 E.31382
G1 X85.666 Y126.031 E.02454
G1 X90.089 Y130.455 E.31437
G1 X90.097 Y130.951 E.02494
G1 X85.666 Y126.52 E.31492
G1 X85.666 Y127.008 E.02454
G1 X90.105 Y131.447 E.31547
G1 X90.112 Y131.943 E.02494
G1 X85.666 Y127.497 E.31601
G1 X85.666 Y127.985 E.02454
G1 X90.12 Y132.439 E.31656
G1 X90.128 Y132.935 E.02494
G1 X85.666 Y128.473 E.31711
G1 X85.666 Y128.962 E.02454
G1 X90.135 Y133.432 E.31766
G1 X90.143 Y133.928 E.02494
G1 X85.666 Y129.45 E.31821
G1 X85.666 Y129.939 E.02454
G1 X90.151 Y134.424 E.31876
G1 X90.159 Y134.92 E.02494
G1 X85.666 Y130.427 E.3193
G1 X85.666 Y130.916 E.02454
G1 X90.166 Y135.416 E.31985
G1 X90.174 Y135.912 E.02494
G1 X85.666 Y131.404 E.3204
G1 X85.666 Y131.892 E.02454
G1 X90.182 Y136.408 E.32095
G1 X90.189 Y136.904 E.02493
G1 X85.666 Y132.381 E.3215
G1 X85.666 Y132.869 E.02454
G1 X90.197 Y137.401 E.32205
G1 X90.205 Y137.897 E.02493
G1 X85.666 Y133.358 E.32259
G1 X85.666 Y133.846 E.02454
G1 X90.213 Y138.393 E.32314
G1 X90.22 Y138.889 E.02493
G1 X85.666 Y134.334 E.32369
G1 X85.666 Y134.823 E.02454
G1 X90.228 Y139.385 E.32424
G1 X90.236 Y139.881 E.02493
G1 X85.666 Y135.311 E.32479
G1 X85.666 Y135.8 E.02454
G1 X90.243 Y140.377 E.32534
G1 X90.251 Y140.873 E.02493
G1 X85.666 Y136.288 E.32589
G1 X85.666 Y136.776 E.02454
G1 X90.259 Y141.37 E.32643
G1 X90.267 Y141.866 E.02493
G1 X85.666 Y137.265 E.32698
G1 X85.666 Y137.753 E.02454
G1 X90.274 Y142.362 E.32753
G1 X90.282 Y142.858 E.02493
G1 X85.666 Y138.242 E.32808
G1 X85.666 Y138.73 E.02454
G1 X90.29 Y143.354 E.32863
G1 X90.297 Y143.85 E.02493
G1 X85.666 Y139.218 E.32918
G1 X85.666 Y139.707 E.02454
G1 X90.305 Y144.346 E.32972
G1 X90.313 Y144.842 E.02493
G1 X85.666 Y140.195 E.33027
G1 X85.666 Y140.684 E.02454
G1 X90.321 Y145.339 E.33082
G1 X90.328 Y145.835 E.02493
G1 X85.666 Y141.172 E.33137
G1 X85.666 Y141.66 E.02454
G1 X90.336 Y146.331 E.33192
G1 X90.344 Y146.827 E.02493
G1 X85.666 Y142.149 E.33247
G1 X85.666 Y142.637 E.02454
G1 X90.352 Y147.323 E.33301
G1 X90.359 Y147.819 E.02494
G1 X85.666 Y143.126 E.33356
