; generated by PrusaSlicer 2.5.0+win64 on 2022-12-07 at 00:03:48 UTC

; 

; external perimeters extrusion width = 1.00mm
; perimeters extrusion width = 1.00mm
; infill extrusion width = 1.00mm
; solid infill extrusion width = 1.00mm
; top infill extrusion width = 1.00mm
; support material extrusion width = 1.00mm
; first layer extrusion width = 0.42mm

M73 P0 R105
M107
;TYPE:Custom
G90 ; use absolute coordinates
M83 ; extruder relative mode
M140 S60 ; set final bed temp
M104 S150 ; set temporary nozzle temp to prevent oozing during homing and auto bed leveling
G4 S10 ; allow partial nozzle warmup
G28 ; home all axisG1 Z50 F240
G1 X7.6 Y10 F3000
M104 S210 ; set final nozzle temp
M190 S60 ; wait for bed temp to stabilize
M109 S210 ; wait for nozzle temp to stabilize
G1 Z0.28 F240
G92 E0
G1 Y140 E10 F1500 ; prime the nozzle
G1 X4 F5000
G92 E0
M73 P0 R104
G1 Y10 E10 F1200 ; prime the nozzle
G92 E0
G21 ; set units to millimeters
G90 ; use absolute coordinates
M83 ; use relative distances for extrusion
; Filament gcode
M107
;LAYER_CHANGE
;Z:0.35
;HEIGHT:0.35
;BEFORE_LAYER_CHANGE
G92 E0
;0.35


G1 E-1 F3600
G1 Z.35 F7800
;AFTER_LAYER_CHANGE
;0.35
G1 X171.268 Y65.936
G1 E1 F2400
;TYPE:Support material
;WIDTH:0.42
G1 F1800
G1 X100.335 Y65.936 E3.55988
G1 X100.335 Y56.071 E.49509
G1 X171.268 Y56.071 E3.55988
G1 X171.268 Y65.884 E.4925
G1 X170.857 Y65.781 F7800
G1 F1800
G1 X170.857 Y56.381 E.47173
G1 X170.474 Y56.381 E.01923
G1 X170.474 Y65.626 E.46394
G1 X170.091 Y65.626 E.01923
G1 X170.091 Y56.381 E.46394
G1 X169.708 Y56.381 E.01923
G1 X169.708 Y65.626 E.46394
G1 X169.324 Y65.626 E.01923
G1 X169.324 Y56.381 E.46394
G1 X168.941 Y56.381 E.01923
G1 X168.941 Y65.626 E.46394
G1 X168.558 Y65.626 E.01923
G1 X168.558 Y56.381 E.46394
G1 X168.175 Y56.381 E.01923
G1 X168.175 Y65.626 E.46394
G1 X167.792 Y65.626 E.01923
G1 X167.792 Y56.381 E.46394
G1 X167.408 Y56.381 E.01923
G1 X167.408 Y65.626 E.46394
G1 X167.025 Y65.626 E.01923
G1 X167.025 Y56.381 E.46394
G1 X166.642 Y56.381 E.01923
G1 X166.642 Y65.626 E.46394
G1 X166.259 Y65.626 E.01923
G1 X166.259 Y56.381 E.46394
G1 X165.876 Y56.381 E.01923
G1 X165.876 Y65.626 E.46394
G1 X165.492 Y65.626 E.01923
G1 X165.492 Y56.381 E.46394
G1 X165.109 Y56.381 E.01923
G1 X165.109 Y65.626 E.46394
G1 X164.726 Y65.626 E.01923
G1 X164.726 Y56.381 E.46394
G1 X164.343 Y56.381 E.01923
G1 X164.343 Y65.626 E.46394
G1 X163.96 Y65.626 E.01923
G1 X163.96 Y56.381 E.46394
G1 X163.576 Y56.381 E.01923
G1 X163.576 Y65.626 E.46394
G1 X163.193 Y65.626 E.01923
G1 X163.193 Y56.381 E.46394
G1 X162.81 Y56.381 E.01923
G1 X162.81 Y65.626 E.46394
G1 X162.427 Y65.626 E.01923
G1 X162.427 Y56.381 E.46394
G1 X162.043 Y56.381 E.01923
G1 X162.043 Y65.626 E.46394
G1 X161.66 Y65.626 E.01923
G1 X161.66 Y56.381 E.46394
G1 X161.277 Y56.381 E.01923
G1 X161.277 Y65.626 E.46394
G1 X160.894 Y65.626 E.01923
G1 X160.894 Y56.381 E.46394
G1 X160.511 Y56.381 E.01923
G1 X160.511 Y65.626 E.46394
G1 X160.127 Y65.626 E.01923
G1 X160.127 Y56.381 E.46394
G1 X159.744 Y56.381 E.01923
G1 X159.744 Y65.626 E.46394
G1 X159.361 Y65.626 E.01923
G1 X159.361 Y56.381 E.46394
G1 X158.978 Y56.381 E.01923
G1 X158.978 Y65.626 E.46394
G1 X158.595 Y65.626 E.01923
G1 X158.595 Y56.381 E.46394
G1 X158.211 Y56.381 E.01923
G1 X158.211 Y65.626 E.46394
G1 X157.828 Y65.626 E.01923
G1 X157.828 Y56.381 E.46394
G1 X157.445 Y56.381 E.01923
G1 X157.445 Y65.626 E.46394
G1 X157.062 Y65.626 E.01923
G1 X157.062 Y56.381 E.46394
G1 X156.679 Y56.381 E.01923
G1 X156.679 Y65.626 E.46394
G1 X156.295 Y65.626 E.01923
G1 X156.295 Y56.381 E.46394
G1 X155.912 Y56.381 E.01923
G1 X155.912 Y65.626 E.46394
G1 X155.529 Y65.626 E.01923
G1 X155.529 Y56.381 E.46394
G1 X155.146 Y56.381 E.01923
G1 X155.146 Y65.626 E.46394
G1 X154.762 Y65.626 E.01923
G1 X154.762 Y56.381 E.46394
G1 X154.379 Y56.381 E.01923
G1 X154.379 Y65.626 E.46394
G1 X153.996 Y65.626 E.01923
G1 X153.996 Y56.381 E.46394
G1 X153.613 Y56.381 E.01923
G1 X153.613 Y65.626 E.46394
G1 X153.23 Y65.626 E.01923
G1 X153.23 Y56.381 E.46394
G1 X152.846 Y56.381 E.01923
G1 X152.846 Y65.626 E.46394
G1 X152.463 Y65.626 E.01923
G1 X152.463 Y56.381 E.46394
G1 X152.08 Y56.381 E.01923
G1 X152.08 Y65.626 E.46394
G1 X151.697 Y65.626 E.01923
G1 X151.697 Y56.381 E.46394
G1 X151.314 Y56.381 E.01923
G1 X151.314 Y65.626 E.46394
G1 X150.93 Y65.626 E.01923
G1 X150.93 Y56.381 E.46394
G1 X150.547 Y56.381 E.01923
G1 X150.547 Y65.626 E.46394
G1 X150.164 Y65.626 E.01923
G1 X150.164 Y56.381 E.46394
G1 X149.781 Y56.381 E.01923
G1 X149.781 Y65.626 E.46394
G1 X149.398 Y65.626 E.01923
G1 X149.398 Y56.381 E.46394
G1 X149.014 Y56.381 E.01923
G1 X149.014 Y65.626 E.46394
G1 X148.631 Y65.626 E.01923
G1 X148.631 Y56.381 E.46394
G1 X148.248 Y56.381 E.01923
G1 X148.248 Y65.626 E.46394
G1 X147.865 Y65.626 E.01923
G1 X147.865 Y56.381 E.46394
G1 X147.482 Y56.381 E.01923
G1 X147.482 Y65.626 E.46394
G1 X147.098 Y65.626 E.01923
G1 X147.098 Y56.381 E.46394
G1 X146.715 Y56.381 E.01923
G1 X146.715 Y65.626 E.46394
G1 X146.332 Y65.626 E.01923
G1 X146.332 Y56.381 E.46394
G1 X145.949 Y56.381 E.01923
G1 X145.949 Y65.626 E.46394
G1 X145.565 Y65.626 E.01923
G1 X145.565 Y56.381 E.46394
G1 X145.182 Y56.381 E.01923
G1 X145.182 Y65.626 E.46394
G1 X144.799 Y65.626 E.01923
G1 X144.799 Y56.381 E.46394
G1 X144.416 Y56.381 E.01923
G1 X144.416 Y65.626 E.46394
G1 X144.033 Y65.626 E.01923
G1 X144.033 Y56.381 E.46394
G1 X143.649 Y56.381 E.01923
G1 X143.649 Y65.626 E.46394
G1 X143.266 Y65.626 E.01923
G1 X143.266 Y56.381 E.46394
G1 X142.883 Y56.381 E.01923
G1 X142.883 Y65.626 E.46394
G1 X142.5 Y65.626 E.01923
G1 X142.5 Y56.381 E.46394
G1 X142.117 Y56.381 E.01923
G1 X142.117 Y65.626 E.46394
G1 X141.733 Y65.626 E.01923
G1 X141.733 Y56.381 E.46394
G1 X141.35 Y56.381 E.01923
G1 X141.35 Y65.626 E.46394
G1 X140.967 Y65.626 E.01923
G1 X140.967 Y56.381 E.46394
G1 X140.584 Y56.381 E.01923
G1 X140.584 Y65.626 E.46394
G1 X140.201 Y65.626 E.01923
G1 X140.201 Y56.381 E.46394
G1 X139.817 Y56.381 E.01923
G1 X139.817 Y65.626 E.46394
G1 X139.434 Y65.626 E.01923
G1 X139.434 Y56.381 E.46394
G1 X139.051 Y56.381 E.01923
G1 X139.051 Y65.626 E.46394
G1 X138.668 Y65.626 E.01923
G1 X138.668 Y56.381 E.46394
G1 X138.284 Y56.381 E.01923
G1 X138.284 Y65.626 E.46394
G1 X137.901 Y65.626 E.01923
G1 X137.901 Y56.381 E.46394
G1 X137.518 Y56.381 E.01923
G1 X137.518 Y65.626 E.46394
G1 X137.135 Y65.626 E.01923
G1 X137.135 Y56.381 E.46394
G1 X136.752 Y56.381 E.01923
G1 X136.752 Y65.626 E.46394
G1 X136.368 Y65.626 E.01923
G1 X136.368 Y56.381 E.46394
G1 X135.985 Y56.381 E.01923
G1 X135.985 Y65.626 E.46394
G1 X135.602 Y65.626 E.01923
G1 X135.602 Y56.381 E.46394
G1 X135.219 Y56.381 E.01923
G1 X135.219 Y65.626 E.46394
G1 X134.836 Y65.626 E.01923
G1 X134.836 Y56.381 E.46394
G1 X134.452 Y56.381 E.01923
G1 X134.452 Y65.626 E.46394
G1 X134.069 Y65.626 E.01923
G1 X134.069 Y56.381 E.46394
G1 X133.686 Y56.381 E.01923
G1 X133.686 Y65.626 E.46394
G1 X133.303 Y65.626 E.01923
G1 X133.303 Y56.381 E.46394
G1 X132.92 Y56.381 E.01923
G1 X132.92 Y65.626 E.46394
G1 X132.536 Y65.626 E.01923
G1 X132.536 Y56.381 E.46394
G1 X132.153 Y56.381 E.01923
G1 X132.153 Y65.626 E.46394
G1 X131.77 Y65.626 E.01923
G1 X131.77 Y56.381 E.46394
G1 X131.387 Y56.381 E.01923
G1 X131.387 Y65.626 E.46394
G1 X131.003 Y65.626 E.01923
G1 X131.003 Y56.381 E.46394
G1 X130.62 Y56.381 E.01923
G1 X130.62 Y65.626 E.46394
G1 X130.237 Y65.626 E.01923
G1 X130.237 Y56.381 E.46394
G1 X129.854 Y56.381 E.01923
G1 X129.854 Y65.626 E.46394
G1 X129.471 Y65.626 E.01923
G1 X129.471 Y56.381 E.46394
G1 X129.087 Y56.381 E.01923
G1 X129.087 Y65.626 E.46394
G1 X128.704 Y65.626 E.01923
G1 X128.704 Y56.381 E.46394
G1 X128.321 Y56.381 E.01923
G1 X128.321 Y65.626 E.46394
G1 X127.938 Y65.626 E.01923
G1 X127.938 Y56.381 E.46394
G1 X127.555 Y56.381 E.01923
G1 X127.555 Y65.626 E.46394
G1 X127.171 Y65.626 E.01923
G1 X127.171 Y56.381 E.46394
G1 X126.788 Y56.381 E.01923
G1 X126.788 Y65.626 E.46394
G1 X126.405 Y65.626 E.01923
G1 X126.405 Y56.381 E.46394
G1 X126.022 Y56.381 E.01923
M73 P1 R104
G1 X126.022 Y65.626 E.46394
G1 X125.639 Y65.626 E.01923
G1 X125.639 Y56.381 E.46394
G1 X125.255 Y56.381 E.01923
G1 X125.255 Y65.626 E.46394
G1 X124.872 Y65.626 E.01923
G1 X124.872 Y56.381 E.46394
G1 X124.489 Y56.381 E.01923
G1 X124.489 Y65.626 E.46394
G1 X124.106 Y65.626 E.01923
G1 X124.106 Y56.381 E.46394
G1 X123.722 Y56.381 E.01923
G1 X123.722 Y65.626 E.46394
G1 X123.339 Y65.626 E.01923
M73 P1 R103
G1 X123.339 Y56.381 E.46394
G1 X122.956 Y56.381 E.01923
G1 X122.956 Y65.626 E.46394
G1 X122.573 Y65.626 E.01923
G1 X122.573 Y56.381 E.46394
G1 X122.19 Y56.381 E.01923
G1 X122.19 Y65.626 E.46394
G1 X121.806 Y65.626 E.01923
G1 X121.806 Y56.381 E.46394
G1 X121.423 Y56.381 E.01923
G1 X121.423 Y65.626 E.46394
G1 X121.04 Y65.626 E.01923
G1 X121.04 Y56.381 E.46394
G1 X120.657 Y56.381 E.01923
G1 X120.657 Y65.626 E.46394
G1 X120.274 Y65.626 E.01923
G1 X120.274 Y56.381 E.46394
G1 X119.89 Y56.381 E.01923
G1 X119.89 Y65.626 E.46394
G1 X119.507 Y65.626 E.01923
G1 X119.507 Y56.381 E.46394
G1 X119.124 Y56.381 E.01923
G1 X119.124 Y65.626 E.46394
G1 X118.741 Y65.626 E.01923
G1 X118.741 Y56.381 E.46394
G1 X118.358 Y56.381 E.01923
G1 X118.358 Y65.626 E.46394
G1 X117.974 Y65.626 E.01923
G1 X117.974 Y56.381 E.46394
G1 X117.591 Y56.381 E.01923
G1 X117.591 Y65.626 E.46394
G1 X117.208 Y65.626 E.01923
G1 X117.208 Y56.381 E.46394
G1 X116.825 Y56.381 E.01923
G1 X116.825 Y65.626 E.46394
G1 X116.441 Y65.626 E.01923
G1 X116.441 Y56.381 E.46394
G1 X116.058 Y56.381 E.01923
G1 X116.058 Y65.626 E.46394
G1 X115.675 Y65.626 E.01923
G1 X115.675 Y56.381 E.46394
G1 X115.292 Y56.381 E.01923
G1 X115.292 Y65.626 E.46394
G1 X114.909 Y65.626 E.01923
G1 X114.909 Y56.381 E.46394
G1 X114.525 Y56.381 E.01923
G1 X114.525 Y65.626 E.46394
G1 X114.142 Y65.626 E.01923
G1 X114.142 Y56.381 E.46394
G1 X113.759 Y56.381 E.01923
G1 X113.759 Y65.626 E.46394
G1 X113.376 Y65.626 E.01923
G1 X113.376 Y56.381 E.46394
G1 X112.993 Y56.381 E.01923
G1 X112.993 Y65.626 E.46394
G1 X112.609 Y65.626 E.01923
G1 X112.609 Y56.381 E.46394
G1 X112.226 Y56.381 E.01923
G1 X112.226 Y65.626 E.46394
G1 X111.843 Y65.626 E.01923
G1 X111.843 Y56.381 E.46394
G1 X111.46 Y56.381 E.01923
G1 X111.46 Y65.626 E.46394
G1 X111.077 Y65.626 E.01923
G1 X111.077 Y56.381 E.46394
G1 X110.693 Y56.381 E.01923
G1 X110.693 Y65.626 E.46394
G1 X110.31 Y65.626 E.01923
G1 X110.31 Y56.381 E.46394
G1 X109.927 Y56.381 E.01923
G1 X109.927 Y65.626 E.46394
G1 X109.544 Y65.626 E.01923
G1 X109.544 Y56.381 E.46394
G1 X109.161 Y56.381 E.01923
G1 X109.161 Y65.626 E.46394
G1 X108.777 Y65.626 E.01923
G1 X108.777 Y56.381 E.46394
G1 X108.394 Y56.381 E.01923
G1 X108.394 Y65.626 E.46394
G1 X108.011 Y65.626 E.01923
G1 X108.011 Y56.381 E.46394
G1 X107.628 Y56.381 E.01923
G1 X107.628 Y65.626 E.46394
G1 X107.244 Y65.626 E.01923
G1 X107.244 Y56.381 E.46394
G1 X106.861 Y56.381 E.01923
G1 X106.861 Y65.626 E.46394
G1 X106.478 Y65.626 E.01923
G1 X106.478 Y56.381 E.46394
G1 X106.095 Y56.381 E.01923
G1 X106.095 Y65.626 E.46394
G1 X105.712 Y65.626 E.01923
G1 X105.712 Y56.381 E.46394
G1 X105.328 Y56.381 E.01923
G1 X105.328 Y65.626 E.46394
G1 X104.945 Y65.626 E.01923
G1 X104.945 Y56.381 E.46394
G1 X104.562 Y56.381 E.01923
G1 X104.562 Y65.626 E.46394
G1 X104.179 Y65.626 E.01923
G1 X104.179 Y56.381 E.46394
G1 X103.796 Y56.381 E.01923
G1 X103.796 Y65.626 E.46394
G1 X103.412 Y65.626 E.01923
G1 X103.412 Y56.381 E.46394
G1 X103.029 Y56.381 E.01923
G1 X103.029 Y65.626 E.46394
G1 X102.646 Y65.626 E.01923
G1 X102.646 Y56.381 E.46394
G1 X102.263 Y56.381 E.01923
G1 X102.263 Y65.626 E.46394
G1 X101.88 Y65.626 E.01923
G1 X101.88 Y56.381 E.46394
G1 X101.496 Y56.381 E.01923
G1 X101.496 Y65.626 E.46394
G1 X101.113 Y65.626 E.01923
G1 X101.113 Y56.381 E.46394
G1 X100.73 Y56.381 E.01923
G1 X100.73 Y65.781 E.47173
G1 E-.7 F3600
;WIPE_START
G1 F6240
G1 X100.73 Y65.261 E-.285
;WIPE_END
G1 E-.015 F3600
G1 X18.519 Y61.282 F7800
G1 E1 F2400
;TYPE:Perimeter
;WIDTH:0.42
G1 F1800
G1 X14.525 Y63.273 E.22396
G1 X14.525 Y61.282 E.09992
G1 X18.369 Y61.282 E.19291
G1 X19.984 Y60.938 F7800
;TYPE:External perimeter
G1 F1800
G1 X14.18 Y63.831 E.32545
G1 X14.18 Y60.938 E.14519
G1 X19.834 Y60.938 E.28374
G1 X20.045 Y59.939 F7800
G1 E-.7 F3600
;WIPE_START
G1 F6240
G1 X19.371 Y61.174 E-.285
;WIPE_END
G1 E-.015 F3600
G1 X17.185 Y61.832 F7800
G1 E1 F2400
;TYPE:Solid infill
;WIDTH:0.440563
G1 F1800
G1 X16.895 Y61.541 E.02186
G1 X16.378 Y61.541 E.02748
G1 X16.725 Y61.888 E.02609
G1 X16.38 Y62.06 E.02049
G1 X15.861 Y61.541 E.03902
G1 X15.344 Y61.541 E.02748
G1 X16.035 Y62.232 E.05195
G1 X15.69 Y62.404 E.02049
G1 X14.827 Y61.541 E.06488
G1 X14.784 Y61.541 E.00231
G1 X14.784 Y62.014 E.02518
G1 X15.345 Y62.576 E.0422
G1 X15 Y62.748 E.02049
G1 X14.629 Y62.376 E.02794
M106 S255
;LAYER_CHANGE
;Z:0.85
;HEIGHT:0.5
;BEFORE_LAYER_CHANGE
G92 E0
;0.85


G1 E-.7 F3600
;WIPE_START
G1 F6240
G1 X14.997 Y62.744 E-.285
;WIPE_END
G1 E-.015 F3600
G1 Z.85 F7800
;AFTER_LAYER_CHANGE
;0.85
M104 S205 ; set temperature
G1 X18.811 Y61.228
G1 E1 F2400
;TYPE:External perimeter
;WIDTH:1
G1 F900
G1 X14.47 Y63.391 E.89997
G1 X14.47 Y61.228 E.40151
G1 X18.661 Y61.228 E.77761
G1 X18.872 Y60.229 F7800
G1 E-.7 F3600
;WIPE_START
G1 F6240
G1 X18.199 Y61.466 E-.285
;WIPE_END
G1 E-.015 F3600
G1 X15.393 Y62.055 F7800
G1 E1 F2400
;TYPE:Perimeter
;WIDTH:0.868847
G1 F900
G1 X15.345 Y62.137 E.01507
G1 X15.25 Y62.137 E.01507
G1 X15.202 Y62.055 E.01507
G1 X15.25 Y61.972 E.01507
G1 X15.345 Y61.972 E.01507
;LAYER_CHANGE
;Z:1.09507
;HEIGHT:0.24507
;BEFORE_LAYER_CHANGE
G92 E0
;1.09507


G1 E-.7 F3600
;WIPE_START
G1 F6240
G1 X15.25 Y61.972 E-.05217
G1 X15.202 Y62.055 E-.05217
G1 X15.25 Y62.137 E-.05217
G1 X15.345 Y62.137 E-.05217
G1 X15.393 Y62.055 E-.05217
;WIPE_END
G1 E-.03913 F3600
G1 Z1.095 F7800
;AFTER_LAYER_CHANGE
;1.09507
G1 X167.978 Y62.52
G1 E1 F2400
;TYPE:Support material
;WIDTH:1
;HEIGHT:0.74507
G1 F900
G1 X167.978 Y59.361 E.82218
G1 X103.624 Y59.361 E16.74716
G1 X103.624 Y62.646 E.85498
G1 X167.978 Y62.646 E16.74716
;LAYER_CHANGE
;Z:1.35
;HEIGHT:0.25493
;BEFORE_LAYER_CHANGE
G92 E0
;1.35


G1 E-.7 F3600
;WIPE_START
G1 F6240
G1 X167.458 Y62.646 E-.285
;WIPE_END
G1 E-.015 F3600
G1 Z1.35 F7800
;AFTER_LAYER_CHANGE
;1.35
G1 X18.88 Y61.228
G1 E1 F2400
;TYPE:External perimeter
;WIDTH:1
;HEIGHT:0.5
G1 F900
G1 X14.47 Y63.425 E.91422
G1 X14.47 Y61.228 E.40786
G1 X18.73 Y61.228 E.79036
G1 X18.941 Y60.229 F7800
G1 E-.7 F3600
;WIPE_START
G1 F6240
G1 X18.267 Y61.466 E-.285
;WIPE_END
G1 E-.015 F3600
G1 X15.409 Y62.068 F7800
G1 E1 F2400
;TYPE:Perimeter
;WIDTH:0.895033
G1 F900
G1 X15.36 Y62.153 E.01612
G1 X15.261 Y62.153 E.01612
G1 X15.212 Y62.068 E.01612
G1 X15.261 Y61.982 E.01612
G1 X15.36 Y61.982 E.01612
;LAYER_CHANGE
;Z:1.84014
;HEIGHT:0.490141
;BEFORE_LAYER_CHANGE
G92 E0
;1.84014


G1 E-.7 F3600
;WIPE_START
G1 F6240
G1 X15.261 Y61.982 E-.05397
G1 X15.212 Y62.068 E-.05397
G1 X15.261 Y62.153 E-.05397
G1 X15.36 Y62.153 E-.05397
G1 X15.409 Y62.068 E-.05397
;WIPE_END
G1 E-.03017 F3600
G1 Z1.84 F7800
;AFTER_LAYER_CHANGE
;1.84014
G1 X167.978 Y62.52
G1 E1 F2400
;TYPE:Support material
;WIDTH:1
;HEIGHT:0.74507
G1 F900
G1 X167.978 Y59.361 E.82218
G1 X103.624 Y59.361 E16.74716
G1 X103.624 Y62.646 E.85498
G1 X167.978 Y62.646 E16.74716
;LAYER_CHANGE
;Z:1.85
;HEIGHT:0.0098592
;BEFORE_LAYER_CHANGE
G92 E0
;1.85


G1 E-.7 F3600
;WIPE_START
G1 F6240
G1 X167.458 Y62.646 E-.285
;WIPE_END
G1 E-.015 F3600
G1 Z1.85 F7800
;AFTER_LAYER_CHANGE
;1.85
G1 X18.955 Y61.228
G1 E1 F2400
;TYPE:External perimeter
;WIDTH:1
;HEIGHT:0.5
G1 F900
G1 X14.47 Y63.463 E.9298
G1 X14.47 Y61.228 E.41482
G1 X18.805 Y61.228 E.80431
G1 X19.016 Y60.229 F7800
G1 E-.7 F3600
;WIPE_START
G1 F6240
G1 X18.343 Y61.466 E-.285
;WIPE_END
G1 E-.015 F3600
G1 X15.376 Y61.994 F7800
G1 E1 F2400
;TYPE:Perimeter
;WIDTH:0.923685
G1 F900
G1 X15.274 Y61.994 E.01732
G1 X15.223 Y62.082 E.01732
G1 X15.274 Y62.17 E.01732
G1 X15.376 Y62.17 E.01732
G1 X15.427 Y62.082 E.01732
;LAYER_CHANGE
;Z:2.35
;HEIGHT:0.5
;BEFORE_LAYER_CHANGE
G92 E0
;2.35


G1 E-.7 F3600
;WIPE_START
G1 F6240
G1 X15.376 Y62.17 E-.05593
G1 X15.274 Y62.17 E-.05593
G1 X15.223 Y62.082 E-.05593
G1 X15.274 Y61.994 E-.05593
G1 X15.376 Y61.994 E-.05593
;WIPE_END
