; generated by PrusaSlicer 2.5.0+win64 on 2022-12-07 at 00:04:02 UTC

; 

; external perimeters extrusion width = 1.00mm
; perimeters extrusion width = 1.00mm
; infill extrusion width = 1.00mm
; solid infill extrusion width = 1.00mm
; top infill extrusion width = 1.00mm
; support material extrusion width = 1.00mm
; first layer extrusion width = 0.42mm

M73 P0 R16
M107
;TYPE:Custom
G90 ; use absolute coordinates
M83 ; extruder relative mode
M140 S60 ; set final bed temp
M104 S150 ; set temporary nozzle temp to prevent oozing during homing and auto bed leveling
G4 S10 ; allow partial nozzle warmup
G28 ; home all axisG1 Z50 F240
G1 X7.6 Y10 F3000
M104 S210 ; set final nozzle temp
M190 S60 ; wait for bed temp to stabilize
M109 S210 ; wait for nozzle temp to stabilize
G1 Z0.28 F240
G92 E0
G1 Y140 E10 F1500 ; prime the nozzle
G1 X4 F5000
G92 E0
M73 P0 R15
G1 Y10 E10 F1200 ; prime the nozzle
G92 E0
G21 ; set units to millimeters
G90 ; use absolute coordinates
M83 ; use relative distances for extrusion
; Filament gcode
M107
;LAYER_CHANGE
;Z:0.35
;HEIGHT:0.35
;BEFORE_LAYER_CHANGE
G92 E0
;0.35


G1 E-1 F3600
M73 P1 R15
G1 Z.35 F7800
;AFTER_LAYER_CHANGE
;0.35
G1 X133.775 Y82.903
G1 E1 F2400
;TYPE:Support material
;WIDTH:0.42
G1 F1800
G1 X49.27 Y82.903 E4.24094
G1 X49.27 Y73.038 E.49509
G1 X133.775 Y73.038 E4.24094
G1 X133.775 Y82.851 E.4925
M73 P2 R15
G1 X49.753 Y77.023 F7800
G1 F1800
G1 X49.337 Y77.439 E.02952
G1 X49.337 Y78.384 E.04742
G1 X50.099 Y78.782 E.04316
G1 X51.198 Y78.018 E.06717
G1 X50.886 Y77.023 E.05235
G1 X49.805 Y77.023 E.05428
G1 X133.129 Y82.748 F7800
G1 F1800
G1 X133.129 Y73.348 E.47173
G1 X132.745 Y73.348 E.01923
G1 X132.745 Y82.593 E.46394
G1 X132.362 Y82.593 E.01923
G1 X132.362 Y73.348 E.46394
G1 X131.979 Y73.348 E.01923
G1 X131.979 Y82.593 E.46394
G1 X131.596 Y82.593 E.01923
G1 X131.596 Y73.348 E.46394
G1 X131.213 Y73.348 E.01923
G1 X131.213 Y82.593 E.46394
G1 X130.829 Y82.593 E.01923
G1 X130.829 Y73.348 E.46394
G1 X130.446 Y73.348 E.01923
G1 X130.446 Y82.593 E.46394
G1 X130.063 Y82.593 E.01923
G1 X130.063 Y73.348 E.46394
G1 X129.68 Y73.348 E.01923
G1 X129.68 Y82.593 E.46394
G1 X129.297 Y82.593 E.01923
G1 X129.297 Y73.348 E.46394
G1 X128.913 Y73.348 E.01923
G1 X128.913 Y82.593 E.46394
G1 X128.53 Y82.593 E.01923
G1 X128.53 Y73.348 E.46394
G1 X128.147 Y73.348 E.01923
G1 X128.147 Y82.593 E.46394
G1 X127.764 Y82.593 E.01923
G1 X127.764 Y73.348 E.46394
G1 X127.38 Y73.348 E.01923
G1 X127.38 Y82.593 E.46394
G1 X126.997 Y82.593 E.01923
G1 X126.997 Y73.348 E.46394
G1 X126.614 Y73.348 E.01923
G1 X126.614 Y82.593 E.46394
G1 X126.231 Y82.593 E.01923
M73 P3 R15
G1 X126.231 Y73.348 E.46394
G1 X125.848 Y73.348 E.01923
G1 X125.848 Y82.593 E.46394
G1 X125.464 Y82.593 E.01923
G1 X125.464 Y73.348 E.46394
G1 X125.081 Y73.348 E.01923
G1 X125.081 Y82.593 E.46394
G1 X124.698 Y82.593 E.01923
G1 X124.698 Y73.348 E.46394
G1 X124.315 Y73.348 E.01923
G1 X124.315 Y82.593 E.46394
G1 X123.932 Y82.593 E.01923
G1 X123.932 Y73.348 E.46394
G1 X123.548 Y73.348 E.01923
G1 X123.548 Y82.593 E.46394
G1 X123.165 Y82.593 E.01923
G1 X123.165 Y73.348 E.46394
G1 X122.782 Y73.348 E.01923
G1 X122.782 Y82.593 E.46394
G1 X122.399 Y82.593 E.01923
G1 X122.399 Y73.348 E.46394
G1 X122.016 Y73.348 E.01923
G1 X122.016 Y82.593 E.46394
G1 X121.632 Y82.593 E.01923
G1 X121.632 Y73.348 E.46394
G1 X121.249 Y73.348 E.01923
G1 X121.249 Y82.593 E.46394
G1 X120.866 Y82.593 E.01923
G1 X120.866 Y73.348 E.46394
G1 X120.483 Y73.348 E.01923
G1 X120.483 Y82.593 E.46394
G1 X120.099 Y82.593 E.01923
G1 X120.099 Y73.348 E.46394
G1 X119.716 Y73.348 E.01923
G1 X119.716 Y82.593 E.46394
G1 X119.333 Y82.593 E.01923
G1 X119.333 Y73.348 E.46394
G1 X118.95 Y73.348 E.01923
G1 X118.95 Y82.593 E.46394
G1 X118.567 Y82.593 E.01923
G1 X118.567 Y73.348 E.46394
G1 X118.183 Y73.348 E.01923
G1 X118.183 Y82.593 E.46394
G1 X117.8 Y82.593 E.01923
G1 X117.8 Y73.348 E.46394
G1 X117.417 Y73.348 E.01923
G1 X117.417 Y82.593 E.46394
G1 X117.034 Y82.593 E.01923
G1 X117.034 Y73.348 E.46394
G1 X116.651 Y73.348 E.01923
G1 X116.651 Y82.593 E.46394
G1 X116.267 Y82.593 E.01923
M73 P4 R15
G1 X116.267 Y73.348 E.46394
G1 X115.884 Y73.348 E.01923
G1 X115.884 Y82.593 E.46394
G1 X115.501 Y82.593 E.01923
G1 X115.501 Y73.348 E.46394
G1 X115.118 Y73.348 E.01923
G1 X115.118 Y82.593 E.46394
G1 X114.735 Y82.593 E.01923
G1 X114.735 Y73.348 E.46394
G1 X114.351 Y73.348 E.01923
G1 X114.351 Y82.593 E.46394
G1 X113.968 Y82.593 E.01923
G1 X113.968 Y73.348 E.46394
G1 X113.585 Y73.348 E.01923
G1 X113.585 Y82.593 E.46394
G1 X113.202 Y82.593 E.01923
G1 X113.202 Y73.348 E.46394
G1 X112.819 Y73.348 E.01923
G1 X112.819 Y82.593 E.46394
G1 X112.435 Y82.593 E.01923
G1 X112.435 Y73.348 E.46394
G1 X112.052 Y73.348 E.01923
G1 X112.052 Y82.593 E.46394
G1 X111.669 Y82.593 E.01923
G1 X111.669 Y73.348 E.46394
G1 X111.286 Y73.348 E.01923
G1 X111.286 Y82.593 E.46394
G1 X110.902 Y82.593 E.01923
G1 X110.902 Y73.348 E.46394
G1 X110.519 Y73.348 E.01923
G1 X110.519 Y82.593 E.46394
G1 X110.136 Y82.593 E.01923
G1 X110.136 Y73.348 E.46394
G1 X109.753 Y73.348 E.01923
G1 X109.753 Y82.593 E.46394
G1 X109.37 Y82.593 E.01923
G1 X109.37 Y73.348 E.46394
G1 X108.986 Y73.348 E.01923
G1 X108.986 Y82.593 E.46394
G1 X108.603 Y82.593 E.01923
G1 X108.603 Y73.348 E.46394
G1 X108.22 Y73.348 E.01923
G1 X108.22 Y82.593 E.46394
G1 X107.837 Y82.593 E.01923
G1 X107.837 Y73.348 E.46394
G1 X107.454 Y73.348 E.01923
G1 X107.454 Y82.593 E.46394
G1 X107.07 Y82.593 E.01923
G1 X107.07 Y73.348 E.46394
G1 X106.687 Y73.348 E.01923
G1 X106.687 Y82.593 E.46394
M73 P5 R15
G1 X106.304 Y82.593 E.01923
G1 X106.304 Y73.348 E.46394
G1 X105.921 Y73.348 E.01923
G1 X105.921 Y82.593 E.46394
G1 X105.538 Y82.593 E.01923
G1 X105.538 Y73.348 E.46394
G1 X105.154 Y73.348 E.01923
G1 X105.154 Y82.593 E.46394
G1 X104.771 Y82.593 E.01923
G1 X104.771 Y73.348 E.46394
G1 X104.388 Y73.348 E.01923
G1 X104.388 Y82.593 E.46394
G1 X104.005 Y82.593 E.01923
G1 X104.005 Y73.348 E.46394
G1 X103.621 Y73.348 E.01923
G1 X103.621 Y82.593 E.46394
G1 X103.238 Y82.593 E.01923
G1 X103.238 Y73.348 E.46394
G1 X102.855 Y73.348 E.01923
G1 X102.855 Y82.593 E.46394
G1 X102.472 Y82.593 E.01923
G1 X102.472 Y73.348 E.46394
G1 X102.089 Y73.348 E.01923
G1 X102.089 Y82.593 E.46394
G1 X101.705 Y82.593 E.01923
G1 X101.705 Y73.348 E.46394
G1 X101.322 Y73.348 E.01923
G1 X101.322 Y82.593 E.46394
G1 X100.939 Y82.593 E.01923
G1 X100.939 Y73.348 E.46394
G1 X100.556 Y73.348 E.01923
G1 X100.556 Y82.593 E.46394
G1 X100.173 Y82.593 E.01923
G1 X100.173 Y73.348 E.46394
G1 X99.789 Y73.348 E.01923
G1 X99.789 Y82.593 E.46394
G1 X99.406 Y82.593 E.01923
G1 X99.406 Y73.348 E.46394
G1 X99.023 Y73.348 E.01923
G1 X99.023 Y82.593 E.46394
G1 X98.64 Y82.593 E.01923
G1 X98.64 Y73.348 E.46394
G1 X98.257 Y73.348 E.01923
G1 X98.257 Y82.593 E.46394
G1 X97.873 Y82.593 E.01923
G1 X97.873 Y73.348 E.46394
G1 X97.49 Y73.348 E.01923
G1 X97.49 Y82.593 E.46394
G1 X97.107 Y82.593 E.01923
G1 X97.107 Y73.348 E.46394
G1 X96.724 Y73.348 E.01923
M73 P6 R15
G1 X96.724 Y82.593 E.46394
G1 X96.34 Y82.593 E.01923
G1 X96.34 Y73.348 E.46394
G1 X95.957 Y73.348 E.01923
G1 X95.957 Y82.593 E.46394
G1 X95.574 Y82.593 E.01923
G1 X95.574 Y73.348 E.46394
G1 X95.191 Y73.348 E.01923
G1 X95.191 Y82.593 E.46394
G1 X94.808 Y82.593 E.01923
G1 X94.808 Y73.348 E.46394
G1 X94.424 Y73.348 E.01923
G1 X94.424 Y82.593 E.46394
G1 X94.041 Y82.593 E.01923
G1 X94.041 Y73.348 E.46394
G1 X93.658 Y73.348 E.01923
G1 X93.658 Y82.593 E.46394
G1 X93.275 Y82.593 E.01923
M73 P6 R14
G1 X93.275 Y73.348 E.46394
G1 X92.892 Y73.348 E.01923
G1 X92.892 Y82.593 E.46394
G1 X92.508 Y82.593 E.01923
G1 X92.508 Y73.348 E.46394
G1 X92.125 Y73.348 E.01923
G1 X92.125 Y82.593 E.46394
G1 X91.742 Y82.593 E.01923
G1 X91.742 Y73.348 E.46394
G1 X91.359 Y73.348 E.01923
G1 X91.359 Y82.593 E.46394
G1 X90.976 Y82.593 E.01923
G1 X90.976 Y73.348 E.46394
G1 X90.592 Y73.348 E.01923
G1 X90.592 Y82.593 E.46394
G1 X90.209 Y82.593 E.01923
G1 X90.209 Y73.348 E.46394
G1 X89.826 Y73.348 E.01923
G1 X89.826 Y82.593 E.46394
G1 X89.443 Y82.593 E.01923
G1 X89.443 Y73.348 E.46394
G1 X89.059 Y73.348 E.01923
G1 X89.059 Y82.593 E.46394
G1 X88.676 Y82.593 E.01923
G1 X88.676 Y73.348 E.46394
G1 X88.293 Y73.348 E.01923
G1 X88.293 Y82.593 E.46394
G1 X87.91 Y82.593 E.01923
G1 X87.91 Y73.348 E.46394
G1 X87.527 Y73.348 E.01923
G1 X87.527 Y82.593 E.46394
G1 X87.143 Y82.593 E.01923
G1 X87.143 Y73.348 E.46394
G1 X86.76 Y73.348 E.01923
M73 P7 R14
G1 X86.76 Y82.593 E.46394
G1 X86.377 Y82.593 E.01923
G1 X86.377 Y73.348 E.46394
G1 X85.994 Y73.348 E.01923
G1 X85.994 Y82.593 E.46394
G1 X85.611 Y82.593 E.01923
G1 X85.611 Y73.348 E.46394
G1 X85.227 Y73.348 E.01923
G1 X85.227 Y82.593 E.46394
G1 X84.844 Y82.593 E.01923
G1 X84.844 Y73.348 E.46394
G1 X84.461 Y73.348 E.01923
G1 X84.461 Y82.593 E.46394
G1 X84.078 Y82.593 E.01923
G1 X84.078 Y73.348 E.46394
G1 X83.695 Y73.348 E.01923
G1 X83.695 Y82.593 E.46394
G1 X83.311 Y82.593 E.01923
G1 X83.311 Y73.348 E.46394
G1 X82.928 Y73.348 E.01923
G1 X82.928 Y82.593 E.46394
G1 X82.545 Y82.593 E.01923
G1 X82.545 Y73.348 E.46394
G1 X82.162 Y73.348 E.01923
G1 X82.162 Y82.593 E.46394
G1 X81.778 Y82.593 E.01923
G1 X81.778 Y73.348 E.46394
G1 X81.395 Y73.348 E.01923
G1 X81.395 Y82.593 E.46394
G1 X81.012 Y82.593 E.01923
G1 X81.012 Y73.348 E.46394
G1 X80.629 Y73.348 E.01923
G1 X80.629 Y82.593 E.46394
G1 X80.246 Y82.593 E.01923
G1 X80.246 Y73.348 E.46394
G1 X79.862 Y73.348 E.01923
G1 X79.862 Y82.593 E.46394
G1 X79.479 Y82.593 E.01923
G1 X79.479 Y73.348 E.46394
G1 X79.096 Y73.348 E.01923
G1 X79.096 Y82.593 E.46394
G1 X78.713 Y82.593 E.01923
G1 X78.713 Y73.348 E.46394
G1 X78.33 Y73.348 E.01923
G1 X78.33 Y82.593 E.46394
G1 X77.946 Y82.593 E.01923
G1 X77.946 Y73.348 E.46394
G1 X77.563 Y73.348 E.01923
G1 X77.563 Y82.593 E.46394
G1 X77.18 Y82.593 E.01923
G1 X77.18 Y73.348 E.46394
G1 X76.797 Y73.348 E.01923
M73 P8 R14
G1 X76.797 Y82.593 E.46394
G1 X76.414 Y82.593 E.01923
G1 X76.414 Y73.348 E.46394
G1 X76.03 Y73.348 E.01923
G1 X76.03 Y82.593 E.46394
G1 X75.647 Y82.593 E.01923
G1 X75.647 Y73.348 E.46394
G1 X75.264 Y73.348 E.01923
G1 X75.264 Y82.593 E.46394
G1 X74.881 Y82.593 E.01923
G1 X74.881 Y73.348 E.46394
G1 X74.498 Y73.348 E.01923
G1 X74.498 Y82.593 E.46394
G1 X74.114 Y82.593 E.01923
G1 X74.114 Y73.348 E.46394
G1 X73.731 Y73.348 E.01923
G1 X73.731 Y82.593 E.46394
G1 X73.348 Y82.593 E.01923
G1 X73.348 Y73.348 E.46394
G1 X72.965 Y73.348 E.01923
G1 X72.965 Y82.593 E.46394
G1 X72.581 Y82.593 E.01923
G1 X72.581 Y73.348 E.46394
G1 X72.198 Y73.348 E.01923
G1 X72.198 Y82.593 E.46394
G1 X71.815 Y82.593 E.01923
G1 X71.815 Y73.348 E.46394
G1 X71.432 Y73.348 E.01923
G1 X71.432 Y82.593 E.46394
G1 X71.049 Y82.593 E.01923
G1 X71.049 Y73.348 E.46394
G1 X70.665 Y73.348 E.01923
G1 X70.665 Y82.593 E.46394
G1 X70.282 Y82.593 E.01923
G1 X70.282 Y73.348 E.46394
G1 X69.899 Y73.348 E.01923
G1 X69.899 Y82.593 E.46394
G1 X69.516 Y82.593 E.01923
G1 X69.516 Y73.348 E.46394
G1 X69.133 Y73.348 E.01923
G1 X69.133 Y82.593 E.46394
G1 X68.749 Y82.593 E.01923
G1 X68.749 Y73.348 E.46394
G1 X68.366 Y73.348 E.01923
G1 X68.366 Y82.593 E.46394
G1 X67.983 Y82.593 E.01923
G1 X67.983 Y73.348 E.46394
G1 X67.6 Y73.348 E.01923
G1 X67.6 Y82.593 E.46394
G1 X67.217 Y82.593 E.01923
G1 X67.217 Y73.348 E.46394
G1 X66.833 Y73.348 E.01923
M73 P9 R14
G1 X66.833 Y82.593 E.46394
G1 X66.45 Y82.593 E.01923
G1 X66.45 Y73.348 E.46394
G1 X66.067 Y73.348 E.01923
G1 X66.067 Y82.593 E.46394
G1 X65.684 Y82.593 E.01923
G1 X65.684 Y73.348 E.46394
G1 X65.3 Y73.348 E.01923
G1 X65.3 Y82.593 E.46394
G1 X64.917 Y82.593 E.01923
G1 X64.917 Y73.348 E.46394
G1 X64.534 Y73.348 E.01923
G1 X64.534 Y82.593 E.46394
G1 X64.151 Y82.593 E.01923
G1 X64.151 Y73.348 E.46394
G1 X63.768 Y73.348 E.01923
G1 X63.768 Y82.593 E.46394
G1 X63.384 Y82.593 E.01923
G1 X63.384 Y73.348 E.46394
G1 X63.001 Y73.348 E.01923
G1 X63.001 Y82.593 E.46394
G1 X62.618 Y82.593 E.01923
G1 X62.618 Y73.348 E.46394
G1 X62.235 Y73.348 E.01923
G1 X62.235 Y82.593 E.46394
G1 X61.852 Y82.593 E.01923
G1 X61.852 Y73.348 E.46394
G1 X61.468 Y73.348 E.01923
G1 X61.468 Y82.593 E.46394
G1 X61.085 Y82.593 E.01923
G1 X61.085 Y73.348 E.46394
G1 X60.702 Y73.348 E.01923
G1 X60.702 Y82.593 E.46394
G1 X60.319 Y82.593 E.01923
G1 X60.319 Y73.348 E.46394
G1 X59.936 Y73.348 E.01923
G1 X59.936 Y82.593 E.46394
G1 X59.552 Y82.593 E.01923
G1 X59.552 Y73.348 E.46394
G1 X59.169 Y73.348 E.01923
G1 X59.169 Y82.593 E.46394
G1 X58.786 Y82.593 E.01923
G1 X58.786 Y73.348 E.46394
G1 X58.403 Y73.348 E.01923
G1 X58.403 Y82.593 E.46394
G1 X58.019 Y82.593 E.01923
G1 X58.019 Y73.348 E.46394
G1 X57.636 Y73.348 E.01923
G1 X57.636 Y82.593 E.46394
G1 X57.253 Y82.593 E.01923
M73 P10 R14
G1 X57.253 Y73.348 E.46394
G1 X56.87 Y73.348 E.01923
G1 X56.87 Y82.593 E.46394
G1 X56.487 Y82.593 E.01923
G1 X56.487 Y73.348 E.46394
G1 X56.103 Y73.348 E.01923
G1 X56.103 Y82.593 E.46394
G1 X55.72 Y82.593 E.01923
G1 X55.72 Y73.348 E.46394
G1 X55.337 Y73.348 E.01923
G1 X55.337 Y82.593 E.46394
G1 X54.954 Y82.593 E.01923
G1 X54.954 Y73.348 E.46394
G1 X54.571 Y73.348 E.01923
G1 X54.571 Y82.593 E.46394
G1 X54.187 Y82.593 E.01923
G1 X54.187 Y73.348 E.46394
G1 X53.804 Y73.348 E.01923
G1 X53.804 Y82.593 E.46394
G1 X53.421 Y82.593 E.01923
G1 X53.421 Y73.348 E.46394
G1 X53.038 Y73.348 E.01923
G1 X53.038 Y82.593 E.46394
G1 X52.655 Y82.593 E.01923
G1 X52.655 Y73.348 E.46394
G1 X52.271 Y73.348 E.01923
G1 X52.271 Y82.593 E.46394
G1 X51.888 Y82.593 E.01923
G1 X51.888 Y73.348 E.46394
G1 X51.505 Y73.348 E.01923
G1 X51.505 Y82.593 E.46394
G1 X51.122 Y82.593 E.01923
G1 X51.122 Y78.449 E.20794
G1 X50.738 Y78.716 E.02342
G1 X50.738 Y82.593 E.19457
G1 X50.355 Y82.593 E.01923
G1 X50.355 Y78.982 E.1812
G1 X50.122 Y79.144 E.01427
G1 X49.972 Y79.066 E.00848
G1 X49.972 Y82.593 E.17699
G1 X49.589 Y82.593 E.01923
G1 X49.589 Y78.691 E.19583
G1 E-.7 F3600
;WIPE_START
G1 F6240
G1 X49.589 Y79.211 E-.285
;WIPE_END
G1 E-.015 F3600
G1 X51.122 Y77.256 F7800
G1 E1 F2400
G1 F1800
G1 X51.122 Y73.348 E.19611
G1 X50.738 Y73.348 E.01923
G1 X50.738 Y76.713 E.16884
G1 X50.355 Y76.713 E.01923
G1 X50.355 Y73.348 E.16884
G1 X49.972 Y73.348 E.01923
G1 X49.972 Y76.713 E.16884
G1 X49.624 Y76.713 E.01746
G1 X49.589 Y76.748 E.00251
G1 X49.589 Y73.193 E.1784
M106 S255
;LAYER_CHANGE
;Z:0.85
;HEIGHT:0.5
;BEFORE_LAYER_CHANGE
G92 E0
;0.85


G1 E-.7 F3600
;WIPE_START
G1 F6240
G1 X49.589 Y73.713 E-.285
;WIPE_END
G1 E-.015 F3600
G1 Z.85 F7800
;AFTER_LAYER_CHANGE
;0.85
M104 S205 ; set temperature
G1 X50.413 Y77.993
G1 E1 F2400
;TYPE:External perimeter
;WIDTH:0.957301
G1 F900
G1 X50.36 Y78.085 E.01877
G1 X50.254 Y78.085 E.01877
G1 X50.2 Y77.993 E.01877
G1 X50.254 Y77.901 E.01877
G1 X50.36 Y77.901 E.01877
;LAYER_CHANGE
;Z:0.925
;HEIGHT:0.075
;BEFORE_LAYER_CHANGE
G92 E0
;0.925


G1 E-.7 F3600
;WIPE_START
G1 F6240
G1 X50.254 Y77.901 E-.05823
G1 X50.2 Y77.993 E-.05823
G1 X50.254 Y78.085 E-.05823
G1 X50.36 Y78.085 E-.05823
G1 X50.407 Y78.003 E-.05207
;WIPE_END
G1 E-.015 F3600
G1 Z.925 F7800
;AFTER_LAYER_CHANGE
;0.925
G1 X130.485 Y79.482
G1 E1 F2400
;TYPE:Support material
;WIDTH:1
;HEIGHT:0.575
G1 F900
G1 X130.485 Y76.328 E.66093
G1 X52.56 Y76.328 E16.3298
M73 P11 R14
G1 X52.56 Y76.733 E.0849
G1 X52.778 Y76.733 E.04571
G1 X53.217 Y78.135 E.30787
G1 X52.56 Y78.592 E.1678
G1 X52.56 Y79.613 E.21404
G1 X130.485 Y79.613 E16.3298
;LAYER_CHANGE
;Z:1.35
;HEIGHT:0.425
;BEFORE_LAYER_CHANGE
G92 E0
;1.35


G1 E-.7 F3600
;WIPE_START
M73 P12 R14
G1 F6240
G1 X129.965 Y79.613 E-.285
;WIPE_END
G1 E-.015 F3600
G1 Z1.35 F7800
;AFTER_LAYER_CHANGE
;1.35
G1 X50.63 Y78.209
G1 E1 F2400
;TYPE:External perimeter
;WIDTH:0.957301
;HEIGHT:0.5
G1 F900
G1 X50.576 Y78.301 E.01877
G1 X50.47 Y78.301 E.01877
G1 X50.417 Y78.209 E.01877
G1 X50.47 Y78.117 E.01877
G1 X50.576 Y78.117 E.01877
;LAYER_CHANGE
;Z:1.5
;HEIGHT:0.15
;BEFORE_LAYER_CHANGE
G92 E0
;1.5


G1 E-.7 F3600
;WIPE_START
G1 F6240
G1 X50.47 Y78.117 E-.05823
G1 X50.417 Y78.209 E-.05823
G1 X50.47 Y78.301 E-.05823
G1 X50.576 Y78.301 E-.05823
G1 X50.624 Y78.219 E-.05207
;WIPE_END
G1 E-.015 F3600
G1 Z1.5 F7800
;AFTER_LAYER_CHANGE
;1.5
G1 X52.779 Y77.188
G1 E1 F2400
;TYPE:Support material interface
;WIDTH:1
;HEIGHT:0.575
G1 F900
G1 X52.779 Y76.274 E.19157
