; generated by PrusaSlicer 2.5.0+win64 on 2022-12-07 at 00:04:04 UTC

; 

; external perimeters extrusion width = 1.00mm
; perimeters extrusion width = 1.00mm
; infill extrusion width = 1.00mm
; solid infill extrusion width = 1.00mm
; top infill extrusion width = 1.00mm
; support material extrusion width = 1.00mm
; first layer extrusion width = 0.42mm

M73 P0 R73
M107
;TYPE:Custom
G90 ; use absolute coordinates
M83 ; extruder relative mode
M140 S60 ; set final bed temp
M104 S150 ; set temporary nozzle temp to prevent oozing during homing and auto bed leveling
G4 S10 ; allow partial nozzle warmup
G28 ; home all axisG1 Z50 F240
G1 X7.6 Y10 F3000
M104 S210 ; set final nozzle temp
M190 S60 ; wait for bed temp to stabilize
M109 S210 ; wait for nozzle temp to stabilize
G1 Z0.28 F240
G92 E0
G1 Y140 E10 F1500 ; prime the nozzle
G1 X4 F5000
G92 E0
G1 Y10 E10 F1200 ; prime the nozzle
G92 E0
G21 ; set units to millimeters
G90 ; use absolute coordinates
M83 ; use relative distances for extrusion
; Filament gcode
M107
;LAYER_CHANGE
;Z:0.35
;HEIGHT:0.35
;BEFORE_LAYER_CHANGE
G92 E0
;0.35


G1 E-1 F3600
M73 P0 R72
G1 Z.35 F7800
;AFTER_LAYER_CHANGE
;0.35
G1 X83.804 Y141.773
G1 E1 F2400
;TYPE:Perimeter
;WIDTH:0.42
G1 F1800
G1 X83.804 Y39.271 E5.14413
G1 X91.446 Y43.912 E.44869
G1 X92.966 Y141.773 E4.91183
G1 X83.954 Y141.773 E.4523
G1 X83.459 Y142.117 F7800
;TYPE:External perimeter
G1 F1800
G1 X83.459 Y38.658 E5.1922
G1 X91.788 Y43.716 E.48902
G1 X93.317 Y142.117 E4.93897
G1 X83.609 Y142.117 E.48719
G1 X83.487 Y141.118 F7800
G1 E-.7 F3600
;WIPE_START
G1 F6240
G1 X83.608 Y141.597 E-.285
;WIPE_END
G1 E-.015 F3600
G1 X89.543 Y42.877 F7800
G1 E1 F2400
;TYPE:Solid infill
;WIDTH:0.421086
G1 F1800
G1 X91.197 Y44.531 E.11776
G1 X91.204 Y45.028 E.02502
G1 X88.759 Y42.583 E.17409
G1 X87.513 Y41.826 E.07338
G1 X91.212 Y45.525 E.26334
G1 X91.22 Y46.022 E.02502
G1 X86.268 Y41.07 E.35259
G1 X85.022 Y40.313 E.07338
G1 X91.228 Y46.519 E.44184
G1 X91.235 Y47.016 E.02502
G1 X84.062 Y39.843 E.51068
G1 X84.062 Y40.332 E.02463
G1 X91.243 Y47.513 E.51123
G1 X91.251 Y48.01 E.02502
G1 X84.062 Y40.822 E.51178
G1 X84.062 Y41.311 E.02463
G1 X91.258 Y48.507 E.51233
G1 X91.266 Y49.004 E.02502
G1 X84.062 Y41.8 E.51288
G1 X84.062 Y42.29 E.02463
G1 X91.274 Y49.501 E.51343
G1 X91.282 Y49.998 E.02502
G1 X84.062 Y42.779 E.51398
G1 X84.062 Y43.268 E.02463
G1 X91.289 Y50.495 E.51453
G1 X91.297 Y50.992 E.02502
G1 X84.062 Y43.757 E.51508
G1 X84.062 Y44.247 E.02463
G1 X91.305 Y51.489 E.51563
G1 X91.313 Y51.986 E.02502
G1 X84.062 Y44.736 E.51618
G1 X84.062 Y45.225 E.02463
G1 X91.32 Y52.483 E.51673
G1 X91.328 Y52.98 E.02502
G1 X84.062 Y45.715 E.51728
G1 X84.062 Y46.204 E.02463
G1 X91.336 Y53.477 E.51783
G1 X91.343 Y53.974 E.02502
G1 X84.062 Y46.693 E.51838
G1 X84.062 Y47.182 E.02463
G1 X91.351 Y54.471 E.51893
G1 X91.359 Y54.968 E.02502
G1 X84.062 Y47.672 E.51948
G1 X84.062 Y48.161 E.02463
G1 X91.367 Y55.465 E.52003
G1 X91.374 Y55.962 E.02502
G1 X84.062 Y48.65 E.52058
G1 X84.062 Y49.14 E.02463
G1 X91.382 Y56.459 E.52113
G1 X91.39 Y56.956 E.02502
G1 X84.062 Y49.629 E.52168
G1 X84.062 Y50.118 E.02463
G1 X91.397 Y57.453 E.52223
G1 X91.405 Y57.95 E.02502
G1 X84.062 Y50.607 E.52278
G1 X84.062 Y51.097 E.02463
G1 X91.413 Y58.447 E.52333
G1 X91.421 Y58.944 E.02502
G1 X84.062 Y51.586 E.52388
G1 X84.062 Y52.075 E.02463
G1 X91.428 Y59.441 E.52443
G1 X91.436 Y59.938 E.02502
G1 X84.062 Y52.565 E.52498
G1 X84.062 Y53.054 E.02463
G1 X91.444 Y60.435 E.52553
G1 X91.452 Y60.932 E.02502
G1 X84.062 Y53.543 E.52608
G1 X84.062 Y54.032 E.02463
G1 X91.459 Y61.429 E.52663
G1 X91.467 Y61.926 E.02502
G1 X84.062 Y54.522 E.52718
G1 X84.062 Y55.011 E.02463
G1 X91.475 Y62.423 E.52773
G1 X91.482 Y62.92 E.02502
M73 P1 R72
G1 X84.062 Y55.5 E.52828
G1 X84.062 Y55.989 E.02463
G1 X91.49 Y63.417 E.52883
G1 X91.498 Y63.914 E.02502
G1 X84.062 Y56.479 E.52938
G1 X84.062 Y56.968 E.02463
G1 X91.506 Y64.411 E.52993
G1 X91.513 Y64.908 E.02502
G1 X84.062 Y57.457 E.53048
G1 X84.062 Y57.947 E.02463
G1 X91.521 Y65.405 E.53103
G1 X91.529 Y65.902 E.02502
G1 X84.062 Y58.436 E.53158
G1 X84.062 Y58.925 E.02463
G1 X91.536 Y66.399 E.53213
G1 X91.544 Y66.896 E.02502
G1 X84.062 Y59.414 E.53268
G1 X84.062 Y59.904 E.02463
G1 X91.552 Y67.393 E.53323
G1 X91.56 Y67.89 E.02502
G1 X84.062 Y60.393 E.53378
G1 X84.062 Y60.882 E.02463
G1 X91.567 Y68.387 E.53433
G1 X91.575 Y68.884 E.02502
G1 X84.062 Y61.372 E.53488
G1 X84.062 Y61.861 E.02463
G1 X91.583 Y69.381 E.53543
G1 X91.591 Y69.878 E.02502
G1 X84.062 Y62.35 E.53598
G1 X84.062 Y62.839 E.02463
G1 X91.598 Y70.375 E.53653
G1 X91.606 Y70.872 E.02502
G1 X84.062 Y63.329 E.53708
G1 X84.062 Y63.818 E.02463
G1 X91.614 Y71.369 E.53762
G1 X91.621 Y71.866 E.02502
G1 X84.062 Y64.307 E.53817
G1 X84.062 Y64.797 E.02463
G1 X91.629 Y72.363 E.53872
G1 X91.637 Y72.86 E.02502
G1 X84.062 Y65.286 E.53927
G1 X84.062 Y65.775 E.02463
G1 X91.645 Y73.357 E.53982
G1 X91.652 Y73.854 E.02502
G1 X84.062 Y66.264 E.54037
G1 X84.062 Y66.754 E.02463
G1 X91.66 Y74.351 E.54092
G1 X91.668 Y74.848 E.02502
G1 X84.062 Y67.243 E.54147
G1 X84.062 Y67.732 E.02463
G1 X91.675 Y75.345 E.54202
G1 X91.683 Y75.842 E.02502
G1 X84.062 Y68.222 E.54257
G1 X84.062 Y68.711 E.02463
G1 X91.691 Y76.339 E.54312
G1 X91.699 Y76.836 E.02502
G1 X84.062 Y69.2 E.54367
G1 X84.062 Y69.689 E.02463
G1 X91.706 Y77.333 E.54422
G1 X91.714 Y77.83 E.02502
G1 X84.062 Y70.179 E.54477
G1 X84.062 Y70.668 E.02463
G1 X91.722 Y78.327 E.54532
G1 X91.73 Y78.824 E.02502
G1 X84.062 Y71.157 E.54587
G1 X84.062 Y71.647 E.02463
G1 X91.737 Y79.321 E.54642
G1 X91.745 Y79.818 E.02502
G1 X84.062 Y72.136 E.54697
G1 X84.062 Y72.625 E.02463
G1 X91.753 Y80.315 E.54752
G1 X91.76 Y80.812 E.02502
G1 X84.062 Y73.114 E.54807
G1 X84.062 Y73.604 E.02463
G1 X91.768 Y81.309 E.54862
G1 X91.776 Y81.806 E.02502
G1 X84.062 Y74.093 E.54917
G1 X84.062 Y74.582 E.02463
G1 X91.784 Y82.303 E.54972
G1 X91.791 Y82.8 E.02502
G1 X84.062 Y75.072 E.55027
G1 X84.062 Y75.561 E.02463
G1 X91.799 Y83.297 E.55082
G1 X91.807 Y83.794 E.02502
G1 X84.062 Y76.05 E.55137
G1 X84.062 Y76.539 E.02463
G1 X91.814 Y84.291 E.55192
G1 X91.822 Y84.788 E.02502
G1 X84.062 Y77.029 E.55247
G1 X84.062 Y77.518 E.02463
G1 X91.83 Y85.285 E.55302
G1 X91.838 Y85.782 E.02502
G1 X84.062 Y78.007 E.55357
G1 X84.062 Y78.496 E.02463
G1 X91.845 Y86.279 E.55412
G1 X91.853 Y86.776 E.02502
G1 X84.062 Y78.986 E.55467
G1 X84.062 Y79.475 E.02463
G1 X91.861 Y87.273 E.55522
G1 X91.869 Y87.77 E.02502
G1 X84.062 Y79.964 E.55577
G1 X84.062 Y80.454 E.02463
G1 X91.876 Y88.267 E.55632
G1 X91.884 Y88.764 E.02502
G1 X84.062 Y80.943 E.55687
G1 X84.062 Y81.432 E.02463
G1 X91.892 Y89.261 E.55742
G1 X91.899 Y89.758 E.02502
G1 X84.062 Y81.921 E.55797
G1 X84.062 Y82.411 E.02463
G1 X91.907 Y90.255 E.55852
G1 X91.915 Y90.752 E.02502
G1 X84.062 Y82.9 E.55907
G1 X84.062 Y83.389 E.02463
G1 X91.923 Y91.249 E.55962
G1 X91.93 Y91.746 E.02502
M73 P1 R71
G1 X84.062 Y83.879 E.56017
G1 X84.062 Y84.368 E.02463
G1 X91.938 Y92.243 E.56072
G1 X91.946 Y92.74 E.02502
G1 X84.062 Y84.857 E.56127
G1 X84.062 Y85.346 E.02463
G1 X91.954 Y93.237 E.56182
G1 X91.961 Y93.734 E.02502
G1 X84.062 Y85.836 E.56237
G1 X84.062 Y86.325 E.02463
G1 X91.969 Y94.231 E.56292
G1 X91.977 Y94.728 E.02502
G1 X84.062 Y86.814 E.56347
G1 X84.062 Y87.304 E.02463
G1 X91.984 Y95.225 E.56402
G1 X91.992 Y95.722 E.02502
G1 X84.062 Y87.793 E.56457
G1 X84.062 Y88.282 E.02463
G1 X92 Y96.22 E.56512
G1 X92.008 Y96.717 E.02502
G1 X84.062 Y88.771 E.56567
G1 X84.062 Y89.261 E.02463
G1 X92.015 Y97.214 E.56622
G1 X92.023 Y97.711 E.02502
G1 X84.062 Y89.75 E.56677
G1 X84.062 Y90.239 E.02463
G1 X92.031 Y98.208 E.56732
G1 X92.038 Y98.705 E.02502
G1 X84.062 Y90.729 E.56787
G1 X84.062 Y91.218 E.02463
G1 X92.046 Y99.202 E.56842
G1 X92.054 Y99.699 E.02502
G1 X84.062 Y91.707 E.56897
G1 X84.062 Y92.196 E.02463
G1 X92.062 Y100.196 E.56952
G1 X92.069 Y100.693 E.02502
G1 X84.062 Y92.686 E.57007
G1 X84.062 Y93.175 E.02463
G1 X92.077 Y101.19 E.57062
G1 X92.085 Y101.687 E.02502
G1 X84.062 Y93.664 E.57117
G1 X84.062 Y94.154 E.02463
G1 X92.093 Y102.184 E.57172
G1 X92.1 Y102.681 E.02502
G1 X84.062 Y94.643 E.57227
G1 X84.062 Y95.132 E.02463
G1 X92.108 Y103.178 E.57282
G1 X92.116 Y103.675 E.02502
G1 X84.062 Y95.621 E.57337
G1 X84.062 Y96.111 E.02463
G1 X92.123 Y104.172 E.57392
G1 X92.131 Y104.669 E.02502
G1 X84.062 Y96.6 E.57446
G1 X84.062 Y97.089 E.02463
G1 X92.139 Y105.166 E.57501
G1 X92.147 Y105.663 E.02502
G1 X84.062 Y97.578 E.57556
G1 X84.062 Y98.068 E.02463
G1 X92.154 Y106.16 E.57611
G1 X92.162 Y106.657 E.02502
G1 X84.062 Y98.557 E.57666
G1 X84.062 Y99.046 E.02463
G1 X92.17 Y107.154 E.57721
G1 X92.177 Y107.651 E.02502
G1 X84.062 Y99.536 E.57776
G1 X84.062 Y100.025 E.02463
G1 X92.185 Y108.148 E.57831
G1 X92.193 Y108.645 E.02502
G1 X84.062 Y100.514 E.57886
G1 X84.062 Y101.003 E.02463
G1 X92.201 Y109.142 E.57941
G1 X92.208 Y109.639 E.02502
G1 X84.062 Y101.493 E.57996
G1 X84.062 Y101.982 E.02463
G1 X92.216 Y110.136 E.58051
G1 X92.224 Y110.633 E.02502
G1 X84.062 Y102.471 E.58106
G1 X84.062 Y102.961 E.02463
G1 X92.232 Y111.13 E.58161
G1 X92.239 Y111.627 E.02502
G1 X84.062 Y103.45 E.58216
G1 X84.062 Y103.939 E.02463
G1 X92.247 Y112.124 E.58271
G1 X92.255 Y112.621 E.02502
G1 X84.062 Y104.428 E.58326
G1 X84.062 Y104.918 E.02463
M73 P2 R71
G1 X92.262 Y113.118 E.58381
G1 X92.27 Y113.615 E.02502
G1 X84.062 Y105.407 E.58436
G1 X84.062 Y105.896 E.02463
G1 X92.278 Y114.112 E.58491
G1 X92.286 Y114.609 E.02502
G1 X84.062 Y106.386 E.58546
G1 X84.062 Y106.875 E.02463
G1 X92.293 Y115.106 E.58601
G1 X92.301 Y115.603 E.02502
G1 X84.062 Y107.364 E.58656
G1 X84.062 Y107.853 E.02463
G1 X92.309 Y116.1 E.58711
G1 X92.316 Y116.597 E.02502
G1 X84.062 Y108.343 E.58766
G1 X84.062 Y108.832 E.02463
G1 X92.324 Y117.094 E.58821
G1 X92.332 Y117.591 E.02502
G1 X84.062 Y109.321 E.58876
G1 X84.062 Y109.811 E.02463
G1 X92.34 Y118.088 E.58931
G1 X92.347 Y118.585 E.02502
G1 X84.062 Y110.3 E.58986
G1 X84.062 Y110.789 E.02463
G1 X92.355 Y119.082 E.59041
G1 X92.363 Y119.579 E.02502
G1 X84.062 Y111.278 E.59096
G1 X84.062 Y111.768 E.02463
G1 X92.371 Y120.076 E.59151
G1 X92.378 Y120.573 E.02502
G1 X84.062 Y112.257 E.59206
G1 X84.062 Y112.746 E.02463
G1 X92.386 Y121.07 E.59261
G1 X92.394 Y121.567 E.02502
G1 X84.062 Y113.236 E.59316
G1 X84.062 Y113.725 E.02463
G1 X92.401 Y122.064 E.59371
G1 X92.409 Y122.561 E.02502
G1 X84.062 Y114.214 E.59426
G1 X84.062 Y114.703 E.02463
G1 X92.417 Y123.058 E.59481
G1 X92.425 Y123.555 E.02502
G1 X84.062 Y115.193 E.59536
G1 X84.062 Y115.682 E.02463
G1 X92.432 Y124.052 E.59591
G1 X92.44 Y124.549 E.02502
G1 X84.062 Y116.171 E.59646
G1 X84.062 Y116.661 E.02463
G1 X92.448 Y125.046 E.59701
G1 X92.455 Y125.543 E.02502
G1 X84.062 Y117.15 E.59756
G1 X84.062 Y117.639 E.02463
G1 X92.463 Y126.04 E.59811
G1 X92.471 Y126.537 E.02502
G1 X84.062 Y118.128 E.59866
G1 X84.062 Y118.618 E.02463
G1 X92.479 Y127.034 E.59921
G1 X92.486 Y127.531 E.02502
G1 X84.062 Y119.107 E.59976
G1 X84.062 Y119.596 E.02463
G1 X92.494 Y128.028 E.60031
G1 X92.502 Y128.525 E.02502
G1 X84.062 Y120.085 E.60086
G1 X84.062 Y120.575 E.02463
G1 X92.51 Y129.022 E.60141
G1 X92.517 Y129.519 E.02502
G1 X84.062 Y121.064 E.60196
G1 X84.062 Y121.553 E.02463
G1 X92.525 Y130.016 E.60251
G1 X92.533 Y130.513 E.02502
G1 X84.062 Y122.043 E.60306
G1 X84.062 Y122.532 E.02463
G1 X92.54 Y131.01 E.60361
G1 X92.548 Y131.507 E.02502
G1 X84.062 Y123.021 E.60416
G1 X84.062 Y123.51 E.02463
G1 X92.556 Y132.004 E.60471
G1 X92.564 Y132.501 E.02502
G1 X84.062 Y124 E.60526
G1 X84.062 Y124.489 E.02463
G1 X92.571 Y132.998 E.60581
G1 X92.579 Y133.495 E.02502
G1 X84.062 Y124.978 E.60636
G1 X84.062 Y125.468 E.02463
G1 X92.587 Y133.992 E.60691
G1 X92.595 Y134.489 E.02502
G1 X84.062 Y125.957 E.60746
G1 X84.062 Y126.446 E.02463
G1 X92.602 Y134.986 E.60801
G1 X92.61 Y135.483 E.02502
G1 X84.062 Y126.935 E.60856
G1 X84.062 Y127.425 E.02463
G1 X92.618 Y135.98 E.60911
G1 X92.625 Y136.477 E.02502
G1 X84.062 Y127.914 E.60966
G1 X84.062 Y128.403 E.02463
G1 X92.633 Y136.974 E.61021
G1 X92.641 Y137.471 E.02502
G1 X84.062 Y128.893 E.61076
G1 X84.062 Y129.382 E.02463
G1 X92.649 Y137.968 E.6113
G1 X92.656 Y138.465 E.02502
G1 X84.062 Y129.871 E.61185
G1 X84.062 Y130.36 E.02463
G1 X92.664 Y138.962 E.6124
G1 X92.672 Y139.459 E.02502
G1 X84.062 Y130.85 E.61295
G1 X84.062 Y131.339 E.02463
G1 X92.679 Y139.956 E.6135
G1 X92.687 Y140.453 E.02502
G1 X84.062 Y131.828 E.61405
G1 X84.062 Y132.318 E.02463
G1 X92.695 Y140.95 E.6146
G1 X92.703 Y141.447 E.02502
G1 X84.062 Y132.807 E.61515
G1 X84.062 Y133.296 E.02463
G1 X92.28 Y141.514 E.58508
G1 X91.791 Y141.514 E.02463
G1 X84.062 Y133.785 E.55025
G1 X84.062 Y134.275 E.02463
G1 X91.302 Y141.514 E.51541
G1 X90.812 Y141.514 E.02463
G1 X84.062 Y134.764 E.48058
G1 X84.062 Y135.253 E.02463
G1 X90.323 Y141.514 E.44574
G1 X89.834 Y141.514 E.02463
G1 X84.062 Y135.743 E.4109
G1 X84.062 Y136.232 E.02463
G1 X89.345 Y141.514 E.37607
G1 X88.855 Y141.514 E.02463
G1 X84.062 Y136.721 E.34123
G1 X84.062 Y137.21 E.02463
G1 X88.366 Y141.514 E.3064
G1 X87.877 Y141.514 E.02463
G1 X84.062 Y137.7 E.27156
G1 X84.062 Y138.189 E.02463
G1 X87.387 Y141.514 E.23673
G1 X86.898 Y141.514 E.02463
G1 X84.062 Y138.678 E.20189
G1 X84.062 Y139.168 E.02463
G1 X86.409 Y141.514 E.16706
G1 X85.92 Y141.514 E.02463
G1 X84.062 Y139.657 E.13222
G1 X84.062 Y140.146 E.02463
G1 X85.43 Y141.514 E.09739
G1 X84.941 Y141.514 E.02463
G1 X84.062 Y140.635 E.06255
G1 X84.062 Y141.125 E.02463
G1 X84.607 Y141.669 E.03876
M106 S255
;LAYER_CHANGE
;Z:0.85
;HEIGHT:0.5
;BEFORE_LAYER_CHANGE
G92 E0
;0.85


G1 E-.7 F3600
;WIPE_START
G1 F6240
G1 X84.239 Y141.301 E-.285
;WIPE_END
G1 E-.015 F3600
G1 Z.85 F7800
;AFTER_LAYER_CHANGE
;0.85
M104 S205 ; set temperature
G1 X84.642 Y140.935
G1 E1 F2400
;TYPE:Perimeter
;WIDTH:1
G1 F2016.357
G1 X84.642 Y41.094 E18.52754
G1 X90.632 Y44.731 E1.30046
G1 X92.126 Y140.935 E17.85469
G1 X84.792 Y140.935 E1.36113
G1 X83.749 Y141.827 F7800
;TYPE:External perimeter
G1 F1800
G1 X83.749 Y39.507 E18.98761
G1 X91.516 Y44.224 E1.6864
M73 P2 R70
G1 X93.033 Y141.827 E18.11446
G1 X83.899 Y141.827 E1.69505
M73 P3 R70
G1 X83.775 Y140.828 F7800
G1 E-.7 F3600
;WIPE_START
G1 F6240
G1 X83.898 Y141.307 E-.285
;WIPE_END
G1 E-.015 F3600
G1 X90.047 Y140.667 F7800
G1 E1 F2400
;TYPE:Solid infill
;WIDTH:1.00176
G1 F1200
G1 X91.431 Y139.283 E.364
G1 X91.412 Y138.037 E.23163
G1 X89.184 Y140.265 E.5859
G1 X87.919 Y140.265 E.2352
G1 X91.393 Y136.791 E.91343
G1 X91.373 Y135.546 E.23163
G1 X86.654 Y140.265 E1.24097
G1 X85.389 Y140.265 E.2352
G1 X91.354 Y134.3 E1.5685
G1 X91.334 Y133.055 E.23163
G1 X85.311 Y139.078 E1.58385
G1 X85.311 Y137.813 E.2352
G1 X91.315 Y131.809 E1.57876
G1 X91.296 Y130.563 E.23163
G1 X85.311 Y136.548 E1.57367
G1 X85.311 Y135.283 E.2352
G1 X91.276 Y129.318 E1.56858
G1 X91.257 Y128.072 E.23163
G1 X85.311 Y134.018 E1.56349
G1 X85.311 Y132.753 E.2352
G1 X91.238 Y126.827 E1.5584
G1 X91.218 Y125.581 E.23163
G1 X85.311 Y131.488 E1.55331
G1 X85.311 Y130.223 E.2352
G1 X91.199 Y124.336 E1.54822
G1 X91.18 Y123.09 E.23163
G1 X85.311 Y128.958 E1.54313
G1 X85.311 Y127.693 E.2352
G1 X91.16 Y121.844 E1.53804
G1 X91.141 Y120.599 E.23163
G1 X85.311 Y126.428 E1.53295
G1 X85.311 Y125.164 E.2352
G1 X91.122 Y119.353 E1.52786
G1 X91.102 Y118.108 E.23163
G1 X85.311 Y123.899 E1.52277
G1 X85.311 Y122.634 E.2352
G1 X91.083 Y116.862 E1.51768
G1 X91.063 Y115.616 E.23163
G1 X85.311 Y121.369 E1.51259
G1 X85.311 Y120.104 E.2352
G1 X91.044 Y114.371 E1.50751
G1 X91.025 Y113.125 E.23163
G1 X85.311 Y118.839 E1.50242
G1 X85.311 Y117.574 E.2352
G1 X91.005 Y111.88 E1.49733
G1 X90.986 Y110.634 E.23163
G1 X85.311 Y116.309 E1.49224
G1 X85.311 Y115.044 E.2352
G1 X90.967 Y109.388 E1.48715
G1 X90.947 Y108.143 E.23163
G1 X85.311 Y113.779 E1.48206
G1 X85.311 Y112.514 E.2352
G1 X90.928 Y106.897 E1.47697
G1 X90.909 Y105.652 E.23163
G1 X85.311 Y111.249 E1.47188
G1 X85.311 Y109.984 E.2352
G1 X90.889 Y104.406 E1.46679
G1 X90.87 Y103.16 E.23163
G1 X85.311 Y108.719 E1.4617
G1 X85.311 Y107.454 E.2352
G1 X90.851 Y101.915 E1.45661
G1 X90.831 Y100.669 E.23163
G1 X85.311 Y106.189 E1.45152
G1 X85.311 Y104.924 E.2352
G1 X90.812 Y99.424 E1.44643
G1 X90.792 Y98.178 E.23163
G1 X85.311 Y103.659 E1.44134
