; generated by PrusaSlicer 2.5.0+win64 on 2022-12-07 at 00:04:08 UTC

; 

; external perimeters extrusion width = 1.00mm
; perimeters extrusion width = 1.00mm
; infill extrusion width = 1.00mm
; solid infill extrusion width = 1.00mm
; top infill extrusion width = 1.00mm
; support material extrusion width = 1.00mm
; first layer extrusion width = 0.42mm

M73 P0 R310
M107
;TYPE:Custom
G90 ; use absolute coordinates
M83 ; extruder relative mode
M140 S60 ; set final bed temp
M104 S150 ; set temporary nozzle temp to prevent oozing during homing and auto bed leveling
G4 S10 ; allow partial nozzle warmup
G28 ; home all axisG1 Z50 F240
G1 X7.6 Y10 F3000
M104 S210 ; set final nozzle temp
M190 S60 ; wait for bed temp to stabilize
M109 S210 ; wait for nozzle temp to stabilize
G1 Z0.28 F240
G92 E0
G1 Y140 E10 F1500 ; prime the nozzle
G1 X4 F5000
G92 E0
G1 Y10 E10 F1200 ; prime the nozzle
G92 E0
G21 ; set units to millimeters
G90 ; use absolute coordinates
M83 ; use relative distances for extrusion
; Filament gcode
M107
;LAYER_CHANGE
;Z:0.35
;HEIGHT:0.35
;BEFORE_LAYER_CHANGE
G92 E0
;0.35


G1 E-1 F3600
G1 Z.35 F7800
;AFTER_LAYER_CHANGE
;0.35
G1 X94.017 Y14.959
G1 E1 F2400
;TYPE:Support material interface
;WIDTH:1
G1 F1800
G1 X94.017 Y15.679 E.09687
G1 X94.91 Y15.679 E.12014
G1 X94.91 Y15.361 E.0428
G1 X95.803 Y15.361 E.12014
G1 X95.803 Y15.679 E.0428
G1 X96.695 Y15.679 E.12014
G1 X96.695 Y15.361 E.0428
G1 X97.588 Y15.361 E.12014
G1 X97.588 Y18.753 E.45661
G1 X98.481 Y18.753 E.12014
G1 X98.481 Y15.361 E.45661
G1 X99.373 Y15.361 E.12014
G1 X99.373 Y18.753 E.45661
G1 X100.266 Y18.753 E.12014
G1 X100.266 Y15.361 E.45661
G1 X101.159 Y15.361 E.12014
G1 X101.159 Y18.753 E.45661
G1 X102.051 Y18.753 E.12014
G1 X102.051 Y15.361 E.45661
G1 X102.944 Y15.361 E.12014
G1 X102.944 Y19.155 E.51067
G1 E-.7 F3600
;WIPE_START
G1 F6240
G1 X102.944 Y18.635 E-.285
;WIPE_END
G1 E-.015 F3600
G1 X96.695 Y19.155 F7800
G1 E1 F2400
G1 F1800
G1 X96.695 Y17.534 E.21819
G1 X95.803 Y17.784 E.12478
G1 X95.803 Y18.753 E.13043
G1 X94.91 Y18.753 E.12014
G1 X94.91 Y18.035 E.09673
G1 X94.017 Y18.285 E.12478
G1 X94.017 Y19.155 E.1171
G1 E-.7 F3600
;WIPE_START
G1 F6240
G1 X94.017 Y18.635 E-.285
;WIPE_END
G1 E-.015 F3600
G1 X171.268 Y21.99 F7800
G1 E1 F2400
;TYPE:Support material
;WIDTH:0.42
G1 F1800
G1 X101.227 Y21.99 E3.51508
G1 X101.227 Y19.41 E.12947
G1 X104.227 Y19.41 E.15056
G1 X104.227 Y14.704 E.23616
G1 X101.227 Y14.704 E.15056
G1 X101.227 Y12.124 E.12947
G1 X171.268 Y12.124 E3.51508
G1 X171.268 Y21.938 E.4925
G1 X170.857 Y21.834 F7800
G1 F1800
G1 X170.857 Y12.435 E.47173
G1 X170.474 Y12.435 E.01923
M73 P0 R309
G1 X170.474 Y21.679 E.46394
G1 X170.091 Y21.679 E.01923
G1 X170.091 Y12.435 E.46394
G1 X169.708 Y12.435 E.01923
G1 X169.708 Y21.679 E.46394
G1 X169.324 Y21.679 E.01923
G1 X169.324 Y12.435 E.46394
G1 X168.941 Y12.435 E.01923
G1 X168.941 Y21.679 E.46394
G1 X168.558 Y21.679 E.01923
G1 X168.558 Y12.435 E.46394
G1 X168.175 Y12.435 E.01923
G1 X168.175 Y21.679 E.46394
G1 X167.792 Y21.679 E.01923
G1 X167.792 Y12.435 E.46394
G1 X167.408 Y12.435 E.01923
G1 X167.408 Y21.679 E.46394
G1 X167.025 Y21.679 E.01923
G1 X167.025 Y12.435 E.46394
G1 X166.642 Y12.435 E.01923
G1 X166.642 Y21.679 E.46394
G1 X166.259 Y21.679 E.01923
G1 X166.259 Y12.435 E.46394
G1 X165.876 Y12.435 E.01923
G1 X165.876 Y21.679 E.46394
G1 X165.492 Y21.679 E.01923
G1 X165.492 Y12.435 E.46394
G1 X165.109 Y12.435 E.01923
G1 X165.109 Y21.679 E.46394
G1 X164.726 Y21.679 E.01923
G1 X164.726 Y12.435 E.46394
G1 X164.343 Y12.435 E.01923
G1 X164.343 Y21.679 E.46394
G1 X163.96 Y21.679 E.01923
G1 X163.96 Y12.435 E.46394
G1 X163.576 Y12.435 E.01923
G1 X163.576 Y21.679 E.46394
G1 X163.193 Y21.679 E.01923
G1 X163.193 Y12.435 E.46394
G1 X162.81 Y12.435 E.01923
G1 X162.81 Y21.679 E.46394
G1 X162.427 Y21.679 E.01923
G1 X162.427 Y12.435 E.46394
G1 X162.043 Y12.435 E.01923
G1 X162.043 Y21.679 E.46394
G1 X161.66 Y21.679 E.01923
G1 X161.66 Y12.435 E.46394
G1 X161.277 Y12.435 E.01923
G1 X161.277 Y21.679 E.46394
G1 X160.894 Y21.679 E.01923
G1 X160.894 Y12.435 E.46394
G1 X160.511 Y12.435 E.01923
G1 X160.511 Y21.679 E.46394
G1 X160.127 Y21.679 E.01923
G1 X160.127 Y12.435 E.46394
G1 X159.744 Y12.435 E.01923
G1 X159.744 Y21.679 E.46394
G1 X159.361 Y21.679 E.01923
G1 X159.361 Y12.435 E.46394
G1 X158.978 Y12.435 E.01923
G1 X158.978 Y21.679 E.46394
G1 X158.595 Y21.679 E.01923
G1 X158.595 Y12.435 E.46394
G1 X158.211 Y12.435 E.01923
G1 X158.211 Y21.679 E.46394
G1 X157.828 Y21.679 E.01923
G1 X157.828 Y12.435 E.46394
G1 X157.445 Y12.435 E.01923
G1 X157.445 Y21.679 E.46394
G1 X157.062 Y21.679 E.01923
G1 X157.062 Y12.435 E.46394
G1 X156.679 Y12.435 E.01923
G1 X156.679 Y21.679 E.46394
G1 X156.295 Y21.679 E.01923
G1 X156.295 Y12.435 E.46394
G1 X155.912 Y12.435 E.01923
G1 X155.912 Y21.679 E.46394
G1 X155.529 Y21.679 E.01923
G1 X155.529 Y12.435 E.46394
G1 X155.146 Y12.435 E.01923
G1 X155.146 Y21.679 E.46394
G1 X154.762 Y21.679 E.01923
G1 X154.762 Y12.435 E.46394
G1 X154.379 Y12.435 E.01923
G1 X154.379 Y21.679 E.46394
G1 X153.996 Y21.679 E.01923
G1 X153.996 Y12.435 E.46394
G1 X153.613 Y12.435 E.01923
G1 X153.613 Y21.679 E.46394
G1 X153.23 Y21.679 E.01923
G1 X153.23 Y12.435 E.46394
G1 X152.846 Y12.435 E.01923
G1 X152.846 Y21.679 E.46394
G1 X152.463 Y21.679 E.01923
G1 X152.463 Y12.435 E.46394
G1 X152.08 Y12.435 E.01923
G1 X152.08 Y21.679 E.46394
G1 X151.697 Y21.679 E.01923
G1 X151.697 Y12.435 E.46394
G1 X151.314 Y12.435 E.01923
G1 X151.314 Y21.679 E.46394
G1 X150.93 Y21.679 E.01923
G1 X150.93 Y12.435 E.46394
G1 X150.547 Y12.435 E.01923
G1 X150.547 Y21.679 E.46394
G1 X150.164 Y21.679 E.01923
G1 X150.164 Y12.435 E.46394
G1 X149.781 Y12.435 E.01923
G1 X149.781 Y21.679 E.46394
G1 X149.398 Y21.679 E.01923
G1 X149.398 Y12.435 E.46394
G1 X149.014 Y12.435 E.01923
G1 X149.014 Y21.679 E.46394
G1 X148.631 Y21.679 E.01923
G1 X148.631 Y12.435 E.46394
G1 X148.248 Y12.435 E.01923
G1 X148.248 Y21.679 E.46394
G1 X147.865 Y21.679 E.01923
G1 X147.865 Y12.435 E.46394
G1 X147.482 Y12.435 E.01923
G1 X147.482 Y21.679 E.46394
G1 X147.098 Y21.679 E.01923
G1 X147.098 Y12.435 E.46394
G1 X146.715 Y12.435 E.01923
G1 X146.715 Y21.679 E.46394
G1 X146.332 Y21.679 E.01923
G1 X146.332 Y12.435 E.46394
G1 X145.949 Y12.435 E.01923
G1 X145.949 Y21.679 E.46394
G1 X145.565 Y21.679 E.01923
G1 X145.565 Y12.435 E.46394
G1 X145.182 Y12.435 E.01923
G1 X145.182 Y21.679 E.46394
G1 X144.799 Y21.679 E.01923
G1 X144.799 Y12.435 E.46394
G1 X144.416 Y12.435 E.01923
G1 X144.416 Y21.679 E.46394
G1 X144.033 Y21.679 E.01923
G1 X144.033 Y12.435 E.46394
G1 X143.649 Y12.435 E.01923
G1 X143.649 Y21.679 E.46394
G1 X143.266 Y21.679 E.01923
G1 X143.266 Y12.435 E.46394
G1 X142.883 Y12.435 E.01923
G1 X142.883 Y21.679 E.46394
G1 X142.5 Y21.679 E.01923
G1 X142.5 Y12.435 E.46394
G1 X142.117 Y12.435 E.01923
G1 X142.117 Y21.679 E.46394
G1 X141.733 Y21.679 E.01923
G1 X141.733 Y12.435 E.46394
G1 X141.35 Y12.435 E.01923
G1 X141.35 Y21.679 E.46394
G1 X140.967 Y21.679 E.01923
G1 X140.967 Y12.435 E.46394
G1 X140.584 Y12.435 E.01923
G1 X140.584 Y21.679 E.46394
G1 X140.201 Y21.679 E.01923
G1 X140.201 Y12.435 E.46394
G1 X139.817 Y12.435 E.01923
G1 X139.817 Y21.679 E.46394
G1 X139.434 Y21.679 E.01923
G1 X139.434 Y12.435 E.46394
G1 X139.051 Y12.435 E.01923
G1 X139.051 Y21.679 E.46394
G1 X138.668 Y21.679 E.01923
G1 X138.668 Y12.435 E.46394
G1 X138.284 Y12.435 E.01923
G1 X138.284 Y21.679 E.46394
G1 X137.901 Y21.679 E.01923
G1 X137.901 Y12.435 E.46394
G1 X137.518 Y12.435 E.01923
G1 X137.518 Y21.679 E.46394
G1 X137.135 Y21.679 E.01923
G1 X137.135 Y12.435 E.46394
G1 X136.752 Y12.435 E.01923
G1 X136.752 Y21.679 E.46394
G1 X136.368 Y21.679 E.01923
G1 X136.368 Y12.435 E.46394
G1 X135.985 Y12.435 E.01923
G1 X135.985 Y21.679 E.46394
G1 X135.602 Y21.679 E.01923
G1 X135.602 Y12.435 E.46394
G1 X135.219 Y12.435 E.01923
G1 X135.219 Y21.679 E.46394
G1 X134.836 Y21.679 E.01923
G1 X134.836 Y12.435 E.46394
G1 X134.452 Y12.435 E.01923
G1 X134.452 Y21.679 E.46394
G1 X134.069 Y21.679 E.01923
G1 X134.069 Y12.435 E.46394
G1 X133.686 Y12.435 E.01923
G1 X133.686 Y21.679 E.46394
G1 X133.303 Y21.679 E.01923
G1 X133.303 Y12.435 E.46394
G1 X132.92 Y12.435 E.01923
G1 X132.92 Y21.679 E.46394
G1 X132.536 Y21.679 E.01923
G1 X132.536 Y12.435 E.46394
G1 X132.153 Y12.435 E.01923
G1 X132.153 Y21.679 E.46394
G1 X131.77 Y21.679 E.01923
G1 X131.77 Y12.435 E.46394
G1 X131.387 Y12.435 E.01923
G1 X131.387 Y21.679 E.46394
G1 X131.003 Y21.679 E.01923
G1 X131.003 Y12.435 E.46394
G1 X130.62 Y12.435 E.01923
G1 X130.62 Y21.679 E.46394
G1 X130.237 Y21.679 E.01923
G1 X130.237 Y12.435 E.46394
G1 X129.854 Y12.435 E.01923
G1 X129.854 Y21.679 E.46394
G1 X129.471 Y21.679 E.01923
G1 X129.471 Y12.435 E.46394
G1 X129.087 Y12.435 E.01923
G1 X129.087 Y21.679 E.46394
G1 X128.704 Y21.679 E.01923
G1 X128.704 Y12.435 E.46394
G1 X128.321 Y12.435 E.01923
G1 X128.321 Y21.679 E.46394
G1 X127.938 Y21.679 E.01923
G1 X127.938 Y12.435 E.46394
G1 X127.555 Y12.435 E.01923
G1 X127.555 Y21.679 E.46394
G1 X127.171 Y21.679 E.01923
G1 X127.171 Y12.435 E.46394
G1 X126.788 Y12.435 E.01923
G1 X126.788 Y21.679 E.46394
G1 X126.405 Y21.679 E.01923
G1 X126.405 Y12.435 E.46394
G1 X126.022 Y12.435 E.01923
G1 X126.022 Y21.679 E.46394
G1 X125.639 Y21.679 E.01923
G1 X125.639 Y12.435 E.46394
G1 X125.255 Y12.435 E.01923
G1 X125.255 Y21.679 E.46394
G1 X124.872 Y21.679 E.01923
G1 X124.872 Y12.435 E.46394
G1 X124.489 Y12.435 E.01923
G1 X124.489 Y21.679 E.46394
G1 X124.106 Y21.679 E.01923
G1 X124.106 Y12.435 E.46394
G1 X123.722 Y12.435 E.01923
G1 X123.722 Y21.679 E.46394
G1 X123.339 Y21.679 E.01923
G1 X123.339 Y12.435 E.46394
G1 X122.956 Y12.435 E.01923
G1 X122.956 Y21.679 E.46394
G1 X122.573 Y21.679 E.01923
G1 X122.573 Y12.435 E.46394
G1 X122.19 Y12.435 E.01923
G1 X122.19 Y21.679 E.46394
G1 X121.806 Y21.679 E.01923
G1 X121.806 Y12.435 E.46394
G1 X121.423 Y12.435 E.01923
G1 X121.423 Y21.679 E.46394
G1 X121.04 Y21.679 E.01923
G1 X121.04 Y12.435 E.46394
G1 X120.657 Y12.435 E.01923
G1 X120.657 Y21.679 E.46394
G1 X120.274 Y21.679 E.01923
G1 X120.274 Y12.435 E.46394
G1 X119.89 Y12.435 E.01923
G1 X119.89 Y21.679 E.46394
G1 X119.507 Y21.679 E.01923
G1 X119.507 Y12.435 E.46394
G1 X119.124 Y12.435 E.01923
G1 X119.124 Y21.679 E.46394
G1 X118.741 Y21.679 E.01923
G1 X118.741 Y12.435 E.46394
G1 X118.358 Y12.435 E.01923
G1 X118.358 Y21.679 E.46394
G1 X117.974 Y21.679 E.01923
G1 X117.974 Y12.435 E.46394
G1 X117.591 Y12.435 E.01923
G1 X117.591 Y21.679 E.46394
G1 X117.208 Y21.679 E.01923
G1 X117.208 Y12.435 E.46394
G1 X116.825 Y12.435 E.01923
G1 X116.825 Y21.679 E.46394
G1 X116.441 Y21.679 E.01923
G1 X116.441 Y12.435 E.46394
G1 X116.058 Y12.435 E.01923
G1 X116.058 Y21.679 E.46394
G1 X115.675 Y21.679 E.01923
G1 X115.675 Y12.435 E.46394
G1 X115.292 Y12.435 E.01923
G1 X115.292 Y21.679 E.46394
G1 X114.909 Y21.679 E.01923
G1 X114.909 Y12.435 E.46394
G1 X114.525 Y12.435 E.01923
G1 X114.525 Y21.679 E.46394
G1 X114.142 Y21.679 E.01923
G1 X114.142 Y12.435 E.46394
G1 X113.759 Y12.435 E.01923
G1 X113.759 Y21.679 E.46394
G1 X113.376 Y21.679 E.01923
G1 X113.376 Y12.435 E.46394
G1 X112.993 Y12.435 E.01923
G1 X112.993 Y21.679 E.46394
G1 X112.609 Y21.679 E.01923
G1 X112.609 Y12.435 E.46394
G1 X112.226 Y12.435 E.01923
G1 X112.226 Y21.679 E.46394
G1 X111.843 Y21.679 E.01923
G1 X111.843 Y12.435 E.46394
G1 X111.46 Y12.435 E.01923
G1 X111.46 Y21.679 E.46394
G1 X111.077 Y21.679 E.01923
G1 X111.077 Y12.435 E.46394
G1 X110.693 Y12.435 E.01923
G1 X110.693 Y21.679 E.46394
G1 X110.31 Y21.679 E.01923
G1 X110.31 Y12.435 E.46394
G1 X109.927 Y12.435 E.01923
G1 X109.927 Y21.679 E.46394
G1 X109.544 Y21.679 E.01923
G1 X109.544 Y12.435 E.46394
G1 X109.161 Y12.435 E.01923
G1 X109.161 Y21.679 E.46394
G1 X108.777 Y21.679 E.01923
M73 P0 R308
G1 X108.777 Y12.435 E.46394
G1 X108.394 Y12.435 E.01923
G1 X108.394 Y21.679 E.46394
G1 X108.011 Y21.679 E.01923
G1 X108.011 Y12.435 E.46394
G1 X107.628 Y12.435 E.01923
G1 X107.628 Y21.679 E.46394
G1 X107.244 Y21.679 E.01923
G1 X107.244 Y12.435 E.46394
G1 X106.861 Y12.435 E.01923
G1 X106.861 Y21.679 E.46394
G1 X106.478 Y21.679 E.01923
G1 X106.478 Y12.435 E.46394
G1 X106.095 Y12.435 E.01923
G1 X106.095 Y21.679 E.46394
G1 X105.712 Y21.679 E.01923
G1 X105.712 Y12.435 E.46394
G1 X105.328 Y12.435 E.01923
G1 X105.328 Y21.679 E.46394
G1 X104.945 Y21.679 E.01923
G1 X104.945 Y12.435 E.46394
G1 X104.562 Y12.435 E.01923
G1 X104.562 Y21.679 E.46394
G1 X104.179 Y21.679 E.01923
G1 X104.179 Y19.72 E.09831
G1 X103.796 Y19.72 E.01923
G1 X103.796 Y21.679 E.09831
G1 X103.412 Y21.679 E.01923
G1 X103.412 Y19.72 E.09831
G1 X103.029 Y19.72 E.01923
G1 X103.029 Y21.679 E.09831
G1 X102.646 Y21.679 E.01923
G1 X102.646 Y19.72 E.09831
G1 X102.263 Y19.72 E.01923
G1 X102.263 Y21.679 E.09831
G1 X101.88 Y21.679 E.01923
G1 X101.88 Y19.565 E.1061
G1 E-.7 F3600
;WIPE_START
G1 F6240
G1 X101.88 Y20.085 E-.285
;WIPE_END
G1 E-.015 F3600
G1 X104.179 Y14.549 F7800
G1 E1 F2400
G1 F1800
G1 X104.179 Y12.435 E.1061
G1 X103.796 Y12.435 E.01923
G1 X103.796 Y14.394 E.09831
G1 X103.412 Y14.394 E.01923
G1 X103.412 Y12.435 E.09831
G1 X103.029 Y12.435 E.01923
G1 X103.029 Y14.394 E.09831
G1 X102.646 Y14.394 E.01923
G1 X102.646 Y12.435 E.09831
G1 X102.263 Y12.435 E.01923
G1 X102.263 Y14.394 E.09831
G1 X101.88 Y14.394 E.01923
G1 X101.88 Y12.28 E.1061
G1 E-.7 F3600
;WIPE_START
G1 F6240
G1 X101.88 Y12.8 E-.285
;WIPE_END
G1 E-.015 F3600
G1 X14.525 Y17.18 F7800
G1 E1 F2400
;TYPE:Perimeter
;WIDTH:0.42
G1 F1800
G1 X90.338 Y17.18 E3.80471
G1 X22.269 Y36.248 E3.54758
G1 X17.974 Y37.712 E.22773
G1 X17.851 Y37.774 E.00692
G1 X14.525 Y40.029 E.20166
G1 X14.525 Y17.33 E1.1392
G1 X14.18 Y16.835 F7800
;TYPE:External perimeter
G1 F1800
G1 X92.847 Y16.835 E3.94797
G1 X22.362 Y36.58 E3.67354
G1 X18.044 Y38.059 E.22906
G1 X14.18 Y40.68 E.23431
G1 X14.18 Y16.985 E1.18916
G1 X15.075 Y17.282 F7800
G1 E-.7 F3600
;WIPE_START
G1 F6240
G1 X14.7 Y16.984 E-.285
;WIPE_END
G1 E-.015 F3600
G1 X88.173 Y17.679 F7800
G1 E1 F2400
;TYPE:Solid infill
;WIDTH:0.421429
G1 F1800
G1 X87.933 Y17.439 E.01712
G1 X87.443 Y17.439 E.02468
G1 X87.665 Y17.66 E.01579
G1 X87.282 Y17.767 E.02002
G1 X86.954 Y17.439 E.02342
G1 X86.464 Y17.439 E.02468
G1 X86.9 Y17.874 E.03106
G1 X86.517 Y17.982 E.02002
G1 X85.974 Y17.439 E.0387
G1 X85.484 Y17.439 E.02468
G1 X86.134 Y18.089 E.04634
G1 X85.752 Y18.196 E.02002
G1 X84.994 Y17.439 E.05398
G1 X84.505 Y17.439 E.02468
G1 X85.369 Y18.303 E.06161
G1 X84.987 Y18.41 E.02002
G1 X84.015 Y17.439 E.06925
G1 X83.525 Y17.439 E.02468
G1 X84.604 Y18.517 E.07689
G1 X84.221 Y18.625 E.02002
G1 X83.035 Y17.439 E.08453
G1 X82.546 Y17.439 E.02468
G1 X83.839 Y18.732 E.09217
G1 X83.456 Y18.839 E.02002
G1 X82.056 Y17.439 E.09981
G1 X81.566 Y17.439 E.02468
G1 X83.074 Y18.946 E.10744
G1 X82.691 Y19.053 E.02002
G1 X81.076 Y17.439 E.11508
G1 X80.587 Y17.439 E.02468
G1 X82.308 Y19.16 E.12272
G1 X81.926 Y19.268 E.02002
G1 X80.097 Y17.439 E.13036
G1 X79.607 Y17.439 E.02468
G1 X81.543 Y19.375 E.138
G1 X81.161 Y19.482 E.02002
G1 X79.117 Y17.439 E.14563
G1 X78.627 Y17.439 E.02468
G1 X80.778 Y19.589 E.15327
G1 X80.396 Y19.696 E.02002
G1 X78.138 Y17.439 E.16091
G1 X77.648 Y17.439 E.02468
G1 X80.013 Y19.804 E.16855
G1 X79.63 Y19.911 E.02002
G1 X77.158 Y17.439 E.17619
G1 X76.668 Y17.439 E.02468
G1 X79.248 Y20.018 E.18382
G1 X78.865 Y20.125 E.02002
G1 X76.179 Y17.439 E.19146
G1 X75.689 Y17.439 E.02468
G1 X78.483 Y20.232 E.1991
G1 X78.1 Y20.339 E.02002
G1 X75.199 Y17.439 E.20674
G1 X74.709 Y17.439 E.02468
G1 X77.717 Y20.447 E.21438
G1 X77.335 Y20.554 E.02002
G1 X74.22 Y17.439 E.22202
G1 X73.73 Y17.439 E.02468
G1 X76.952 Y20.661 E.22965
G1 X76.57 Y20.768 E.02002
G1 X73.24 Y17.439 E.23729
G1 X72.75 Y17.439 E.02468
G1 X76.187 Y20.875 E.24493
G1 X75.804 Y20.982 E.02002
G1 X72.26 Y17.439 E.25257
G1 X71.771 Y17.439 E.02468
G1 X75.422 Y21.09 E.26021
G1 X75.039 Y21.197 E.02002
G1 X71.281 Y17.439 E.26784
G1 X70.791 Y17.439 E.02468
G1 X74.657 Y21.304 E.27548
G1 X74.274 Y21.411 E.02002
G1 X70.301 Y17.439 E.28312
G1 X69.812 Y17.439 E.02468
G1 X73.891 Y21.518 E.29076
G1 X73.509 Y21.626 E.02002
G1 X69.322 Y17.439 E.2984
G1 X68.832 Y17.439 E.02468
G1 X73.126 Y21.733 E.30604
G1 X72.744 Y21.84 E.02002
G1 X68.342 Y17.439 E.31367
