; generated by PrusaSlicer 2.5.0+win64 on 2022-12-07 at 00:04:05 UTC

; 

; external perimeters extrusion width = 1.00mm
; perimeters extrusion width = 1.00mm
; infill extrusion width = 1.00mm
; solid infill extrusion width = 1.00mm
; top infill extrusion width = 1.00mm
; support material extrusion width = 1.00mm
; first layer extrusion width = 0.42mm

M73 P0 R40
M107
;TYPE:Custom
G90 ; use absolute coordinates
M83 ; extruder relative mode
M140 S60 ; set final bed temp
M104 S150 ; set temporary nozzle temp to prevent oozing during homing and auto bed leveling
G4 S10 ; allow partial nozzle warmup
G28 ; home all axisG1 Z50 F240
G1 X7.6 Y10 F3000
M104 S210 ; set final nozzle temp
M190 S60 ; wait for bed temp to stabilize
M109 S210 ; wait for nozzle temp to stabilize
G1 Z0.28 F240
G92 E0
G1 Y140 E10 F1500 ; prime the nozzle
G1 X4 F5000
G92 E0
G1 Y10 E10 F1200 ; prime the nozzle
G92 E0
G21 ; set units to millimeters
G90 ; use absolute coordinates
M83 ; use relative distances for extrusion
; Filament gcode
M107
;LAYER_CHANGE
;Z:0.35
;HEIGHT:0.35
;BEFORE_LAYER_CHANGE
G92 E0
;0.35


G1 E-1 F3600
G1 Z.35 F7800
;AFTER_LAYER_CHANGE
;0.35
G1 X14.525 Y109.46
G1 E1 F2400
;TYPE:Perimeter
;WIDTH:0.42
G1 F1800
G1 X14.525 Y108.829 E.03167
G1 X30.824 Y103.331 E.86324
G1 X112.239 Y80.511 E4.24336
G1 X130.888 Y76.923 E.95307
G1 X165.475 Y71.064 E1.76049
G1 X165.475 Y94.51 E1.17667
G1 X124.186 Y101.494 E2.10156
G1 X119.461 Y102.404 E.24145
M73 P0 R39
G1 X94.299 Y109.46 E1.3115
G1 X14.675 Y109.46 E3.99597
G1 X14.18 Y109.805 F7800
;TYPE:External perimeter
M73 P1 R39
G1 F1800
G1 X14.18 Y108.581 E.0614
G1 X30.722 Y103.002 E.87612
G1 X112.16 Y80.175 E4.24453
G1 X130.826 Y76.583 E.95399
G1 X165.82 Y70.656 E1.78117
G1 X165.82 Y94.802 E1.21178
G1 X124.243 Y101.834 E2.11618
G1 X119.527 Y102.743 E.24106
G1 X94.346 Y109.805 E1.31245
G1 X14.33 Y109.805 E4.01566
G1 X14.661 Y108.928 F7800
G1 E-.7 F3600
;WIPE_START
G1 F6240
G1 X14.267 Y109.288 E-.285
;WIPE_END
G1 E-.015 F3600
G1 X164.777 Y71.287 F7800
G1 E1 F2400
;TYPE:Solid infill
;WIDTH:0.420412
G1 F1800
G1 X165.216 Y71.726 E.0312
G1 X165.216 Y72.215 E.02454
G1 X164.494 Y71.493 E.05131
G1 X164.076 Y71.564 E.02128
G1 X165.216 Y72.703 E.08098
G1 X165.216 Y73.191 E.02454
G1 X163.659 Y71.634 E.11065
G1 X163.241 Y71.705 E.02128
G1 X165.216 Y73.68 E.14033
G1 X165.216 Y74.168 E.02454
G1 X162.824 Y71.776 E.17
G1 X162.406 Y71.846 E.02128
G1 X165.216 Y74.656 E.19968
G1 X165.216 Y75.145 E.02454
G1 X161.988 Y71.917 E.22935
G1 X161.571 Y71.988 E.02128
G1 X165.216 Y75.633 E.25902
G1 X165.216 Y76.121 E.02454
G1 X161.153 Y72.059 E.2887
G1 X160.736 Y72.129 E.02128
G1 X165.216 Y76.61 E.31837
G1 X165.216 Y77.098 E.02454
G1 X160.318 Y72.2 E.34804
G1 X159.9 Y72.271 E.02128
G1 X165.216 Y77.586 E.37772
G1 X165.216 Y78.075 E.02454
G1 X159.483 Y72.342 E.40739
G1 X159.065 Y72.412 E.02128
G1 X165.216 Y78.563 E.43707
G1 X165.216 Y79.051 E.02454
G1 X158.648 Y72.483 E.46674
G1 X158.23 Y72.554 E.02128
G1 X165.216 Y79.54 E.49641
G1 X165.216 Y80.028 E.02454
G1 X157.812 Y72.624 E.52609
G1 X157.395 Y72.695 E.02128
G1 X165.216 Y80.516 E.55576
G1 X165.216 Y81.005 E.02454
G1 X156.977 Y72.766 E.58543
G1 X156.56 Y72.837 E.02128
G1 X165.216 Y81.493 E.61511
G1 X165.216 Y81.981 E.02454
G1 X156.142 Y72.907 E.64478
G1 X155.724 Y72.978 E.02128
G1 X165.216 Y82.47 E.67446
G1 X165.216 Y82.958 E.02454
G1 X155.307 Y73.049 E.70413
G1 X154.889 Y73.12 E.02128
G1 X165.216 Y83.446 E.7338
G1 X165.216 Y83.935 E.02454
G1 X154.472 Y73.19 E.76348
G1 X154.054 Y73.261 E.02128
G1 X165.216 Y84.423 E.79315
G1 X165.216 Y84.911 E.02454
G1 X153.636 Y73.332 E.82282
G1 X153.219 Y73.403 E.02128
G1 X165.216 Y85.4 E.8525
G1 X165.216 Y85.888 E.02454
G1 X152.801 Y73.473 E.88217
G1 X152.384 Y73.544 E.02128
M73 P2 R39
G1 X165.216 Y86.376 E.91185
G1 X165.216 Y86.865 E.02454
G1 X151.966 Y73.615 E.94152
G1 X151.548 Y73.685 E.02128
G1 X165.216 Y87.353 E.97119
G1 X165.216 Y87.841 E.02454
G1 X151.131 Y73.756 E1.00087
G1 X150.713 Y73.827 E.02128
G1 X165.216 Y88.33 E1.03054
G1 X165.216 Y88.818 E.02454
G1 X150.296 Y73.898 E1.06021
G1 X149.878 Y73.968 E.02128
G1 X165.216 Y89.306 E1.08989
G1 X165.216 Y89.795 E.02454
G1 X149.46 Y74.039 E1.11956
G1 X149.043 Y74.11 E.02128
G1 X165.216 Y90.283 E1.14924
G1 X165.216 Y90.771 E.02454
G1 X148.625 Y74.181 E1.17891
G1 X148.208 Y74.251 E.02128
G1 X165.216 Y91.26 E1.20858
G1 X165.216 Y91.748 E.02454
G1 X147.79 Y74.322 E1.23826
G1 X147.372 Y74.393 E.02128
G1 X165.216 Y92.236 E1.26793
G1 X165.216 Y92.725 E.02454
G1 X146.955 Y74.464 E1.2976
G1 X146.537 Y74.534 E.02128
G1 X165.216 Y93.213 E1.32728
G1 X165.216 Y93.701 E.02454
G1 X146.12 Y74.605 E1.35695
G1 X145.702 Y74.676 E.02128
G1 X165.216 Y94.19 E1.38663
G1 X165.216 Y94.292 E.00514
G1 X164.886 Y94.348 E.01683
G1 X145.284 Y74.746 E1.39283
G1 X144.867 Y74.817 E.02128
G1 X164.468 Y94.418 E1.39283
G1 X164.05 Y94.489 E.02128
G1 X144.449 Y74.888 E1.39282
G1 X144.032 Y74.959 E.02128
G1 X163.633 Y94.56 E1.39282
G1 X163.215 Y94.63 E.02128
G1 X143.614 Y75.029 E1.39281
G1 X143.196 Y75.1 E.02128
G1 X162.797 Y94.701 E1.3928
G1 X162.38 Y94.772 E.02128
G1 X142.779 Y75.171 E1.3928
G1 X142.361 Y75.242 E.02128
G1 X161.962 Y94.842 E1.39279
G1 X161.544 Y94.913 E.02128
G1 X141.944 Y75.312 E1.39279
G1 X141.526 Y75.383 E.02128
G1 X161.127 Y94.984 E1.39278
G1 X160.709 Y95.054 E.02128
G1 X141.109 Y75.454 E1.39277
G1 X140.691 Y75.525 E.02128
M73 P3 R39
G1 X160.291 Y95.125 E1.39277
G1 X159.874 Y95.196 E.02128
G1 X140.273 Y75.595 E1.39276
G1 X139.856 Y75.666 E.02128
G1 X159.456 Y95.266 E1.39276
G1 X159.038 Y95.337 E.02128
G1 X139.438 Y75.737 E1.39275
G1 X139.021 Y75.807 E.02128
G1 X158.621 Y95.407 E1.39274
G1 X158.203 Y95.478 E.02128
G1 X138.603 Y75.878 E1.39274
G1 X138.185 Y75.949 E.02128
G1 X157.785 Y95.549 E1.39273
G1 X157.367 Y95.619 E.02128
G1 X137.768 Y76.02 E1.39273
G1 X137.35 Y76.09 E.02128
M73 P3 R38
G1 X156.95 Y95.69 E1.39272
G1 X156.532 Y95.761 E.02128
G1 X136.933 Y76.161 E1.39271
G1 X136.515 Y76.232 E.02128
G1 X156.114 Y95.831 E1.39271
G1 X155.697 Y95.902 E.02128
G1 X136.097 Y76.303 E1.3927
G1 X135.68 Y76.373 E.02128
G1 X155.279 Y95.973 E1.39269
G1 X154.861 Y96.043 E.02128
G1 X135.262 Y76.444 E1.39269
G1 X134.845 Y76.515 E.02128
G1 X154.444 Y96.114 E1.39268
G1 X154.026 Y96.185 E.02128
G1 X134.427 Y76.586 E1.39268
G1 X134.009 Y76.656 E.02128
G1 X153.608 Y96.255 E1.39267
G1 X153.191 Y96.326 E.02128
G1 X133.592 Y76.727 E1.39266
G1 X133.174 Y76.798 E.02128
G1 X152.773 Y96.397 E1.39266
G1 X152.355 Y96.467 E.02128
G1 X132.757 Y76.868 E1.39265
G1 X132.339 Y76.939 E.02128
G1 X151.938 Y96.538 E1.39265
G1 X151.52 Y96.608 E.02128
G1 X131.921 Y77.01 E1.39264
G1 X131.504 Y77.081 E.02128
G1 X151.102 Y96.679 E1.39263
G1 X150.685 Y96.75 E.02128
G1 X131.086 Y77.151 E1.39263
G1 X130.674 Y77.227 E.02107
M73 P4 R38
G1 X150.267 Y96.82 E1.39226
G1 X149.849 Y96.891 E.02128
G1 X130.264 Y77.306 E1.39168
G1 X129.855 Y77.385 E.02095
G1 X149.431 Y96.962 E1.3911
G1 X149.014 Y97.032 E.02128
G1 X129.445 Y77.464 E1.39052
G1 X129.036 Y77.542 E.02095
G1 X148.596 Y97.103 E1.38994
G1 X148.178 Y97.174 E.02128
G1 X128.626 Y77.621 E1.38936
G1 X128.217 Y77.7 E.02095
G1 X147.761 Y97.244 E1.38878
G1 X147.343 Y97.315 E.02128
G1 X127.807 Y77.779 E1.3882
G1 X127.398 Y77.858 E.02095
G1 X146.925 Y97.386 E1.38762
G1 X146.508 Y97.456 E.02128
G1 X126.988 Y77.936 E1.38704
G1 X126.578 Y78.015 E.02095
G1 X146.09 Y97.527 E1.38646
G1 X145.672 Y97.597 E.02128
G1 X126.169 Y78.094 E1.38588
G1 X125.759 Y78.173 E.02095
G1 X145.255 Y97.668 E1.3853
G1 X144.837 Y97.739 E.02128
G1 X125.35 Y78.252 E1.38472
G1 X124.94 Y78.33 E.02095
G1 X144.419 Y97.809 E1.38414
G1 X144.002 Y97.88 E.02128
G1 X124.531 Y78.409 E1.38356
G1 X124.121 Y78.488 E.02095
G1 X143.584 Y97.951 E1.38298
G1 X143.166 Y98.021 E.02128
G1 X123.712 Y78.567 E1.3824
G1 X123.302 Y78.646 E.02095
G1 X142.749 Y98.092 E1.38182
G1 X142.331 Y98.163 E.02128
G1 X122.893 Y78.725 E1.38124
G1 X122.483 Y78.803 E.02095
G1 X141.913 Y98.233 E1.38066
G1 X141.496 Y98.304 E.02128
G1 X122.074 Y78.882 E1.38008
G1 X121.664 Y78.961 E.02095
G1 X141.078 Y98.375 E1.3795
G1 X140.66 Y98.445 E.02128
G1 X121.255 Y79.04 E1.37892
G1 X120.845 Y79.119 E.02095
G1 X140.242 Y98.516 E1.37834
G1 X139.825 Y98.587 E.02128
M73 P5 R38
G1 X120.436 Y79.197 E1.37776
G1 X120.026 Y79.276 E.02095
G1 X139.407 Y98.657 E1.37718
G1 X138.989 Y98.728 E.02128
G1 X119.617 Y79.355 E1.3766
G1 X119.207 Y79.434 E.02095
G1 X138.572 Y98.798 E1.37603
G1 X138.154 Y98.869 E.02128
G1 X118.797 Y79.513 E1.37545
G1 X118.388 Y79.591 E.02095
G1 X137.736 Y98.94 E1.37487
G1 X137.319 Y99.01 E.02128
G1 X117.978 Y79.67 E1.37429
G1 X117.569 Y79.749 E.02095
G1 X136.901 Y99.081 E1.37371
G1 X136.483 Y99.152 E.02128
G1 X117.159 Y79.828 E1.37313
G1 X116.75 Y79.907 E.02095
G1 X136.066 Y99.222 E1.37255
G1 X135.648 Y99.293 E.02128
G1 X116.34 Y79.985 E1.37197
G1 X115.931 Y80.064 E.02095
G1 X135.23 Y99.364 E1.37139
G1 X134.813 Y99.434 E.02128
G1 X115.521 Y80.143 E1.37081
G1 X115.112 Y80.222 E.02095
G1 X134.395 Y99.505 E1.37023
G1 X133.977 Y99.576 E.02128
G1 X114.702 Y80.301 E1.36965
G1 X114.293 Y80.379 E.02095
G1 X133.56 Y99.646 E1.36907
G1 X133.142 Y99.717 E.02128
G1 X113.883 Y80.458 E1.36849
G1 X113.474 Y80.537 E.02095
G1 X132.724 Y99.788 E1.36791
G1 X132.307 Y99.858 E.02128
G1 X113.064 Y80.616 E1.36733
G1 X112.655 Y80.695 E.02095
G1 X131.889 Y99.929 E1.36675
G1 X131.471 Y99.999 E.02128
M73 P5 R37
G1 X112.249 Y80.777 E1.36591
G1 X111.867 Y80.884 E.0199
G1 X131.053 Y100.07 E1.36333
G1 X130.636 Y100.141 E.02128
G1 X111.486 Y80.991 E1.36076
G1 X111.105 Y81.098 E.0199
G1 X130.218 Y100.211 E1.35818
G1 X129.8 Y100.282 E.02128
G1 X110.723 Y81.205 E1.3556
G1 X110.342 Y81.312 E.0199
M73 P6 R37
G1 X129.383 Y100.353 E1.35303
G1 X128.965 Y100.423 E.02128
G1 X109.96 Y81.419 E1.35045
G1 X109.579 Y81.525 E.0199
G1 X128.547 Y100.494 E1.34787
G1 X128.13 Y100.565 E.02128
G1 X109.197 Y81.632 E1.34529
G1 X108.816 Y81.739 E.0199
G1 X127.712 Y100.635 E1.34272
G1 X127.294 Y100.706 E.02128
G1 X108.435 Y81.846 E1.34014
G1 X108.053 Y81.953 E.0199
G1 X126.877 Y100.777 E1.33756
G1 X126.459 Y100.847 E.02128
G1 X107.672 Y82.06 E1.33499
G1 X107.29 Y82.167 E.0199
G1 X126.041 Y100.918 E1.33241
G1 X125.624 Y100.989 E.02128
G1 X106.909 Y82.274 E1.32983
G1 X106.527 Y82.381 E.0199
G1 X125.206 Y101.059 E1.32726
G1 X124.788 Y101.13 E.02128
G1 X106.146 Y82.488 E1.32468
G1 X105.765 Y82.595 E.0199
G1 X124.371 Y101.2 E1.3221
G1 X123.957 Y101.275 E.02113
G1 X105.383 Y82.701 E1.31979
G1 X105.002 Y82.808 E.0199
G1 X123.547 Y101.354 E1.3178
G1 X123.138 Y101.433 E.02095
G1 X104.62 Y82.915 E1.31581
G1 X104.239 Y83.022 E.0199
G1 X122.728 Y101.511 E1.31382
G1 X122.319 Y101.59 E.02095
G1 X103.858 Y83.129 E1.31183
G1 X103.476 Y83.236 E.0199
G1 X121.909 Y101.669 E1.30983
G1 X121.5 Y101.748 E.02095
G1 X103.095 Y83.343 E1.30784
G1 X102.713 Y83.45 E.0199
G1 X121.09 Y101.827 E1.30585
G1 X120.681 Y101.906 E.02095
G1 X102.332 Y83.557 E1.30386
G1 X101.95 Y83.664 E.0199
G1 X120.272 Y101.985 E1.30187
G1 X119.862 Y102.064 E.02095
G1 X101.569 Y83.771 E1.29988
G1 X101.188 Y83.877 E.0199
G1 X119.453 Y102.143 E1.29789
G1 X119.068 Y102.247 E.02001
G1 X100.806 Y83.984 E1.29767
G1 X100.425 Y84.091 E.0199
M73 P7 R37
G1 X118.687 Y102.353 E1.29768
G1 X118.305 Y102.46 E.0199
G1 X100.043 Y84.198 E1.29768
G1 X99.662 Y84.305 E.0199
G1 X117.924 Y102.567 E1.29768
G1 X117.543 Y102.674 E.0199
G1 X99.281 Y84.412 E1.29768
G1 X98.899 Y84.519 E.0199
G1 X117.161 Y102.781 E1.29768
G1 X116.78 Y102.888 E.0199
G1 X98.518 Y84.626 E1.29768
G1 X98.136 Y84.733 E.0199
G1 X116.398 Y102.995 E1.29768
G1 X116.017 Y103.102 E.0199
G1 X97.755 Y84.84 E1.29769
G1 X97.373 Y84.947 E.0199
G1 X115.636 Y103.209 E1.29769
G1 X115.254 Y103.316 E.0199
G1 X96.992 Y85.054 E1.29769
G1 X96.611 Y85.16 E.0199
G1 X114.873 Y103.423 E1.29769
G1 X114.492 Y103.53 E.0199
G1 X96.229 Y85.267 E1.29769
G1 X95.848 Y85.374 E.0199
G1 X114.11 Y103.637 E1.29769
G1 X113.729 Y103.744 E.0199
G1 X95.466 Y85.481 E1.2977
G1 X95.085 Y85.588 E.0199
G1 X113.347 Y103.85 E1.2977
G1 X112.966 Y103.957 E.0199
G1 X94.703 Y85.695 E1.2977
G1 X94.322 Y85.802 E.0199
G1 X112.585 Y104.064 E1.2977
G1 X112.203 Y104.171 E.0199
G1 X93.941 Y85.909 E1.2977
G1 X93.559 Y86.016 E.0199
G1 X111.822 Y104.278 E1.2977
G1 X111.44 Y104.385 E.0199
G1 X93.178 Y86.123 E1.29771
G1 X92.796 Y86.23 E.0199
G1 X111.059 Y104.492 E1.29771
G1 X110.678 Y104.599 E.0199
G1 X92.415 Y86.336 E1.29771
G1 X92.034 Y86.443 E.0199
G1 X110.296 Y104.706 E1.29771
G1 X109.915 Y104.813 E.0199
G1 X91.652 Y86.55 E1.29771
G1 X91.271 Y86.657 E.0199
G1 X109.533 Y104.92 E1.29771
G1 X109.152 Y105.027 E.0199
G1 X90.889 Y86.764 E1.29771
G1 X90.508 Y86.871 E.0199
M73 P8 R37
G1 X108.771 Y105.134 E1.29772
G1 X108.389 Y105.241 E.0199
G1 X90.126 Y86.978 E1.29772
G1 X89.745 Y87.085 E.0199
G1 X108.008 Y105.348 E1.29772
G1 X107.626 Y105.454 E.0199
G1 X89.364 Y87.192 E1.29772
G1 X88.982 Y87.299 E.0199
G1 X107.245 Y105.561 E1.29772
G1 X106.864 Y105.668 E.0199
G1 X88.601 Y87.406 E1.29772
G1 X88.219 Y87.512 E.0199
G1 X106.482 Y105.775 E1.29773
G1 X106.101 Y105.882 E.0199
G1 X87.838 Y87.619 E1.29773
G1 X87.457 Y87.726 E.0199
M73 P8 R36
G1 X105.719 Y105.989 E1.29773
G1 X105.338 Y106.096 E.0199
G1 X87.075 Y87.833 E1.29773
G1 X86.694 Y87.94 E.0199
G1 X104.957 Y106.203 E1.29773
G1 X104.575 Y106.31 E.0199
G1 X86.312 Y88.047 E1.29773
G1 X85.931 Y88.154 E.0199
G1 X104.194 Y106.417 E1.29773
G1 X103.812 Y106.524 E.0199
G1 X85.549 Y88.261 E1.29774
G1 X85.168 Y88.368 E.0199
G1 X103.431 Y106.631 E1.29774
G1 X103.05 Y106.738 E.0199
G1 X84.787 Y88.475 E1.29774
G1 X84.405 Y88.582 E.0199
G1 X102.668 Y106.845 E1.29774
G1 X102.287 Y106.952 E.0199
G1 X84.024 Y88.688 E1.29774
G1 X83.642 Y88.795 E.0199
G1 X101.905 Y107.058 E1.29774
G1 X101.524 Y107.165 E.0199
G1 X83.261 Y88.902 E1.29775
G1 X82.879 Y89.009 E.0199
G1 X101.143 Y107.272 E1.29775
G1 X100.761 Y107.379 E.0199
G1 X82.498 Y89.116 E1.29775
G1 X82.117 Y89.223 E.0199
G1 X100.38 Y107.486 E1.29775
G1 X99.998 Y107.593 E.0199
G1 X81.735 Y89.33 E1.29775
G1 X81.354 Y89.437 E.0199
G1 X99.617 Y107.7 E1.29775
G1 X99.236 Y107.807 E.0199
G1 X80.972 Y89.544 E1.29776
G1 X80.591 Y89.651 E.0199
G1 X98.854 Y107.914 E1.29776
G1 X98.473 Y108.021 E.0199
M73 P9 R36
G1 X80.21 Y89.758 E1.29776
G1 X79.828 Y89.864 E.0199
G1 X98.091 Y108.128 E1.29776
G1 X97.71 Y108.235 E.0199
G1 X79.447 Y89.971 E1.29776
G1 X79.065 Y90.078 E.0199
G1 X97.329 Y108.342 E1.29776
G1 X96.947 Y108.449 E.0199
G1 X78.684 Y90.185 E1.29776
G1 X78.302 Y90.292 E.0199
G1 X96.566 Y108.555 E1.29777
G1 X96.184 Y108.662 E.0199
G1 X77.921 Y90.399 E1.29777
G1 X77.54 Y90.506 E.0199
G1 X95.803 Y108.769 E1.29777
G1 X95.422 Y108.876 E.0199
G1 X77.158 Y90.613 E1.29777
G1 X76.777 Y90.72 E.0199
G1 X95.04 Y108.983 E1.29777
G1 X94.659 Y109.09 E.0199
G1 X76.395 Y90.827 E1.29777
G1 X76.014 Y90.934 E.0199
G1 X94.277 Y109.197 E1.29778
G1 X93.793 Y109.201 E.02434
G1 X75.633 Y91.04 E1.29046
G1 X75.251 Y91.147 E.0199
G1 X93.305 Y109.201 E1.28286
G1 X92.816 Y109.201 E.02454
G1 X74.87 Y91.254 E1.27527
G1 X74.488 Y91.361 E.0199
G1 X92.328 Y109.201 E1.26767
G1 X91.84 Y109.201 E.02454
G1 X74.107 Y91.468 E1.26007
G1 X73.725 Y91.575 E.0199
G1 X91.351 Y109.201 E1.25248
G1 X90.863 Y109.201 E.02454
G1 X73.344 Y91.682 E1.24488
G1 X72.963 Y91.789 E.0199
G1 X90.375 Y109.201 E1.23728
G1 X89.886 Y109.201 E.02454
G1 X72.581 Y91.896 E1.22969
G1 X72.2 Y92.003 E.0199
G1 X89.398 Y109.201 E1.22209
G1 X88.91 Y109.201 E.02454
G1 X71.818 Y92.11 E1.21449
G1 X71.437 Y92.216 E.0199
G1 X88.421 Y109.201 E1.2069
G1 X87.933 Y109.201 E.02454
G1 X71.055 Y92.323 E1.1993
G1 X70.674 Y92.43 E.0199
G1 X87.445 Y109.201 E1.1917
G1 X86.956 Y109.201 E.02454
G1 X70.293 Y92.537 E1.1841
G1 X69.911 Y92.644 E.0199
M73 P10 R36
G1 X86.468 Y109.201 E1.17651
G1 X85.98 Y109.201 E.02454
G1 X69.53 Y92.751 E1.16891
G1 X69.148 Y92.858 E.0199
G1 X85.491 Y109.201 E1.16131
G1 X85.003 Y109.201 E.02454
G1 X68.767 Y92.965 E1.15372
G1 X68.386 Y93.072 E.0199
G1 X84.515 Y109.201 E1.14612
G1 X84.027 Y109.201 E.02454
G1 X68.004 Y93.179 E1.13852
G1 X67.623 Y93.286 E.0199
G1 X83.538 Y109.201 E1.13093
G1 X83.05 Y109.201 E.02454
G1 X67.241 Y93.392 E1.12333
G1 X66.86 Y93.499 E.0199
G1 X82.562 Y109.201 E1.11573
