; generated by PrusaSlicer 2.5.0+win64 on 2022-12-07 at 00:04:18 UTC

; 

; external perimeters extrusion width = 1.00mm
; perimeters extrusion width = 1.00mm
; infill extrusion width = 1.00mm
; solid infill extrusion width = 1.00mm
; top infill extrusion width = 1.00mm
; support material extrusion width = 1.00mm
; first layer extrusion width = 0.42mm

M73 P0 R183
M107
;TYPE:Custom
G90 ; use absolute coordinates
M83 ; extruder relative mode
M140 S60 ; set final bed temp
M104 S150 ; set temporary nozzle temp to prevent oozing during homing and auto bed leveling
G4 S10 ; allow partial nozzle warmup
G28 ; home all axisG1 Z50 F240
G1 X7.6 Y10 F3000
M104 S210 ; set final nozzle temp
M190 S60 ; wait for bed temp to stabilize
M109 S210 ; wait for nozzle temp to stabilize
G1 Z0.28 F240
G92 E0
G1 Y140 E10 F1500 ; prime the nozzle
G1 X4 F5000
G92 E0
G1 Y10 E10 F1200 ; prime the nozzle
G92 E0
G21 ; set units to millimeters
G90 ; use absolute coordinates
M83 ; use relative distances for extrusion
; Filament gcode
M107
;LAYER_CHANGE
;Z:0.35
;HEIGHT:0.35
;BEFORE_LAYER_CHANGE
G92 E0
;0.35


G1 E-1 F3600
G1 Z.35 F7800
;AFTER_LAYER_CHANGE
;0.35
G1 X106.617 Y21.99
G1 E1 F2400
;TYPE:Support material
;WIDTH:0.42
G1 F1800
G1 X83.181 Y21.99 E1.17616
G1 X83.181 Y12.124 E.49509
G1 X106.617 Y12.124 E1.17616
G1 X106.617 Y21.938 E.4925
G1 X106.288 Y21.834 F7800
G1 F1800
G1 X106.288 Y12.435 E.47173
G1 X105.905 Y12.435 E.01923
G1 X105.905 Y21.679 E.46394
G1 X105.522 Y21.679 E.01923
G1 X105.522 Y12.435 E.46394
G1 X105.139 Y12.435 E.01923
G1 X105.139 Y21.679 E.46394
G1 X104.756 Y21.679 E.01923
G1 X104.756 Y12.435 E.46394
G1 X104.372 Y12.435 E.01923
G1 X104.372 Y21.679 E.46394
G1 X103.989 Y21.679 E.01923
M73 P0 R182
G1 X103.989 Y12.435 E.46394
G1 X103.606 Y12.435 E.01923
G1 X103.606 Y21.679 E.46394
G1 X103.223 Y21.679 E.01923
G1 X103.223 Y12.435 E.46394
G1 X102.84 Y12.435 E.01923
G1 X102.84 Y21.679 E.46394
G1 X102.456 Y21.679 E.01923
G1 X102.456 Y12.435 E.46394
G1 X102.073 Y12.435 E.01923
G1 X102.073 Y21.679 E.46394
G1 X101.69 Y21.679 E.01923
G1 X101.69 Y12.435 E.46394
G1 X101.307 Y12.435 E.01923
G1 X101.307 Y21.679 E.46394
G1 X100.923 Y21.679 E.01923
G1 X100.923 Y12.435 E.46394
G1 X100.54 Y12.435 E.01923
G1 X100.54 Y21.679 E.46394
G1 X100.157 Y21.679 E.01923
G1 X100.157 Y12.435 E.46394
G1 X99.774 Y12.435 E.01923
G1 X99.774 Y21.679 E.46394
G1 X99.391 Y21.679 E.01923
G1 X99.391 Y12.435 E.46394
G1 X99.007 Y12.435 E.01923
G1 X99.007 Y21.679 E.46394
G1 X98.624 Y21.679 E.01923
G1 X98.624 Y12.435 E.46394
G1 X98.241 Y12.435 E.01923
G1 X98.241 Y21.679 E.46394
G1 X97.858 Y21.679 E.01923
G1 X97.858 Y12.435 E.46394
G1 X97.475 Y12.435 E.01923
G1 X97.475 Y21.679 E.46394
G1 X97.091 Y21.679 E.01923
G1 X97.091 Y12.435 E.46394
G1 X96.708 Y12.435 E.01923
G1 X96.708 Y21.679 E.46394
G1 X96.325 Y21.679 E.01923
G1 X96.325 Y12.435 E.46394
G1 X95.942 Y12.435 E.01923
G1 X95.942 Y21.679 E.46394
G1 X95.559 Y21.679 E.01923
G1 X95.559 Y12.435 E.46394
G1 X95.175 Y12.435 E.01923
G1 X95.175 Y21.679 E.46394
G1 X94.792 Y21.679 E.01923
G1 X94.792 Y12.435 E.46394
G1 X94.409 Y12.435 E.01923
G1 X94.409 Y21.679 E.46394
G1 X94.026 Y21.679 E.01923
G1 X94.026 Y12.435 E.46394
G1 X93.642 Y12.435 E.01923
G1 X93.642 Y21.679 E.46394
G1 X93.259 Y21.679 E.01923
G1 X93.259 Y12.435 E.46394
G1 X92.876 Y12.435 E.01923
G1 X92.876 Y21.679 E.46394
G1 X92.493 Y21.679 E.01923
G1 X92.493 Y12.435 E.46394
G1 X92.11 Y12.435 E.01923
G1 X92.11 Y21.679 E.46394
G1 X91.726 Y21.679 E.01923
G1 X91.726 Y12.435 E.46394
G1 X91.343 Y12.435 E.01923
G1 X91.343 Y21.679 E.46394
G1 X90.96 Y21.679 E.01923
G1 X90.96 Y12.435 E.46394
G1 X90.577 Y12.435 E.01923
G1 X90.577 Y21.679 E.46394
G1 X90.194 Y21.679 E.01923
G1 X90.194 Y12.435 E.46394
G1 X89.81 Y12.435 E.01923
G1 X89.81 Y21.679 E.46394
G1 X89.427 Y21.679 E.01923
G1 X89.427 Y12.435 E.46394
G1 X89.044 Y12.435 E.01923
G1 X89.044 Y21.679 E.46394
G1 X88.661 Y21.679 E.01923
G1 X88.661 Y12.435 E.46394
G1 X88.278 Y12.435 E.01923
G1 X88.278 Y21.679 E.46394
G1 X87.894 Y21.679 E.01923
G1 X87.894 Y12.435 E.46394
G1 X87.511 Y12.435 E.01923
G1 X87.511 Y21.679 E.46394
G1 X87.128 Y21.679 E.01923
G1 X87.128 Y12.435 E.46394
G1 X86.745 Y12.435 E.01923
G1 X86.745 Y21.679 E.46394
G1 X86.361 Y21.679 E.01923
G1 X86.361 Y12.435 E.46394
G1 X85.978 Y12.435 E.01923
G1 X85.978 Y21.679 E.46394
G1 X85.595 Y21.679 E.01923
G1 X85.595 Y12.435 E.46394
G1 X85.212 Y12.435 E.01923
G1 X85.212 Y21.679 E.46394
G1 X84.829 Y21.679 E.01923
G1 X84.829 Y12.435 E.46394
G1 X84.445 Y12.435 E.01923
G1 X84.445 Y21.679 E.46394
G1 X84.062 Y21.679 E.01923
G1 X84.062 Y12.435 E.46394
G1 X83.679 Y12.435 E.01923
G1 X83.679 Y21.834 E.47173
G1 E-.7 F3600
;WIPE_START
G1 F6240
G1 X83.679 Y21.314 E-.285
;WIPE_END
G1 E-.015 F3600
G1 X53.056 Y34.252 F7800
G1 E1 F2400
;TYPE:Perimeter
;WIDTH:0.42
G1 F1800
G1 X55.057 Y162.82 E6.45306
G1 X39.893 Y162.82 E.76103
G1 X39.895 Y26.258 E6.85351
G1 X52.928 Y34.175 E.76529
G1 X53.398 Y34.057 F7800
;TYPE:External perimeter
G1 F1800
G1 X55.408 Y163.165 E6.4802
G1 X39.548 Y163.165 E.79592
G1 X39.551 Y25.644 E6.90158
G1 X53.27 Y33.979 E.80561
G1 X53.373 Y35.056 F7800
G1 E-.7 F3600
;WIPE_START
G1 F6240
G1 X53.279 Y34.499 E-.285
;WIPE_END
G1 E-.015 F3600
G1 X51.152 Y33.217 F7800
G1 E1 F2400
;TYPE:Solid infill
;WIDTH:0.421139
G1 F1800
G1 X52.807 Y34.872 E.11786
G1 X52.815 Y35.369 E.02503
G1 X50.368 Y32.922 E.17425
G1 X49.121 Y32.165 E.07345
G1 X52.823 Y35.866 E.26357
G1 X52.831 Y36.363 E.02503
G1 X47.875 Y31.407 E.3529
G1 X46.628 Y30.65 E.07345
G1 X52.838 Y36.86 E.44222
G1 X52.846 Y37.357 E.02503
G1 X45.381 Y29.893 E.53154
G1 X44.135 Y29.135 E.07345
G1 X52.854 Y37.854 E.62087
G1 X52.862 Y38.352 E.02503
G1 X42.888 Y28.378 E.71019
G1 X41.641 Y27.621 E.07345
G1 X52.869 Y38.849 E.79952
G1 X52.877 Y39.346 E.02503
G1 X40.395 Y26.863 E.88884
G1 X40.154 Y26.717 E.01417
G1 X40.154 Y27.112 E.01989
G1 X52.885 Y39.843 E.90652
G1 X52.893 Y40.34 E.02503
G1 X40.154 Y27.602 E.90707
G1 X40.154 Y28.091 E.02464
G1 X52.9 Y40.837 E.90763
G1 X52.908 Y41.334 E.02503
G1 X40.154 Y28.58 E.90818
G1 X40.154 Y29.07 E.02464
G1 X52.916 Y41.831 E.90873
G1 X52.923 Y42.328 E.02503
G1 X40.154 Y29.559 E.90928
G1 X40.154 Y30.048 E.02464
G1 X52.931 Y42.825 E.90983
G1 X52.939 Y43.323 E.02503
G1 X40.154 Y30.538 E.91038
G1 X40.154 Y31.027 E.02464
G1 X52.947 Y43.82 E.91094
G1 X52.954 Y44.317 E.02503
G1 X40.154 Y31.516 E.91149
G1 X40.154 Y32.006 E.02464
G1 X52.962 Y44.814 E.91204
G1 X52.97 Y45.311 E.02503
G1 X40.154 Y32.495 E.91259
G1 X40.154 Y32.984 E.02464
G1 X52.978 Y45.808 E.91314
G1 X52.985 Y46.305 E.02503
G1 X40.154 Y33.474 E.91369
G1 X40.154 Y33.963 E.02464
G1 X52.993 Y46.802 E.91424
G1 X53.001 Y47.299 E.02503
G1 X40.154 Y34.452 E.9148
G1 X40.154 Y34.942 E.02464
G1 X53.009 Y47.796 E.91535
G1 X53.016 Y48.293 E.02503
G1 X40.154 Y35.431 E.9159
G1 X40.154 Y35.92 E.02464
G1 X53.024 Y48.791 E.91645
G1 X53.032 Y49.288 E.02503
G1 X40.154 Y36.41 E.917
G1 X40.154 Y36.899 E.02464
G1 X53.04 Y49.785 E.91755
G1 X53.047 Y50.282 E.02503
G1 X40.154 Y37.389 E.9181
G1 X40.154 Y37.878 E.02464
G1 X53.055 Y50.779 E.91866
M73 P0 R181
G1 X53.063 Y51.276 E.02503
G1 X40.154 Y38.367 E.91921
G1 X40.154 Y38.857 E.02464
G1 X53.07 Y51.773 E.91976
G1 X53.078 Y52.27 E.02503
G1 X40.154 Y39.346 E.92031
G1 X40.154 Y39.835 E.02464
G1 X53.086 Y52.767 E.92086
G1 X53.094 Y53.264 E.02503
G1 X40.154 Y40.325 E.92141
G1 X40.154 Y40.814 E.02464
G1 X53.101 Y53.761 E.92197
G1 X53.109 Y54.259 E.02503
G1 X40.154 Y41.303 E.92252
G1 X40.154 Y41.793 E.02464
G1 X53.117 Y54.756 E.92307
G1 X53.125 Y55.253 E.02503
G1 X40.154 Y42.282 E.92362
G1 X40.154 Y42.771 E.02464
G1 X53.132 Y55.75 E.92417
G1 X53.14 Y56.247 E.02503
G1 X40.154 Y43.261 E.92472
G1 X40.154 Y43.75 E.02464
G1 X53.148 Y56.744 E.92527
G1 X53.156 Y57.241 E.02503
G1 X40.154 Y44.239 E.92583
G1 X40.154 Y44.729 E.02464
G1 X53.163 Y57.738 E.92638
G1 X53.171 Y58.235 E.02503
G1 X40.154 Y45.218 E.92693
G1 X40.154 Y45.707 E.02464
G1 X53.179 Y58.732 E.92748
G1 X53.186 Y59.229 E.02503
G1 X40.154 Y46.197 E.92803
G1 X40.154 Y46.686 E.02464
G1 X53.194 Y59.727 E.92858
G1 X53.202 Y60.224 E.02503
G1 X40.154 Y47.175 E.92913
G1 X40.154 Y47.665 E.02464
G1 X53.21 Y60.721 E.92969
G1 X53.217 Y61.218 E.02503
G1 X40.154 Y48.154 E.93024
G1 X40.154 Y48.644 E.02464
G1 X53.225 Y61.715 E.93079
G1 X53.233 Y62.212 E.02503
G1 X40.154 Y49.133 E.93134
G1 X40.154 Y49.622 E.02464
G1 X53.241 Y62.709 E.93189
G1 X53.248 Y63.206 E.02503
G1 X40.154 Y50.112 E.93244
G1 X40.154 Y50.601 E.02464
G1 X53.256 Y63.703 E.93299
G1 X53.264 Y64.2 E.02503
G1 X40.154 Y51.09 E.93355
G1 X40.154 Y51.58 E.02464
G1 X53.272 Y64.698 E.9341
G1 X53.279 Y65.195 E.02503
G1 X40.154 Y52.069 E.93465
G1 X40.154 Y52.558 E.02464
G1 X53.287 Y65.692 E.9352
G1 X53.295 Y66.189 E.02503
G1 X40.154 Y53.048 E.93575
G1 X40.154 Y53.537 E.02464
G1 X53.303 Y66.686 E.9363
G1 X53.31 Y67.183 E.02503
G1 X40.154 Y54.026 E.93686
G1 X40.154 Y54.516 E.02464
G1 X53.318 Y67.68 E.93741
G1 X53.326 Y68.177 E.02503
G1 X40.154 Y55.005 E.93796
G1 X40.154 Y55.494 E.02464
G1 X53.333 Y68.674 E.93851
G1 X53.341 Y69.171 E.02503
G1 X40.154 Y55.984 E.93906
G1 X40.154 Y56.473 E.02464
G1 X53.349 Y69.668 E.93961
G1 X53.357 Y70.166 E.02503
G1 X40.154 Y56.962 E.94016
G1 X40.154 Y57.452 E.02464
G1 X53.364 Y70.663 E.94072
G1 X53.372 Y71.16 E.02503
G1 X40.154 Y57.941 E.94127
G1 X40.154 Y58.431 E.02464
G1 X53.38 Y71.657 E.94182
G1 X53.388 Y72.154 E.02503
G1 X40.154 Y58.92 E.94237
G1 X40.154 Y59.409 E.02464
G1 X53.395 Y72.651 E.94292
G1 X53.403 Y73.148 E.02503
G1 X40.154 Y59.899 E.94347
G1 X40.154 Y60.388 E.02464
G1 X53.411 Y73.645 E.94402
G1 X53.419 Y74.142 E.02503
G1 X40.154 Y60.877 E.94458
G1 X40.153 Y61.367 E.02464
M73 P1 R181
G1 X53.426 Y74.639 E.94513
G1 X53.434 Y75.136 E.02503
G1 X40.153 Y61.856 E.94568
G1 X40.153 Y62.345 E.02464
G1 X53.442 Y75.634 E.94623
G1 X53.449 Y76.131 E.02503
G1 X40.153 Y62.835 E.94678
G1 X40.153 Y63.324 E.02464
G1 X53.457 Y76.628 E.94733
G1 X53.465 Y77.125 E.02503
G1 X40.153 Y63.813 E.94789
G1 X40.153 Y64.303 E.02464
G1 X53.473 Y77.622 E.94844
G1 X53.48 Y78.119 E.02503
G1 X40.153 Y64.792 E.94899
G1 X40.153 Y65.281 E.02464
G1 X53.488 Y78.616 E.94954
G1 X53.496 Y79.113 E.02503
G1 X40.153 Y65.771 E.95009
G1 X40.153 Y66.26 E.02464
G1 X53.504 Y79.61 E.95064
G1 X53.511 Y80.107 E.02503
G1 X40.153 Y66.749 E.95119
G1 X40.153 Y67.239 E.02464
G1 X53.519 Y80.605 E.95175
G1 X53.527 Y81.102 E.02503
G1 X40.153 Y67.728 E.9523
G1 X40.153 Y68.217 E.02464
G1 X53.535 Y81.599 E.95285
G1 X53.542 Y82.096 E.02503
G1 X40.153 Y68.707 E.9534
G1 X40.153 Y69.196 E.02464
G1 X53.55 Y82.593 E.95395
G1 X53.558 Y83.09 E.02503
G1 X40.153 Y69.686 E.9545
G1 X40.153 Y70.175 E.02464
G1 X53.566 Y83.587 E.95505
G1 X53.573 Y84.084 E.02503
G1 X40.153 Y70.664 E.95561
G1 X40.153 Y71.154 E.02464
G1 X53.581 Y84.581 E.95616
G1 X53.589 Y85.078 E.02503
G1 X40.153 Y71.643 E.95671
G1 X40.153 Y72.132 E.02464
G1 X53.596 Y85.575 E.95726
G1 X53.604 Y86.073 E.02503
G1 X40.153 Y72.622 E.95781
G1 X40.153 Y73.111 E.02464
G1 X53.612 Y86.57 E.95836
G1 X53.62 Y87.067 E.02503
G1 X40.153 Y73.6 E.95892
G1 X40.153 Y74.09 E.02464
G1 X53.627 Y87.564 E.95947
G1 X53.635 Y88.061 E.02503
G1 X40.153 Y74.579 E.96002
G1 X40.153 Y75.068 E.02464
G1 X53.643 Y88.558 E.96057
G1 X53.651 Y89.055 E.02503
G1 X40.153 Y75.558 E.96112
G1 X40.153 Y76.047 E.02464
G1 X53.658 Y89.552 E.96167
G1 X53.666 Y90.049 E.02503
G1 X40.153 Y76.536 E.96222
G1 X40.153 Y77.026 E.02464
G1 X53.674 Y90.546 E.96278
G1 X53.682 Y91.043 E.02503
G1 X40.153 Y77.515 E.96333
G1 X40.153 Y78.004 E.02464
G1 X53.689 Y91.541 E.96388
G1 X53.697 Y92.038 E.02503
G1 X40.153 Y78.494 E.96443
G1 X40.153 Y78.983 E.02464
G1 X53.705 Y92.535 E.96498
G1 X53.713 Y93.032 E.02503
G1 X40.153 Y79.472 E.96553
G1 X40.153 Y79.962 E.02464
G1 X53.72 Y93.529 E.96608
G1 X53.728 Y94.026 E.02503
G1 X40.153 Y80.451 E.96664
G1 X40.153 Y80.941 E.02464
M73 P1 R180
G1 X53.736 Y94.523 E.96719
G1 X53.743 Y95.02 E.02503
G1 X40.153 Y81.43 E.96774
G1 X40.153 Y81.919 E.02464
G1 X53.751 Y95.517 E.96829
G1 X53.759 Y96.014 E.02503
G1 X40.153 Y82.409 E.96884
G1 X40.153 Y82.898 E.02464
G1 X53.767 Y96.511 E.96939
G1 X53.774 Y97.009 E.02503
G1 X40.153 Y83.387 E.96995
G1 X40.153 Y83.877 E.02464
G1 X53.782 Y97.506 E.9705
G1 X53.79 Y98.003 E.02503
G1 X40.153 Y84.366 E.97105
G1 X40.153 Y84.855 E.02464
G1 X53.798 Y98.5 E.9716
G1 X53.805 Y98.997 E.02503
G1 X40.153 Y85.345 E.97215
G1 X40.153 Y85.834 E.02464
G1 X53.813 Y99.494 E.9727
G1 X53.821 Y99.991 E.02503
G1 X40.153 Y86.323 E.97325
G1 X40.153 Y86.813 E.02464
G1 X53.829 Y100.488 E.97381
G1 X53.836 Y100.985 E.02503
G1 X40.153 Y87.302 E.97436
G1 X40.153 Y87.791 E.02464
G1 X53.844 Y101.482 E.97491
G1 X53.852 Y101.98 E.02503
G1 X40.153 Y88.281 E.97546
G1 X40.153 Y88.77 E.02464
G1 X53.859 Y102.477 E.97601
G1 X53.867 Y102.974 E.02503
G1 X40.153 Y89.259 E.97656
G1 X40.153 Y89.749 E.02464
G1 X53.875 Y103.471 E.97711
G1 X53.883 Y103.968 E.02503
G1 X40.153 Y90.238 E.97767
G1 X40.153 Y90.727 E.02464
G1 X53.89 Y104.465 E.97822
G1 X53.898 Y104.962 E.02503
G1 X40.153 Y91.217 E.97877
G1 X40.153 Y91.706 E.02464
G1 X53.906 Y105.459 E.97932
G1 X53.914 Y105.956 E.02503
G1 X40.153 Y92.196 E.97987
G1 X40.153 Y92.685 E.02464
G1 X53.921 Y106.453 E.98042
G1 X53.929 Y106.95 E.02503
G1 X40.153 Y93.174 E.98098
G1 X40.153 Y93.664 E.02464
G1 X53.937 Y107.448 E.98153
G1 X53.945 Y107.945 E.02503
G1 X40.153 Y94.153 E.98208
G1 X40.153 Y94.642 E.02464
G1 X53.952 Y108.442 E.98263
G1 X53.96 Y108.939 E.02503
G1 X40.153 Y95.132 E.98318
G1 X40.153 Y95.621 E.02464
G1 X53.968 Y109.436 E.98373
G1 X53.976 Y109.933 E.02503
G1 X40.153 Y96.11 E.98428
G1 X40.153 Y96.6 E.02464
G1 X53.983 Y110.43 E.98484
G1 X53.991 Y110.927 E.02503
G1 X40.153 Y97.089 E.98539
G1 X40.153 Y97.578 E.02464
G1 X53.999 Y111.424 E.98594
G1 X54.006 Y111.921 E.02503
G1 X40.153 Y98.068 E.98649
G1 X40.153 Y98.557 E.02464
G1 X54.014 Y112.418 E.98704
G1 X54.022 Y112.916 E.02503
G1 X40.153 Y99.046 E.98759
G1 X40.153 Y99.536 E.02464
G1 X54.03 Y113.413 E.98814
G1 X54.037 Y113.91 E.02503
G1 X40.153 Y100.025 E.9887
G1 X40.153 Y100.514 E.02464
G1 X54.045 Y114.407 E.98925
G1 X54.053 Y114.904 E.02503
G1 X40.153 Y101.004 E.9898
G1 X40.153 Y101.493 E.02464
G1 X54.061 Y115.401 E.99035
G1 X54.068 Y115.898 E.02503
G1 X40.153 Y101.982 E.9909
G1 X40.153 Y102.472 E.02464
G1 X54.076 Y116.395 E.99145
G1 X54.084 Y116.892 E.02503
G1 X40.153 Y102.961 E.99201
G1 X40.153 Y103.451 E.02464
G1 X54.092 Y117.389 E.99256
G1 X54.099 Y117.886 E.02503
G1 X40.153 Y103.94 E.99311
G1 X40.153 Y104.429 E.02464
G1 X54.107 Y118.384 E.99366
G1 X54.115 Y118.881 E.02503
G1 X40.153 Y104.919 E.99421
G1 X40.153 Y105.408 E.02464
G1 X54.122 Y119.378 E.99476
G1 X54.13 Y119.875 E.02503
G1 X40.153 Y105.897 E.99531
G1 X40.153 Y106.387 E.02464
G1 X54.138 Y120.372 E.99587
G1 X54.146 Y120.869 E.02503
G1 X40.153 Y106.876 E.99642
G1 X40.153 Y107.365 E.02464
G1 X54.153 Y121.366 E.99697
G1 X54.161 Y121.863 E.02503
G1 X40.153 Y107.855 E.99752
G1 X40.153 Y108.344 E.02464
G1 X54.169 Y122.36 E.99807
G1 X54.177 Y122.857 E.02503
G1 X40.153 Y108.833 E.99862
G1 X40.153 Y109.323 E.02464
G1 X54.184 Y123.355 E.99917
G1 X54.192 Y123.852 E.02503
G1 X40.153 Y109.812 E.99973
G1 X40.153 Y110.301 E.02464
G1 X54.2 Y124.349 E1.00028
G1 X54.208 Y124.846 E.02503
G1 X40.153 Y110.791 E1.00083
G1 X40.153 Y111.28 E.02464
G1 X54.215 Y125.343 E1.00138
G1 X54.223 Y125.84 E.02503
G1 X40.153 Y111.769 E1.00193
G1 X40.153 Y112.259 E.02464
G1 X54.231 Y126.337 E1.00248
G1 X54.239 Y126.834 E.02503
G1 X40.153 Y112.748 E1.00304
G1 X40.153 Y113.238 E.02464
G1 X54.246 Y127.331 E1.00359
G1 X54.254 Y127.828 E.02503
G1 X40.153 Y113.727 E1.00414
G1 X40.153 Y114.216 E.02464
G1 X54.262 Y128.325 E1.00469
G1 X54.269 Y128.823 E.02503
G1 X40.152 Y114.706 E1.00524
G1 X40.152 Y115.195 E.02464
G1 X54.277 Y129.32 E1.00579
G1 X54.285 Y129.817 E.02503
G1 X40.152 Y115.684 E1.00634
G1 X40.152 Y116.174 E.02464
G1 X54.293 Y130.314 E1.0069
G1 X54.3 Y130.811 E.02503
G1 X40.152 Y116.663 E1.00745
G1 X40.152 Y117.152 E.02464
G1 X54.308 Y131.308 E1.008
G1 X54.316 Y131.805 E.02503
G1 X40.152 Y117.642 E1.00855
G1 X40.152 Y118.131 E.02464
G1 X54.324 Y132.302 E1.0091
G1 X54.331 Y132.799 E.02503
