; generated by PrusaSlicer 2.5.0+win64 on 2022-12-07 at 00:04:13 UTC

; 

; external perimeters extrusion width = 1.00mm
; perimeters extrusion width = 1.00mm
; infill extrusion width = 1.00mm
; solid infill extrusion width = 1.00mm
; top infill extrusion width = 1.00mm
; support material extrusion width = 1.00mm
; first layer extrusion width = 0.42mm

M73 P0 R232
M107
;TYPE:Custom
G90 ; use absolute coordinates
M83 ; extruder relative mode
M140 S60 ; set final bed temp
M104 S150 ; set temporary nozzle temp to prevent oozing during homing and auto bed leveling
G4 S10 ; allow partial nozzle warmup
G28 ; home all axisG1 Z50 F240
G1 X7.6 Y10 F3000
M104 S210 ; set final nozzle temp
M190 S60 ; wait for bed temp to stabilize
M109 S210 ; wait for nozzle temp to stabilize
G1 Z0.28 F240
G92 E0
G1 Y140 E10 F1500 ; prime the nozzle
G1 X4 F5000
G92 E0
G1 Y10 E10 F1200 ; prime the nozzle
G92 E0
G21 ; set units to millimeters
G90 ; use absolute coordinates
M83 ; use relative distances for extrusion
; Filament gcode
M107
;LAYER_CHANGE
;Z:0.35
;HEIGHT:0.35
;BEFORE_LAYER_CHANGE
G92 E0
;0.35


G1 E-1 F3600
G1 Z.35 F7800
;AFTER_LAYER_CHANGE
;0.35
G1 X18.138 Y18.261
G1 E1 F2400
;TYPE:Support material interface
;WIDTH:1
G1 F1800
G1 X18.138 Y22.056 E.51067
G1 X19.03 Y22.056 E.12014
G1 X19.03 Y18.663 E.45661
G1 X19.923 Y18.663 E.12014
G1 X19.923 Y22.056 E.45661
G1 X20.816 Y22.056 E.12014
G1 X20.816 Y18.663 E.45661
G1 X21.708 Y18.663 E.12014
G1 X21.708 Y22.056 E.45661
G1 X22.601 Y22.056 E.12014
G1 X22.601 Y18.663 E.45661
G1 X23.494 Y18.663 E.12014
G1 X23.494 Y22.056 E.45661
G1 X24.387 Y22.056 E.12014
G1 X24.387 Y18.663 E.45661
G1 X25.279 Y18.663 E.12014
G1 X25.279 Y22.457 E.51067
G1 E-.7 F3600
;WIPE_START
G1 F6240
G1 X25.279 Y21.937 E-.285
;WIPE_END
G1 E-.015 F3600
G1 X17.245 Y22.457 F7800
G1 E1 F2400
G1 F1800
G1 X17.245 Y20.505 E.26282
G1 X16.352 Y20.795 E.12635
G1 X16.352 Y22.056 E.16965
G1 X15.46 Y22.056 E.12014
G1 X15.46 Y20.664 E.18736
G1 E-.7 F3600
;WIPE_START
G1 F6240
G1 X15.46 Y21.184 E-.285
;WIPE_END
G1 E-.015 F3600
G1 X171.268 Y25.292 F7800
G1 E1 F2400
;TYPE:Support material
;WIDTH:0.42
G1 F1800
G1 X23.195 Y25.292 E7.43119
G1 X23.195 Y22.712 E.12947
G1 X26.195 Y22.712 E.15056
G1 X26.195 Y18.007 E.23616
G1 X23.195 Y18.007 E.15056
G1 X23.195 Y15.427 E.12947
G1 X171.268 Y15.427 E7.43119
G1 X171.268 Y25.24 E.4925
G1 X170.857 Y25.137 F7800
G1 F1800
G1 X170.857 Y15.737 E.47173
G1 X170.474 Y15.737 E.01923
G1 X170.474 Y24.982 E.46394
G1 X170.091 Y24.982 E.01923
G1 X170.091 Y15.737 E.46394
G1 X169.708 Y15.737 E.01923
G1 X169.708 Y24.982 E.46394
G1 X169.324 Y24.982 E.01923
G1 X169.324 Y15.737 E.46394
G1 X168.941 Y15.737 E.01923
G1 X168.941 Y24.982 E.46394
G1 X168.558 Y24.982 E.01923
G1 X168.558 Y15.737 E.46394
G1 X168.175 Y15.737 E.01923
G1 X168.175 Y24.982 E.46394
G1 X167.792 Y24.982 E.01923
G1 X167.792 Y15.737 E.46394
G1 X167.408 Y15.737 E.01923
G1 X167.408 Y24.982 E.46394
G1 X167.025 Y24.982 E.01923
G1 X167.025 Y15.737 E.46394
G1 X166.642 Y15.737 E.01923
G1 X166.642 Y24.982 E.46394
G1 X166.259 Y24.982 E.01923
G1 X166.259 Y15.737 E.46394
G1 X165.876 Y15.737 E.01923
G1 X165.876 Y24.982 E.46394
G1 X165.492 Y24.982 E.01923
G1 X165.492 Y15.737 E.46394
G1 X165.109 Y15.737 E.01923
G1 X165.109 Y24.982 E.46394
G1 X164.726 Y24.982 E.01923
G1 X164.726 Y15.737 E.46394
G1 X164.343 Y15.737 E.01923
G1 X164.343 Y24.982 E.46394
G1 X163.96 Y24.982 E.01923
G1 X163.96 Y15.737 E.46394
G1 X163.576 Y15.737 E.01923
G1 X163.576 Y24.982 E.46394
G1 X163.193 Y24.982 E.01923
G1 X163.193 Y15.737 E.46394
G1 X162.81 Y15.737 E.01923
G1 X162.81 Y24.982 E.46394
G1 X162.427 Y24.982 E.01923
G1 X162.427 Y15.737 E.46394
G1 X162.043 Y15.737 E.01923
G1 X162.043 Y24.982 E.46394
G1 X161.66 Y24.982 E.01923
G1 X161.66 Y15.737 E.46394
G1 X161.277 Y15.737 E.01923
G1 X161.277 Y24.982 E.46394
G1 X160.894 Y24.982 E.01923
G1 X160.894 Y15.737 E.46394
G1 X160.511 Y15.737 E.01923
G1 X160.511 Y24.982 E.46394
G1 X160.127 Y24.982 E.01923
G1 X160.127 Y15.737 E.46394
G1 X159.744 Y15.737 E.01923
G1 X159.744 Y24.982 E.46394
G1 X159.361 Y24.982 E.01923
M73 P0 R231
G1 X159.361 Y15.737 E.46394
G1 X158.978 Y15.737 E.01923
G1 X158.978 Y24.982 E.46394
G1 X158.595 Y24.982 E.01923
G1 X158.595 Y15.737 E.46394
G1 X158.211 Y15.737 E.01923
G1 X158.211 Y24.982 E.46394
G1 X157.828 Y24.982 E.01923
G1 X157.828 Y15.737 E.46394
G1 X157.445 Y15.737 E.01923
G1 X157.445 Y24.982 E.46394
G1 X157.062 Y24.982 E.01923
G1 X157.062 Y15.737 E.46394
G1 X156.679 Y15.737 E.01923
G1 X156.679 Y24.982 E.46394
G1 X156.295 Y24.982 E.01923
G1 X156.295 Y15.737 E.46394
G1 X155.912 Y15.737 E.01923
G1 X155.912 Y24.982 E.46394
G1 X155.529 Y24.982 E.01923
G1 X155.529 Y15.737 E.46394
G1 X155.146 Y15.737 E.01923
G1 X155.146 Y24.982 E.46394
G1 X154.762 Y24.982 E.01923
G1 X154.762 Y15.737 E.46394
G1 X154.379 Y15.737 E.01923
G1 X154.379 Y24.982 E.46394
G1 X153.996 Y24.982 E.01923
G1 X153.996 Y15.737 E.46394
G1 X153.613 Y15.737 E.01923
G1 X153.613 Y24.982 E.46394
G1 X153.23 Y24.982 E.01923
G1 X153.23 Y15.737 E.46394
G1 X152.846 Y15.737 E.01923
G1 X152.846 Y24.982 E.46394
G1 X152.463 Y24.982 E.01923
G1 X152.463 Y15.737 E.46394
G1 X152.08 Y15.737 E.01923
G1 X152.08 Y24.982 E.46394
G1 X151.697 Y24.982 E.01923
G1 X151.697 Y15.737 E.46394
G1 X151.314 Y15.737 E.01923
G1 X151.314 Y24.982 E.46394
G1 X150.93 Y24.982 E.01923
G1 X150.93 Y15.737 E.46394
G1 X150.547 Y15.737 E.01923
G1 X150.547 Y24.982 E.46394
G1 X150.164 Y24.982 E.01923
G1 X150.164 Y15.737 E.46394
G1 X149.781 Y15.737 E.01923
G1 X149.781 Y24.982 E.46394
G1 X149.398 Y24.982 E.01923
G1 X149.398 Y15.737 E.46394
G1 X149.014 Y15.737 E.01923
G1 X149.014 Y24.982 E.46394
G1 X148.631 Y24.982 E.01923
G1 X148.631 Y15.737 E.46394
G1 X148.248 Y15.737 E.01923
G1 X148.248 Y24.982 E.46394
G1 X147.865 Y24.982 E.01923
G1 X147.865 Y15.737 E.46394
G1 X147.482 Y15.737 E.01923
G1 X147.482 Y24.982 E.46394
G1 X147.098 Y24.982 E.01923
G1 X147.098 Y15.737 E.46394
G1 X146.715 Y15.737 E.01923
G1 X146.715 Y24.982 E.46394
G1 X146.332 Y24.982 E.01923
G1 X146.332 Y15.737 E.46394
G1 X145.949 Y15.737 E.01923
G1 X145.949 Y24.982 E.46394
G1 X145.565 Y24.982 E.01923
G1 X145.565 Y15.737 E.46394
G1 X145.182 Y15.737 E.01923
G1 X145.182 Y24.982 E.46394
G1 X144.799 Y24.982 E.01923
G1 X144.799 Y15.737 E.46394
G1 X144.416 Y15.737 E.01923
G1 X144.416 Y24.982 E.46394
G1 X144.033 Y24.982 E.01923
G1 X144.033 Y15.737 E.46394
G1 X143.649 Y15.737 E.01923
G1 X143.649 Y24.982 E.46394
G1 X143.266 Y24.982 E.01923
G1 X143.266 Y15.737 E.46394
G1 X142.883 Y15.737 E.01923
G1 X142.883 Y24.982 E.46394
G1 X142.5 Y24.982 E.01923
G1 X142.5 Y15.737 E.46394
G1 X142.117 Y15.737 E.01923
G1 X142.117 Y24.982 E.46394
G1 X141.733 Y24.982 E.01923
G1 X141.733 Y15.737 E.46394
G1 X141.35 Y15.737 E.01923
G1 X141.35 Y24.982 E.46394
G1 X140.967 Y24.982 E.01923
G1 X140.967 Y15.737 E.46394
G1 X140.584 Y15.737 E.01923
G1 X140.584 Y24.982 E.46394
G1 X140.201 Y24.982 E.01923
G1 X140.201 Y15.737 E.46394
G1 X139.817 Y15.737 E.01923
G1 X139.817 Y24.982 E.46394
G1 X139.434 Y24.982 E.01923
G1 X139.434 Y15.737 E.46394
G1 X139.051 Y15.737 E.01923
G1 X139.051 Y24.982 E.46394
G1 X138.668 Y24.982 E.01923
G1 X138.668 Y15.737 E.46394
G1 X138.284 Y15.737 E.01923
G1 X138.284 Y24.982 E.46394
G1 X137.901 Y24.982 E.01923
G1 X137.901 Y15.737 E.46394
G1 X137.518 Y15.737 E.01923
G1 X137.518 Y24.982 E.46394
G1 X137.135 Y24.982 E.01923
G1 X137.135 Y15.737 E.46394
G1 X136.752 Y15.737 E.01923
G1 X136.752 Y24.982 E.46394
G1 X136.368 Y24.982 E.01923
G1 X136.368 Y15.737 E.46394
G1 X135.985 Y15.737 E.01923
G1 X135.985 Y24.982 E.46394
G1 X135.602 Y24.982 E.01923
G1 X135.602 Y15.737 E.46394
G1 X135.219 Y15.737 E.01923
G1 X135.219 Y24.982 E.46394
G1 X134.836 Y24.982 E.01923
G1 X134.836 Y15.737 E.46394
G1 X134.452 Y15.737 E.01923
G1 X134.452 Y24.982 E.46394
G1 X134.069 Y24.982 E.01923
G1 X134.069 Y15.737 E.46394
G1 X133.686 Y15.737 E.01923
G1 X133.686 Y24.982 E.46394
G1 X133.303 Y24.982 E.01923
G1 X133.303 Y15.737 E.46394
G1 X132.92 Y15.737 E.01923
G1 X132.92 Y24.982 E.46394
G1 X132.536 Y24.982 E.01923
G1 X132.536 Y15.737 E.46394
G1 X132.153 Y15.737 E.01923
G1 X132.153 Y24.982 E.46394
G1 X131.77 Y24.982 E.01923
G1 X131.77 Y15.737 E.46394
G1 X131.387 Y15.737 E.01923
G1 X131.387 Y24.982 E.46394
G1 X131.003 Y24.982 E.01923
G1 X131.003 Y15.737 E.46394
G1 X130.62 Y15.737 E.01923
G1 X130.62 Y24.982 E.46394
G1 X130.237 Y24.982 E.01923
G1 X130.237 Y15.737 E.46394
G1 X129.854 Y15.737 E.01923
G1 X129.854 Y24.982 E.46394
G1 X129.471 Y24.982 E.01923
G1 X129.471 Y15.737 E.46394
G1 X129.087 Y15.737 E.01923
G1 X129.087 Y24.982 E.46394
G1 X128.704 Y24.982 E.01923
G1 X128.704 Y15.737 E.46394
G1 X128.321 Y15.737 E.01923
G1 X128.321 Y24.982 E.46394
G1 X127.938 Y24.982 E.01923
G1 X127.938 Y15.737 E.46394
G1 X127.555 Y15.737 E.01923
G1 X127.555 Y24.982 E.46394
G1 X127.171 Y24.982 E.01923
G1 X127.171 Y15.737 E.46394
G1 X126.788 Y15.737 E.01923
G1 X126.788 Y24.982 E.46394
G1 X126.405 Y24.982 E.01923
G1 X126.405 Y15.737 E.46394
G1 X126.022 Y15.737 E.01923
G1 X126.022 Y24.982 E.46394
G1 X125.639 Y24.982 E.01923
G1 X125.639 Y15.737 E.46394
G1 X125.255 Y15.737 E.01923
G1 X125.255 Y24.982 E.46394
G1 X124.872 Y24.982 E.01923
G1 X124.872 Y15.737 E.46394
G1 X124.489 Y15.737 E.01923
G1 X124.489 Y24.982 E.46394
G1 X124.106 Y24.982 E.01923
G1 X124.106 Y15.737 E.46394
G1 X123.722 Y15.737 E.01923
G1 X123.722 Y24.982 E.46394
G1 X123.339 Y24.982 E.01923
G1 X123.339 Y15.737 E.46394
G1 X122.956 Y15.737 E.01923
G1 X122.956 Y24.982 E.46394
G1 X122.573 Y24.982 E.01923
G1 X122.573 Y15.737 E.46394
G1 X122.19 Y15.737 E.01923
G1 X122.19 Y24.982 E.46394
G1 X121.806 Y24.982 E.01923
G1 X121.806 Y15.737 E.46394
G1 X121.423 Y15.737 E.01923
G1 X121.423 Y24.982 E.46394
G1 X121.04 Y24.982 E.01923
G1 X121.04 Y15.737 E.46394
G1 X120.657 Y15.737 E.01923
G1 X120.657 Y24.982 E.46394
G1 X120.274 Y24.982 E.01923
G1 X120.274 Y15.737 E.46394
G1 X119.89 Y15.737 E.01923
G1 X119.89 Y24.982 E.46394
G1 X119.507 Y24.982 E.01923
G1 X119.507 Y15.737 E.46394
G1 X119.124 Y15.737 E.01923
G1 X119.124 Y24.982 E.46394
G1 X118.741 Y24.982 E.01923
G1 X118.741 Y15.737 E.46394
G1 X118.358 Y15.737 E.01923
G1 X118.358 Y24.982 E.46394
G1 X117.974 Y24.982 E.01923
G1 X117.974 Y15.737 E.46394
G1 X117.591 Y15.737 E.01923
G1 X117.591 Y24.982 E.46394
G1 X117.208 Y24.982 E.01923
G1 X117.208 Y15.737 E.46394
G1 X116.825 Y15.737 E.01923
G1 X116.825 Y24.982 E.46394
G1 X116.441 Y24.982 E.01923
G1 X116.441 Y15.737 E.46394
G1 X116.058 Y15.737 E.01923
G1 X116.058 Y24.982 E.46394
G1 X115.675 Y24.982 E.01923
G1 X115.675 Y15.737 E.46394
G1 X115.292 Y15.737 E.01923
G1 X115.292 Y24.982 E.46394
G1 X114.909 Y24.982 E.01923
G1 X114.909 Y15.737 E.46394
G1 X114.525 Y15.737 E.01923
G1 X114.525 Y24.982 E.46394
G1 X114.142 Y24.982 E.01923
G1 X114.142 Y15.737 E.46394
G1 X113.759 Y15.737 E.01923
G1 X113.759 Y24.982 E.46394
G1 X113.376 Y24.982 E.01923
G1 X113.376 Y15.737 E.46394
G1 X112.993 Y15.737 E.01923
G1 X112.993 Y24.982 E.46394
G1 X112.609 Y24.982 E.01923
G1 X112.609 Y15.737 E.46394
G1 X112.226 Y15.737 E.01923
G1 X112.226 Y24.982 E.46394
G1 X111.843 Y24.982 E.01923
G1 X111.843 Y15.737 E.46394
G1 X111.46 Y15.737 E.01923
G1 X111.46 Y24.982 E.46394
G1 X111.077 Y24.982 E.01923
G1 X111.077 Y15.737 E.46394
G1 X110.693 Y15.737 E.01923
G1 X110.693 Y24.982 E.46394
G1 X110.31 Y24.982 E.01923
G1 X110.31 Y15.737 E.46394
G1 X109.927 Y15.737 E.01923
G1 X109.927 Y24.982 E.46394
G1 X109.544 Y24.982 E.01923
G1 X109.544 Y15.737 E.46394
G1 X109.161 Y15.737 E.01923
G1 X109.161 Y24.982 E.46394
G1 X108.777 Y24.982 E.01923
G1 X108.777 Y15.737 E.46394
G1 X108.394 Y15.737 E.01923
G1 X108.394 Y24.982 E.46394
G1 X108.011 Y24.982 E.01923
G1 X108.011 Y15.737 E.46394
G1 X107.628 Y15.737 E.01923
G1 X107.628 Y24.982 E.46394
G1 X107.244 Y24.982 E.01923
G1 X107.244 Y15.737 E.46394
G1 X106.861 Y15.737 E.01923
G1 X106.861 Y24.982 E.46394
G1 X106.478 Y24.982 E.01923
G1 X106.478 Y15.737 E.46394
G1 X106.095 Y15.737 E.01923
G1 X106.095 Y24.982 E.46394
G1 X105.712 Y24.982 E.01923
G1 X105.712 Y15.737 E.46394
G1 X105.328 Y15.737 E.01923
G1 X105.328 Y24.982 E.46394
G1 X104.945 Y24.982 E.01923
G1 X104.945 Y15.737 E.46394
G1 X104.562 Y15.737 E.01923
G1 X104.562 Y24.982 E.46394
G1 X104.179 Y24.982 E.01923
G1 X104.179 Y15.737 E.46394
G1 X103.796 Y15.737 E.01923
G1 X103.796 Y24.982 E.46394
G1 X103.412 Y24.982 E.01923
G1 X103.412 Y15.737 E.46394
G1 X103.029 Y15.737 E.01923
G1 X103.029 Y24.982 E.46394
G1 X102.646 Y24.982 E.01923
G1 X102.646 Y15.737 E.46394
G1 X102.263 Y15.737 E.01923
G1 X102.263 Y24.982 E.46394
G1 X101.88 Y24.982 E.01923
G1 X101.88 Y15.737 E.46394
G1 X101.496 Y15.737 E.01923
G1 X101.496 Y24.982 E.46394
G1 X101.113 Y24.982 E.01923
G1 X101.113 Y15.737 E.46394
G1 X100.73 Y15.737 E.01923
G1 X100.73 Y24.982 E.46394
G1 X100.347 Y24.982 E.01923
G1 X100.347 Y15.737 E.46394
G1 X99.963 Y15.737 E.01923
G1 X99.963 Y24.982 E.46394
G1 X99.58 Y24.982 E.01923
G1 X99.58 Y15.737 E.46394
G1 X99.197 Y15.737 E.01923
G1 X99.197 Y24.982 E.46394
G1 X98.814 Y24.982 E.01923
G1 X98.814 Y15.737 E.46394
G1 X98.431 Y15.737 E.01923
G1 X98.431 Y24.982 E.46394
G1 X98.047 Y24.982 E.01923
G1 X98.047 Y15.737 E.46394
G1 X97.664 Y15.737 E.01923
M73 P0 R230
G1 X97.664 Y24.982 E.46394
G1 X97.281 Y24.982 E.01923
G1 X97.281 Y15.737 E.46394
G1 X96.898 Y15.737 E.01923
G1 X96.898 Y24.982 E.46394
G1 X96.515 Y24.982 E.01923
G1 X96.515 Y15.737 E.46394
G1 X96.131 Y15.737 E.01923
G1 X96.131 Y24.982 E.46394
G1 X95.748 Y24.982 E.01923
G1 X95.748 Y15.737 E.46394
G1 X95.365 Y15.737 E.01923
G1 X95.365 Y24.982 E.46394
G1 X94.982 Y24.982 E.01923
G1 X94.982 Y15.737 E.46394
G1 X94.599 Y15.737 E.01923
G1 X94.599 Y24.982 E.46394
G1 X94.215 Y24.982 E.01923
G1 X94.215 Y15.737 E.46394
G1 X93.832 Y15.737 E.01923
G1 X93.832 Y24.982 E.46394
G1 X93.449 Y24.982 E.01923
G1 X93.449 Y15.737 E.46394
G1 X93.066 Y15.737 E.01923
G1 X93.066 Y24.982 E.46394
G1 X92.682 Y24.982 E.01923
G1 X92.682 Y15.737 E.46394
G1 X92.299 Y15.737 E.01923
G1 X92.299 Y24.982 E.46394
G1 X91.916 Y24.982 E.01923
G1 X91.916 Y15.737 E.46394
G1 X91.533 Y15.737 E.01923
G1 X91.533 Y24.982 E.46394
G1 X91.15 Y24.982 E.01923
G1 X91.15 Y15.737 E.46394
G1 X90.766 Y15.737 E.01923
G1 X90.766 Y24.982 E.46394
G1 X90.383 Y24.982 E.01923
G1 X90.383 Y15.737 E.46394
G1 X90 Y15.737 E.01923
G1 X90 Y24.982 E.46394
G1 X89.617 Y24.982 E.01923
G1 X89.617 Y15.737 E.46394
G1 X89.234 Y15.737 E.01923
G1 X89.234 Y24.982 E.46394
G1 X88.85 Y24.982 E.01923
G1 X88.85 Y15.737 E.46394
G1 X88.467 Y15.737 E.01923
G1 X88.467 Y24.982 E.46394
G1 X88.084 Y24.982 E.01923
G1 X88.084 Y15.737 E.46394
G1 X87.701 Y15.737 E.01923
G1 X87.701 Y24.982 E.46394
G1 X87.318 Y24.982 E.01923
G1 X87.318 Y15.737 E.46394
G1 X86.934 Y15.737 E.01923
G1 X86.934 Y24.982 E.46394
G1 X86.551 Y24.982 E.01923
G1 X86.551 Y15.737 E.46394
G1 X86.168 Y15.737 E.01923
G1 X86.168 Y24.982 E.46394
G1 X85.785 Y24.982 E.01923
G1 X85.785 Y15.737 E.46394
G1 X85.401 Y15.737 E.01923
G1 X85.401 Y24.982 E.46394
G1 X85.018 Y24.982 E.01923
G1 X85.018 Y15.737 E.46394
G1 X84.635 Y15.737 E.01923
G1 X84.635 Y24.982 E.46394
G1 X84.252 Y24.982 E.01923
G1 X84.252 Y15.737 E.46394
G1 X83.869 Y15.737 E.01923
G1 X83.869 Y24.982 E.46394
G1 X83.485 Y24.982 E.01923
G1 X83.485 Y15.737 E.46394
G1 X83.102 Y15.737 E.01923
G1 X83.102 Y24.982 E.46394
G1 X82.719 Y24.982 E.01923
G1 X82.719 Y15.737 E.46394
G1 X82.336 Y15.737 E.01923
G1 X82.336 Y24.982 E.46394
G1 X81.953 Y24.982 E.01923
G1 X81.953 Y15.737 E.46394
G1 X81.569 Y15.737 E.01923
G1 X81.569 Y24.982 E.46394
G1 X81.186 Y24.982 E.01923
G1 X81.186 Y15.737 E.46394
G1 X80.803 Y15.737 E.01923
G1 X80.803 Y24.982 E.46394
G1 X80.42 Y24.982 E.01923
G1 X80.42 Y15.737 E.46394
G1 X80.037 Y15.737 E.01923
G1 X80.037 Y24.982 E.46394
G1 X79.653 Y24.982 E.01923
G1 X79.653 Y15.737 E.46394
G1 X79.27 Y15.737 E.01923
G1 X79.27 Y24.982 E.46394
G1 X78.887 Y24.982 E.01923
G1 X78.887 Y15.737 E.46394
G1 X78.504 Y15.737 E.01923
G1 X78.504 Y24.982 E.46394
G1 X78.12 Y24.982 E.01923
G1 X78.12 Y15.737 E.46394
G1 X77.737 Y15.737 E.01923
G1 X77.737 Y24.982 E.46394
G1 X77.354 Y24.982 E.01923
G1 X77.354 Y15.737 E.46394
G1 X76.971 Y15.737 E.01923
G1 X76.971 Y24.982 E.46394
G1 X76.588 Y24.982 E.01923
