; generated by PrusaSlicer 2.5.0+win64 on 2022-12-07 at 00:27:46 UTC

; 

; external perimeters extrusion width = 1.00mm
; perimeters extrusion width = 1.00mm
; infill extrusion width = 1.00mm
; solid infill extrusion width = 1.00mm
; top infill extrusion width = 1.00mm
; support material extrusion width = 1.00mm
; first layer extrusion width = 0.42mm

M73 P0 R24
M107
;TYPE:Custom
G90 ; use absolute coordinates
M83 ; extruder relative mode
M140 S60 ; set final bed temp
M104 S150 ; set temporary nozzle temp to prevent oozing during homing and auto bed leveling
G4 S10 ; allow partial nozzle warmup
G28 ; home all axisG1 Z50 F240
G1 X7.6 Y10 F3000
M104 S210 ; set final nozzle temp
M190 S60 ; wait for bed temp to stabilize
M109 S210 ; wait for nozzle temp to stabilize
G1 Z0.28 F240
G92 E0
G1 Y140 E10 F1500 ; prime the nozzle
G1 X4 F5000
G92 E0
G1 Y10 E10 F1200 ; prime the nozzle
G92 E0
G21 ; set units to millimeters
G90 ; use absolute coordinates
M83 ; use relative distances for extrusion
; Filament gcode
M107
;LAYER_CHANGE
;Z:0.35
;HEIGHT:0.35
;BEFORE_LAYER_CHANGE
G92 E0
;0.35


G1 E-1 F3600
G1 Z.35 F7800
;AFTER_LAYER_CHANGE
;0.35
G1 X110.837 Y72.383
G1 E1 F2400
;TYPE:External perimeter
;WIDTH:0.666459
G1 F900
G1 X110.763 Y72.383 E.00636
G1 X110.726 Y72.447 E.00636
G1 X110.763 Y72.511 E.00636
G1 X110.837 Y72.511 E.00636
G1 X110.874 Y72.447 E.00636
M106 S255
;LAYER_CHANGE
;Z:0.85
;HEIGHT:0.5
;BEFORE_LAYER_CHANGE
G92 E0
;0.85


G1 E-.7 F3600
;WIPE_START
G1 F6240
G1 X110.837 Y72.511 E-.04051
G1 X110.763 Y72.511 E-.04051
G1 X110.726 Y72.447 E-.04051
G1 X110.763 Y72.383 E-.04051
G1 X110.837 Y72.383 E-.04051
;WIPE_END
G1 E-.09744 F3600
G1 Z.85 F7800
;AFTER_LAYER_CHANGE
;0.85
M104 S205 ; set temperature
G1 X110.81 Y72.714
G1 E1 F2400
;WIDTH:1.20135
G1 F900
G1 X110.857 Y73.209 E.11312
G1 X110.874 Y73.393 E.04188
;TYPE:Overhang perimeter
;WIDTH:1
;HEIGHT:1
G1 X110.946 Y74.144 E.24638
G1 X109.42 Y73.461 E.54593
G1 X108.144 Y72.714 E.48272
G1 X109.357 Y72.714 E.39613
;TYPE:External perimeter
;WIDTH:1.20135
;HEIGHT:0.5
G1 X110.66 Y72.714 E.29623
;LAYER_CHANGE
;Z:1.35
;HEIGHT:0.5
;BEFORE_LAYER_CHANGE
G92 E0
;1.35


G1 E-.7 F3600
;WIPE_START
G1 F6240
G1 X110.852 Y73.197 E-.285
;WIPE_END
G1 E-.015 F3600
G1 Z1.35 F7800
;AFTER_LAYER_CHANGE
;1.35
G1 X111.203 Y72.613
G1 E1 F2400
;WIDTH:1
G1 F900
G1 X111.452 Y75.23 E.48775
G1 X106.984 Y72.613 E.96082
M73 P1 R24
G1 X111.053 Y72.613 E.75511
G1 X110.294 Y72.198 F7800
G1 X110.486 Y73.531
;TYPE:Perimeter
;WIDTH:1.0507
G1 F900
G1 X110.427 Y73.634 E.02313
G1 X110.309 Y73.634 E.02313
G1 X110.25 Y73.531 E.02313
G1 X110.309 Y73.429 E.02313
G1 X110.427 Y73.429 E.02313
;LAYER_CHANGE
;Z:1.85
;HEIGHT:0.5
;BEFORE_LAYER_CHANGE
G92 E0
;1.85


G1 E-.7 F3600
;WIPE_START
G1 F6240
G1 X110.309 Y73.429 E-.06463
G1 X110.25 Y73.531 E-.06463
G1 X110.309 Y73.634 E-.06463
G1 X110.427 Y73.634 E-.06463
G1 X110.451 Y73.592 E-.02647
;WIPE_END
G1 E-.015 F3600
G1 Z1.85 F7800
;AFTER_LAYER_CHANGE
;1.85
G1 X111.505 Y72.613
G1 E1 F2400
;TYPE:External perimeter
;WIDTH:1
G1 F900
G1 X111.737 Y75.058 E.45563
G1 X111.733 Y75.176 E.0219
G1 X111.634 Y75.729 E.10429
G1 X111.355 Y75.635 E.05465
G1 X106.195 Y72.613 E1.1096
G1 X111.355 Y72.613 E.95755
G1 X111.552 Y73.612 F7800
G1 X110.632 Y73.769
;TYPE:Perimeter
;WIDTH:1.52545
G1 F900
G1 X110.543 Y73.922 E.05226
G1 X110.366 Y73.922 E.05226
G1 X110.277 Y73.769 E.05226
G1 X110.366 Y73.615 E.05226
G1 X110.543 Y73.615 E.05226
;LAYER_CHANGE
;Z:2.35
;HEIGHT:0.5
;BEFORE_LAYER_CHANGE
G92 E0
;2.35


G1 E-.7 F3600
;WIPE_START
G1 F6240
G1 X110.366 Y73.615 E-.09716
G1 X110.277 Y73.769 E-.09716
G1 X110.36 Y73.912 E-.09069
;WIPE_END
G1 E-.015 F3600
G1 Z2.35 F7800
;AFTER_LAYER_CHANGE
;2.35
G1 X110.971 Y73.533
G1 E1 F2400
;WIDTH:1.05375
G1 F900
G1 X111.082 Y74.872 E.26435
G1 X108.796 Y73.533 E.52129
G1 X110.821 Y73.533 E.39837
G1 X111.807 Y72.613 F7800
;TYPE:External perimeter
;WIDTH:1
G1 F900
G1 X112.02 Y74.852 E.41735
G1 X111.791 Y76.135 E.24184
G1 X111.645 Y76.111 E.02753
G1 X111.02 Y75.901 E.12228
G1 X105.406 Y72.613 E1.20729
G1 X111.657 Y72.613 E1.15999
G1 X111.792 Y73.613 F7800
;LAYER_CHANGE
;Z:2.85
;HEIGHT:0.5
;BEFORE_LAYER_CHANGE
G92 E0
;2.85


G1 E-.7 F3600
;WIPE_START
G1 F6240
G1 X111.74 Y73.127 E-.285
;WIPE_END
G1 E-.015 F3600
G1 Z2.85 F7800
;AFTER_LAYER_CHANGE
;2.85
G1 X111.165 Y73.652
G1 E1 F2400
;TYPE:Perimeter
;WIDTH:1.29112
G1 F900
G1 X111.239 Y74.604 E.23503
G1 X111.117 Y75.217 E.15386
G1 X108.445 Y73.652 E.76228
G1 X111.015 Y73.652 E.63251
G1 X112.109 Y72.613 F7800
;TYPE:External perimeter
;WIDTH:1
G1 F900
G1 X112.297 Y74.588 E.36801
G1 X111.951 Y76.527 E.36553
G1 X111.564 Y76.462 E.07278
G1 X110.685 Y76.167 E.172
G1 X104.617 Y72.613 E1.30498
G1 X111.959 Y72.613 E1.36243
G1 X112.045 Y73.611 F7800
;LAYER_CHANGE
;Z:3.35
;HEIGHT:0.5
;BEFORE_LAYER_CHANGE
G92 E0
;3.35


G1 E-.7 F3600
;WIPE_START
G1 F6240
G1 X112.047 Y73.126 E-.285
;WIPE_END
G1 E-.015 F3600
G1 Z3.35 F7800
;AFTER_LAYER_CHANGE
;3.35
G1 X111.599 Y73.506
G1 E1 F2400
;TYPE:Perimeter
G1 F900
G1 X111.673 Y74.286 E.14542
G1 X111.396 Y75.842 E.29333
G1 X110.722 Y75.616 E.13185
G1 X107.119 Y73.506 E.77488
G1 X111.449 Y73.506 E.80354
G1 X112.411 Y72.613 F7800
;TYPE:External perimeter
G1 F900
G1 X112.573 Y74.323 E.31868
G1 X112.111 Y76.918 E.48922
G1 X111.483 Y76.813 E.11802
G1 X110.351 Y76.433 E.22172
G1 X103.828 Y72.613 E1.40267
G1 X112.261 Y72.613 E1.56486
G1 X112.309 Y73.608 F7800
G1 E-.7 F3600
;WIPE_START
G1 F6240
G1 X112.354 Y73.125 E-.285
;WIPE_END
G1 E-.015 F3600
G1 X109.373 Y73.912 F7800
G1 E1 F2400
;TYPE:Solid infill
;WIDTH:1.14733
G1 F900
G1 X110.829 Y75.369 E.44535
;LAYER_CHANGE
;Z:3.85
;HEIGHT:0.5
;BEFORE_LAYER_CHANGE
G92 E0
;3.85


G1 E-.7 F3600
;WIPE_START
G1 F6240
G1 X110.462 Y75.001 E-.285
;WIPE_END
G1 E-.015 F3600
G1 Z3.85 F7800
;AFTER_LAYER_CHANGE
;3.85
G1 X111.901 Y73.506
G1 E1 F2400
;TYPE:Perimeter
;WIDTH:1
G1 F900
G1 X111.95 Y74.022 E.09609
G1 X111.549 Y76.272 E.4242
G1 X110.388 Y75.882 E.2273
G1 X106.33 Y73.506 E.87258
G1 X111.751 Y73.506 E1.00598
G1 X112.713 Y72.613 F7800
;TYPE:External perimeter
G1 F900
G1 X112.85 Y74.058 E.26935
G1 X112.271 Y77.31 E.6129
G1 X111.403 Y77.165 E.16327
G1 X110.016 Y76.699 E.27144
G1 X103.039 Y72.613 E1.50037
G1 X112.563 Y72.613 E1.7673
G1 X112.582 Y73.605 F7800
G1 X111.307 Y73.774
;TYPE:Solid infill
;WIDTH:1.17854
G1 F900
G1 X110.127 Y74.954 E.37156
G1 X109.171 Y74.394 E.24656
G1 X109.792 Y73.774 E.19535
;LAYER_CHANGE
;Z:4.35
;HEIGHT:0.5
;BEFORE_LAYER_CHANGE
G92 E0
;4.35


G1 E-.7 F3600
;WIPE_START
G1 F6240
G1 X109.424 Y74.142 E-.285
;WIPE_END
G1 E-.015 F3600
G1 Z4.35 F7800
;AFTER_LAYER_CHANGE
;4.35
G1 X112.203 Y73.506
G1 E1 F2400
;TYPE:Perimeter
;WIDTH:1
G1 F900
G1 X112.227 Y73.757 E.04675
G1 X111.707 Y76.675 E.55008
G1 X111.539 Y76.647 E.03149
G1 X110.053 Y76.148 E.29092
G1 X105.541 Y73.506 E.97027
G1 X112.053 Y73.506 E1.20842
G1 X113.015 Y72.613 F7800
;TYPE:External perimeter
M73 P2 R24
G1 F900
G1 X113.127 Y73.794 E.22002
G1 X112.43 Y77.701 E.73659
G1 X111.322 Y77.516 E.20851
G1 X109.681 Y76.965 E.32116
G1 X102.25 Y72.613 E1.59806
G1 X112.865 Y72.613 E1.96974
G1 X112.861 Y73.601 F7800
G1 E-.7 F3600
;WIPE_START
G1 F6240
G1 X112.978 Y73.121 E-.285
;WIPE_END
G1 E-.015 F3600
G1 X111.676 Y75.323 F7800
G1 E1 F2400
;TYPE:Solid infill
;WIDTH:1.0139
G1 F900
G1 X110.528 Y74.176 E.30581
G1 X109.246 Y74.176 E.24163
G1 X111.383 Y76.312 E.56942
;LAYER_CHANGE
;Z:4.85
;HEIGHT:0.5
;BEFORE_LAYER_CHANGE
G92 E0
;4.85


G1 E-.7 F3600
;WIPE_START
G1 F6240
G1 X111.015 Y75.944 E-.285
;WIPE_END
G1 E-.015 F3600
G1 Z4.85 F7800
;AFTER_LAYER_CHANGE
;4.85
G1 X112.501 Y73.506
G1 E1 F2400
;TYPE:Perimeter
;WIDTH:1
G1 F900
G1 X111.866 Y77.067 E.67116
G1 X111.459 Y76.998 E.07674
G1 X109.718 Y76.415 E.34064
G1 X104.752 Y73.506 E1.06796
G1 X112.351 Y73.506 E1.41016
G1 X113.317 Y72.613 F7800
;TYPE:External perimeter
G1 F900
G1 X113.404 Y73.529 E.17069
G1 X112.59 Y78.093 E.86028
G1 X111.241 Y77.867 E.25375
G1 X109.347 Y77.231 E.37088
G1 X101.461 Y72.613 E1.69575
G1 X113.167 Y72.613 E2.17218
G1 X113.158 Y73.519 F7800
G1 E-.7 F3600
;WIPE_START
G1 F6240
G1 X113.297 Y73.117 E-.285
;WIPE_END
G1 E-.015 F3600
G1 X112.047 Y74.526 F7800
G1 E1 F2400
;TYPE:Solid infill
;WIDTH:1.02413
G1 F900
G1 X110.577 Y75.996 E.39639
G1 X109.997 Y75.802 E.11658
G1 X109.668 Y75.609 E.07273
G1 X111.101 Y74.176 E.38632
G1 X109.804 Y74.176 E.24711
G1 X108.85 Y75.13 E.25724
G1 X108.032 Y74.651 E.1806
G1 X108.909 Y73.774 E.23644
;LAYER_CHANGE
;Z:5.35
;HEIGHT:0.5
;BEFORE_LAYER_CHANGE
G92 E0
;5.35


G1 E-.7 F3600
;WIPE_START
G1 F6240
G1 X108.542 Y74.142 E-.285
;WIPE_END
G1 E-.015 F3600
G1 Z5.35 F7800
;AFTER_LAYER_CHANGE
;5.35
G1 X112.731 Y73.506
G1 E1 F2400
;TYPE:Perimeter
;WIDTH:1
G1 F900
G1 X112.026 Y77.458 E.74496
G1 X111.378 Y77.35 E.12198
G1 X109.384 Y76.681 E.39036
G1 X103.963 Y73.506 E1.16565
G1 X112.581 Y73.506 E1.59917
G1 X113.619 Y72.613 F7800
;TYPE:External perimeter
G1 F900
M73 P2 R23
G1 X113.681 Y73.264 E.12135
G1 X112.75 Y78.484 E.98396
G1 X111.161 Y78.218 E.299
G1 X109.012 Y77.498 E.4206
G1 X100.673 Y72.613 E1.79344
G1 X113.469 Y72.613 E2.37462
G1 X113.496 Y73.256 F7800
G1 E-.7 F3600
;WIPE_START
G1 F6240
G1 X113.63 Y73.108 E-.285
;WIPE_END
G1 E-.015 F3600
G1 X110.359 Y73.774 F7800
G1 E1 F2400
;TYPE:Solid infill
;WIDTH:1.12067
G1 F900
G1 X111.754 Y75.169 E.4156
G1 X111.537 Y76.385 E.26025
G1 X109.328 Y74.176 E.65826
G1 X107.895 Y74.176 E.30189
G1 X110.488 Y76.769 E.77245
;LAYER_CHANGE
;Z:5.85
;HEIGHT:0.5
;BEFORE_LAYER_CHANGE
G92 E0
;5.85


G1 E-.7 F3600
;WIPE_START
G1 F6240
G1 X110.12 Y76.401 E-.285
;WIPE_END
G1 E-.015 F3600
G1 Z5.85 F7800
;AFTER_LAYER_CHANGE
;5.85
G1 X112.96 Y73.506
G1 E1 F2400
;TYPE:Perimeter
;WIDTH:1
G1 F900
G1 X112.186 Y77.85 E.81876
G1 X111.234 Y77.68 E.17946
G1 X109.049 Y76.947 E.4277
G1 X103.174 Y73.506 E1.26335
G1 X112.81 Y73.506 E1.78819
G1 X113.921 Y72.613 F7800
;TYPE:External perimeter
M73 P3 R23
G1 F900
G1 X113.958 Y73 E.07202
G1 X112.91 Y78.876 E1.10765
G1 X111.216 Y78.592 E.31876
G1 X110.95 Y78.526 E.05081
G1 X108.677 Y77.764 E.44483
G1 X99.884 Y72.613 E1.89113
G1 X113.771 Y72.613 E2.57705
G1 X113.843 Y72.994 F7800
G1 E-.7 F3600
;WIPE_START
G1 F6240
G1 X113.958 Y73 E-.23519
G1 X113.942 Y73.089 E-.04981
;WIPE_END
G1 E-.015 F3600
G1 X112.375 Y75.267 F7800
G1 E1 F2400
;TYPE:Solid infill
;WIDTH:1.02986
G1 F900
G1 X110.81 Y76.831 E.42437
G1 X109.833 Y76.503 E.19762
G1 X112.161 Y74.176 E.63134
G1 X110.856 Y74.176 E.25021
G1 X108.93 Y76.101 E.52227
G1 X108.108 Y75.619 E.18287
G1 X109.551 Y74.176 E.39158
G1 X108.247 Y74.176 E.25021
G1 X107.285 Y75.138 E.26088
G1 X106.462 Y74.656 E.18287
G1 X107.344 Y73.774 E.23914
;LAYER_CHANGE
;Z:6.35
;HEIGHT:0.5
;BEFORE_LAYER_CHANGE
G92 E0
;6.35


G1 E-.7 F3600
;WIPE_START
G1 F6240
G1 X106.976 Y74.142 E-.285
;WIPE_END
G1 E-.015 F3600
G1 Z6.35 F7800
;AFTER_LAYER_CHANGE
;6.35
G1 X113.19 Y73.506
G1 E1 F2400
;TYPE:Perimeter
;WIDTH:1
G1 F900
G1 X112.346 Y78.241 E.89256
G1 X111.217 Y78.052 E.21247
G1 X108.714 Y77.213 E.4898
G1 X102.385 Y73.506 E1.36104
G1 X113.04 Y73.506 E1.9772
G1 X114.223 Y72.613 F7800
;TYPE:External perimeter
G1 F900
G1 X114.234 Y72.735 E.02269
G1 X113.07 Y79.268 E1.23134
G1 X111 Y78.921 E.38949
G1 X108.343 Y78.03 E.52003
G1 X99.095 Y72.613 E1.98882
G1 X114.073 Y72.613 E2.77949
G1 X114.197 Y72.733 F7800
G1 E-.7 F3600
;WIPE_START
G1 F6240
G1 X114.234 Y72.735 E-.11087
G1 X114.179 Y73.048 E-.17413
;WIPE_END
G1 E-.015 F3600
G1 X110.996 Y73.774 F7800
G1 E1 F2400
;TYPE:Solid infill
;WIDTH:1.03692
G1 F900
G1 X112.24 Y75.018 E.34004
G1 X112.041 Y76.134 E.21901
G1 X110.083 Y74.176 E.53517
G1 X108.769 Y74.176 E.25405
G1 X111.843 Y77.25 E.84009
G1 X111.803 Y77.472 E.04356
G1 X111.379 Y77.401 E.08301
G1 X110.325 Y77.047 E.21486
G1 X107.454 Y74.176 E.78471
G1 X106.139 Y74.176 E.25405
G1 X108.984 Y77.021 E.77756
;LAYER_CHANGE
;Z:6.85
;HEIGHT:0.5
;BEFORE_LAYER_CHANGE
G92 E0
;6.85


G1 E-.7 F3600
;WIPE_START
G1 F6240
G1 X108.617 Y76.653 E-.285
;WIPE_END
G1 E-.015 F3600
G1 Z6.85 F7800
;AFTER_LAYER_CHANGE
;6.85
G1 X113.42 Y73.506
G1 E1 F2400
;TYPE:Perimeter
;WIDTH:1
G1 F900
G1 X112.506 Y78.633 E.96636
G1 X111.136 Y78.404 E.25772
G1 X108.38 Y77.479 E.53952
G1 X101.596 Y73.506 E1.45873
G1 X113.27 Y73.506 E2.16622
G1 X114.486 Y72.613 F7800
;TYPE:External perimeter
G1 F900
G1 X113.229 Y79.659 E1.32808
G1 X110.919 Y79.272 E.43473
G1 X108.008 Y78.296 E.56975
G1 X98.306 Y72.613 E2.08652
G1 X114.336 Y72.613 E2.97468
M73 P4 R23
G1 X114.095 Y73.534 F7800
G1 E-.7 F3600
;WIPE_START
G1 F6240
G1 X114.255 Y73.127 E-.285
;WIPE_END
G1 E-.015 F3600
G1 X112.697 Y76.037 F7800
G1 E1 F2400
;TYPE:Solid infill
;WIDTH:1.03489
G1 F900
G1 X111.061 Y77.672 E.44601
G1 X110.079 Y77.343 E.19978
G1 X112.485 Y74.937 E.65607
G1 X112.62 Y74.176 E.14907
G1 X111.934 Y74.176 E.13236
G1 X109.096 Y77.013 E.77374
G1 X108.658 Y76.866 E.08914
G1 X108.2 Y76.598 E.10238
G1 X110.622 Y74.176 E.66047
G1 X109.31 Y74.176 E.25295
G1 X107.373 Y76.113 E.52835
G1 X106.545 Y75.629 E.18487
G1 X107.998 Y74.176 E.39622
G1 X106.687 Y74.176 E.25295
G1 X105.718 Y75.144 E.2641
G1 X104.891 Y74.66 E.18487
G1 X105.776 Y73.774 E.24152
;LAYER_CHANGE
;Z:7.35
;HEIGHT:0.5
;BEFORE_LAYER_CHANGE
G92 E0
;7.35


G1 E-.7 F3600
;WIPE_START
G1 F6240
G1 X105.409 Y74.142 E-.285
;WIPE_END
G1 E-.015 F3600
G1 Z7.35 F7800
;AFTER_LAYER_CHANGE
;7.35
G1 X113.649 Y73.506
G1 E1 F2400
;TYPE:Perimeter
;WIDTH:1
G1 F900
G1 X112.665 Y79.024 E1.04016
G1 X111.055 Y78.755 E.30296
G1 X108.045 Y77.745 E.58924
G1 X100.808 Y73.506 E1.55642
G1 X113.499 Y73.506 E2.35523
G1 X114.715 Y72.613 F7800
;TYPE:External perimeter
G1 F900
G1 X113.389 Y80.051 E1.40188
G1 X110.838 Y79.624 E.47997
G1 X107.673 Y78.562 E.61947
G1 X97.517 Y72.613 E2.18421
G1 X114.565 Y72.613 E3.16369
G1 X114.319 Y73.532 F7800
G1 E-.7 F3600
;WIPE_START
G1 F6240
G1 X114.484 Y73.127 E-.285
;WIPE_END
G1 E-.015 F3600
G1 X113.025 Y75.479 F7800
G1 E1 F2400
;TYPE:Solid infill
;WIDTH:1.10077
G1 F900
G1 X111.722 Y74.176 E.38079
G1 X110.317 Y74.176 E.29015
G1 X112.467 Y76.325 E.62789
G1 X112.254 Y77.518 E.25013
G1 X108.912 Y74.176 E.97614
G1 X107.507 Y74.176 E.29015
G1 X111.478 Y78.147 E1.15979
G1 X111.218 Y78.103 E.0544
G1 X109.429 Y77.503 E.38968
G1 X106.102 Y74.176 E.97179
G1 X104.697 Y74.176 E.29015
G1 X107.829 Y77.308 E.91488
;LAYER_CHANGE
;Z:7.85
;HEIGHT:0.5
;BEFORE_LAYER_CHANGE
G92 E0
;7.85


G1 E-.7 F3600
;WIPE_START
G1 F6240
G1 X107.462 Y76.94 E-.285
;WIPE_END
G1 E-.015 F3600
G1 Z7.85 F7800
;AFTER_LAYER_CHANGE
;7.85
G1 X113.879 Y73.506
G1 E1 F2400
;TYPE:Perimeter
;WIDTH:1
G1 F900
G1 X112.825 Y79.416 E1.11397
G1 X110.975 Y79.106 E.3482
G1 X107.71 Y78.011 E.63896
G1 X100.019 Y73.506 E1.65411
G1 X113.729 Y73.506 E2.54424
G1 X114.945 Y72.613 F7800
;TYPE:External perimeter
G1 F900
G1 X113.549 Y80.442 E1.47569
G1 X110.758 Y79.975 E.52522
M73 P5 R23
G1 X107.339 Y78.828 E.66919
G1 X96.728 Y72.613 E2.2819
G1 X114.795 Y72.613 E3.35271
G1 X114.544 Y73.529 F7800
G1 E-.7 F3600
;WIPE_START
G1 F6240
G1 X114.713 Y73.127 E-.285
;WIPE_END
G1 E-.015 F3600
G1 X113.018 Y76.811 F7800
G1 E1 F2400
;TYPE:Solid infill
;WIDTH:1.03824
G1 F900
G1 X111.34 Y78.488 E.45908
G1 X111.137 Y78.454 E.03981
G1 X110.329 Y78.183 E.16503
G1 X112.807 Y75.705 E.67815
G1 X113.08 Y74.176 E.3007
G1 X113.02 Y74.176 E.01153
G1 X109.343 Y77.852 E1.00627
G1 X108.357 Y77.522 E.20122
G1 X111.703 Y74.176 E.91575
G1 X110.387 Y74.176 E.25478
G1 X107.469 Y77.094 E.79858
G1 X106.639 Y76.607 E.18621
G1 X109.07 Y74.176 E.6655
G1 X107.754 Y74.176 E.25478
G1 X105.808 Y76.121 E.53241
G1 X104.978 Y75.635 E.18621
G1 X106.437 Y74.176 E.39933
G1 X105.121 Y74.176 E.25478
G1 X104.148 Y75.148 E.26625
G1 X103.317 Y74.662 E.18621
G1 X104.206 Y73.774 E.24311
;LAYER_CHANGE
;Z:8.35
;HEIGHT:0.5
;BEFORE_LAYER_CHANGE
G92 E0
;8.35


G1 E-.7 F3600
;WIPE_START
G1 F6240
G1 X103.838 Y74.142 E-.285
;WIPE_END
G1 E-.015 F3600
G1 Z8.35 F7800
;AFTER_LAYER_CHANGE
;8.35
G1 X114.109 Y73.506
G1 E1 F2400
;TYPE:Perimeter
;WIDTH:1
G1 F900
G1 X112.985 Y79.807 E1.18777
G1 X110.894 Y79.457 E.39345
G1 X107.376 Y78.277 E.68868
G1 X99.23 Y73.506 E1.75181
G1 X113.959 Y73.506 E2.73326
G1 X115.175 Y72.613 F7800
;TYPE:External perimeter
G1 F900
G1 X113.709 Y80.834 E1.54949
