; generated by PrusaSlicer 2.5.0+win64 on 2022-12-07 at 00:27:40 UTC

; 

; external perimeters extrusion width = 1.00mm
; perimeters extrusion width = 1.00mm
; infill extrusion width = 1.00mm
; solid infill extrusion width = 1.00mm
; top infill extrusion width = 1.00mm
; support material extrusion width = 1.00mm
; first layer extrusion width = 0.42mm

M73 P0 R326
M107
;TYPE:Custom
G90 ; use absolute coordinates
M83 ; extruder relative mode
M140 S60 ; set final bed temp
M104 S150 ; set temporary nozzle temp to prevent oozing during homing and auto bed leveling
G4 S10 ; allow partial nozzle warmup
G28 ; home all axisG1 Z50 F240
G1 X7.6 Y10 F3000
M104 S210 ; set final nozzle temp
M190 S60 ; wait for bed temp to stabilize
M109 S210 ; wait for nozzle temp to stabilize
G1 Z0.28 F240
G92 E0
G1 Y140 E10 F1500 ; prime the nozzle
G1 X4 F5000
G92 E0
G1 Y10 E10 F1200 ; prime the nozzle
G92 E0
G21 ; set units to millimeters
G90 ; use absolute coordinates
M83 ; use relative distances for extrusion
; Filament gcode
M107
;LAYER_CHANGE
;Z:0.35
;HEIGHT:0.35
;BEFORE_LAYER_CHANGE
G92 E0
;0.35


G1 E-1 F3600
G1 Z.35 F7800
;AFTER_LAYER_CHANGE
;0.35
G1 X76.273 Y49.475
G1 E1 F2400
;TYPE:Support material
;WIDTH:0.42
G1 F1800
G1 X130.556 Y49.475 E2.72425
G1 X130.556 Y52.868 E.17027
G1 X133.056 Y52.868 E.12546
G1 X133.056 Y55.448 E.12947
G1 X130.056 Y55.448 E.15056
G1 X130.056 Y60.153 E.23616
G1 X136.841 Y60.153 E.34053
G1 X136.841 Y63.546 E.17027
G1 X143.627 Y63.546 E.34053
G1 X143.627 Y66.939 E.17027
G1 X158.51 Y66.939 E.74695
G1 X158.51 Y63.939 E.15056
G1 X161.09 Y63.939 E.12947
G1 X161.09 Y117.329 E2.67945
G1 X164.483 Y117.329 E.17027
G1 X164.483 Y140.765 E1.17616
G1 X66.408 Y140.765 E4.922
G1 X66.408 Y123.802 E.85133
G1 X63.015 Y123.802 E.17027
G1 X63.015 Y83.089 E2.04319
G1 X56.229 Y83.089 E.34053
G1 X56.229 Y79.697 E.17027
G1 X29.088 Y79.697 E1.36213
G1 X29.088 Y76.304 E.17027
G1 X12.124 Y76.304 E.85133
G1 X12.124 Y49.475 E1.34642
G1 X52.837 Y49.475 E2.04319
G1 X52.837 Y46.083 E.17027
G1 X76.273 Y46.083 E1.17616
G1 X76.273 Y49.424 E.16767
G1 X163.96 Y140.61 F7800
G1 F1800
G1 X163.96 Y117.64 E1.15279
G1 X163.576 Y117.64 E.01923
G1 X163.576 Y140.455 E1.145
G1 X163.193 Y140.455 E.01923
G1 X163.193 Y117.64 E1.145
G1 X162.81 Y117.64 E.01923
G1 X162.81 Y140.455 E1.145
G1 X162.427 Y140.455 E.01923
G1 X162.427 Y117.64 E1.145
G1 X162.043 Y117.64 E.01923
G1 X162.043 Y140.455 E1.145
G1 X161.66 Y140.455 E.01923
G1 X161.66 Y117.64 E1.145
G1 X161.277 Y117.64 E.01923
G1 X161.277 Y140.455 E1.145
G1 X160.894 Y140.455 E.01923
G1 X160.894 Y117.64 E1.145
G1 X160.78 Y117.64 E.00572
G1 X160.78 Y64.249 E2.67945
G1 X160.511 Y64.249 E.01351
G1 X160.511 Y140.455 E3.82445
G1 X160.127 Y140.455 E.01923
G1 X160.127 Y64.249 E3.82445
G1 X159.744 Y64.249 E.01923
G1 X159.744 Y140.455 E3.82445
G1 X159.361 Y140.455 E.01923
G1 X159.361 Y64.249 E3.82445
G1 X158.978 Y64.249 E.01923
M73 P0 R325
G1 X158.978 Y140.455 E3.82445
G1 X158.595 Y140.455 E.01923
G1 X158.595 Y67.249 E3.67389
G1 X158.211 Y67.249 E.01923
G1 X158.211 Y140.455 E3.67389
G1 X157.828 Y140.455 E.01923
G1 X157.828 Y67.249 E3.67389
G1 X157.445 Y67.249 E.01923
G1 X157.445 Y140.455 E3.67389
G1 X157.062 Y140.455 E.01923
G1 X157.062 Y67.249 E3.67389
G1 X156.679 Y67.249 E.01923
G1 X156.679 Y140.455 E3.67389
G1 X156.295 Y140.455 E.01923
G1 X156.295 Y67.249 E3.67389
G1 X155.912 Y67.249 E.01923
G1 X155.912 Y140.455 E3.67389
G1 X155.529 Y140.455 E.01923
G1 X155.529 Y67.249 E3.67389
G1 X155.146 Y67.249 E.01923
G1 X155.146 Y140.455 E3.67389
G1 X154.762 Y140.455 E.01923
G1 X154.762 Y67.249 E3.67389
G1 X154.379 Y67.249 E.01923
G1 X154.379 Y140.455 E3.67389
G1 X153.996 Y140.455 E.01923
G1 X153.996 Y67.249 E3.67389
G1 X153.613 Y67.249 E.01923
G1 X153.613 Y140.455 E3.67389
G1 X153.23 Y140.455 E.01923
G1 X153.23 Y67.249 E3.67389
G1 X152.846 Y67.249 E.01923
G1 X152.846 Y140.455 E3.67389
G1 X152.463 Y140.455 E.01923
G1 X152.463 Y67.249 E3.67389
G1 X152.08 Y67.249 E.01923
G1 X152.08 Y140.455 E3.67389
G1 X151.697 Y140.455 E.01923
G1 X151.697 Y67.249 E3.67389
G1 X151.314 Y67.249 E.01923
G1 X151.314 Y140.455 E3.67389
G1 X150.93 Y140.455 E.01923
G1 X150.93 Y67.249 E3.67389
G1 X150.547 Y67.249 E.01923
G1 X150.547 Y140.455 E3.67389
G1 X150.164 Y140.455 E.01923
G1 X150.164 Y67.249 E3.67389
G1 X149.781 Y67.249 E.01923
M73 P0 R324
G1 X149.781 Y140.455 E3.67389
G1 X149.398 Y140.455 E.01923
G1 X149.398 Y67.249 E3.67389
G1 X149.014 Y67.249 E.01923
G1 X149.014 Y140.455 E3.67389
G1 X148.631 Y140.455 E.01923
G1 X148.631 Y67.249 E3.67389
G1 X148.248 Y67.249 E.01923
G1 X148.248 Y140.455 E3.67389
G1 X147.865 Y140.455 E.01923
G1 X147.865 Y67.249 E3.67389
G1 X147.481 Y67.249 E.01923
G1 X147.481 Y140.455 E3.67389
G1 X147.098 Y140.455 E.01923
G1 X147.098 Y67.249 E3.67389
G1 X146.715 Y67.249 E.01923
G1 X146.715 Y140.455 E3.67389
G1 X146.332 Y140.455 E.01923
G1 X146.332 Y67.249 E3.67389
G1 X145.949 Y67.249 E.01923
G1 X145.949 Y140.455 E3.67389
G1 X145.565 Y140.455 E.01923
G1 X145.565 Y67.249 E3.67389
G1 X145.182 Y67.249 E.01923
G1 X145.182 Y140.455 E3.67389
G1 X144.799 Y140.455 E.01923
G1 X144.799 Y67.249 E3.67389
G1 X144.416 Y67.249 E.01923
G1 X144.416 Y140.455 E3.67389
G1 X144.033 Y140.455 E.01923
G1 X144.033 Y67.249 E3.67389
G1 X143.649 Y67.249 E.01923
G1 X143.649 Y140.455 E3.67389
G1 X143.266 Y140.455 E.01923
G1 X143.266 Y63.857 E3.84416
G1 X142.883 Y63.857 E.01923
G1 X142.883 Y140.455 E3.84416
G1 X142.5 Y140.455 E.01923
G1 X142.5 Y63.857 E3.84416
G1 X142.117 Y63.857 E.01923
G1 X142.117 Y140.455 E3.84416
G1 X141.733 Y140.455 E.01923
G1 X141.733 Y63.857 E3.84416
G1 X141.35 Y63.857 E.01923
G1 X141.35 Y140.455 E3.84416
G1 X140.967 Y140.455 E.01923
M73 P0 R323
G1 X140.967 Y63.857 E3.84416
G1 X140.584 Y63.857 E.01923
G1 X140.584 Y140.455 E3.84416
G1 X140.201 Y140.455 E.01923
G1 X140.201 Y63.857 E3.84416
G1 X139.817 Y63.857 E.01923
G1 X139.817 Y140.455 E3.84416
G1 X139.434 Y140.455 E.01923
G1 X139.434 Y63.857 E3.84416
G1 X139.051 Y63.857 E.01923
G1 X139.051 Y140.455 E3.84416
G1 X138.668 Y140.455 E.01923
G1 X138.668 Y63.857 E3.84416
G1 X138.284 Y63.857 E.01923
G1 X138.284 Y140.455 E3.84416
G1 X137.901 Y140.455 E.01923
G1 X137.901 Y63.857 E3.84416
G1 X137.518 Y63.857 E.01923
G1 X137.518 Y140.455 E3.84416
G1 X137.135 Y140.455 E.01923
M73 P1 R323
G1 X137.135 Y63.857 E3.84416
G1 X136.752 Y63.857 E.01923
G1 X136.752 Y140.455 E3.84416
G1 X136.368 Y140.455 E.01923
G1 X136.368 Y60.464 E4.01443
G1 X135.985 Y60.464 E.01923
G1 X135.985 Y140.455 E4.01443
G1 X135.602 Y140.455 E.01923
G1 X135.602 Y60.464 E4.01443
G1 X135.219 Y60.464 E.01923
G1 X135.219 Y140.455 E4.01443
G1 X134.836 Y140.455 E.01923
G1 X134.836 Y60.464 E4.01443
G1 X134.452 Y60.464 E.01923
G1 X134.452 Y140.455 E4.01443
G1 X134.069 Y140.455 E.01923
G1 X134.069 Y60.464 E4.01443
G1 X133.686 Y60.464 E.01923
G1 X133.686 Y140.455 E4.01443
G1 X133.303 Y140.455 E.01923
G1 X133.303 Y60.464 E4.01443
G1 X132.92 Y60.464 E.01923
G1 X132.92 Y140.455 E4.01443
G1 X132.536 Y140.455 E.01923
G1 X132.536 Y60.464 E4.01443
G1 X132.153 Y60.464 E.01923
M73 P1 R322
G1 X132.153 Y140.455 E4.01443
G1 X131.77 Y140.455 E.01923
G1 X131.77 Y60.464 E4.01443
G1 X131.387 Y60.464 E.01923
G1 X131.387 Y140.455 E4.01443
G1 X131.003 Y140.455 E.01923
G1 X131.003 Y60.464 E4.01443
G1 X130.62 Y60.464 E.01923
G1 X130.62 Y140.455 E4.01443
G1 X130.237 Y140.455 E.01923
G1 X130.237 Y60.309 E4.02221
G1 E-.7 F3600
;WIPE_START
G1 F6240
G1 X130.237 Y60.829 E-.285
;WIPE_END
G1 E-.015 F3600
G1 X132.536 Y55.293 F7800
G1 E1 F2400
G1 F1800
G1 X132.536 Y53.178 E.1061
G1 X132.153 Y53.178 E.01923
G1 X132.153 Y55.137 E.09831
G1 X131.77 Y55.137 E.01923
G1 X131.77 Y53.178 E.09831
G1 X131.387 Y53.178 E.01923
G1 X131.387 Y55.137 E.09831
G1 X131.003 Y55.137 E.01923
G1 X131.003 Y53.178 E.09831
G1 X130.62 Y53.178 E.01923
G1 X130.62 Y55.137 E.09831
G1 X130.237 Y55.137 E.01923
G1 X130.237 Y49.786 E.26858
G1 X129.854 Y49.786 E.01923
G1 X129.854 Y140.455 E4.55032
G1 X129.471 Y140.455 E.01923
G1 X129.471 Y49.786 E4.55032
G1 X129.087 Y49.786 E.01923
G1 X129.087 Y140.455 E4.55032
G1 X128.704 Y140.455 E.01923
G1 X128.704 Y49.786 E4.55032
G1 X128.321 Y49.786 E.01923
G1 X128.321 Y140.455 E4.55032
G1 X127.938 Y140.455 E.01923
G1 X127.938 Y49.786 E4.55032
G1 X127.555 Y49.786 E.01923
G1 X127.555 Y140.455 E4.55032
G1 X127.171 Y140.455 E.01923
G1 X127.171 Y49.786 E4.55032
G1 X126.788 Y49.786 E.01923
G1 X126.788 Y140.455 E4.55032
G1 X126.405 Y140.455 E.01923
G1 X126.405 Y49.786 E4.55032
G1 X126.022 Y49.786 E.01923
G1 X126.022 Y140.455 E4.55032
G1 X125.639 Y140.455 E.01923
G1 X125.639 Y49.786 E4.55032
G1 X125.255 Y49.786 E.01923
G1 X125.255 Y140.455 E4.55032
G1 X124.872 Y140.455 E.01923
G1 X124.872 Y49.786 E4.55032
M73 P1 R321
G1 X124.489 Y49.786 E.01923
G1 X124.489 Y140.455 E4.55032
G1 X124.106 Y140.455 E.01923
G1 X124.106 Y49.786 E4.55032
G1 X123.722 Y49.786 E.01923
G1 X123.722 Y140.455 E4.55032
G1 X123.339 Y140.455 E.01923
G1 X123.339 Y49.786 E4.55032
G1 X122.956 Y49.786 E.01923
G1 X122.956 Y140.455 E4.55032
G1 X122.573 Y140.455 E.01923
G1 X122.573 Y49.786 E4.55032
G1 X122.19 Y49.786 E.01923
G1 X122.19 Y140.455 E4.55032
G1 X121.806 Y140.455 E.01923
G1 X121.806 Y49.786 E4.55032
G1 X121.423 Y49.786 E.01923
G1 X121.423 Y140.455 E4.55032
G1 X121.04 Y140.455 E.01923
G1 X121.04 Y49.786 E4.55032
G1 X120.657 Y49.786 E.01923
G1 X120.657 Y140.455 E4.55032
G1 X120.274 Y140.455 E.01923
G1 X120.274 Y49.786 E4.55032
G1 X119.89 Y49.786 E.01923
G1 X119.89 Y140.455 E4.55032
G1 X119.507 Y140.455 E.01923
G1 X119.507 Y49.786 E4.55032
G1 X119.124 Y49.786 E.01923
G1 X119.124 Y140.455 E4.55032
G1 X118.741 Y140.455 E.01923
G1 X118.741 Y49.786 E4.55032
G1 X118.358 Y49.786 E.01923
G1 X118.358 Y140.455 E4.55032
G1 X117.974 Y140.455 E.01923
G1 X117.974 Y49.786 E4.55032
G1 X117.591 Y49.786 E.01923
G1 X117.591 Y140.455 E4.55032
G1 X117.208 Y140.455 E.01923
M73 P1 R320
G1 X117.208 Y49.786 E4.55032
G1 X116.825 Y49.786 E.01923
G1 X116.825 Y140.455 E4.55032
G1 X116.441 Y140.455 E.01923
G1 X116.441 Y49.786 E4.55032
G1 X116.058 Y49.786 E.01923
G1 X116.058 Y140.455 E4.55032
G1 X115.675 Y140.455 E.01923
G1 X115.675 Y49.786 E4.55032
G1 X115.292 Y49.786 E.01923
G1 X115.292 Y140.455 E4.55032
G1 X114.909 Y140.455 E.01923
G1 X114.909 Y49.786 E4.55032
G1 X114.525 Y49.786 E.01923
G1 X114.525 Y140.455 E4.55032
G1 X114.142 Y140.455 E.01923
G1 X114.142 Y49.786 E4.55032
G1 X113.759 Y49.786 E.01923
G1 X113.759 Y140.455 E4.55032
G1 X113.376 Y140.455 E.01923
G1 X113.376 Y49.786 E4.55032
G1 X112.993 Y49.786 E.01923
G1 X112.993 Y140.455 E4.55032
G1 X112.609 Y140.455 E.01923
G1 X112.609 Y49.786 E4.55032
G1 X112.226 Y49.786 E.01923
G1 X112.226 Y140.455 E4.55032
G1 X111.843 Y140.455 E.01923
M73 P2 R320
G1 X111.843 Y49.786 E4.55032
G1 X111.46 Y49.786 E.01923
G1 X111.46 Y140.455 E4.55032
G1 X111.077 Y140.455 E.01923
G1 X111.077 Y49.786 E4.55032
G1 X110.693 Y49.786 E.01923
G1 X110.693 Y140.455 E4.55032
G1 X110.31 Y140.455 E.01923
G1 X110.31 Y49.786 E4.55032
G1 X109.927 Y49.786 E.01923
M73 P2 R319
G1 X109.927 Y140.455 E4.55032
G1 X109.544 Y140.455 E.01923
G1 X109.544 Y49.786 E4.55032
G1 X109.161 Y49.786 E.01923
G1 X109.16 Y140.455 E4.55032
G1 X108.777 Y140.455 E.01923
G1 X108.777 Y49.786 E4.55032
G1 X108.394 Y49.786 E.01923
G1 X108.394 Y140.455 E4.55032
G1 X108.011 Y140.455 E.01923
G1 X108.011 Y49.786 E4.55032
G1 X107.628 Y49.786 E.01923
G1 X107.628 Y140.455 E4.55032
G1 X107.244 Y140.455 E.01923
G1 X107.244 Y49.786 E4.55032
G1 X106.861 Y49.786 E.01923
G1 X106.861 Y140.455 E4.55032
G1 X106.478 Y140.455 E.01923
G1 X106.478 Y49.786 E4.55032
G1 X106.095 Y49.786 E.01923
G1 X106.095 Y140.455 E4.55032
G1 X105.712 Y140.455 E.01923
G1 X105.712 Y49.786 E4.55032
G1 X105.328 Y49.786 E.01923
G1 X105.328 Y140.455 E4.55032
G1 X104.945 Y140.455 E.01923
G1 X104.945 Y49.786 E4.55032
G1 X104.562 Y49.786 E.01923
G1 X104.562 Y140.455 E4.55032
G1 X104.179 Y140.455 E.01923
G1 X104.179 Y49.786 E4.55032
G1 X103.796 Y49.786 E.01923
G1 X103.796 Y140.455 E4.55032
G1 X103.412 Y140.455 E.01923
G1 X103.412 Y49.786 E4.55032
G1 X103.029 Y49.786 E.01923
G1 X103.029 Y140.455 E4.55032
G1 X102.646 Y140.455 E.01923
G1 X102.646 Y49.786 E4.55032
G1 X102.263 Y49.786 E.01923
M73 P2 R318
G1 X102.263 Y140.455 E4.55032
G1 X101.88 Y140.455 E.01923
G1 X101.88 Y49.786 E4.55032
G1 X101.496 Y49.786 E.01923
G1 X101.496 Y140.455 E4.55032
G1 X101.113 Y140.455 E.01923
G1 X101.113 Y49.786 E4.55032
G1 X100.73 Y49.786 E.01923
G1 X100.73 Y140.455 E4.55032
G1 X100.347 Y140.455 E.01923
G1 X100.347 Y49.786 E4.55032
G1 X99.963 Y49.786 E.01923
G1 X99.963 Y140.455 E4.55032
G1 X99.58 Y140.455 E.01923
G1 X99.58 Y49.786 E4.55032
G1 X99.197 Y49.786 E.01923
G1 X99.197 Y140.455 E4.55032
G1 X98.814 Y140.455 E.01923
G1 X98.814 Y49.786 E4.55032
G1 X98.431 Y49.786 E.01923
G1 X98.431 Y140.455 E4.55032
G1 X98.047 Y140.455 E.01923
G1 X98.047 Y49.786 E4.55032
G1 X97.664 Y49.786 E.01923
G1 X97.664 Y140.455 E4.55032
G1 X97.281 Y140.455 E.01923
G1 X97.281 Y49.786 E4.55032
G1 X96.898 Y49.786 E.01923
G1 X96.898 Y140.455 E4.55032
G1 X96.515 Y140.455 E.01923
G1 X96.515 Y49.786 E4.55032
G1 X96.131 Y49.786 E.01923
G1 X96.131 Y140.455 E4.55032
G1 X95.748 Y140.455 E.01923
G1 X95.748 Y49.786 E4.55032
G1 X95.365 Y49.786 E.01923
G1 X95.365 Y140.455 E4.55032
G1 X94.982 Y140.455 E.01923
M73 P2 R317
G1 X94.982 Y49.786 E4.55032
G1 X94.599 Y49.786 E.01923
G1 X94.599 Y140.455 E4.55032
G1 X94.215 Y140.455 E.01923
G1 X94.215 Y49.786 E4.55032
G1 X93.832 Y49.786 E.01923
G1 X93.832 Y140.455 E4.55032
G1 X93.449 Y140.455 E.01923
G1 X93.449 Y49.786 E4.55032
G1 X93.066 Y49.786 E.01923
G1 X93.066 Y140.455 E4.55032
G1 X92.682 Y140.455 E.01923
G1 X92.682 Y49.786 E4.55032
G1 X92.299 Y49.786 E.01923
G1 X92.299 Y140.455 E4.55032
G1 X91.916 Y140.455 E.01923
G1 X91.916 Y49.786 E4.55032
G1 X91.533 Y49.786 E.01923
G1 X91.533 Y140.455 E4.55032
G1 X91.15 Y140.455 E.01923
G1 X91.15 Y49.786 E4.55032
G1 X90.766 Y49.786 E.01923
G1 X90.766 Y140.455 E4.55032
G1 X90.383 Y140.455 E.01923
G1 X90.383 Y49.786 E4.55032
G1 X90 Y49.786 E.01923
G1 X90 Y140.455 E4.55032
G1 X89.617 Y140.455 E.01923
G1 X89.617 Y49.786 E4.55032
G1 X89.234 Y49.786 E.01923
G1 X89.234 Y140.455 E4.55032
G1 X88.85 Y140.455 E.01923
G1 X88.85 Y49.786 E4.55032
G1 X88.467 Y49.786 E.01923
G1 X88.467 Y140.455 E4.55032
G1 X88.084 Y140.455 E.01923
G1 X88.084 Y49.786 E4.55032
G1 X87.701 Y49.786 E.01923
M73 P3 R317
G1 X87.701 Y140.455 E4.55032
G1 X87.318 Y140.455 E.01923
M73 P3 R316
G1 X87.318 Y49.786 E4.55032
G1 X86.934 Y49.786 E.01923
G1 X86.934 Y140.455 E4.55032
G1 X86.551 Y140.455 E.01923
G1 X86.551 Y49.786 E4.55032
G1 X86.168 Y49.786 E.01923
G1 X86.168 Y140.455 E4.55032
G1 X85.785 Y140.455 E.01923
G1 X85.785 Y49.786 E4.55032
G1 X85.401 Y49.786 E.01923
G1 X85.401 Y140.455 E4.55032
G1 X85.018 Y140.455 E.01923
G1 X85.018 Y49.786 E4.55032
G1 X84.635 Y49.786 E.01923
G1 X84.635 Y140.455 E4.55032
G1 X84.252 Y140.455 E.01923
G1 X84.252 Y49.786 E4.55032
G1 X83.869 Y49.786 E.01923
G1 X83.869 Y140.455 E4.55032
G1 X83.485 Y140.455 E.01923
G1 X83.485 Y49.786 E4.55032
G1 X83.102 Y49.786 E.01923
G1 X83.102 Y140.455 E4.55032
G1 X82.719 Y140.455 E.01923
G1 X82.719 Y49.786 E4.55032
G1 X82.336 Y49.786 E.01923
G1 X82.336 Y140.455 E4.55032
G1 X81.953 Y140.455 E.01923
G1 X81.953 Y49.786 E4.55032
G1 X81.569 Y49.786 E.01923
G1 X81.569 Y140.455 E4.55032
G1 X81.186 Y140.455 E.01923
G1 X81.186 Y49.786 E4.55032
G1 X80.803 Y49.786 E.01923
G1 X80.803 Y140.455 E4.55032
G1 X80.42 Y140.455 E.01923
G1 X80.42 Y49.786 E4.55032
G1 X80.037 Y49.786 E.01923
M73 P3 R315
G1 X80.037 Y140.455 E4.55032
G1 X79.653 Y140.455 E.01923
G1 X79.653 Y49.786 E4.55032
G1 X79.27 Y49.786 E.01923
G1 X79.27 Y140.455 E4.55032
G1 X78.887 Y140.455 E.01923
G1 X78.887 Y49.786 E4.55032
G1 X78.504 Y49.786 E.01923
G1 X78.504 Y140.455 E4.55032
G1 X78.12 Y140.455 E.01923
G1 X78.12 Y49.786 E4.55032
G1 X77.737 Y49.786 E.01923
G1 X77.737 Y140.455 E4.55032
G1 X77.354 Y140.455 E.01923
G1 X77.354 Y49.786 E4.55032
G1 X76.971 Y49.786 E.01923
G1 X76.971 Y140.455 E4.55032
G1 X76.588 Y140.455 E.01923
G1 X76.588 Y49.786 E4.55032
G1 X76.204 Y49.786 E.01923
G1 X76.204 Y140.455 E4.55032
G1 X75.821 Y140.455 E.01923
G1 X75.821 Y46.393 E4.72058
