; generated by PrusaSlicer 2.5.0+win64 on 2022-12-07 at 00:27:38 UTC

; 

; external perimeters extrusion width = 1.00mm
; perimeters extrusion width = 1.00mm
; infill extrusion width = 1.00mm
; solid infill extrusion width = 1.00mm
; top infill extrusion width = 1.00mm
; support material extrusion width = 1.00mm
; first layer extrusion width = 0.42mm

M73 P0 R118
M107
;TYPE:Custom
G90 ; use absolute coordinates
M83 ; extruder relative mode
M140 S60 ; set final bed temp
M104 S150 ; set temporary nozzle temp to prevent oozing during homing and auto bed leveling
G4 S10 ; allow partial nozzle warmup
G28 ; home all axisG1 Z50 F240
G1 X7.6 Y10 F3000
M104 S210 ; set final nozzle temp
M190 S60 ; wait for bed temp to stabilize
M109 S210 ; wait for nozzle temp to stabilize
G1 Z0.28 F240
G92 E0
G1 Y140 E10 F1500 ; prime the nozzle
G1 X4 F5000
G92 E0
G1 Y10 E10 F1200 ; prime the nozzle
G92 E0
G21 ; set units to millimeters
G90 ; use absolute coordinates
M83 ; use relative distances for extrusion
; Filament gcode
M107
;LAYER_CHANGE
;Z:0.35
;HEIGHT:0.35
;BEFORE_LAYER_CHANGE
G92 E0
;0.35


G1 E-1 F3600
G1 Z.35 F7800
;AFTER_LAYER_CHANGE
;0.35
G1 X124.391 Y48.917
G1 E1 F2400
;TYPE:Support material interface
;WIDTH:1
G1 F1800
G1 X124.391 Y52.712 E.51067
G1 X125.284 Y52.712 E.12014
G1 X125.284 Y49.319 E.45661
G1 X126.177 Y49.319 E.12014
G1 X126.177 Y52.712 E.45661
G1 X127.069 Y52.712 E.12014
G1 X127.069 Y49.319 E.45661
G1 X127.962 Y49.319 E.12014
G1 X127.962 Y52.712 E.45661
G1 X128.855 Y52.712 E.12014
G1 X128.855 Y49.319 E.45661
G1 X129.747 Y49.319 E.12014
G1 X129.747 Y52.712 E.45661
G1 X130.64 Y52.712 E.12014
G1 X130.64 Y49.319 E.45661
G1 X131.533 Y49.319 E.12014
G1 X131.533 Y52.712 E.45661
G1 X132.425 Y52.712 E.12014
G1 X132.425 Y51.341 E.18444
G1 X133.318 Y51.874 E.13994
G1 X133.318 Y53.113 E.16676
G1 E-.7 F3600
;WIPE_START
G1 F6240
G1 X133.318 Y52.593 E-.285
;WIPE_END
G1 E-.015 F3600
G1 X126.293 Y48.663 F7800
G1 E1 F2400
;TYPE:Support material
;WIDTH:0.42
G1 F1800
G1 X123.293 Y48.663 E.15056
G1 X123.293 Y53.368 E.23616
G1 X134.784 Y53.368 E.57669
G1 X134.784 Y51.985 E.06941
G1 X132.398 Y50.56 E.13945
G1 X132.764 Y49.475 E.05746
G1 X134.488 Y49.475 E.08651
G1 X134.381 Y49.792 E.01674
G1 X135.966 Y50.738 E.09265
G1 X136.685 Y50.33 E.0415
G1 X136.685 Y49.475 E.04289
G1 X140.756 Y49.475 E.20431
G1 X140.756 Y72.911 E1.17616
G1 X124.106 Y72.911 E.83563
G1 X124.106 Y69.519 E.17027
G1 X100.357 Y69.519 E1.19186
G1 X100.357 Y55.948 E.68106
G1 X96.964 Y55.948 E.17027
G1 X96.964 Y46.083 E.49509
G1 X126.293 Y46.083 E1.47189
G1 X126.293 Y48.611 E.12687
G1 E-.7 F3600
;WIPE_START
G1 F6240
G1 X126.293 Y48.091 E-.285
;WIPE_END
G1 E-.015 F3600
G1 X140.223 Y72.756 F7800
G1 E1 F2400
G1 F1800
G1 X140.223 Y49.786 E1.15279
G1 X139.84 Y49.786 E.01923
G1 X139.84 Y72.601 E1.145
G1 X139.456 Y72.601 E.01923
G1 X139.456 Y49.786 E1.145
G1 X139.073 Y49.786 E.01923
G1 X139.073 Y72.601 E1.145
G1 X138.69 Y72.601 E.01923
G1 X138.69 Y49.786 E1.145
G1 X138.307 Y49.786 E.01923
G1 X138.307 Y72.601 E1.145
G1 X137.924 Y72.601 E.01923
G1 X137.924 Y49.786 E1.145
G1 X137.54 Y49.786 E.01923
G1 X137.54 Y72.601 E1.145
G1 X137.157 Y72.601 E.01923
G1 X137.157 Y49.786 E1.145
G1 X136.996 Y49.786 E.0081
G1 X136.996 Y50.511 E.03638
G1 X136.774 Y50.637 E.0128
G1 X136.774 Y72.601 E1.1023
G1 X136.391 Y72.601 E.01923
G1 X136.391 Y50.854 E1.09139
G1 X136.007 Y51.072 E.02211
G1 X136.007 Y72.601 E1.08047
G1 X135.624 Y72.601 E.01923
G1 X135.624 Y50.895 E1.08931
G1 X135.241 Y50.667 E.0224
G1 X135.241 Y72.601 E1.1008
G1 X134.858 Y72.601 E.01923
G1 X134.858 Y53.679 E.94964
G1 X134.475 Y53.679 E.01923
G1 X134.475 Y72.601 E.94964
G1 X134.091 Y72.601 E.01923
G1 X134.091 Y53.679 E.94964
G1 X133.708 Y53.679 E.01923
G1 X133.708 Y72.601 E.94964
G1 X133.325 Y72.601 E.01923
G1 X133.325 Y53.679 E.94964
G1 X132.942 Y53.679 E.01923
G1 X132.942 Y72.601 E.94964
G1 X132.559 Y72.601 E.01923
G1 X132.559 Y53.679 E.94964
G1 X132.175 Y53.679 E.01923
G1 X132.175 Y72.601 E.94964
G1 X131.792 Y72.601 E.01923
G1 X131.792 Y53.679 E.94964
G1 X131.409 Y53.679 E.01923
G1 X131.409 Y72.601 E.94964
G1 X131.026 Y72.601 E.01923
G1 X131.026 Y53.679 E.94964
G1 X130.643 Y53.679 E.01923
G1 X130.643 Y72.601 E.94964
G1 X130.259 Y72.601 E.01923
M73 P0 R117
G1 X130.259 Y53.679 E.94964
G1 X129.876 Y53.679 E.01923
G1 X129.876 Y72.601 E.94964
G1 X129.493 Y72.601 E.01923
G1 X129.493 Y53.679 E.94964
G1 X129.11 Y53.679 E.01923
G1 X129.11 Y72.601 E.94964
G1 X128.726 Y72.601 E.01923
G1 X128.726 Y53.679 E.94964
G1 X128.343 Y53.679 E.01923
G1 X128.343 Y72.601 E.94964
G1 X127.96 Y72.601 E.01923
G1 X127.96 Y53.679 E.94964
G1 X127.577 Y53.679 E.01923
G1 X127.577 Y72.601 E.94964
G1 X127.194 Y72.601 E.01923
G1 X127.194 Y53.679 E.94964
G1 X126.81 Y53.679 E.01923
G1 X126.81 Y72.601 E.94964
G1 X126.427 Y72.601 E.01923
G1 X126.427 Y53.679 E.94964
G1 X126.044 Y53.679 E.01923
G1 X126.044 Y72.601 E.94964
G1 X125.661 Y72.601 E.01923
G1 X125.661 Y53.679 E.94964
G1 X125.278 Y53.679 E.01923
G1 X125.278 Y72.601 E.94964
G1 X124.894 Y72.601 E.01923
G1 X124.894 Y53.679 E.94964
G1 X124.511 Y53.679 E.01923
G1 X124.511 Y72.601 E.94964
G1 X124.416 Y72.601 E.00477
G1 X124.416 Y69.208 E.17027
G1 X124.128 Y69.208 E.01446
G1 X124.128 Y53.679 E.77938
G1 X123.745 Y53.679 E.01923
G1 X123.745 Y69.208 E.77938
G1 X123.362 Y69.208 E.01923
G1 X123.362 Y53.679 E.77938
G1 X122.982 Y53.679 E.01903
G1 X122.982 Y48.352 E.26731
G1 X123.362 Y48.352 E.01903
G1 X123.362 Y46.393 E.09831
G1 X123.745 Y46.393 E.01923
G1 X123.745 Y48.352 E.09831
G1 X124.128 Y48.352 E.01923
G1 X124.128 Y46.393 E.09831
G1 X124.511 Y46.393 E.01923
G1 X124.511 Y48.352 E.09831
G1 X124.894 Y48.352 E.01923
G1 X124.894 Y46.393 E.09831
G1 X125.278 Y46.393 E.01923
G1 X125.278 Y48.352 E.09831
G1 X125.661 Y48.352 E.01923
G1 X125.661 Y46.238 E.1061
G1 E-.7 F3600
;WIPE_START
G1 F6240
G1 X125.661 Y46.758 E-.285
;WIPE_END
G1 E-.015 F3600
G1 X134.858 Y51.848 F7800
G1 E1 F2400
G1 F1800
G1 X134.858 Y50.438 E.0708
G1 X134.475 Y50.209 E.0224
G1 X134.475 Y51.439 E.06173
G1 X134.091 Y51.21 E.0224
G1 X134.091 Y49.98 E.06173
G1 X134.007 Y49.93 E.00493
G1 X134.055 Y49.786 E.00762
G1 X133.708 Y49.786 E.01743
G1 X133.708 Y50.981 E.05999
G1 X133.325 Y50.752 E.0224
G1 X133.325 Y49.786 E.04851
G1 X132.987 Y49.786 E.01698
G1 X132.942 Y49.919 E.00706
G1 X132.942 Y50.704 E.03941
G1 E-.7 F3600
;WIPE_START
G1 F6240
G1 X132.942 Y50.184 E-.285
;WIPE_END
G1 E-.015 F3600
G1 X122.978 Y69.364 F7800
G1 E1 F2400
G1 F1800
G1 X122.978 Y46.393 E1.15279
G1 X122.595 Y46.393 E.01923
G1 X122.595 Y69.208 E1.145
G1 X122.212 Y69.208 E.01923
G1 X122.212 Y46.393 E1.145
G1 X121.829 Y46.393 E.01923
G1 X121.829 Y69.208 E1.145
G1 X121.445 Y69.208 E.01923
G1 X121.445 Y46.393 E1.145
G1 X121.062 Y46.393 E.01923
G1 X121.062 Y69.208 E1.145
G1 X120.679 Y69.208 E.01923
G1 X120.679 Y46.393 E1.145
G1 X120.296 Y46.393 E.01923
G1 X120.296 Y69.208 E1.145
G1 X119.913 Y69.208 E.01923
G1 X119.913 Y46.393 E1.145
G1 X119.529 Y46.393 E.01923
G1 X119.529 Y69.208 E1.145
G1 X119.146 Y69.208 E.01923
G1 X119.146 Y46.393 E1.145
G1 X118.763 Y46.393 E.01923
G1 X118.763 Y69.208 E1.145
G1 X118.38 Y69.208 E.01923
G1 X118.38 Y46.393 E1.145
G1 X117.997 Y46.393 E.01923
G1 X117.997 Y69.208 E1.145
G1 X117.613 Y69.208 E.01923
G1 X117.613 Y46.393 E1.145
G1 X117.23 Y46.393 E.01923
G1 X117.23 Y69.208 E1.145
G1 X116.847 Y69.208 E.01923
M73 P1 R117
G1 X116.847 Y46.393 E1.145
G1 X116.464 Y46.393 E.01923
G1 X116.464 Y69.208 E1.145
G1 X116.081 Y69.208 E.01923
G1 X116.081 Y46.393 E1.145
G1 X115.697 Y46.393 E.01923
G1 X115.697 Y69.208 E1.145
G1 X115.314 Y69.208 E.01923
G1 X115.314 Y46.393 E1.145
G1 X114.931 Y46.393 E.01923
G1 X114.931 Y69.208 E1.145
G1 X114.548 Y69.208 E.01923
G1 X114.548 Y46.393 E1.145
G1 X114.164 Y46.393 E.01923
G1 X114.164 Y69.208 E1.145
G1 X113.781 Y69.208 E.01923
G1 X113.781 Y46.393 E1.145
G1 X113.398 Y46.393 E.01923
G1 X113.398 Y69.208 E1.145
G1 X113.015 Y69.208 E.01923
G1 X113.015 Y46.393 E1.145
G1 X112.632 Y46.393 E.01923
G1 X112.632 Y69.208 E1.145
G1 X112.248 Y69.208 E.01923
G1 X112.248 Y46.393 E1.145
G1 X111.865 Y46.393 E.01923
G1 X111.865 Y69.208 E1.145
G1 X111.482 Y69.208 E.01923
G1 X111.482 Y46.393 E1.145
G1 X111.099 Y46.393 E.01923
G1 X111.099 Y69.208 E1.145
G1 X110.716 Y69.208 E.01923
G1 X110.716 Y46.393 E1.145
G1 X110.332 Y46.393 E.01923
G1 X110.332 Y69.208 E1.145
G1 X109.949 Y69.208 E.01923
G1 X109.949 Y46.393 E1.145
G1 X109.566 Y46.393 E.01923
G1 X109.566 Y69.208 E1.145
G1 X109.183 Y69.208 E.01923
G1 X109.183 Y46.393 E1.145
G1 X108.8 Y46.393 E.01923
G1 X108.8 Y69.208 E1.145
G1 X108.416 Y69.208 E.01923
G1 X108.416 Y46.393 E1.145
G1 X108.033 Y46.393 E.01923
G1 X108.033 Y69.208 E1.145
G1 X107.65 Y69.208 E.01923
G1 X107.65 Y46.393 E1.145
G1 X107.267 Y46.393 E.01923
G1 X107.267 Y69.208 E1.145
G1 X106.883 Y69.208 E.01923
G1 X106.883 Y46.393 E1.145
G1 X106.5 Y46.393 E.01923
G1 X106.5 Y69.208 E1.145
G1 X106.117 Y69.208 E.01923
G1 X106.117 Y46.393 E1.145
G1 X105.734 Y46.393 E.01923
G1 X105.734 Y69.208 E1.145
G1 X105.351 Y69.208 E.01923
G1 X105.351 Y46.393 E1.145
G1 X104.967 Y46.393 E.01923
G1 X104.967 Y69.208 E1.145
G1 X104.584 Y69.208 E.01923
G1 X104.584 Y46.393 E1.145
G1 X104.201 Y46.393 E.01923
G1 X104.201 Y69.208 E1.145
G1 X103.818 Y69.208 E.01923
G1 X103.818 Y46.393 E1.145
G1 X103.435 Y46.393 E.01923
G1 X103.435 Y69.208 E1.145
G1 X103.051 Y69.208 E.01923
G1 X103.051 Y46.393 E1.145
G1 X102.668 Y46.393 E.01923
G1 X102.668 Y69.208 E1.145
G1 X102.285 Y69.208 E.01923
M73 P1 R116
G1 X102.285 Y46.393 E1.145
G1 X101.902 Y46.393 E.01923
G1 X101.902 Y69.208 E1.145
G1 X101.519 Y69.208 E.01923
G1 X101.519 Y46.393 E1.145
G1 X101.135 Y46.393 E.01923
G1 X101.135 Y69.208 E1.145
G1 X100.752 Y69.208 E.01923
G1 X100.752 Y46.393 E1.145
G1 X100.369 Y46.393 E.01923
G1 X100.369 Y55.638 E.46394
G1 X99.986 Y55.638 E.01923
G1 X99.986 Y46.393 E.46394
G1 X99.603 Y46.393 E.01923
G1 X99.603 Y55.638 E.46394
G1 X99.219 Y55.638 E.01923
G1 X99.219 Y46.393 E.46394
G1 X98.836 Y46.393 E.01923
G1 X98.836 Y55.638 E.46394
G1 X98.453 Y55.638 E.01923
G1 X98.453 Y46.393 E.46394
G1 X98.07 Y46.393 E.01923
G1 X98.07 Y55.638 E.46394
G1 X97.686 Y55.638 E.01923
G1 X97.686 Y46.393 E.46394
G1 X97.303 Y46.393 E.01923
G1 X97.303 Y55.793 E.47173
G1 E-.7 F3600
;WIPE_START
G1 F6240
G1 X97.303 Y55.273 E-.285
;WIPE_END
G1 E-.015 F3600
G1 X140.756 Y137.373 F7800
G1 E1 F2400
G1 F1800
G1 X130.891 Y137.373 E.49509
G1 X130.891 Y120.722 E.83563
G1 X140.756 Y120.722 E.49509
G1 X140.756 Y137.321 E.83303
G1 X140.223 Y137.217 F7800
G1 F1800
G1 X140.223 Y121.032 E.81226
G1 X139.84 Y121.032 E.01923
G1 X139.84 Y137.062 E.80447
G1 X139.456 Y137.062 E.01923
G1 X139.456 Y121.032 E.80447
G1 X139.073 Y121.032 E.01923
G1 X139.073 Y137.062 E.80447
G1 X138.69 Y137.062 E.01923
G1 X138.69 Y121.032 E.80447
G1 X138.307 Y121.032 E.01923
G1 X138.307 Y137.062 E.80447
G1 X137.923 Y137.062 E.01923
G1 X137.924 Y121.032 E.80447
G1 X137.54 Y121.032 E.01923
G1 X137.54 Y137.062 E.80447
G1 X137.157 Y137.062 E.01923
G1 X137.157 Y121.032 E.80447
G1 X136.774 Y121.032 E.01923
G1 X136.774 Y137.062 E.80447
G1 X136.391 Y137.062 E.01923
G1 X136.391 Y121.032 E.80447
G1 X136.007 Y121.032 E.01923
G1 X136.007 Y137.062 E.80447
G1 X135.624 Y137.062 E.01923
G1 X135.624 Y121.032 E.80447
G1 X135.241 Y121.032 E.01923
G1 X135.241 Y137.062 E.80447
G1 X134.858 Y137.062 E.01923
G1 X134.858 Y121.032 E.80447
G1 X134.475 Y121.032 E.01923
G1 X134.475 Y137.062 E.80447
G1 X134.091 Y137.062 E.01923
G1 X134.091 Y121.032 E.80447
G1 X133.708 Y121.032 E.01923
G1 X133.708 Y137.062 E.80447
G1 X133.325 Y137.062 E.01923
G1 X133.325 Y121.032 E.80447
G1 X132.942 Y121.032 E.01923
G1 X132.942 Y137.062 E.80447
G1 X132.559 Y137.062 E.01923
G1 X132.559 Y121.032 E.80447
G1 X132.175 Y121.032 E.01923
G1 X132.175 Y137.062 E.80447
G1 X131.792 Y137.062 E.01923
G1 X131.792 Y121.032 E.80447
G1 X131.409 Y121.032 E.01923
G1 X131.409 Y137.217 E.81226
M106 S255
;LAYER_CHANGE
;Z:0.65
;HEIGHT:0.3
;BEFORE_LAYER_CHANGE
G92 E0
;0.65


G1 E-.7 F3600
;WIPE_START
G1 F6240
G1 X131.409 Y136.697 E-.285
;WIPE_END
G1 E-.015 F3600
G1 Z.65 F7800
;AFTER_LAYER_CHANGE
;0.65
M104 S205 ; set temperature
G1 X133.318 Y53.113
G1 E1 F2400
;TYPE:Support material interface
;WIDTH:1
G1 F1248
G1 X133.318 Y51.874 E.14459
G1 X132.425 Y51.341 E.12134
G1 X132.425 Y52.712 E.15992
G1 X131.533 Y52.712 E.10417
G1 X131.533 Y48.917 E.44279
;LAYER_CHANGE
;Z:0.75
;HEIGHT:0.1
;BEFORE_LAYER_CHANGE
G92 E0
;0.75


G1 E-.7 F3600
;WIPE_START
G1 F6240
G1 X131.533 Y49.437 E-.285
;WIPE_END
G1 E-.015 F3600
G1 Z.75 F7800
;AFTER_LAYER_CHANGE
;0.75
G1 X133.318 Y53.113
G1 E1 F2400
G1 F1248
G1 X133.318 Y51.817 E.05274
G1 X132.425 Y51.284 E.0423
G1 X132.425 Y52.712 E.05808
G1 X131.533 Y52.712 E.03632
G1 X131.533 Y50.751 E.07977
G1 X130.64 Y50.218 E.0423
G1 X130.64 Y52.712 E.10146
G1 X129.788 Y52.712 E.03465
;HEIGHT:0.4
G1 X129.747 Y52.712 E.00623
G1 X129.747 Y49.319 E.51578
G1 X128.855 Y49.319 E.13571
G1 X128.855 Y52.712 E.51578
G1 X127.962 Y52.712 E.13571
G1 X127.962 Y49.319 E.51578
G1 X127.069 Y49.319 E.13571
G1 X127.069 Y52.712 E.51578
G1 X126.177 Y52.712 E.13571
G1 X126.177 Y49.319 E.51578
G1 X125.284 Y49.319 E.13571
G1 X125.284 Y52.712 E.51578
G1 X124.391 Y52.712 E.13571
G1 X124.391 Y48.917 E.57685
G1 X123.003 Y52.521 F7800
;TYPE:Support material
G1 F1248
G1 X123.003 Y49.373 E.47862
G1 X100.254 Y49.373 E3.45841
G1 X100.254 Y52.658 E.49946
G1 X123.003 Y52.658 E3.45841
G1 E-.7 F3600
;WIPE_START
G1 F6240
G1 X122.483 Y52.658 E-.285
;WIPE_END
G1 E-.015 F3600
G1 X137.056 Y56.104 F7800
G1 E1 F2400
G1 F1248
G1 X131.6 Y56.104 E.82942
G1 X131.6 Y56.97 E.1316
G1 X111.244 Y56.97 E3.09466
G1 X111.244 Y59.497 E.38418
G1 X136.654 Y59.497 E3.863
G1 X136.654 Y62.89 E.51578
G1 X104.459 Y62.89 E4.89456
G1 X104.459 Y65.417 E.38417
G1 X128.208 Y65.417 E3.61043
G1 X128.208 Y66.282 E.1316
G1 X137.056 Y66.282 E1.34519
G1 X137.466 Y69.484 F7800
G1 F1248
G1 X137.466 Y52.765 E2.54172
G1 X136.975 Y52.765 E.07467
G1 X136.975 Y52.884 E.01803
G1 X135.962 Y53.459 E.17704
G1 X135.074 Y52.928 E.15737
G1 X135.074 Y53.658 E.11098
G1 X130.788 Y53.658 E.65149
G1 X130.788 Y56.158 E.38006
M73 P2 R116
G1 X110.432 Y56.158 E3.09466
G1 X110.432 Y59.551 E.51578
G1 X103.647 Y59.551 E1.03155
G1 X103.647 Y66.229 E1.01524
G1 X127.396 Y66.229 E3.61043
G1 X127.396 Y69.622 E.51578
G1 X137.466 Y69.622 E1.53102
G1 E-.7 F3600
;WIPE_START
G1 F6240
G1 X136.946 Y69.622 E-.285
;WIPE_END
G1 E-.015 F3600
G1 X137.056 Y127.351 F7800
G1 E1 F2400
G1 F1248
G1 X134.993 Y127.351 E.31364
G1 X134.993 Y130.744 E.51578
G1 X137.056 Y130.744 E.31364
G1 X137.466 Y133.946 F7800
G1 F1248
G1 X137.466 Y124.012 E1.51017
G1 X134.181 Y124.012 E.49946
G1 X134.181 Y134.083 E1.53102
G1 X137.466 Y134.083 E.49946
;LAYER_CHANGE
;Z:0.85
;HEIGHT:0.1
;BEFORE_LAYER_CHANGE
G92 E0
;0.85


G1 E-.7 F3600
;WIPE_START
G1 F6240
G1 X136.946 Y134.083 E-.285
;WIPE_END
G1 E-.015 F3600
G1 Z.85 F7800
;AFTER_LAYER_CHANGE
;0.85
G1 X135.619 Y50.197
G1 E1 F2400
;TYPE:External perimeter
;WIDTH:0.957301
;HEIGHT:0.5
G1 F1248
G1 X135.581 Y50.263 E.01346
;TYPE:Overhang perimeter
;WIDTH:1
;HEIGHT:1
G1 F1145.916
G1 X135.566 Y50.289 E.00981
G1 X135.46 Y50.289 E.03469
G1 X135.406 Y50.197 E.03469
G1 X135.423 Y50.169 E.0107
;TYPE:External perimeter
;WIDTH:0.957301
;HEIGHT:0.5
G1 F1248
G1 X135.46 Y50.105 E.01298
G1 X135.566 Y50.105 E.01877
;LAYER_CHANGE
;Z:1.15
;HEIGHT:0.3
;BEFORE_LAYER_CHANGE
G92 E0
;1.15


G1 E-.7 F3600
;WIPE_START
G1 F6240
G1 X135.46 Y50.105 E-.05823
G1 X135.423 Y50.169 E-.04028
;WIPE_END
G1 E-.20149 F3600
G1 Z1.15 F7800
;AFTER_LAYER_CHANGE
;1.15
G1 X135.845 Y53.388
G1 E1 F2400
;TYPE:Support material
;WIDTH:1
;HEIGHT:0.4
G1 F1299
G1 X135.074 Y52.928 E.13653
G1 X135.074 Y53.658 E.11098
G1 X130.788 Y53.658 E.65149
G1 X130.788 Y56.158 E.38006
G1 X110.432 Y56.158 E3.09466
G1 X110.432 Y59.551 E.51578
G1 X103.647 Y59.551 E1.03155
G1 X103.647 Y66.229 E1.01524
G1 X127.396 Y66.229 E3.61043
G1 X127.396 Y69.622 E.51578
G1 X137.466 Y69.622 E1.53102
G1 X137.466 Y60.443 E1.3953
G1 X133.181 Y60.443 E.65149
G1 X133.181 Y54.501 E.90345
G1 X135.469 Y55.867 E.40512
G1 X135.975 Y55.58 E.08852
G1 X135.975 Y53.452 E.32351
G1 X135.962 Y53.459 E.00223
G1 E-.7 F3600
;WIPE_START
