; generated by PrusaSlicer 2.5.0+win64 on 2022-12-07 at 00:27:49 UTC

; 

; external perimeters extrusion width = 1.00mm
; perimeters extrusion width = 1.00mm
; infill extrusion width = 1.00mm
; solid infill extrusion width = 1.00mm
; top infill extrusion width = 1.00mm
; support material extrusion width = 1.00mm
; first layer extrusion width = 0.42mm

M73 P0 R207
M107
;TYPE:Custom
G90 ; use absolute coordinates
M83 ; extruder relative mode
M140 S60 ; set final bed temp
M104 S150 ; set temporary nozzle temp to prevent oozing during homing and auto bed leveling
G4 S10 ; allow partial nozzle warmup
G28 ; home all axisG1 Z50 F240
G1 X7.6 Y10 F3000
M104 S210 ; set final nozzle temp
M190 S60 ; wait for bed temp to stabilize
M109 S210 ; wait for nozzle temp to stabilize
G1 Z0.28 F240
G92 E0
G1 Y140 E10 F1500 ; prime the nozzle
G1 X4 F5000
G92 E0
G1 Y10 E10 F1200 ; prime the nozzle
G92 E0
G21 ; set units to millimeters
G90 ; use absolute coordinates
M83 ; use relative distances for extrusion
; Filament gcode
M107
;LAYER_CHANGE
;Z:0.35
;HEIGHT:0.35
;BEFORE_LAYER_CHANGE
G92 E0
;0.35


G1 E-1 F3600
G1 Z.35 F7800
;AFTER_LAYER_CHANGE
;0.35
G1 X89.547 Y98.013
G1 E1 F2400
;TYPE:Perimeter
;WIDTH:0.42
G1 F1800
G1 X89.555 Y98.173 E.00803
G1 X89.692 Y98.39 E.01291
G1 X115.185 Y122.433 E1.75861
G1 X116.346 Y123.703 E.08637
G1 X116.827 Y124.264 E.03705
G1 X124.498 Y133.473 E.60153
G1 X125.524 Y134.758 E.0825
G1 X104.656 Y134.758 E1.04727
G1 X102.676 Y132.378 E.15536
G1 X76.868 Y108.047 E1.78004
G1 X71.609 Y98.086 E.56534
G1 X78.344 Y68.506 E1.52246
G1 X79.509 Y66.063 E.13581
G1 X87.93 Y58.583 E.56529
G1 X88.088 Y58.325 E.01517
G1 X88.088 Y58.07 E.01278
G1 X87.966 Y57.845 E.01289
G1 X84.951 Y54.596 E.22241
G1 X85.926 Y54.323 E.05078
G1 X162.495 Y52.29 E3.84405
G1 X162.495 Y66.172 E.69668
G1 X100.663 Y67.815 E3.1042
G1 X100.574 Y67.826 E.0045
G1 X100.335 Y67.944 E.01336
G1 X95.433 Y72.305 E.3293
G1 X95.272 Y72.577 E.01587
G1 X89.55 Y97.864 E1.30112
G1 X89.876 Y97.993 F7800
;TYPE:External perimeter
G1 F1800
G1 X89.929 Y98.139 E.00783
G1 X115.431 Y122.191 E1.75925
G1 X116.605 Y123.474 E.0873
G1 X117.09 Y124.041 E.03745
G1 X124.765 Y133.255 E.60182
G1 X126.241 Y135.103 E.11866
G1 X104.494 Y135.103 E1.09137
G1 X102.439 Y132.629 E.16139
G1 X76.59 Y108.259 E1.78291
G1 X71.244 Y98.134 E.57462
G1 X78.016 Y68.392 E1.53079
G1 X79.227 Y65.852 E.14124
G1 X87.701 Y58.325 E.56879
G1 X87.758 Y58.216 E.00619
G1 X87.713 Y58.079 E.00723
G1 X84.585 Y54.708 E.23082
G1 X84.295 Y54.421 E.02043
G1 X85.874 Y53.979 E.08227
G1 X162.84 Y51.936 E3.86397
G1 X162.84 Y66.508 E.73131
G1 X100.672 Y68.16 E3.12105
G1 X100.563 Y68.203 E.00589
G1 X95.662 Y72.563 E.32919
G1 X95.608 Y72.654 E.00529
G1 X89.908 Y97.846 E1.29628
G1 X89.754 Y98.091 F7800
G1 E-.7 F3600
;WIPE_START
G1 F6240
G1 X89.929 Y98.139 E-.16112
G1 X90.093 Y98.295 E-.12388
;WIPE_END
G1 E-.015 F3600
G1 X162.392 Y53.094 F7800
G1 E1 F2400
;TYPE:Solid infill
;WIDTH:0.420314
G1 F1800
G1 X161.864 Y52.566 E.03752
G1 X161.388 Y52.578 E.0239
G1 X162.236 Y53.427 E.06028
G1 X162.236 Y53.915 E.02452
G1 X160.912 Y52.591 E.09406
G1 X160.437 Y52.604 E.0239
G1 X162.236 Y54.403 E.12784
G1 X162.236 Y54.892 E.02452
G1 X159.961 Y52.616 E.16163
G1 X159.486 Y52.629 E.0239
G1 X162.236 Y55.38 E.19541
G1 X162.236 Y55.868 E.02452
G1 X159.01 Y52.642 E.22919
G1 X158.535 Y52.654 E.0239
G1 X162.236 Y56.356 E.26298
G1 X162.236 Y56.844 E.02452
G1 X158.059 Y52.667 E.29676
G1 X157.583 Y52.679 E.0239
G1 X162.236 Y57.332 E.33054
G1 X162.236 Y57.821 E.02452
G1 X157.108 Y52.692 E.36433
G1 X156.632 Y52.705 E.0239
G1 X162.236 Y58.309 E.39811
G1 X162.236 Y58.797 E.02452
G1 X156.157 Y52.717 E.43189
G1 X155.681 Y52.73 E.0239
G1 X162.236 Y59.285 E.46568
G1 X162.236 Y59.773 E.02452
G1 X155.206 Y52.743 E.49946
G1 X154.73 Y52.755 E.0239
G1 X162.236 Y60.262 E.53324
G1 X162.236 Y60.75 E.02452
G1 X154.254 Y52.768 E.56703
G1 X153.779 Y52.78 E.0239
G1 X162.236 Y61.238 E.60081
G1 X162.236 Y61.726 E.02452
G1 X153.303 Y52.793 E.63459
G1 X152.828 Y52.806 E.0239
G1 X162.236 Y62.214 E.66838
G1 X162.236 Y62.703 E.02452
G1 X152.352 Y52.818 E.70216
G1 X151.877 Y52.831 E.0239
G1 X162.236 Y63.191 E.73594
G1 X162.236 Y63.679 E.02452
G1 X151.401 Y52.844 E.76973
G1 X150.926 Y52.856 E.0239
G1 X162.236 Y64.167 E.80351
G1 X162.236 Y64.655 E.02452
G1 X150.45 Y52.869 E.83729
G1 X149.974 Y52.881 E.0239
G1 X162.236 Y65.144 E.87108
G1 X162.236 Y65.632 E.02452
G1 X149.499 Y52.894 E.90486
G1 X149.023 Y52.907 E.0239
G1 X162.042 Y65.926 E.92484
G1 X161.567 Y65.938 E.02389
G1 X148.548 Y52.919 E.92484
G1 X148.072 Y52.932 E.0239
G1 X161.091 Y65.951 E.92484
G1 X160.616 Y65.964 E.02389
M73 P0 R206
G1 X147.597 Y52.945 E.92485
G1 X147.121 Y52.957 E.0239
G1 X160.14 Y65.976 E.92485
G1 X159.665 Y65.989 E.02389
G1 X146.645 Y52.97 E.92485
G1 X146.17 Y52.982 E.0239
G1 X159.189 Y66.002 E.92485
G1 X158.713 Y66.014 E.02389
G1 X145.694 Y52.995 E.92486
G1 X145.219 Y53.008 E.0239
G1 X158.238 Y66.027 E.92486
G1 X157.762 Y66.04 E.02389
G1 X144.743 Y53.02 E.92486
G1 X144.268 Y53.033 E.0239
G1 X157.287 Y66.052 E.92487
G1 X156.811 Y66.065 E.02389
G1 X143.792 Y53.046 E.92487
G1 X143.316 Y53.058 E.0239
G1 X156.336 Y66.078 E.92487
G1 X155.86 Y66.09 E.02389
G1 X142.841 Y53.071 E.92487
G1 X142.365 Y53.083 E.0239
G1 X155.385 Y66.103 E.92488
G1 X154.909 Y66.116 E.02389
G1 X141.89 Y53.096 E.92488
G1 X141.414 Y53.109 E.0239
G1 X154.434 Y66.128 E.92488
G1 X153.958 Y66.141 E.02389
G1 X140.939 Y53.121 E.92489
G1 X140.463 Y53.134 E.0239
G1 X153.483 Y66.154 E.92489
G1 X153.007 Y66.166 E.02389
G1 X139.988 Y53.147 E.92489
G1 X139.512 Y53.159 E.0239
G1 X152.532 Y66.179 E.9249
G1 X152.056 Y66.192 E.02389
G1 X139.036 Y53.172 E.9249
G1 X138.561 Y53.184 E.0239
G1 X151.581 Y66.204 E.9249
G1 X151.105 Y66.217 E.02389
G1 X138.085 Y53.197 E.9249
G1 X137.61 Y53.21 E.0239
G1 X150.63 Y66.23 E.92491
G1 X150.154 Y66.242 E.02389
G1 X137.134 Y53.222 E.92491
G1 X136.659 Y53.235 E.0239
G1 X149.678 Y66.255 E.92491
G1 X149.203 Y66.268 E.02389
G1 X136.183 Y53.248 E.92492
G1 X135.707 Y53.26 E.0239
G1 X148.727 Y66.28 E.92492
G1 X148.252 Y66.293 E.02389
G1 X135.232 Y53.273 E.92492
G1 X134.756 Y53.285 E.0239
G1 X147.776 Y66.306 E.92492
G1 X147.301 Y66.318 E.02389
G1 X134.281 Y53.298 E.92493
G1 X133.805 Y53.311 E.0239
G1 X146.825 Y66.331 E.92493
G1 X146.35 Y66.344 E.02389
G1 X133.33 Y53.323 E.92493
G1 X132.854 Y53.336 E.0239
G1 X145.874 Y66.356 E.92494
G1 X145.399 Y66.369 E.02389
G1 X132.378 Y53.349 E.92494
G1 X131.903 Y53.361 E.0239
G1 X144.923 Y66.382 E.92494
G1 X144.448 Y66.394 E.02389
G1 X131.427 Y53.374 E.92494
G1 X130.952 Y53.386 E.0239
G1 X143.972 Y66.407 E.92495
G1 X143.497 Y66.42 E.02389
G1 X130.476 Y53.399 E.92495
G1 X130.001 Y53.412 E.0239
G1 X143.021 Y66.432 E.92495
G1 X142.546 Y66.445 E.02389
G1 X129.525 Y53.424 E.92496
G1 X129.049 Y53.437 E.0239
G1 X142.07 Y66.458 E.92496
G1 X141.595 Y66.47 E.02389
G1 X128.574 Y53.45 E.92496
G1 X128.098 Y53.462 E.0239
G1 X141.119 Y66.483 E.92496
G1 X140.643 Y66.496 E.02389
G1 X127.623 Y53.475 E.92497
G1 X127.147 Y53.487 E.0239
G1 X140.168 Y66.508 E.92497
G1 X139.692 Y66.521 E.02389
G1 X126.672 Y53.5 E.92497
G1 X126.196 Y53.513 E.0239
G1 X139.217 Y66.534 E.92498
G1 X138.741 Y66.546 E.02389
G1 X125.721 Y53.525 E.92498
G1 X125.245 Y53.538 E.0239
G1 X138.266 Y66.559 E.92498
G1 X137.79 Y66.572 E.02389
G1 X124.769 Y53.551 E.92498
G1 X124.294 Y53.563 E.0239
G1 X137.315 Y66.584 E.92499
G1 X136.839 Y66.597 E.02389
G1 X123.818 Y53.576 E.92499
G1 X123.343 Y53.588 E.0239
G1 X136.364 Y66.61 E.92499
G1 X135.888 Y66.622 E.02389
G1 X122.867 Y53.601 E.925
G1 X122.392 Y53.614 E.0239
G1 X135.413 Y66.635 E.925
G1 X134.937 Y66.647 E.02389
G1 X121.916 Y53.626 E.925
G1 X121.44 Y53.639 E.0239
G1 X134.462 Y66.66 E.925
G1 X133.986 Y66.673 E.02389
G1 X120.965 Y53.652 E.92501
G1 X120.489 Y53.664 E.0239
G1 X133.511 Y66.685 E.92501
G1 X133.035 Y66.698 E.02389
G1 X120.014 Y53.677 E.92501
G1 X119.538 Y53.689 E.0239
G1 X132.56 Y66.711 E.92502
G1 X132.084 Y66.723 E.02389
G1 X119.063 Y53.702 E.92502
G1 X118.587 Y53.715 E.0239
G1 X131.609 Y66.736 E.92502
G1 X131.133 Y66.749 E.02389
G1 X118.111 Y53.727 E.92502
G1 X117.636 Y53.74 E.0239
G1 X130.657 Y66.761 E.92503
G1 X130.182 Y66.774 E.02389
G1 X117.16 Y53.753 E.92503
G1 X116.685 Y53.765 E.0239
G1 X129.706 Y66.787 E.92503
G1 X129.231 Y66.799 E.02389
G1 X116.209 Y53.778 E.92504
G1 X115.734 Y53.79 E.0239
G1 X128.755 Y66.812 E.92504
G1 X128.28 Y66.825 E.02389
G1 X115.258 Y53.803 E.92504
G1 X114.782 Y53.816 E.0239
G1 X127.804 Y66.837 E.92505
G1 X127.329 Y66.85 E.02389
G1 X114.307 Y53.828 E.92505
G1 X113.831 Y53.841 E.0239
G1 X126.853 Y66.863 E.92505
G1 X126.378 Y66.875 E.02389
G1 X113.356 Y53.854 E.92505
G1 X112.88 Y53.866 E.0239
G1 X125.902 Y66.888 E.92506
G1 X125.427 Y66.901 E.02389
G1 X112.405 Y53.879 E.92506
G1 X111.929 Y53.891 E.0239
G1 X124.951 Y66.913 E.92506
G1 X124.476 Y66.926 E.02389
G1 X111.454 Y53.904 E.92507
G1 X110.978 Y53.917 E.0239
G1 X124 Y66.939 E.92507
G1 X123.525 Y66.951 E.02389
G1 X110.502 Y53.929 E.92507
G1 X110.027 Y53.942 E.0239
G1 X123.049 Y66.964 E.92507
G1 X122.574 Y66.977 E.02389
G1 X109.551 Y53.955 E.92508
G1 X109.076 Y53.967 E.0239
G1 X122.098 Y66.989 E.92508
G1 X121.622 Y67.002 E.02389
G1 X108.6 Y53.98 E.92508
G1 X108.125 Y53.992 E.0239
G1 X121.147 Y67.015 E.92509
G1 X120.671 Y67.027 E.02389
G1 X107.649 Y54.005 E.92509
G1 X107.173 Y54.018 E.0239
G1 X120.196 Y67.04 E.92509
G1 X119.72 Y67.053 E.02389
G1 X106.698 Y54.03 E.92509
G1 X106.222 Y54.043 E.0239
G1 X119.245 Y67.065 E.9251
G1 X118.769 Y67.078 E.02389
G1 X105.747 Y54.056 E.9251
G1 X105.271 Y54.068 E.0239
M73 P0 R205
G1 X118.294 Y67.091 E.9251
G1 X117.818 Y67.103 E.02389
G1 X104.796 Y54.081 E.92511
G1 X104.32 Y54.093 E.0239
G1 X117.343 Y67.116 E.92511
G1 X116.867 Y67.129 E.02389
G1 X103.844 Y54.106 E.92511
G1 X103.369 Y54.119 E.0239
G1 X116.392 Y67.141 E.92511
G1 X115.916 Y67.154 E.02389
G1 X102.893 Y54.131 E.92512
G1 X102.418 Y54.144 E.0239
G1 X115.441 Y67.167 E.92512
G1 X114.965 Y67.179 E.02389
G1 X101.942 Y54.157 E.92512
G1 X101.467 Y54.169 E.0239
G1 X114.49 Y67.192 E.92513
G1 X114.014 Y67.205 E.02389
G1 X100.991 Y54.182 E.92513
G1 X100.516 Y54.194 E.0239
G1 X113.539 Y67.217 E.92513
G1 X113.063 Y67.23 E.02389
G1 X100.04 Y54.207 E.92513
G1 X99.564 Y54.22 E.0239
G1 X112.587 Y67.243 E.92514
G1 X112.112 Y67.255 E.02389
G1 X99.089 Y54.232 E.92514
G1 X98.613 Y54.245 E.0239
G1 X111.636 Y67.268 E.92514
G1 X111.161 Y67.281 E.02389
G1 X98.138 Y54.258 E.92515
G1 X97.662 Y54.27 E.0239
G1 X110.685 Y67.293 E.92515
G1 X110.21 Y67.306 E.02389
G1 X97.187 Y54.283 E.92515
G1 X96.711 Y54.295 E.0239
G1 X109.734 Y67.319 E.92515
G1 X109.259 Y67.331 E.02389
G1 X96.235 Y54.308 E.92516
G1 X95.76 Y54.321 E.0239
M73 P1 R205
G1 X108.783 Y67.344 E.92516
G1 X108.308 Y67.357 E.02389
G1 X95.284 Y54.333 E.92516
G1 X94.809 Y54.346 E.0239
G1 X107.832 Y67.369 E.92517
G1 X107.357 Y67.382 E.02389
G1 X94.333 Y54.359 E.92517
G1 X93.858 Y54.371 E.0239
G1 X106.881 Y67.395 E.92517
G1 X106.406 Y67.407 E.02389
G1 X93.382 Y54.384 E.92517
G1 X92.906 Y54.396 E.0239
G1 X105.93 Y67.42 E.92518
G1 X105.455 Y67.433 E.02389
G1 X92.431 Y54.409 E.92518
G1 X91.955 Y54.422 E.0239
G1 X104.979 Y67.445 E.92518
G1 X104.504 Y67.458 E.02389
G1 X91.48 Y54.434 E.92519
G1 X91.004 Y54.447 E.0239
G1 X104.028 Y67.471 E.92519
G1 X103.552 Y67.483 E.02389
G1 X90.529 Y54.46 E.92519
G1 X90.053 Y54.472 E.0239
G1 X103.077 Y67.496 E.9252
G1 X102.601 Y67.509 E.02389
G1 X89.577 Y54.485 E.9252
G1 X89.102 Y54.497 E.0239
G1 X102.126 Y67.521 E.9252
G1 X101.65 Y67.534 E.02389
G1 X88.626 Y54.51 E.9252
G1 X88.151 Y54.523 E.0239
G1 X101.175 Y67.547 E.92521
G1 X100.699 Y67.559 E.02389
G1 X87.675 Y54.535 E.92521
G1 X87.2 Y54.548 E.0239
G1 X100.307 Y67.656 E.93114
G1 X100.169 Y67.746 E.00828
G1 X100.031 Y67.868 E.00925
G1 X86.724 Y54.561 E.94533
G1 X86.249 Y54.573 E.0239
G1 X99.773 Y68.098 E.96076
G1 X99.515 Y68.328 E.01737
G1 X85.811 Y54.624 E.9735
G1 X85.43 Y54.731 E.0199
G1 X99.256 Y68.557 E.98224
G1 X98.998 Y68.787 E.01737
G1 X88.361 Y58.15 E.75565
G1 X88.339 Y58.39 E.0121
G1 X88.271 Y58.548 E.00865
G1 X98.74 Y69.017 E.7437
G1 X98.481 Y69.247 E.01737
G1 X88.054 Y58.819 E.74076
G1 X87.795 Y59.049 E.01737
G1 X98.223 Y69.477 E.74077
G1 X97.965 Y69.707 E.01737
G1 X87.537 Y59.279 E.74078
G1 X87.278 Y59.508 E.01737
G1 X97.706 Y69.936 E.7408
G1 X97.448 Y70.166 E.01737
G1 X87.02 Y59.738 E.74081
G1 X86.761 Y59.968 E.01737
G1 X97.19 Y70.396 E.74082
G1 X96.931 Y70.626 E.01737
G1 X86.502 Y60.197 E.74084
G1 X86.244 Y60.427 E.01737
G1 X96.673 Y70.856 E.74085
G1 X96.414 Y71.086 E.01737
G1 X85.985 Y60.657 E.74086
G1 X85.727 Y60.886 E.01737
G1 X96.156 Y71.315 E.74087
G1 X95.898 Y71.545 E.01737
G1 X85.468 Y61.116 E.74089
G1 X85.21 Y61.345 E.01737
G1 X95.639 Y71.775 E.7409
G1 X95.381 Y72.005 E.01737
G1 X84.951 Y61.575 E.74091
G1 X84.693 Y61.805 E.01737
G1 X95.145 Y72.258 E.74255
G1 X95.089 Y72.33 E.00463
G1 X95.001 Y72.602 E.01433
G1 X84.434 Y62.034 E.75068
G1 X84.176 Y62.264 E.01737
G1 X94.911 Y73 E.76264
G1 X94.821 Y73.398 E.0205
G1 X83.917 Y62.494 E.77461
G1 X83.659 Y62.723 E.01737
G1 X94.731 Y73.796 E.78658
G1 X94.641 Y74.194 E.0205
G1 X83.4 Y62.953 E.79855
G1 X83.141 Y63.183 E.01737
G1 X94.551 Y74.592 E.81051
G1 X94.461 Y74.99 E.0205
G1 X82.883 Y63.412 E.82248
G1 X82.624 Y63.642 E.01737
G1 X94.371 Y75.388 E.83445
G1 X94.281 Y75.787 E.0205
G1 X82.366 Y63.872 E.84642
G1 X82.107 Y64.101 E.01737
G1 X94.191 Y76.185 E.85838
G1 X94.101 Y76.583 E.0205
G1 X81.849 Y64.331 E.87035
G1 X81.59 Y64.561 E.01737
G1 X94.01 Y76.981 E.88232
G1 X93.92 Y77.379 E.0205
G1 X81.332 Y64.79 E.89428
G1 X81.073 Y65.02 E.01737
G1 X93.83 Y77.777 E.90625
G1 X93.74 Y78.175 E.0205
G1 X80.815 Y65.249 E.91822
G1 X80.556 Y65.479 E.01737
G1 X93.65 Y78.573 E.93019
G1 X93.56 Y78.971 E.0205
G1 X80.297 Y65.709 E.94215
G1 X80.039 Y65.938 E.01737
G1 X93.47 Y79.369 E.95412
G1 X93.38 Y79.768 E.0205
G1 X79.78 Y66.168 E.96609
G1 X79.72 Y66.222 E.00409
G1 X79.599 Y66.475 E.01407
G1 X93.29 Y80.166 E.97257
G1 X93.2 Y80.564 E.0205
G1 X79.441 Y66.805 E.97737
G1 X79.284 Y67.136 E.0184
G1 X93.11 Y80.962 E.98216
G1 X93.02 Y81.36 E.0205
G1 X79.126 Y67.467 E.98696
G1 X78.969 Y67.797 E.0184
G1 X92.93 Y81.758 E.99175
G1 X92.839 Y82.156 E.0205
G1 X78.811 Y68.128 E.99655
G1 X78.653 Y68.458 E.0184
G1 X92.749 Y82.554 E1.00134
G1 X92.659 Y82.952 E.0205
G1 X78.536 Y68.829 E1.0033
G1 X78.445 Y69.227 E.02049
G1 X92.569 Y83.351 E1.00333
G1 X92.479 Y83.749 E.0205
G1 X78.355 Y69.624 E1.00336
G1 X78.264 Y70.022 E.02049
G1 X92.389 Y84.147 E1.0034
G1 X92.299 Y84.545 E.0205
G1 X78.174 Y70.42 E1.00343
G1 X78.083 Y70.817 E.02049
G1 X92.209 Y84.943 E1.00346
G1 X92.119 Y85.341 E.0205
G1 X77.993 Y71.215 E1.00349
G1 X77.902 Y71.613 E.02049
G1 X92.029 Y85.739 E1.00353
G1 X91.939 Y86.137 E.0205
M73 P1 R204
G1 X77.812 Y72.01 E1.00356
G1 X77.721 Y72.408 E.02049
G1 X91.849 Y86.535 E1.00359
G1 X91.758 Y86.934 E.0205
G1 X77.63 Y72.806 E1.00363
G1 X77.54 Y73.203 E.02049
G1 X91.668 Y87.332 E1.00366
G1 X91.578 Y87.73 E.0205
G1 X77.449 Y73.601 E1.00369
G1 X77.359 Y73.999 E.02049
G1 X91.488 Y88.128 E1.00373
G1 X91.398 Y88.526 E.0205
G1 X77.268 Y74.396 E1.00376
G1 X77.178 Y74.794 E.02049
G1 X91.308 Y88.924 E1.00379
G1 X91.218 Y89.322 E.0205
G1 X77.087 Y75.191 E1.00382
G1 X76.997 Y75.589 E.02049
G1 X91.128 Y89.72 E1.00386
G1 X91.038 Y90.118 E.0205
G1 X76.906 Y75.987 E1.00389
G1 X76.816 Y76.384 E.02049
G1 X90.948 Y90.517 E1.00392
G1 X90.858 Y90.915 E.0205
G1 X76.725 Y76.782 E1.00396
G1 X76.634 Y77.18 E.02049
G1 X90.768 Y91.313 E1.00399
G1 X90.677 Y91.711 E.0205
G1 X76.544 Y77.577 E1.00402
G1 X76.453 Y77.975 E.02049
G1 X90.587 Y92.109 E1.00405
G1 X90.497 Y92.507 E.0205
G1 X76.363 Y78.373 E1.00409
G1 X76.272 Y78.77 E.02049
G1 X90.407 Y92.905 E1.00412
G1 X90.317 Y93.303 E.0205
G1 X76.182 Y79.168 E1.00415
G1 X76.091 Y79.566 E.02049
G1 X90.227 Y93.701 E1.00419
G1 X90.137 Y94.1 E.0205
G1 X76.001 Y79.963 E1.00422
G1 X75.91 Y80.361 E.02049
G1 X90.047 Y94.498 E1.00425
G1 X89.957 Y94.896 E.0205
G1 X75.82 Y80.758 E1.00429
G1 X75.729 Y81.156 E.02049
G1 X89.867 Y95.294 E1.00432
G1 X89.777 Y95.692 E.0205
G1 X75.638 Y81.554 E1.00435
G1 X75.548 Y81.951 E.02049
G1 X89.687 Y96.09 E1.00438
