; generated by PrusaSlicer 2.5.0+win64 on 2022-12-07 at 00:27:57 UTC

; 

; external perimeters extrusion width = 1.00mm
; perimeters extrusion width = 1.00mm
; infill extrusion width = 1.00mm
; solid infill extrusion width = 1.00mm
; top infill extrusion width = 1.00mm
; support material extrusion width = 1.00mm
; first layer extrusion width = 0.42mm

M73 P0 R196
M107
;TYPE:Custom
G90 ; use absolute coordinates
M83 ; extruder relative mode
M140 S60 ; set final bed temp
M104 S150 ; set temporary nozzle temp to prevent oozing during homing and auto bed leveling
G4 S10 ; allow partial nozzle warmup
G28 ; home all axisG1 Z50 F240
G1 X7.6 Y10 F3000
M104 S210 ; set final nozzle temp
M190 S60 ; wait for bed temp to stabilize
M109 S210 ; wait for nozzle temp to stabilize
G1 Z0.28 F240
G92 E0
G1 Y140 E10 F1500 ; prime the nozzle
G1 X4 F5000
G92 E0
G1 Y10 E10 F1200 ; prime the nozzle
G92 E0
G21 ; set units to millimeters
G90 ; use absolute coordinates
M83 ; use relative distances for extrusion
; Filament gcode
M107
;LAYER_CHANGE
;Z:0.35
;HEIGHT:0.35
;BEFORE_LAYER_CHANGE
G92 E0
;0.35


G1 E-1 F3600
G1 Z.35 F7800
;AFTER_LAYER_CHANGE
;0.35
G1 X87.601 Y32.149
G1 E1 F2400
;TYPE:Perimeter
;WIDTH:0.42
G1 F1800
G1 X87.749 Y32.038 E.00932
G1 X87.852 Y31.816 E.01225
G1 X88.471 Y28.717 E.15862
G1 X90.5 Y17.295 E.58218
G1 X105.944 Y17.295 E.77508
G1 X99.783 Y51.85 E1.76152
G1 X80.562 Y48.633 E.97803
G1 X59.737 Y41.645 E1.10239
G1 X24.471 Y20.991 E2.05104
G1 X24.471 Y17.295 E.1855
G1 X53.85 Y17.295 E1.47442
G1 X70.704 Y27.096 E.97844
G1 X84.571 Y31.734 E.73383
G1 X87.253 Y32.224 E.13684
G1 X87.466 Y32.204 E.01076
G1 X87.423 Y31.869 F7800
;TYPE:External perimeter
G1 F1800
G1 X87.514 Y31.749 E.00754
G1 X88.133 Y28.646 E.1588
G1 X90.211 Y16.95 E.59614
G1 X106.356 Y16.95 E.81025
G1 X100.062 Y52.246 E1.79932
G1 X80.478 Y48.968 E.99652
G1 X59.593 Y41.961 E1.10555
G1 X24.126 Y21.189 E2.06275
G1 X24.126 Y16.95 E.21273
G1 X53.943 Y16.95 E1.4964
G1 X70.813 Y26.769 E.97961
G1 X84.68 Y31.407 E.73382
G1 X87.275 Y31.878 E.13235
G1 X87.553 Y31.945 F7800
G1 E-.7 F3600
;WIPE_START
G1 F6240
G1 X87.514 Y31.749 E-.14877
G1 X87.563 Y31.505 E-.13623
;WIPE_END
G1 E-.015 F3600
G1 X105.123 Y17.398 F7800
G1 E1 F2400
;TYPE:Solid infill
;WIDTH:0.421897
G1 F1800
G1 X105.581 Y17.857 E.03272
G1 X105.507 Y18.273 E.02133
G1 X104.787 Y17.554 E.05135
G1 X104.297 Y17.554 E.02475
G1 X105.433 Y18.689 E.08105
G1 X105.358 Y19.106 E.02133
G1 X103.806 Y17.554 E.11075
G1 X103.316 Y17.554 E.02475
G1 X105.284 Y19.522 E.14045
G1 X105.21 Y19.938 E.02133
G1 X102.826 Y17.554 E.17016
G1 X102.335 Y17.554 E.02475
G1 X105.136 Y20.354 E.19986
G1 X105.062 Y20.77 E.02133
G1 X101.845 Y17.554 E.22956
G1 X101.354 Y17.554 E.02475
G1 X104.987 Y21.187 E.25927
G1 X104.913 Y21.603 E.02133
G1 X100.864 Y17.554 E.28897
G1 X100.373 Y17.554 E.02475
G1 X104.839 Y22.019 E.31867
G1 X104.765 Y22.435 E.02133
G1 X99.883 Y17.554 E.34837
G1 X99.393 Y17.554 E.02475
G1 X104.69 Y22.851 E.37808
G1 X104.616 Y23.268 E.02133
G1 X98.902 Y17.554 E.40778
G1 X98.412 Y17.554 E.02475
G1 X104.542 Y23.684 E.43748
G1 X104.468 Y24.1 E.02133
G1 X97.921 Y17.554 E.46719
G1 X97.431 Y17.554 E.02475
G1 X104.394 Y24.516 E.49689
G1 X104.319 Y24.933 E.02133
G1 X96.94 Y17.554 E.52659
G1 X96.45 Y17.554 E.02475
G1 X104.245 Y25.349 E.55629
G1 X104.171 Y25.765 E.02133
G1 X95.96 Y17.554 E.586
G1 X95.469 Y17.554 E.02475
G1 X104.097 Y26.181 E.6157
G1 X104.023 Y26.597 E.02133
G1 X94.979 Y17.554 E.6454
G1 X94.488 Y17.554 E.02475
G1 X103.948 Y27.014 E.6751
G1 X103.874 Y27.43 E.02133
G1 X93.998 Y17.554 E.70481
G1 X93.507 Y17.554 E.02475
G1 X103.8 Y27.846 E.73451
G1 X103.726 Y28.262 E.02133
G1 X93.017 Y17.554 E.76421
G1 X92.527 Y17.554 E.02475
G1 X103.651 Y28.678 E.79392
G1 X103.577 Y29.095 E.02133
G1 X92.036 Y17.554 E.82362
G1 X91.546 Y17.554 E.02475
G1 X103.503 Y29.511 E.85332
G1 X103.429 Y29.927 E.02133
G1 X91.055 Y17.554 E.88302
G1 X90.717 Y17.554 E.01709
G1 X90.694 Y17.682 E.0066
G1 X103.355 Y30.343 E.90353
G1 X103.28 Y30.76 E.02133
G1 X90.62 Y18.099 E.90351
G1 X90.546 Y18.515 E.02134
G1 X103.206 Y31.176 E.9035
G1 X103.132 Y31.592 E.02133
G1 X90.472 Y18.932 E.90348
G1 X90.398 Y19.348 E.02134
G1 X103.058 Y32.008 E.90346
G1 X102.984 Y32.424 E.02133
G1 X90.324 Y19.765 E.90344
G1 X90.25 Y20.181 E.02134
G1 X102.909 Y32.841 E.90343
G1 X102.835 Y33.257 E.02133
G1 X90.176 Y20.598 E.90341
G1 X90.102 Y21.014 E.02134
G1 X102.761 Y33.673 E.90339
G1 X102.687 Y34.089 E.02133
G1 X90.028 Y21.431 E.90337
G1 X89.954 Y21.847 E.02134
G1 X102.612 Y34.505 E.90336
G1 X102.538 Y34.922 E.02133
G1 X89.88 Y22.263 E.90334
G1 X89.806 Y22.68 E.02134
G1 X102.464 Y35.338 E.90332
G1 X102.39 Y35.754 E.02133
G1 X89.732 Y23.096 E.9033
G1 X89.658 Y23.513 E.02134
G1 X102.316 Y36.17 E.90329
G1 X102.241 Y36.587 E.02133
G1 X89.584 Y23.929 E.90327
G1 X89.51 Y24.346 E.02134
G1 X102.167 Y37.003 E.90325
G1 X102.093 Y37.419 E.02133
M73 P0 R195
G1 X89.436 Y24.762 E.90324
G1 X89.362 Y25.179 E.02134
G1 X102.019 Y37.835 E.90322
G1 X101.945 Y38.251 E.02133
G1 X89.288 Y25.595 E.9032
G1 X89.214 Y26.012 E.02134
G1 X101.87 Y38.668 E.90318
G1 X101.796 Y39.084 E.02133
G1 X89.14 Y26.428 E.90316
G1 X89.066 Y26.845 E.02134
G1 X101.722 Y39.5 E.90315
G1 X101.648 Y39.916 E.02133
G1 X88.992 Y27.261 E.90313
G1 X88.918 Y27.677 E.02134
G1 X101.573 Y40.333 E.90311
G1 X101.499 Y40.749 E.02133
G1 X88.844 Y28.094 E.9031
G1 X88.77 Y28.51 E.02134
G1 X101.425 Y41.165 E.90308
G1 X101.351 Y41.581 E.02133
G1 X88.693 Y28.924 E.90329
G1 X88.612 Y29.333 E.02104
G1 X101.277 Y41.997 E.90381
G1 X101.202 Y42.414 E.02133
G1 X88.53 Y29.741 E.90434
G1 X88.449 Y30.15 E.02104
G1 X101.128 Y42.83 E.90487
G1 X101.054 Y43.246 E.02133
G1 X88.367 Y30.559 E.90539
G1 X88.285 Y30.968 E.02104
G1 X100.98 Y43.662 E.90592
G1 X100.906 Y44.078 E.02133
G1 X88.204 Y31.377 E.90645
G1 X88.122 Y31.786 E.02104
G1 X100.831 Y44.495 E.90697
G1 X100.757 Y44.911 E.02133
G1 X87.985 Y32.139 E.91148
G1 X87.858 Y32.299 E.01033
G1 X87.733 Y32.377 E.00743
G1 X100.683 Y45.327 E.92417
G1 X100.609 Y45.743 E.02133
G1 X87.357 Y32.491 E.94571
G1 X86.762 Y32.387 E.03047
G1 X100.534 Y46.16 E.98286
G1 X100.46 Y46.576 E.02133
G1 X86.165 Y32.28 E1.02019
G1 X85.567 Y32.173 E.03062
G1 X100.386 Y46.992 E1.05751
G1 X100.312 Y47.408 E.02133
G1 X84.97 Y32.067 E1.09484
G1 X84.495 Y31.981 E.02437
G1 X84.344 Y31.931 E.00801
G1 X100.238 Y47.824 E1.13421
G1 X100.163 Y48.241 E.02133
G1 X83.607 Y31.684 E1.18152
G1 X82.87 Y31.438 E.03923
G1 X100.089 Y48.657 E1.22883
G1 X100.015 Y49.073 E.02133
G1 X82.133 Y31.191 E1.27614
G1 X81.396 Y30.944 E.03923
G1 X99.941 Y49.489 E1.32345
G1 X99.867 Y49.905 E.02133
G1 X80.658 Y30.697 E1.37076
G1 X79.921 Y30.451 E.03923
G1 X99.792 Y50.322 E1.41808
G1 X99.718 Y50.738 E.02133
G1 X79.184 Y30.204 E1.46539
G1 X78.447 Y29.957 E.03923
G1 X99.644 Y51.154 E1.5127
G1 X99.573 Y51.553 E.02042
G1 X99.548 Y51.548 E.00129
G1 X77.71 Y29.71 E1.55844
G1 X76.973 Y29.464 E.03923
G1 X98.959 Y51.45 E1.56901
G1 X98.37 Y51.351 E.03014
G1 X76.235 Y29.217 E1.57959
G1 X75.498 Y28.97 E.03923
G1 X97.781 Y51.253 E1.59016
G1 X97.192 Y51.154 E.03014
G1 X74.761 Y28.723 E1.60073
G1 X74.024 Y28.477 E.03923
G1 X96.603 Y51.055 E1.6113
G1 X96.014 Y50.957 E.03014
G1 X73.287 Y28.23 E1.62188
G1 X72.55 Y27.983 E.03923
G1 X95.425 Y50.858 E1.63245
G1 X94.836 Y50.76 E.03014
G1 X71.812 Y27.736 E1.64302
G1 X71.075 Y27.49 E.03923
G1 X94.247 Y50.661 E1.6536
G1 X93.657 Y50.562 E.03014
G1 X70.214 Y27.119 E1.67303
G1 X69.041 Y26.436 E.06851
G1 X93.068 Y50.464 E1.71473
G1 X92.479 Y50.365 E.03014
G1 X67.867 Y25.753 E1.75642
G1 X66.694 Y25.07 E.06851
G1 X91.89 Y50.267 E1.79812
G1 X91.301 Y50.168 E.03014
G1 X65.521 Y24.387 E1.83982
G1 X64.347 Y23.704 E.06851
G1 X90.712 Y50.069 E1.88152
G1 X90.123 Y49.971 E.03014
G1 X63.174 Y23.021 E1.92322
G1 X62.001 Y22.339 E.06851
G1 X89.534 Y49.872 E1.96491
G1 X88.945 Y49.774 E.03014
G1 X60.827 Y21.656 E2.00661
G1 X59.654 Y20.973 E.06851
G1 X88.356 Y49.675 E2.04831
G1 X87.767 Y49.577 E.03014
G1 X58.481 Y20.29 E2.09001
G1 X57.307 Y19.607 E.06851
G1 X87.178 Y49.478 E2.13171
G1 X86.589 Y49.379 E.03014
G1 X56.134 Y18.924 E2.17341
G1 X54.96 Y18.241 E.06855
G1 X86 Y49.281 E2.21515
G1 X85.411 Y49.182 E.03014
G1 X53.78 Y17.554 E2.25723
G1 X53.292 Y17.554 E.02463
G1 X84.822 Y49.084 E2.25011
G1 X84.233 Y48.985 E.03014
G1 X52.802 Y17.554 E2.24307
G1 X52.311 Y17.554 E.02475
M73 P0 R194
G1 X83.644 Y48.886 E2.23603
G1 X83.055 Y48.788 E.03014
G1 X51.821 Y17.554 E2.229
G1 X51.33 Y17.554 E.02475
G1 X82.466 Y48.689 E2.22196
G1 X81.877 Y48.591 E.03014
G1 X50.84 Y17.554 E2.21493
G1 X50.35 Y17.554 E.02475
G1 X81.288 Y48.492 E2.20789
G1 X80.699 Y48.393 E.03014
M73 P1 R194
G1 X49.859 Y17.554 E2.20086
G1 X49.369 Y17.554 E.02475
G1 X79.98 Y48.165 E2.18453
G1 X79.242 Y47.917 E.03928
G1 X48.878 Y17.554 E2.16686
G1 X48.388 Y17.554 E.02475
G1 X78.504 Y47.669 E2.14918
G1 X77.766 Y47.422 E.03928
G1 X47.897 Y17.554 E2.13151
G1 X47.407 Y17.554 E.02475
G1 X77.028 Y47.174 E2.11384
G1 X76.29 Y46.927 E.03928
G1 X46.917 Y17.554 E2.09617
G1 X46.426 Y17.554 E.02475
G1 X75.551 Y46.679 E2.07849
G1 X74.813 Y46.431 E.03928
G1 X45.936 Y17.554 E2.06082
G1 X45.445 Y17.554 E.02475
G1 X74.075 Y46.184 E2.04315
G1 X73.337 Y45.936 E.03928
G1 X44.955 Y17.554 E2.02548
G1 X44.464 Y17.554 E.02475
G1 X72.599 Y45.688 E2.00781
G1 X71.861 Y45.441 E.03928
G1 X43.974 Y17.554 E1.99013
G1 X43.484 Y17.554 E.02475
G1 X71.123 Y45.193 E1.97246
G1 X70.385 Y44.945 E.03928
G1 X42.993 Y17.554 E1.95479
G1 X42.503 Y17.554 E.02475
G1 X69.647 Y44.698 E1.93712
G1 X68.909 Y44.45 E.03928
G1 X42.012 Y17.554 E1.91944
G1 X41.522 Y17.554 E.02475
G1 X68.171 Y44.203 E1.90177
G1 X67.433 Y43.955 E.03928
G1 X41.031 Y17.554 E1.8841
G1 X40.541 Y17.554 E.02475
G1 X66.695 Y43.707 E1.86643
G1 X65.957 Y43.46 E.03928
G1 X40.051 Y17.554 E1.84875
G1 X39.56 Y17.554 E.02475
G1 X65.219 Y43.212 E1.83108
G1 X64.48 Y42.964 E.03928
G1 X39.07 Y17.554 E1.81341
G1 X38.579 Y17.554 E.02475
G1 X63.742 Y42.717 E1.79574
G1 X63.004 Y42.469 E.03928
G1 X38.089 Y17.554 E1.77807
G1 X37.598 Y17.554 E.02475
G1 X62.266 Y42.221 E1.76039
G1 X61.528 Y41.974 E.03928
G1 X37.108 Y17.554 E1.74272
G1 X36.618 Y17.554 E.02475
G1 X60.79 Y41.726 E1.72505
G1 X60.052 Y41.479 E.03928
G1 X36.127 Y17.554 E1.70738
G1 X35.637 Y17.554 E.02475
G1 X58.994 Y40.911 E1.66686
G1 X57.81 Y40.218 E.06922
G1 X35.146 Y17.554 E1.61739
G1 X34.656 Y17.554 E.02475
G1 X56.627 Y39.524 E1.56791
G1 X55.443 Y38.831 E.06922
G1 X34.165 Y17.554 E1.51844
G1 X33.675 Y17.554 E.02475
G1 X54.259 Y38.138 E1.46897
G1 X53.075 Y37.444 E.06922
G1 X33.185 Y17.554 E1.41949
G1 X32.694 Y17.554 E.02475
G1 X51.892 Y36.751 E1.37002
G1 X50.708 Y36.058 E.06922
G1 X32.204 Y17.554 E1.32054
G1 X31.713 Y17.554 E.02475
G1 X49.524 Y35.365 E1.27107
G1 X48.341 Y34.671 E.06922
G1 X31.223 Y17.554 E1.2216
G1 X30.732 Y17.554 E.02475
G1 X47.157 Y33.978 E1.17212
G1 X45.973 Y33.285 E.06922
G1 X30.242 Y17.554 E1.12265
G1 X29.752 Y17.554 E.02475
G1 X44.79 Y32.592 E1.07318
G1 X43.606 Y31.898 E.06922
M73 P1 R193
G1 X29.261 Y17.554 E1.0237
G1 X28.771 Y17.554 E.02475
G1 X42.422 Y31.205 E.97423
G1 X41.239 Y30.512 E.06922
G1 X28.28 Y17.554 E.92475
G1 X27.79 Y17.554 E.02475
G1 X40.055 Y29.819 E.87528
G1 X38.871 Y29.125 E.06922
G1 X27.299 Y17.554 E.82581
G1 X26.809 Y17.554 E.02475
G1 X37.688 Y28.432 E.77633
G1 X36.504 Y27.739 E.06922
G1 X26.319 Y17.554 E.72686
G1 X25.828 Y17.554 E.02475
G1 X35.32 Y27.046 E.67739
G1 X34.136 Y26.352 E.06922
G1 X25.338 Y17.554 E.62791
G1 X24.847 Y17.554 E.02475
G1 X32.953 Y25.659 E.57844
G1 X31.769 Y24.966 E.06922
G1 X24.73 Y17.926 E.50237
G1 X24.73 Y18.417 E.02475
G1 X30.585 Y24.273 E.4179
G1 X29.402 Y23.579 E.06922
G1 X24.73 Y18.907 E.33342
G1 X24.73 Y19.398 E.02475
G1 X28.218 Y22.886 E.24895
G1 X27.034 Y22.193 E.06922
G1 X24.73 Y19.888 E.16448
G1 X24.73 Y20.378 E.02475
G1 X26.285 Y21.934 E.11099
M106 S255
;LAYER_CHANGE
;Z:0.85
;HEIGHT:0.5
;BEFORE_LAYER_CHANGE
G92 E0
;0.85


G1 E-.7 F3600
;WIPE_START
G1 F6240
G1 X25.917 Y21.566 E-.285
;WIPE_END
G1 E-.015 F3600
G1 Z.85 F7800
;AFTER_LAYER_CHANGE
;0.85
M104 S205 ; set temperature
G1 X86.922 Y33.324
G1 E1 F2400
;TYPE:Perimeter
;WIDTH:1
G1 F2016.357
G1 X87.523 Y33.414 E.11267
G1 X87.952 Y33.349 E.08053
G1 X88.143 Y33.27 E.03837
G1 X88.503 Y33.003 E.0832
G1 X88.721 Y32.703 E.0689
G1 X88.851 Y32.337 E.072
G1 X89.048 Y31.353 E.1863
G1 X91.396 Y18.133 E2.4916
G1 X105.139 Y18.133 E2.5503
G1 X99.239 Y51.22 E6.23677
G1 X80.697 Y48.116 E3.48874
G1 X59.801 Y41.105 E4.09017
G1 X25.309 Y20.904 E7.4177
G1 X25.309 Y18.133 E.5142
G1 X52.952 Y18.133 E5.1297
G1 X69.898 Y28.001 E3.6391
G1 X70.146 Y28.113 E.0505
G1 X84.238 Y32.825 E2.75732
G1 X84.424 Y32.873 E.03576
G1 X86.775 Y33.298 E.44321
G1 X87.676 Y32.5 F7800
;TYPE:External perimeter
G1 F1800
G1 X87.86 Y32.384 E.04026
G1 X87.976 Y32.162 E.04649
G1 X88.169 Y31.196 E.18289
G1 X90.648 Y17.24 E2.63032
G1 X106.205 Y17.24 E2.88694
G1 X99.963 Y52.246 E6.59849
G1 X80.48 Y48.985 E3.66576
G1 X59.429 Y41.922 E4.12041
G1 X24.416 Y21.415 E7.52979
G1 X24.416 Y17.24 E.77481
G1 X53.192 Y17.24 E5.34007
G1 X70.43 Y27.267 E3.70057
G1 X84.521 Y31.979 E2.75715
G1 X87.459 Y32.514 E.55424
G1 X87.526 Y32.51 E.01255
G1 X87.838 Y32.644 F7800
G1 E-.7 F3600
;WIPE_START
G1 F6240
G1 X87.86 Y32.384 E-.19528
G1 X87.936 Y32.239 E-.08972
;WIPE_END
G1 E-.015 F3600
G1 X99.414 Y48.712 F7800
G1 E1 F2400
;TYPE:Solid infill
;WIDTH:1.00072
G1 F1200
G1 X97.822 Y50.304 E.41814
G1 X96.74 Y50.122 E.20381
G1 X99.192 Y47.67 E.64399
G1 X99.466 Y46.133 E.29008
G1 X95.658 Y49.941 E1.00028
G1 X94.575 Y49.76 E.20381
G1 X99.74 Y44.595 E1.35657
G1 X100.014 Y43.057 E.29008
G1 X93.493 Y49.579 E1.71285
G1 X92.411 Y49.398 E.20381
G1 X100.289 Y41.52 E2.06914
G1 X100.563 Y39.982 E.29008
G1 X91.328 Y49.217 E2.42543
G1 X90.246 Y49.035 E.20381
G1 X100.837 Y38.444 E2.78171
G1 X101.111 Y36.907 E.29008
G1 X89.164 Y48.854 E3.138
G1 X88.081 Y48.673 E.20381
G1 X101.385 Y35.369 E3.49429
G1 X101.659 Y33.831 E.29008
G1 X86.999 Y48.492 E3.85057
G1 X85.917 Y48.311 E.20381
G1 X101.934 Y32.294 E4.20686
G1 X102.208 Y30.756 E.29008
G1 X84.834 Y48.13 E4.56315
G1 X83.752 Y47.948 E.20381
G1 X102.482 Y29.218 E4.91943
G1 X102.756 Y27.681 E.29008
G1 X82.67 Y47.767 E5.27572
G1 X81.587 Y47.586 E.20381
G1 X103.03 Y26.143 E5.63201
G1 X103.305 Y24.605 E.29008
G1 X80.55 Y47.36 E5.97656
G1 X79.604 Y47.043 E.18533
G1 X103.579 Y23.068 E6.29706
G1 X103.853 Y21.53 E.29008
G1 X78.657 Y46.726 E6.61755
G1 X77.711 Y46.408 E.18533
G1 X104.127 Y19.992 E6.93805
G1 X104.339 Y18.802 E.22453
G1 X104.054 Y18.802 E.05302
G1 X76.765 Y46.091 E7.16729
G1 X75.819 Y45.773 E.18533
G1 X87.512 Y34.081 E3.071
G1 X87.846 Y34.061 E.06217
G1 X88.158 Y33.986 E.05966
G1 X88.446 Y33.868 E.05777
G1 X88.724 Y33.697 E.06062
G1 X88.987 Y33.468 E.06479
G1 X89.217 Y33.18 E.06837
G1 X89.393 Y32.847 E.07001
G1 X89.462 Y32.654 E.03806
G1 X89.599 Y31.994 E.12517
G1 X102.79 Y18.802 E3.46478
G1 X101.527 Y18.802 E.23466
G1 X89.89 Y30.439 E3.05641
G1 X90.163 Y28.903 E.2898
G1 X100.263 Y18.802 E2.65288
G1 X99 Y18.802 E.23466
G1 X90.436 Y27.366 E2.24936
G1 X90.709 Y25.83 E.2898
G1 X97.736 Y18.802 E1.84583
G1 X96.473 Y18.802 E.23466
G1 X90.981 Y24.294 E1.4423
G1 X91.254 Y22.757 E.2898
G1 X95.209 Y18.802 E1.03878
G1 X93.946 Y18.802 E.23466
G1 X91.527 Y21.221 E.63525
G1 X91.8 Y19.685 E.2898
G1 X93.084 Y18.401 E.33723
G1 E-.7 F3600
;WIPE_START
G1 F6240
G1 X92.716 Y18.768 E-.285
;WIPE_END
G1 E-.015 F3600
G1 X86.761 Y33.568 F7800
G1 E1 F2400
G1 F1200
G1 X74.873 Y45.456 E3.12245
G1 X73.927 Y45.138 E.18533
G1 X85.346 Y33.72 E2.99903
G1 X84.277 Y33.525 E.20178
G1 X72.981 Y44.821 E2.96678
G1 X72.035 Y44.504 E.18533
G1 X83.316 Y33.223 E2.96291
G1 X82.37 Y32.906 E.18537
G1 X71.089 Y44.186 E2.96283
G1 X70.143 Y43.869 E.18533
G1 X81.423 Y32.588 E2.96276
G1 X80.477 Y32.271 E.18537
G1 X69.197 Y43.551 E2.96268
G1 X68.251 Y43.234 E.18533
G1 X79.53 Y31.954 E2.9626
G1 X78.584 Y31.637 E.18537
M73 P1 R192
G1 X67.305 Y42.916 E2.96252
G1 X66.359 Y42.599 E.18533
G1 X77.638 Y31.32 E2.96245
G1 X76.691 Y31.003 E.18537
G1 X65.413 Y42.282 E2.96237
G1 X64.466 Y41.964 E.18533
G1 X75.745 Y30.686 E2.96229
G1 X74.799 Y30.369 E.18537
G1 X63.52 Y41.647 E2.96222
G1 X62.574 Y41.329 E.18533
