; generated by PrusaSlicer 2.5.0+win64 on 2022-12-07 at 00:27:50 UTC

; 

; external perimeters extrusion width = 1.00mm
; perimeters extrusion width = 1.00mm
; infill extrusion width = 1.00mm
; solid infill extrusion width = 1.00mm
; top infill extrusion width = 1.00mm
; support material extrusion width = 1.00mm
; first layer extrusion width = 0.42mm

M73 P0 R159
M107
;TYPE:Custom
G90 ; use absolute coordinates
M83 ; extruder relative mode
M140 S60 ; set final bed temp
M104 S150 ; set temporary nozzle temp to prevent oozing during homing and auto bed leveling
G4 S10 ; allow partial nozzle warmup
G28 ; home all axisG1 Z50 F240
G1 X7.6 Y10 F3000
M104 S210 ; set final nozzle temp
M190 S60 ; wait for bed temp to stabilize
M109 S210 ; wait for nozzle temp to stabilize
G1 Z0.28 F240
G92 E0
G1 Y140 E10 F1500 ; prime the nozzle
G1 X4 F5000
G92 E0
G1 Y10 E10 F1200 ; prime the nozzle
G92 E0
G21 ; set units to millimeters
G90 ; use absolute coordinates
M83 ; use relative distances for extrusion
; Filament gcode
M107
;LAYER_CHANGE
;Z:0.35
;HEIGHT:0.35
;BEFORE_LAYER_CHANGE
G92 E0
;0.35


G1 E-1 F3600
G1 Z.35 F7800
;AFTER_LAYER_CHANGE
;0.35
G1 X162.497 Y94.781
G1 E1 F2400
;TYPE:Perimeter
;WIDTH:0.42
G1 F1800
G1 X46.819 Y98.435 E5.80833
G1 X35.045 Y98.744 E.59104
G1 X34.844 Y98.814 E.01072
G1 X17.505 Y99.273 E.87047
G1 X17.505 Y85.389 E.69679
G1 X162.497 Y80.972 E7.27994
G1 X162.497 Y94.631 E.6855
G1 X162.842 Y95.115 F7800
;TYPE:External perimeter
G1 F1800
G1 X46.828 Y98.78 E5.82514
G1 X35.054 Y99.088 E.59109
G1 X34.917 Y99.157 E.00772
G1 X17.16 Y99.627 E.89145
G1 X17.16 Y85.054 E.73135
G1 X162.842 Y80.616 E7.31457
G1 X162.842 Y94.965 E.72011
M73 P0 R158
G1 X161.842 Y95.113 F7800
G1 E-.7 F3600
;WIPE_START
G1 F6240
G1 X162.322 Y94.982 E-.285
;WIPE_END
G1 E-.015 F3600
G1 X162.394 Y81.775 F7800
G1 E1 F2400
;TYPE:Solid infill
;WIDTH:0.420075
G1 F1800
G1 X161.868 Y81.25 E.03731
G1 X161.395 Y81.264 E.02378
G1 X162.238 Y82.108 E.0599
G1 X162.238 Y82.596 E.02449
G1 X160.921 Y81.279 E.09351
G1 X160.448 Y81.293 E.02378
G1 X162.238 Y83.084 E.12712
G1 X162.238 Y83.572 E.02449
G1 X159.974 Y81.308 E.16072
G1 X159.501 Y81.322 E.02378
G1 X162.238 Y84.06 E.19433
G1 X162.238 Y84.547 E.02449
G1 X159.028 Y81.336 E.22794
G1 X158.554 Y81.351 E.02378
G1 X162.238 Y85.035 E.26155
G1 X162.238 Y85.523 E.02449
G1 X158.081 Y81.365 E.29516
G1 X157.607 Y81.38 E.02378
G1 X162.238 Y86.011 E.32877
G1 X162.238 Y86.499 E.02449
G1 X157.134 Y81.394 E.36237
G1 X156.66 Y81.409 E.02378
G1 X162.238 Y86.987 E.39598
G1 X162.238 Y87.474 E.02449
G1 X156.187 Y81.423 E.42959
G1 X155.713 Y81.437 E.02378
G1 X162.238 Y87.962 E.4632
G1 X162.238 Y88.45 E.02449
G1 X155.24 Y81.452 E.49681
G1 X154.767 Y81.466 E.02378
G1 X162.238 Y88.938 E.53042
G1 X162.238 Y89.426 E.02449
G1 X154.293 Y81.481 E.56403
G1 X153.82 Y81.495 E.02378
G1 X162.238 Y89.914 E.59763
G1 X162.238 Y90.402 E.02449
G1 X153.346 Y81.509 E.63124
G1 X152.873 Y81.524 E.02378
G1 X162.238 Y90.889 E.66485
G1 X162.238 Y91.377 E.02449
G1 X152.399 Y81.538 E.69846
G1 X151.926 Y81.553 E.02378
G1 X162.238 Y91.865 E.73207
G1 X162.238 Y92.353 E.02449
G1 X151.453 Y81.567 E.76568
G1 X150.979 Y81.582 E.02378
G1 X162.238 Y92.841 E.79928
G1 X162.238 Y93.329 E.02449
G1 X150.506 Y81.596 E.83289
G1 X150.032 Y81.61 E.02378
G1 X162.238 Y93.817 E.8665
G1 X162.238 Y94.304 E.02449
G1 X149.559 Y81.625 E.90011
G1 X149.085 Y81.639 E.02378
G1 X161.985 Y94.539 E.91571
G1 X161.512 Y94.553 E.02375
G1 X148.612 Y81.654 E.91574
G1 X148.139 Y81.668 E.02378
G1 X161.039 Y94.568 E.91578
G1 X160.566 Y94.583 E.02375
G1 X147.665 Y81.683 E.91582
G1 X147.192 Y81.697 E.02378
G1 X160.093 Y94.598 E.91585
G1 X159.62 Y94.613 E.02375
G1 X146.718 Y81.711 E.91589
G1 X146.245 Y81.726 E.02378
G1 X159.147 Y94.628 E.91593
G1 X158.674 Y94.643 E.02375
G1 X145.771 Y81.74 E.91596
G1 X145.298 Y81.755 E.02378
G1 X158.201 Y94.658 E.916
G1 X157.728 Y94.673 E.02375
G1 X144.825 Y81.769 E.91603
G1 X144.351 Y81.783 E.02378
G1 X157.256 Y94.688 E.91607
G1 X156.783 Y94.703 E.02375
G1 X143.878 Y81.798 E.91611
G1 X143.404 Y81.812 E.02378
G1 X156.31 Y94.718 E.91614
G1 X155.837 Y94.733 E.02375
G1 X142.931 Y81.827 E.91618
G1 X142.457 Y81.841 E.02378
G1 X155.364 Y94.748 E.91622
G1 X154.891 Y94.763 E.02375
G1 X141.984 Y81.856 E.91625
G1 X141.511 Y81.87 E.02378
G1 X154.418 Y94.778 E.91629
G1 X153.945 Y94.792 E.02375
G1 X141.037 Y81.884 E.91633
G1 X140.564 Y81.899 E.02378
G1 X153.472 Y94.807 E.91636
G1 X152.999 Y94.822 E.02375
G1 X140.09 Y81.913 E.9164
G1 X139.617 Y81.928 E.02378
G1 X152.526 Y94.837 E.91644
G1 X152.053 Y94.852 E.02375
G1 X139.143 Y81.942 E.91647
G1 X138.67 Y81.957 E.02378
G1 X151.581 Y94.867 E.91651
G1 X151.108 Y94.882 E.02375
G1 X138.197 Y81.971 E.91655
G1 X137.723 Y81.985 E.02378
G1 X150.635 Y94.897 E.91658
G1 X150.162 Y94.912 E.02375
G1 X137.25 Y82 E.91662
G1 X136.776 Y82.014 E.02378
G1 X149.689 Y94.927 E.91666
G1 X149.216 Y94.942 E.02375
G1 X136.303 Y82.029 E.91669
G1 X135.829 Y82.043 E.02378
G1 X148.743 Y94.957 E.91673
G1 X148.27 Y94.972 E.02375
G1 X135.356 Y82.057 E.91677
G1 X134.883 Y82.072 E.02378
G1 X147.797 Y94.987 E.9168
G1 X147.324 Y95.002 E.02375
G1 X134.409 Y82.086 E.91684
G1 X133.936 Y82.101 E.02378
G1 X146.851 Y95.017 E.91688
G1 X146.378 Y95.031 E.02375
G1 X133.462 Y82.115 E.91691
G1 X132.989 Y82.13 E.02378
G1 X145.906 Y95.046 E.91695
G1 X145.433 Y95.061 E.02375
G1 X132.515 Y82.144 E.91699
G1 X132.042 Y82.158 E.02378
G1 X144.96 Y95.076 E.91702
G1 X144.487 Y95.091 E.02375
G1 X131.568 Y82.173 E.91706
G1 X131.095 Y82.187 E.02378
G1 X144.014 Y95.106 E.9171
G1 X143.541 Y95.121 E.02375
G1 X130.622 Y82.202 E.91713
G1 X130.148 Y82.216 E.02378
G1 X143.068 Y95.136 E.91717
G1 X142.595 Y95.151 E.02375
G1 X129.675 Y82.231 E.91721
G1 X129.201 Y82.245 E.02378
G1 X142.122 Y95.166 E.91724
G1 X141.649 Y95.181 E.02375
G1 X128.728 Y82.259 E.91728
G1 X128.254 Y82.274 E.02378
G1 X141.176 Y95.196 E.91732
G1 X140.704 Y95.211 E.02375
G1 X127.781 Y82.288 E.91735
G1 X127.308 Y82.303 E.02378
G1 X140.231 Y95.226 E.91739
G1 X139.758 Y95.241 E.02375
G1 X126.834 Y82.317 E.91743
G1 X126.361 Y82.331 E.02378
G1 X139.285 Y95.256 E.91746
G1 X138.812 Y95.27 E.02375
G1 X125.887 Y82.346 E.9175
G1 X125.414 Y82.36 E.02378
G1 X138.339 Y95.285 E.91754
G1 X137.866 Y95.3 E.02375
G1 X124.94 Y82.375 E.91757
G1 X124.467 Y82.389 E.02378
G1 X137.393 Y95.315 E.91761
G1 X136.92 Y95.33 E.02375
G1 X123.994 Y82.404 E.91765
G1 X123.52 Y82.418 E.02378
G1 X136.447 Y95.345 E.91768
G1 X135.974 Y95.36 E.02375
G1 X123.047 Y82.432 E.91772
G1 X122.573 Y82.447 E.02378
G1 X135.501 Y95.375 E.91776
G1 X135.029 Y95.39 E.02375
G1 X122.1 Y82.461 E.91779
G1 X121.626 Y82.476 E.02378
G1 X134.556 Y95.405 E.91783
G1 X134.083 Y95.42 E.02375
G1 X121.153 Y82.49 E.91787
G1 X120.68 Y82.505 E.02378
G1 X133.61 Y95.435 E.9179
G1 X133.137 Y95.45 E.02375
G1 X120.206 Y82.519 E.91794
G1 X119.733 Y82.533 E.02378
G1 X132.664 Y95.465 E.91798
G1 X132.191 Y95.48 E.02375
G1 X119.259 Y82.548 E.91801
G1 X118.786 Y82.562 E.02378
G1 X131.718 Y95.495 E.91805
G1 X131.245 Y95.509 E.02375
G1 X118.312 Y82.577 E.91809
G1 X117.839 Y82.591 E.02378
G1 X130.772 Y95.524 E.91812
G1 X130.299 Y95.539 E.02375
G1 X117.366 Y82.605 E.91816
G1 X116.892 Y82.62 E.02378
G1 X129.826 Y95.554 E.9182
G1 X129.354 Y95.569 E.02375
G1 X116.419 Y82.634 E.91823
G1 X115.945 Y82.649 E.02378
G1 X128.881 Y95.584 E.91827
G1 X128.408 Y95.599 E.02375
G1 X115.472 Y82.663 E.9183
G1 X114.998 Y82.678 E.02378
G1 X127.935 Y95.614 E.91834
G1 X127.462 Y95.629 E.02375
M73 P0 R157
G1 X114.525 Y82.692 E.91838
G1 X114.052 Y82.706 E.02378
M73 P1 R157
G1 X126.989 Y95.644 E.91841
G1 X126.516 Y95.659 E.02375
G1 X113.578 Y82.721 E.91845
G1 X113.105 Y82.735 E.02378
G1 X126.043 Y95.674 E.91849
G1 X125.57 Y95.689 E.02375
G1 X112.631 Y82.75 E.91852
G1 X112.158 Y82.764 E.02378
G1 X125.097 Y95.704 E.91856
G1 X124.624 Y95.719 E.02375
G1 X111.684 Y82.779 E.9186
G1 X111.211 Y82.793 E.02378
G1 X124.151 Y95.733 E.91863
G1 X123.679 Y95.748 E.02375
G1 X110.737 Y82.807 E.91867
G1 X110.264 Y82.822 E.02378
G1 X123.206 Y95.763 E.91871
G1 X122.733 Y95.778 E.02375
G1 X109.791 Y82.836 E.91874
G1 X109.317 Y82.851 E.02378
G1 X122.26 Y95.793 E.91878
G1 X121.787 Y95.808 E.02375
G1 X108.844 Y82.865 E.91882
G1 X108.37 Y82.879 E.02378
G1 X121.314 Y95.823 E.91885
G1 X120.841 Y95.838 E.02375
G1 X107.897 Y82.894 E.91889
G1 X107.423 Y82.908 E.02378
G1 X120.368 Y95.853 E.91893
G1 X119.895 Y95.868 E.02375
G1 X106.95 Y82.923 E.91896
G1 X106.477 Y82.937 E.02378
G1 X119.422 Y95.883 E.919
G1 X118.949 Y95.898 E.02375
G1 X106.003 Y82.952 E.91904
G1 X105.53 Y82.966 E.02378
G1 X118.476 Y95.913 E.91907
G1 X118.004 Y95.928 E.02375
G1 X105.056 Y82.98 E.91911
G1 X104.583 Y82.995 E.02378
G1 X117.531 Y95.943 E.91915
G1 X117.058 Y95.958 E.02375
G1 X104.109 Y83.009 E.91918
G1 X103.636 Y83.024 E.02378
G1 X116.585 Y95.972 E.91922
G1 X116.112 Y95.987 E.02375
G1 X103.163 Y83.038 E.91926
G1 X102.689 Y83.053 E.02378
G1 X115.639 Y96.002 E.91929
G1 X115.166 Y96.017 E.02375
G1 X102.216 Y83.067 E.91933
G1 X101.742 Y83.081 E.02378
G1 X114.693 Y96.032 E.91937
G1 X114.22 Y96.047 E.02375
G1 X101.269 Y83.096 E.9194
G1 X100.795 Y83.11 E.02378
G1 X113.747 Y96.062 E.91944
G1 X113.274 Y96.077 E.02375
G1 X100.322 Y83.125 E.91948
G1 X99.849 Y83.139 E.02378
G1 X112.801 Y96.092 E.91951
G1 X112.329 Y96.107 E.02375
G1 X99.375 Y83.153 E.91955
G1 X98.902 Y83.168 E.02378
G1 X111.856 Y96.122 E.91959
G1 X111.383 Y96.137 E.02375
G1 X98.428 Y83.182 E.91962
G1 X97.955 Y83.197 E.02378
G1 X110.91 Y96.152 E.91966
G1 X110.437 Y96.167 E.02375
G1 X97.481 Y83.211 E.9197
G1 X97.008 Y83.226 E.02378
G1 X109.964 Y96.182 E.91973
G1 X109.491 Y96.197 E.02375
G1 X96.535 Y83.24 E.91977
G1 X96.061 Y83.254 E.02378
G1 X109.018 Y96.211 E.91981
G1 X108.545 Y96.226 E.02375
G1 X95.588 Y83.269 E.91984
G1 X95.114 Y83.283 E.02378
G1 X108.072 Y96.241 E.91988
G1 X107.599 Y96.256 E.02375
G1 X94.641 Y83.298 E.91992
G1 X94.167 Y83.312 E.02378
G1 X107.126 Y96.271 E.91995
G1 X106.654 Y96.286 E.02375
G1 X93.694 Y83.327 E.91999
G1 X93.221 Y83.341 E.02378
G1 X106.181 Y96.301 E.92003
G1 X105.708 Y96.316 E.02375
G1 X92.747 Y83.355 E.92006
G1 X92.274 Y83.37 E.02378
G1 X105.235 Y96.331 E.9201
G1 X104.762 Y96.346 E.02375
G1 X91.8 Y83.384 E.92014
G1 X91.327 Y83.399 E.02378
G1 X104.289 Y96.361 E.92017
G1 X103.816 Y96.376 E.02375
G1 X90.853 Y83.413 E.92021
G1 X90.38 Y83.427 E.02378
G1 X103.343 Y96.391 E.92025
G1 X102.87 Y96.406 E.02375
G1 X89.906 Y83.442 E.92028
G1 X89.433 Y83.456 E.02378
G1 X102.397 Y96.421 E.92032
G1 X101.924 Y96.436 E.02375
G1 X88.96 Y83.471 E.92036
G1 X88.486 Y83.485 E.02378
G1 X101.451 Y96.45 E.92039
G1 X100.979 Y96.465 E.02375
G1 X88.013 Y83.5 E.92043
G1 X87.539 Y83.514 E.02378
G1 X100.506 Y96.48 E.92046
G1 X100.033 Y96.495 E.02375
G1 X87.066 Y83.528 E.9205
G1 X86.592 Y83.543 E.02378
G1 X99.56 Y96.51 E.92054
G1 X99.087 Y96.525 E.02375
G1 X86.119 Y83.557 E.92057
G1 X85.646 Y83.572 E.02378
G1 X98.614 Y96.54 E.92061
G1 X98.141 Y96.555 E.02375
G1 X85.172 Y83.586 E.92065
G1 X84.699 Y83.601 E.02378
G1 X97.668 Y96.57 E.92068
G1 X97.195 Y96.585 E.02375
G1 X84.225 Y83.615 E.92072
G1 X83.752 Y83.629 E.02378
G1 X96.722 Y96.6 E.92076
G1 X96.249 Y96.615 E.02375
G1 X83.278 Y83.644 E.92079
G1 X82.805 Y83.658 E.02378
G1 X95.776 Y96.63 E.92083
G1 X95.304 Y96.645 E.02375
G1 X82.332 Y83.673 E.92087
G1 X81.858 Y83.687 E.02378
G1 X94.831 Y96.66 E.9209
G1 X94.358 Y96.675 E.02375
G1 X81.385 Y83.701 E.92094
G1 X80.911 Y83.716 E.02378
G1 X93.885 Y96.689 E.92098
G1 X93.412 Y96.704 E.02375
G1 X80.438 Y83.73 E.92101
G1 X79.964 Y83.745 E.02378
G1 X92.939 Y96.719 E.92105
G1 X92.466 Y96.734 E.02375
G1 X79.491 Y83.759 E.92109
G1 X79.018 Y83.774 E.02378
G1 X91.993 Y96.749 E.92112
G1 X91.52 Y96.764 E.02375
G1 X78.544 Y83.788 E.92116
G1 X78.071 Y83.802 E.02378
G1 X91.047 Y96.779 E.9212
G1 X90.574 Y96.794 E.02375
G1 X77.597 Y83.817 E.92123
G1 X77.124 Y83.831 E.02378
G1 X90.101 Y96.809 E.92127
G1 X89.629 Y96.824 E.02375
G1 X76.65 Y83.846 E.92131
G1 X76.177 Y83.86 E.02378
G1 X89.156 Y96.839 E.92134
G1 X88.683 Y96.854 E.02375
G1 X75.704 Y83.875 E.92138
G1 X75.23 Y83.889 E.02378
G1 X88.21 Y96.869 E.92142
G1 X87.737 Y96.884 E.02375
G1 X74.757 Y83.903 E.92145
G1 X74.283 Y83.918 E.02378
G1 X87.264 Y96.899 E.92149
G1 X86.791 Y96.914 E.02375
G1 X73.81 Y83.932 E.92153
G1 X73.336 Y83.947 E.02378
G1 X86.318 Y96.928 E.92156
G1 X85.845 Y96.943 E.02375
G1 X72.863 Y83.961 E.9216
G1 X72.39 Y83.975 E.02378
M73 P1 R156
G1 X85.372 Y96.958 E.92164
G1 X84.899 Y96.973 E.02375
G1 X71.916 Y83.99 E.92167
G1 X71.443 Y84.004 E.02378
G1 X84.427 Y96.988 E.92171
G1 X83.954 Y97.003 E.02375
G1 X70.969 Y84.019 E.92175
G1 X70.496 Y84.033 E.02378
G1 X83.481 Y97.018 E.92178
G1 X83.008 Y97.033 E.02375
G1 X70.022 Y84.048 E.92182
G1 X69.549 Y84.062 E.02378
G1 X82.535 Y97.048 E.92186
G1 X82.062 Y97.063 E.02375
G1 X69.076 Y84.076 E.92189
G1 X68.602 Y84.091 E.02378
G1 X81.589 Y97.078 E.92193
G1 X81.116 Y97.093 E.02375
G1 X68.129 Y84.105 E.92197
G1 X67.655 Y84.12 E.02378
G1 X80.643 Y97.108 E.922
G1 X80.17 Y97.123 E.02375
G1 X67.182 Y84.134 E.92204
G1 X66.708 Y84.149 E.02378
G1 X79.697 Y97.138 E.92208
G1 X79.224 Y97.152 E.02375
G1 X66.235 Y84.163 E.92211
G1 X65.761 Y84.177 E.02378
G1 X78.752 Y97.167 E.92215
G1 X78.279 Y97.182 E.02375
G1 X65.288 Y84.192 E.92219
G1 X64.815 Y84.206 E.02378
G1 X77.806 Y97.197 E.92222
G1 X77.333 Y97.212 E.02375
G1 X64.341 Y84.221 E.92226
G1 X63.868 Y84.235 E.02378
G1 X76.86 Y97.227 E.9223
G1 X76.387 Y97.242 E.02375
G1 X63.394 Y84.249 E.92233
G1 X62.921 Y84.264 E.02378
G1 X75.914 Y97.257 E.92237
G1 X75.441 Y97.272 E.02375
G1 X62.447 Y84.278 E.92241
G1 X61.974 Y84.293 E.02378
G1 X74.968 Y97.287 E.92244
G1 X74.495 Y97.302 E.02375
G1 X61.501 Y84.307 E.92248
G1 X61.027 Y84.322 E.02378
G1 X74.022 Y97.317 E.92252
G1 X73.549 Y97.332 E.02375
G1 X60.554 Y84.336 E.92255
G1 X60.08 Y84.35 E.02378
G1 X73.077 Y97.347 E.92259
G1 X72.604 Y97.362 E.02375
G1 X59.607 Y84.365 E.92263
G1 X59.133 Y84.379 E.02378
G1 X72.131 Y97.377 E.92266
G1 X71.658 Y97.391 E.02375
G1 X58.66 Y84.394 E.9227
G1 X58.187 Y84.408 E.02378
G1 X71.185 Y97.406 E.92273
G1 X70.712 Y97.421 E.02375
G1 X57.713 Y84.423 E.92277
G1 X57.24 Y84.437 E.02378
G1 X70.239 Y97.436 E.92281
G1 X69.766 Y97.451 E.02375
G1 X56.766 Y84.451 E.92284
G1 X56.293 Y84.466 E.02378
G1 X69.293 Y97.466 E.92288
G1 X68.82 Y97.481 E.02375
G1 X55.819 Y84.48 E.92292
G1 X55.346 Y84.495 E.02378
G1 X68.347 Y97.496 E.92295
G1 X67.874 Y97.511 E.02375
G1 X54.873 Y84.509 E.92299
G1 X54.399 Y84.524 E.02378
G1 X67.402 Y97.526 E.92303
G1 X66.929 Y97.541 E.02375
G1 X53.926 Y84.538 E.92306
G1 X53.452 Y84.552 E.02378
G1 X66.456 Y97.556 E.9231
G1 X65.983 Y97.571 E.02375
G1 X52.979 Y84.567 E.92314
G1 X52.505 Y84.581 E.02378
G1 X65.51 Y97.586 E.92317
G1 X65.037 Y97.601 E.02375
G1 X52.032 Y84.596 E.92321
G1 X51.559 Y84.61 E.02378
G1 X64.564 Y97.616 E.92325
G1 X64.091 Y97.63 E.02375
G1 X51.085 Y84.624 E.92328
G1 X50.612 Y84.639 E.02378
G1 X63.618 Y97.645 E.92332
G1 X63.145 Y97.66 E.02375
G1 X50.138 Y84.653 E.92336
G1 X49.665 Y84.668 E.02378
G1 X62.672 Y97.675 E.92339
G1 X62.199 Y97.69 E.02375
G1 X49.191 Y84.682 E.92343
G1 X48.718 Y84.697 E.02378
G1 X61.727 Y97.705 E.92347
G1 X61.254 Y97.72 E.02375
G1 X48.245 Y84.711 E.9235
G1 X47.771 Y84.725 E.02378
G1 X60.781 Y97.735 E.92354
G1 X60.308 Y97.75 E.02375
G1 X47.298 Y84.74 E.92358
G1 X46.824 Y84.754 E.02378
G1 X59.835 Y97.765 E.92361
M73 P2 R156
G1 X59.362 Y97.78 E.02375
G1 X46.351 Y84.769 E.92365
G1 X45.877 Y84.783 E.02378
G1 X58.889 Y97.795 E.92369
G1 X58.416 Y97.81 E.02375
G1 X45.404 Y84.798 E.92372
G1 X44.93 Y84.812 E.02378
G1 X57.943 Y97.825 E.92376
G1 X57.47 Y97.84 E.02375
G1 X44.457 Y84.826 E.9238
G1 X43.984 Y84.841 E.02378
G1 X56.997 Y97.855 E.92383
G1 X56.524 Y97.869 E.02375
G1 X43.51 Y84.855 E.92387
G1 X43.037 Y84.87 E.02378
G1 X56.052 Y97.884 E.92391
G1 X55.579 Y97.899 E.02375
G1 X42.563 Y84.884 E.92394
G1 X42.09 Y84.898 E.02378
G1 X55.106 Y97.914 E.92398
G1 X54.633 Y97.929 E.02375
G1 X41.616 Y84.913 E.92402
G1 X41.143 Y84.927 E.02378
G1 X54.16 Y97.944 E.92405
G1 X53.687 Y97.959 E.02375
G1 X40.67 Y84.942 E.92409
G1 X40.196 Y84.956 E.02378
G1 X53.214 Y97.974 E.92413
G1 X52.741 Y97.989 E.02375
