; generated by PrusaSlicer 2.5.0+win64 on 2022-12-07 at 00:28:00 UTC

; 

; external perimeters extrusion width = 1.00mm
; perimeters extrusion width = 1.00mm
; infill extrusion width = 1.00mm
; solid infill extrusion width = 1.00mm
; top infill extrusion width = 1.00mm
; support material extrusion width = 1.00mm
; first layer extrusion width = 0.42mm

M73 P0 R163
M107
;TYPE:Custom
G90 ; use absolute coordinates
M83 ; extruder relative mode
M140 S60 ; set final bed temp
M104 S150 ; set temporary nozzle temp to prevent oozing during homing and auto bed leveling
G4 S10 ; allow partial nozzle warmup
G28 ; home all axisG1 Z50 F240
G1 X7.6 Y10 F3000
M104 S210 ; set final nozzle temp
M190 S60 ; wait for bed temp to stabilize
M109 S210 ; wait for nozzle temp to stabilize
G1 Z0.28 F240
G92 E0
G1 Y140 E10 F1500 ; prime the nozzle
G1 X4 F5000
G92 E0
G1 Y10 E10 F1200 ; prime the nozzle
G92 E0
G21 ; set units to millimeters
G90 ; use absolute coordinates
M83 ; use relative distances for extrusion
; Filament gcode
M107
;LAYER_CHANGE
;Z:0.35
;HEIGHT:0.35
;BEFORE_LAYER_CHANGE
G92 E0
;0.35


G1 E-1 F3600
G1 Z.35 F7800
;AFTER_LAYER_CHANGE
;0.35
G1 X17.504 Y134.934
G1 E1 F2400
;TYPE:Perimeter
;WIDTH:0.42
G1 F1800
G1 X21.808 Y143.201 E.46772
G1 X28.257 Y155.069 E.67786
G1 X17.504 Y155.069 E.53965
G1 X17.504 Y135.084 E1.00293
G1 X17.159 Y133.525 F7800
;TYPE:External perimeter
G1 F1800
G1 X22.109 Y143.033 E.53798
G1 X28.837 Y155.413 E.70712
G1 X17.159 Y155.413 E.58606
G1 X17.159 Y133.675 E1.09097
G1 X16.16 Y133.485 F7800
G1 E-.7 F3600
;WIPE_START
G1 F6240
G1 X17.402 Y134.135 E-.285
;WIPE_END
G1 E-.015 F3600
G1 X18.651 Y137.361 F7800
G1 E1 F2400
;TYPE:Solid infill
;WIDTH:0.427388
G1 F1800
G1 X17.763 Y136.473 E.06437
G1 X17.763 Y136.971 E.02554
G1 X18.827 Y138.035 E.07714
G1 X19.368 Y139.074 E.06006
G1 X17.763 Y137.469 E.11637
G1 X17.763 Y137.967 E.02554
G1 X19.909 Y140.113 E.15559
G1 X20.45 Y141.153 E.06006
G1 X17.763 Y138.465 E.19482
G1 X17.763 Y138.964 E.02554
G1 X20.991 Y142.192 E.23405
G1 X21.532 Y143.231 E.06006
G1 X17.763 Y139.462 E.27327
G1 X17.763 Y139.96 E.02554
G1 X22.121 Y144.318 E.31596
G1 X22.714 Y145.409 E.06365
G1 X17.763 Y140.458 E.35894
G1 X17.763 Y140.956 E.02554
G1 X23.307 Y146.501 E.40192
G1 X23.9 Y147.592 E.06365
G1 X17.763 Y141.455 E.4449
G1 X17.763 Y141.953 E.02554
G1 X24.493 Y148.683 E.48788
G1 X25.085 Y149.774 E.06365
G1 X17.763 Y142.451 E.53086
G1 X17.763 Y142.949 E.02554
G1 X25.678 Y150.865 E.57384
G1 X26.271 Y151.956 E.06365
G1 X17.763 Y143.447 E.61682
G1 X17.763 Y143.945 E.02554
G1 X26.864 Y153.047 E.6598
G1 X27.457 Y154.138 E.06365
G1 X17.763 Y144.444 E.70278
G1 X17.763 Y144.942 E.02554
G1 X27.631 Y154.81 E.71538
G1 X27.132 Y154.81 E.02554
G1 X17.763 Y145.44 E.67926
G1 X17.763 Y145.938 E.02554
G1 X26.634 Y154.81 E.64314
G1 X26.136 Y154.81 E.02554
G1 X17.763 Y146.436 E.60703
G1 X17.763 Y146.935 E.02554
G1 X25.638 Y154.81 E.57091
G1 X25.14 Y154.81 E.02554
G1 X17.763 Y147.433 E.5348
G1 X17.763 Y147.931 E.02554
G1 X24.641 Y154.81 E.49868
G1 X24.143 Y154.81 E.02554
G1 X17.763 Y148.429 E.46256
G1 X17.763 Y148.927 E.02554
G1 X23.645 Y154.81 E.42645
G1 X23.147 Y154.81 E.02554
G1 X17.763 Y149.426 E.39033
G1 X17.763 Y149.924 E.02554
G1 X22.649 Y154.81 E.35422
G1 X22.15 Y154.81 E.02554
G1 X17.763 Y150.422 E.3181
G1 X17.763 Y150.92 E.02554
G1 X21.652 Y154.81 E.28198
G1 X21.154 Y154.81 E.02554
G1 X17.763 Y151.418 E.24587
G1 X17.763 Y151.917 E.02554
G1 X20.656 Y154.81 E.20975
G1 X20.158 Y154.81 E.02554
G1 X17.763 Y152.415 E.17363
G1 X17.763 Y152.913 E.02554
G1 X19.66 Y154.81 E.13752
G1 X19.161 Y154.81 E.02554
G1 X17.763 Y153.411 E.1014
G1 X17.763 Y153.909 E.02554
G1 X18.663 Y154.81 E.06529
G1 X18.165 Y154.81 E.02554
G1 X17.607 Y154.252 E.04042
G1 E-.7 F3600
;WIPE_START
G1 F6240
G1 X17.975 Y154.62 E-.285
;WIPE_END
G1 E-.015 F3600
G1 X162.496 Y79.382 F7800
G1 E1 F2400
;TYPE:Perimeter
;WIDTH:0.42
G1 F1800
G1 X42.395 Y81.643 E6.02845
G1 X17.504 Y83.647 E1.25321
G1 X17.504 Y69.66 E.70192
G1 X38.831 Y67.907 E1.07392
G1 X162.496 Y65.576 E6.20735
G1 X162.496 Y79.232 E.68532
M73 P0 R162
G1 X162.841 Y79.721 F7800
;TYPE:External perimeter
G1 F1800
G1 X42.401 Y81.988 E6.04544
G1 X17.159 Y84.02 E1.27091
G1 X17.159 Y69.342 E.73662
G1 X38.813 Y67.563 E1.09041
G1 X162.841 Y65.225 E6.22553
G1 X162.841 Y79.571 E.71995
G1 X161.841 Y79.701 F7800
G1 E-.7 F3600
;WIPE_START
G1 F6240
G1 X162.321 Y79.581 E-.285
;WIPE_END
G1 E-.015 F3600
G1 X162.393 Y66.38 F7800
G1 E1 F2400
;TYPE:Solid infill
;WIDTH:0.420613
G1 F1800
G1 X161.86 Y65.847 E.03789
G1 X161.38 Y65.856 E.02411
G1 X162.237 Y66.713 E.06095
G1 X162.237 Y67.202 E.02457
G1 X160.901 Y65.865 E.09505
G1 X160.421 Y65.874 E.02411
G1 X162.237 Y67.691 E.12915
G1 X162.237 Y68.179 E.02457
G1 X159.941 Y65.883 E.16325
G1 X159.462 Y65.892 E.02411
G1 X162.237 Y68.668 E.19734
G1 X162.237 Y69.157 E.02457
G1 X158.982 Y65.901 E.23144
G1 X158.503 Y65.91 E.02411
G1 X162.237 Y69.645 E.26554
G1 X162.237 Y70.134 E.02457
G1 X158.023 Y65.919 E.29964
G1 X157.544 Y65.928 E.02411
G1 X162.237 Y70.622 E.33373
G1 X162.237 Y71.111 E.02457
G1 X157.064 Y65.938 E.36783
G1 X156.584 Y65.947 E.02411
G1 X162.237 Y71.6 E.40193
G1 X162.237 Y72.088 E.02457
G1 X156.105 Y65.956 E.43603
G1 X155.625 Y65.965 E.02411
G1 X162.237 Y72.577 E.47012
G1 X162.237 Y73.065 E.02457
G1 X155.146 Y65.974 E.50422
G1 X154.666 Y65.983 E.02411
G1 X162.237 Y73.554 E.53832
G1 X162.237 Y74.043 E.02457
G1 X154.187 Y65.992 E.57242
G1 X153.707 Y66.001 E.02411
G1 X162.237 Y74.531 E.60651
G1 X162.237 Y75.02 E.02457
G1 X153.227 Y66.01 E.64061
G1 X152.748 Y66.019 E.02411
G1 X162.237 Y75.509 E.67471
G1 X162.237 Y75.997 E.02457
G1 X152.268 Y66.028 E.70881
G1 X151.789 Y66.037 E.02411
G1 X162.237 Y76.486 E.7429
G1 X162.237 Y76.974 E.02457
G1 X151.309 Y66.046 E.777
G1 X150.83 Y66.055 E.02411
G1 X162.237 Y77.463 E.8111
G1 X162.237 Y77.952 E.02457
G1 X150.35 Y66.064 E.8452
G1 X149.87 Y66.073 E.02411
G1 X162.237 Y78.44 E.8793
G1 X162.237 Y78.929 E.02457
G1 X149.391 Y66.082 E.91339
G1 X148.911 Y66.091 E.02411
G1 X161.954 Y79.134 E.92732
G1 X161.474 Y79.143 E.02412
G1 X148.432 Y66.1 E.92732
G1 X147.952 Y66.109 E.02411
G1 X160.995 Y79.152 E.92732
G1 X160.515 Y79.161 E.02412
G1 X147.472 Y66.118 E.92732
G1 X146.993 Y66.127 E.02411
G1 X160.035 Y79.17 E.92731
G1 X159.556 Y79.179 E.02412
G1 X146.513 Y66.136 E.92731
G1 X146.034 Y66.145 E.02411
G1 X159.076 Y79.188 E.92731
G1 X158.597 Y79.197 E.02412
G1 X145.554 Y66.154 E.92731
G1 X145.075 Y66.164 E.02411
G1 X158.117 Y79.206 E.92731
G1 X157.637 Y79.215 E.02412
G1 X144.595 Y66.173 E.92731
G1 X144.115 Y66.182 E.02411
G1 X157.158 Y79.224 E.92731
G1 X156.678 Y79.233 E.02412
G1 X143.636 Y66.191 E.92731
G1 X143.156 Y66.2 E.02411
G1 X156.199 Y79.242 E.92731
G1 X155.719 Y79.251 E.02412
G1 X142.677 Y66.209 E.92731
G1 X142.197 Y66.218 E.02411
G1 X155.24 Y79.26 E.92731
G1 X154.76 Y79.269 E.02412
G1 X141.718 Y66.227 E.92731
G1 X141.238 Y66.236 E.02411
G1 X154.28 Y79.278 E.92731
G1 X153.801 Y79.287 E.02412
G1 X140.758 Y66.245 E.92731
G1 X140.279 Y66.254 E.02411
G1 X153.321 Y79.296 E.92731
G1 X152.842 Y79.305 E.02412
G1 X139.799 Y66.263 E.92731
G1 X139.32 Y66.272 E.02411
G1 X152.362 Y79.314 E.9273
G1 X151.882 Y79.323 E.02412
G1 X138.84 Y66.281 E.9273
G1 X138.361 Y66.29 E.02411
G1 X151.403 Y79.332 E.9273
G1 X150.923 Y79.341 E.02412
G1 X137.881 Y66.299 E.9273
G1 X137.401 Y66.308 E.02411
G1 X150.444 Y79.35 E.9273
G1 X149.964 Y79.359 E.02412
G1 X136.922 Y66.317 E.9273
G1 X136.442 Y66.326 E.02411
G1 X149.485 Y79.368 E.9273
G1 X149.005 Y79.377 E.02412
G1 X135.963 Y66.335 E.9273
G1 X135.483 Y66.344 E.02411
G1 X148.525 Y79.387 E.9273
G1 X148.046 Y79.396 E.02412
G1 X135.004 Y66.353 E.9273
G1 X134.524 Y66.362 E.02411
G1 X147.566 Y79.405 E.9273
G1 X147.087 Y79.414 E.02412
G1 X134.044 Y66.371 E.9273
G1 X133.565 Y66.38 E.02411
G1 X146.607 Y79.423 E.9273
G1 X146.127 Y79.432 E.02412
G1 X133.085 Y66.389 E.9273
G1 X132.606 Y66.399 E.02411
G1 X145.648 Y79.441 E.9273
G1 X145.168 Y79.45 E.02412
G1 X132.126 Y66.408 E.92729
G1 X131.647 Y66.417 E.02411
G1 X144.689 Y79.459 E.92729
G1 X144.209 Y79.468 E.02412
G1 X131.167 Y66.426 E.92729
G1 X130.687 Y66.435 E.02411
G1 X143.73 Y79.477 E.92729
G1 X143.25 Y79.486 E.02412
G1 X130.208 Y66.444 E.92729
G1 X129.728 Y66.453 E.02411
G1 X142.77 Y79.495 E.92729
G1 X142.291 Y79.504 E.02412
G1 X129.249 Y66.462 E.92729
G1 X128.769 Y66.471 E.02411
G1 X141.811 Y79.513 E.92729
G1 X141.332 Y79.522 E.02412
G1 X128.289 Y66.48 E.92729
G1 X127.81 Y66.489 E.02411
G1 X140.852 Y79.531 E.92729
G1 X140.372 Y79.54 E.02412
G1 X127.33 Y66.498 E.92729
G1 X126.851 Y66.507 E.02411
G1 X139.893 Y79.549 E.92729
G1 X139.413 Y79.558 E.02412
G1 X126.371 Y66.516 E.92729
G1 X125.892 Y66.525 E.02411
G1 X138.934 Y79.567 E.92729
G1 X138.454 Y79.576 E.02412
G1 X125.412 Y66.534 E.92729
G1 X124.932 Y66.543 E.02411
G1 X137.975 Y79.585 E.92729
G1 X137.495 Y79.594 E.02412
G1 X124.453 Y66.552 E.92728
G1 X123.973 Y66.561 E.02411
M73 P1 R162
G1 X137.015 Y79.603 E.92728
G1 X136.536 Y79.612 E.02412
G1 X123.494 Y66.57 E.92728
G1 X123.014 Y66.579 E.02411
M73 P1 R161
G1 X136.056 Y79.621 E.92728
G1 X135.577 Y79.63 E.02412
G1 X122.535 Y66.588 E.92728
G1 X122.055 Y66.597 E.02411
G1 X135.097 Y79.639 E.92728
G1 X134.617 Y79.648 E.02412
G1 X121.575 Y66.606 E.92728
G1 X121.096 Y66.615 E.02411
G1 X134.138 Y79.657 E.92728
G1 X133.658 Y79.666 E.02412
G1 X120.616 Y66.624 E.92728
G1 X120.137 Y66.634 E.02411
G1 X133.179 Y79.675 E.92728
G1 X132.699 Y79.684 E.02412
G1 X119.657 Y66.643 E.92728
G1 X119.178 Y66.652 E.02411
G1 X132.22 Y79.694 E.92728
G1 X131.74 Y79.703 E.02412
G1 X118.698 Y66.661 E.92728
G1 X118.218 Y66.67 E.02411
G1 X131.26 Y79.712 E.92728
G1 X130.781 Y79.721 E.02412
G1 X117.739 Y66.679 E.92728
G1 X117.259 Y66.688 E.02411
G1 X130.301 Y79.73 E.92727
G1 X129.822 Y79.739 E.02412
G1 X116.78 Y66.697 E.92727
G1 X116.3 Y66.706 E.02411
G1 X129.342 Y79.748 E.92727
G1 X128.862 Y79.757 E.02412
G1 X115.821 Y66.715 E.92727
G1 X115.341 Y66.724 E.02411
G1 X128.383 Y79.766 E.92727
G1 X127.903 Y79.775 E.02412
G1 X114.861 Y66.733 E.92727
G1 X114.382 Y66.742 E.02411
G1 X127.424 Y79.784 E.92727
G1 X126.944 Y79.793 E.02412
G1 X113.902 Y66.751 E.92727
G1 X113.423 Y66.76 E.02411
G1 X126.464 Y79.802 E.92727
G1 X125.985 Y79.811 E.02412
G1 X112.943 Y66.769 E.92727
G1 X112.464 Y66.778 E.02411
G1 X125.505 Y79.82 E.92727
G1 X125.026 Y79.829 E.02412
G1 X111.984 Y66.787 E.92727
G1 X111.504 Y66.796 E.02411
G1 X124.546 Y79.838 E.92727
G1 X124.067 Y79.847 E.02412
G1 X111.025 Y66.805 E.92727
G1 X110.545 Y66.814 E.02411
G1 X123.587 Y79.856 E.92727
G1 X123.107 Y79.865 E.02412
G1 X110.066 Y66.823 E.92726
G1 X109.586 Y66.832 E.02411
G1 X122.628 Y79.874 E.92726
G1 X122.148 Y79.883 E.02412
G1 X109.106 Y66.841 E.92726
G1 X108.627 Y66.85 E.02411
G1 X121.669 Y79.892 E.92726
G1 X121.189 Y79.901 E.02412
G1 X108.147 Y66.859 E.92726
G1 X107.668 Y66.869 E.02411
G1 X120.709 Y79.91 E.92726
G1 X120.23 Y79.919 E.02412
G1 X107.188 Y66.878 E.92726
G1 X106.709 Y66.887 E.02411
G1 X119.75 Y79.928 E.92726
G1 X119.271 Y79.937 E.02412
G1 X106.229 Y66.896 E.92726
G1 X105.749 Y66.905 E.02411
G1 X118.791 Y79.946 E.92726
G1 X118.312 Y79.955 E.02412
G1 X105.27 Y66.914 E.92726
G1 X104.79 Y66.923 E.02411
G1 X117.832 Y79.964 E.92726
G1 X117.352 Y79.973 E.02412
G1 X104.311 Y66.932 E.92726
G1 X103.831 Y66.941 E.02411
G1 X116.873 Y79.982 E.92726
G1 X116.393 Y79.991 E.02412
G1 X103.352 Y66.95 E.92726
G1 X102.872 Y66.959 E.02411
G1 X115.914 Y80.001 E.92726
G1 X115.434 Y80.01 E.02412
G1 X102.392 Y66.968 E.92725
G1 X101.913 Y66.977 E.02411
G1 X114.954 Y80.019 E.92725
G1 X114.475 Y80.028 E.02412
G1 X101.433 Y66.986 E.92725
G1 X100.954 Y66.995 E.02411
G1 X113.995 Y80.037 E.92725
G1 X113.516 Y80.046 E.02412
G1 X100.474 Y67.004 E.92725
G1 X99.995 Y67.013 E.02411
G1 X113.036 Y80.055 E.92725
G1 X112.557 Y80.064 E.02412
G1 X99.515 Y67.022 E.92725
G1 X99.035 Y67.031 E.02411
G1 X112.077 Y80.073 E.92725
G1 X111.597 Y80.082 E.02412
G1 X98.556 Y67.04 E.92725
G1 X98.076 Y67.049 E.02411
G1 X111.118 Y80.091 E.92725
G1 X110.638 Y80.1 E.02412
G1 X97.597 Y67.058 E.92725
G1 X97.117 Y67.067 E.02411
G1 X110.159 Y80.109 E.92725
G1 X109.679 Y80.118 E.02412
G1 X96.638 Y67.076 E.92725
G1 X96.158 Y67.085 E.02411
G1 X109.199 Y80.127 E.92725
G1 X108.72 Y80.136 E.02412
G1 X95.678 Y67.094 E.92725
G1 X95.199 Y67.104 E.02411
G1 X108.24 Y80.145 E.92724
G1 X107.761 Y80.154 E.02412
G1 X94.719 Y67.113 E.92724
G1 X94.24 Y67.122 E.02411
G1 X107.281 Y80.163 E.92724
G1 X106.802 Y80.172 E.02412
G1 X93.76 Y67.131 E.92724
G1 X93.281 Y67.14 E.02411
G1 X106.322 Y80.181 E.92724
G1 X105.842 Y80.19 E.02412
G1 X92.801 Y67.149 E.92724
G1 X92.321 Y67.158 E.02411
G1 X105.363 Y80.199 E.92724
G1 X104.883 Y80.208 E.02412
G1 X91.842 Y67.167 E.92724
G1 X91.362 Y67.176 E.02411
G1 X104.404 Y80.217 E.92724
G1 X103.924 Y80.226 E.02412
G1 X90.883 Y67.185 E.92724
G1 X90.403 Y67.194 E.02411
G1 X103.444 Y80.235 E.92724
G1 X102.965 Y80.244 E.02412
G1 X89.923 Y67.203 E.92724
G1 X89.444 Y67.212 E.02411
G1 X102.485 Y80.253 E.92724
G1 X102.006 Y80.262 E.02412
G1 X88.964 Y67.221 E.92724
G1 X88.485 Y67.23 E.02411
G1 X101.526 Y80.271 E.92724
G1 X101.047 Y80.28 E.02412
G1 X88.005 Y67.239 E.92724
G1 X87.526 Y67.248 E.02411
G1 X100.567 Y80.289 E.92723
G1 X100.087 Y80.298 E.02412
G1 X87.046 Y67.257 E.92723
G1 X86.566 Y67.266 E.02411
G1 X99.608 Y80.308 E.92723
G1 X99.128 Y80.317 E.02412
G1 X86.087 Y67.275 E.92723
G1 X85.607 Y67.284 E.02411
G1 X98.649 Y80.326 E.92723
G1 X98.169 Y80.335 E.02412
G1 X85.128 Y67.293 E.92723
G1 X84.648 Y67.302 E.02411
G1 X97.689 Y80.344 E.92723
G1 X97.21 Y80.353 E.02412
G1 X84.169 Y67.311 E.92723
G1 X83.689 Y67.32 E.02411
G1 X96.73 Y80.362 E.92723
G1 X96.251 Y80.371 E.02412
G1 X83.209 Y67.329 E.92723
G1 X82.73 Y67.339 E.02411
G1 X95.771 Y80.38 E.92723
G1 X95.292 Y80.389 E.02412
G1 X82.25 Y67.348 E.92723
G1 X81.771 Y67.357 E.02411
G1 X94.812 Y80.398 E.92723
G1 X94.332 Y80.407 E.02412
G1 X81.291 Y67.366 E.92723
G1 X80.812 Y67.375 E.02411
M73 P1 R160
G1 X93.853 Y80.416 E.92723
G1 X93.373 Y80.425 E.02412
G1 X80.332 Y67.384 E.92722
G1 X79.852 Y67.393 E.02411
G1 X92.894 Y80.434 E.92722
G1 X92.414 Y80.443 E.02412
G1 X79.373 Y67.402 E.92722
G1 X78.893 Y67.411 E.02411
G1 X91.934 Y80.452 E.92722
G1 X91.455 Y80.461 E.02412
G1 X78.414 Y67.42 E.92722
G1 X77.934 Y67.429 E.02411
G1 X90.975 Y80.47 E.92722
G1 X90.496 Y80.479 E.02412
G1 X77.455 Y67.438 E.92722
G1 X76.975 Y67.447 E.02411
G1 X90.016 Y80.488 E.92722
G1 X89.537 Y80.497 E.02412
G1 X76.495 Y67.456 E.92722
G1 X76.016 Y67.465 E.02411
G1 X89.057 Y80.506 E.92722
G1 X88.577 Y80.515 E.02412
G1 X75.536 Y67.474 E.92722
G1 X75.057 Y67.483 E.02411
G1 X88.098 Y80.524 E.92722
G1 X87.618 Y80.533 E.02412
G1 X74.577 Y67.492 E.92722
G1 X74.098 Y67.501 E.02411
G1 X87.139 Y80.542 E.92722
G1 X86.659 Y80.551 E.02412
G1 X73.618 Y67.51 E.92722
G1 X73.138 Y67.519 E.02411
G1 X86.179 Y80.56 E.92722
G1 X85.7 Y80.569 E.02412
G1 X72.659 Y67.528 E.92721
G1 X72.179 Y67.537 E.02411
G1 X85.22 Y80.578 E.92721
G1 X84.741 Y80.587 E.02412
G1 X71.7 Y67.546 E.92721
G1 X71.22 Y67.555 E.02411
G1 X84.261 Y80.596 E.92721
G1 X83.782 Y80.605 E.02412
G1 X70.74 Y67.564 E.92721
G1 X70.261 Y67.574 E.02411
G1 X83.302 Y80.615 E.92721
G1 X82.822 Y80.624 E.02412
G1 X69.781 Y67.583 E.92721
G1 X69.302 Y67.592 E.02411
G1 X82.343 Y80.633 E.92721
G1 X81.863 Y80.642 E.02412
G1 X68.822 Y67.601 E.92721
G1 X68.343 Y67.61 E.02411
G1 X81.384 Y80.651 E.92721
G1 X80.904 Y80.66 E.02412
G1 X67.863 Y67.619 E.92721
G1 X67.383 Y67.628 E.02411
G1 X80.424 Y80.669 E.92721
G1 X79.945 Y80.678 E.02412
G1 X66.904 Y67.637 E.92721
G1 X66.424 Y67.646 E.02411
G1 X79.465 Y80.687 E.92721
G1 X78.986 Y80.696 E.02412
G1 X65.945 Y67.655 E.92721
G1 X65.465 Y67.664 E.02411
G1 X78.506 Y80.705 E.9272
G1 X78.026 Y80.714 E.02412
G1 X64.986 Y67.673 E.9272
G1 X64.506 Y67.682 E.02411
G1 X77.547 Y80.723 E.9272
G1 X77.067 Y80.732 E.02412
G1 X64.026 Y67.691 E.9272
G1 X63.547 Y67.7 E.02411
G1 X76.588 Y80.741 E.9272
G1 X76.108 Y80.75 E.02412
G1 X63.067 Y67.709 E.9272
G1 X62.588 Y67.718 E.02411
G1 X75.629 Y80.759 E.9272
G1 X75.149 Y80.768 E.02412
G1 X62.108 Y67.727 E.9272
G1 X61.629 Y67.736 E.02411
G1 X74.669 Y80.777 E.9272
