; generated by PrusaSlicer 2.5.0+win64 on 2022-12-07 at 00:28:05 UTC

; 

; external perimeters extrusion width = 1.00mm
; perimeters extrusion width = 1.00mm
; infill extrusion width = 1.00mm
; solid infill extrusion width = 1.00mm
; top infill extrusion width = 1.00mm
; support material extrusion width = 1.00mm
; first layer extrusion width = 0.42mm

M73 P0 R107
M107
;TYPE:Custom
G90 ; use absolute coordinates
M83 ; extruder relative mode
M140 S60 ; set final bed temp
M104 S150 ; set temporary nozzle temp to prevent oozing during homing and auto bed leveling
G4 S10 ; allow partial nozzle warmup
G28 ; home all axisG1 Z50 F240
G1 X7.6 Y10 F3000
M104 S210 ; set final nozzle temp
M190 S60 ; wait for bed temp to stabilize
M109 S210 ; wait for nozzle temp to stabilize
G1 Z0.28 F240
G92 E0
G1 Y140 E10 F1500 ; prime the nozzle
G1 X4 F5000
G92 E0
M73 P0 R106
G1 Y10 E10 F1200 ; prime the nozzle
G92 E0
G21 ; set units to millimeters
G90 ; use absolute coordinates
M83 ; use relative distances for extrusion
; Filament gcode
M107
;LAYER_CHANGE
;Z:0.35
;HEIGHT:0.35
;BEFORE_LAYER_CHANGE
G92 E0
;0.35


G1 E-1 F3600
G1 Z.35 F7800
;AFTER_LAYER_CHANGE
;0.35
G1 X127.006 Y73.992
G1 E1 F2400
;TYPE:Perimeter
;WIDTH:0.42
G1 F1800
G1 X109.025 Y60.616 E1.12472
G1 X101.156 Y52.002 E.5855
G1 X123.292 Y52.002 E1.11091
G1 X127.006 Y54.769 E.23242
G1 X127.006 Y73.842 E.95722
G1 X127.351 Y74.678 F7800
;TYPE:External perimeter
G1 F1800
G1 X108.792 Y60.873 E1.16082
G1 X100.374 Y51.657 E.62641
G1 X123.406 Y51.657 E1.1559
G1 X127.351 Y54.595 E.24685
G1 X127.351 Y74.528 E1.00036
G1 X126.724 Y73.899 F7800
G1 E-.7 F3600
;WIPE_START
G1 F6240
G1 X126.932 Y74.22 E-.285
;WIPE_END
G1 E-.015 F3600
G1 X126.903 Y55.531 F7800
G1 E1 F2400
;TYPE:Solid infill
;WIDTH:0.422429
G1 F1800
G1 X124.874 Y53.503 E.14498
G1 X123.206 Y52.261 E.10511
G1 X123.141 Y52.261 E.00332
G1 X126.747 Y55.867 E.25779
G1 X126.747 Y56.359 E.02482
G1 X122.649 Y52.261 E.2929
G1 X122.158 Y52.261 E.02482
G1 X126.747 Y56.85 E.328
G1 X126.747 Y57.341 E.02482
G1 X121.667 Y52.261 E.36311
G1 X121.176 Y52.261 E.02482
G1 X126.747 Y57.832 E.39822
G1 X126.747 Y58.323 E.02482
G1 X120.685 Y52.261 E.43332
G1 X120.193 Y52.261 E.02482
G1 X126.747 Y58.815 E.46843
G1 X126.747 Y59.306 E.02482
G1 X119.702 Y52.261 E.50354
G1 X119.211 Y52.261 E.02482
G1 X126.747 Y59.797 E.53864
G1 X126.747 Y60.288 E.02482
G1 X118.72 Y52.261 E.57375
G1 X118.229 Y52.261 E.02482
G1 X126.747 Y60.779 E.60885
G1 X126.747 Y61.27 E.02482
G1 X117.738 Y52.261 E.64396
G1 X117.246 Y52.261 E.02482
G1 X126.747 Y61.762 E.67907
G1 X126.747 Y62.253 E.02482
G1 X116.755 Y52.261 E.71417
G1 X116.264 Y52.261 E.02482
G1 X126.747 Y62.744 E.74928
G1 X126.747 Y63.235 E.02482
G1 X115.773 Y52.261 E.78439
G1 X115.282 Y52.261 E.02482
G1 X126.747 Y63.726 E.81949
G1 X126.747 Y64.218 E.02482
G1 X114.79 Y52.261 E.8546
G1 X114.299 Y52.261 E.02482
G1 X126.747 Y64.709 E.88971
G1 X126.747 Y65.2 E.02482
G1 X113.808 Y52.261 E.92481
G1 X113.317 Y52.261 E.02482
G1 X126.747 Y65.691 E.95992
G1 X126.747 Y66.182 E.02482
G1 X112.826 Y52.261 E.99503
G1 X112.335 Y52.261 E.02482
G1 X126.747 Y66.673 E1.03013
G1 X126.747 Y67.165 E.02482
G1 X111.843 Y52.261 E1.06524
G1 X111.352 Y52.261 E.02482
G1 X126.747 Y67.656 E1.10034
G1 X126.747 Y68.147 E.02482
G1 X110.861 Y52.261 E1.13545
G1 X110.37 Y52.261 E.02482
G1 X126.747 Y68.638 E1.17056
G1 X126.747 Y69.129 E.02482
G1 X109.879 Y52.261 E1.20566
G1 X109.387 Y52.261 E.02482
G1 X126.747 Y69.621 E1.24077
G1 X126.747 Y70.112 E.02482
G1 X108.896 Y52.261 E1.27588
G1 X108.405 Y52.261 E.02482
G1 X126.747 Y70.603 E1.31098
G1 X126.747 Y71.094 E.02482
G1 X107.914 Y52.261 E1.34609
G1 X107.423 Y52.261 E.02482
G1 X126.747 Y71.585 E1.3812
G1 X126.747 Y72.076 E.02482
G1 X106.932 Y52.261 E1.4163
G1 X106.44 Y52.261 E.02482
G1 X126.747 Y72.568 E1.45141
G1 X126.747 Y73.059 E.02482
G1 X105.949 Y52.261 E1.48652
G1 X105.458 Y52.261 E.02482
G1 X126.463 Y73.266 E1.50132
G1 X124.545 Y71.839 E.12081
G1 X104.967 Y52.261 E1.39935
G1 X104.476 Y52.261 E.02482
G1 X122.627 Y70.413 E1.29738
G1 X120.71 Y68.986 E.12081
G1 X103.984 Y52.261 E1.1954
G1 X103.493 Y52.261 E.02482
G1 X118.792 Y67.559 E1.09343
G1 X116.874 Y66.132 E.12081
G1 X103.002 Y52.261 E.99146
G1 X102.511 Y52.261 E.02482
G1 X114.956 Y64.706 E.88949
G1 X113.038 Y63.279 E.12081
G1 X102.02 Y52.261 E.78751
G1 X101.743 Y52.261 E.014
G1 X104.004 Y54.737 E.16948
G1 X111.12 Y61.852 E.50858
G1 X109.202 Y60.425 E.12081
G1 X106.76 Y57.984 E.17452
M106 S255
;LAYER_CHANGE
;Z:0.85
;HEIGHT:0.5
;BEFORE_LAYER_CHANGE
G92 E0
;0.85


G1 E-.7 F3600
;WIPE_START
G1 F6240
G1 X107.128 Y58.351 E-.285
;WIPE_END
G1 E-.015 F3600
G1 Z.85 F7800
;AFTER_LAYER_CHANGE
;0.85
M104 S205 ; set temperature
G1 X126.168 Y72.573
G1 E1 F2400
;TYPE:Perimeter
;WIDTH:1
G1 F1374
G1 X109.555 Y60.215 E3.84229
G1 X102.818 Y52.84 E1.85375
G1 X122.684 Y52.84 E3.68656
G1 X126.168 Y55.435 E.80619
G1 X126.168 Y72.423 E3.15255
G1 E-.7 F3600
;WIPE_START
G1 F6240
G1 X125.749 Y72.116 E-.285
;WIPE_END
G1 E-.015 F3600
G1 X127.061 Y74.35 F7800
G1 E1 F2400
;TYPE:External perimeter
G1 F1374
G1 X108.954 Y60.88 E4.18786
G1 X100.794 Y51.947 E2.24531
G1 X122.98 Y51.947 E4.11718
G1 X127.061 Y54.987 E.94427
G1 X127.061 Y74.2 E3.56542
G1 X126.431 Y73.573 F7800
G1 E-.7 F3600
;WIPE_START
G1 F6240
G1 X126.642 Y73.892 E-.285
;WIPE_END
G1 E-.015 F3600
G1 X125.9 Y70.279 F7800
G1 E1 F2400
;TYPE:Solid infill
;WIDTH:1.00055
G1 F1200
G1 X125.177 Y71.002 E.18985
G1 X124.453 Y70.463 E.16764
G1 X125.499 Y69.417 E.27458
G1 X125.499 Y68.154 E.23457
G1 X123.729 Y69.924 E.46481
G1 X123.004 Y69.385 E.16764
G1 X125.499 Y66.891 E.65503
G1 X125.499 Y65.628 E.23457
G1 X122.28 Y68.847 E.84525
G1 X121.555 Y68.308 E.16764
G1 X125.499 Y64.364 E1.03547
G1 X125.499 Y63.101 E.23457
G1 X120.831 Y67.769 E1.22569
G1 X120.107 Y67.23 E.16764
G1 X125.499 Y61.838 E1.41591
G1 X125.499 Y60.575 E.23457
G1 X119.382 Y66.691 E1.60613
G1 X118.658 Y66.152 E.16764
G1 X125.499 Y59.312 E1.79636
G1 X125.499 Y58.048 E.23457
G1 X117.934 Y65.613 E1.98658
G1 X117.209 Y65.074 E.16764
G1 X125.499 Y56.785 E2.1768
G1 X125.499 Y55.771 E.18825
G1 X125.356 Y55.665 E.0331
G1 X116.485 Y64.536 E2.32949
G1 X115.76 Y63.997 E.16764
M73 P0 R105
G1 X124.632 Y55.125 E2.3296
G1 X123.908 Y54.586 E.16763
M73 P1 R105
G1 X115.036 Y63.458 E2.32971
G1 X114.312 Y62.919 E.16764
G1 X123.184 Y54.047 E2.32982
G1 X122.458 Y53.509 E.16769
G1 X113.587 Y62.38 E2.32947
G1 X112.863 Y61.841 E.16764
G1 X121.195 Y53.509 E2.18797
G1 X119.932 Y53.509 E.23457
G1 X112.139 Y61.302 E2.04646
G1 X111.414 Y60.764 E.16764
G1 X118.668 Y53.509 E1.90496
G1 X117.405 Y53.509 E.23457
G1 X110.69 Y60.225 E1.76345
G1 X109.972 Y59.679 E.16739
G1 X116.142 Y53.509 E1.62014
G1 X114.879 Y53.509 E.23457
G1 X109.369 Y59.019 E1.44678
G1 X108.766 Y58.359 E.16603
G1 X113.615 Y53.509 E1.27341
G1 X112.352 Y53.509 E.23457
G1 X108.163 Y57.698 E1.10005
G1 X107.56 Y57.038 E.16603
G1 X111.089 Y53.509 E.92668
G1 X109.826 Y53.509 E.23457
G1 X106.957 Y56.378 E.75332
G1 X106.354 Y55.718 E.16603
G1 X108.562 Y53.509 E.57996
G1 X107.299 Y53.509 E.23457
G1 X105.751 Y55.058 E.40659
G1 X105.148 Y54.397 E.16603
G1 X106.036 Y53.509 E.23323
G1 X104.773 Y53.509 E.23457
G1 X104.26 Y54.022 E.13453
;LAYER_CHANGE
;Z:1.35
;HEIGHT:0.5
;BEFORE_LAYER_CHANGE
G92 E0
;1.35


G1 E-.7 F3600
;WIPE_START
G1 F6240
G1 X104.628 Y53.654 E-.285
;WIPE_END
G1 E-.015 F3600
G1 Z1.35 F7800
;AFTER_LAYER_CHANGE
;1.35
G1 X126.168 Y72.866
G1 E1 F2400
;TYPE:Perimeter
;WIDTH:1
G1 F1436
G1 X109.516 Y60.479 E3.85145
G1 X102.538 Y52.84 E1.91994
G1 X122.295 Y52.84 E3.66641
G1 X126.168 Y55.725 E.89614
G1 X126.168 Y72.716 E3.15315
G1 E-.7 F3600
;WIPE_START
G1 F6240
G1 X125.749 Y72.408 E-.285
;WIPE_END
G1 E-.015 F3600
G1 X127.061 Y74.643 F7800
G1 E1 F2400
;TYPE:External perimeter
G1 F1436
G1 X108.914 Y61.144 E4.19702
G1 X100.513 Y51.947 E2.3115
G1 X122.591 Y51.947 E4.09702
G1 X127.061 Y55.276 E1.03423
G1 X127.061 Y74.493 E3.56602
G1 X126.428 Y73.869 F7800
G1 E-.7 F3600
;WIPE_START
G1 F6240
G1 X126.642 Y74.185 E-.285
;WIPE_END
G1 E-.015 F3600
G1 X125.9 Y57.738 F7800
G1 E1 F2400
;TYPE:Solid infill
;WIDTH:1.02453
G1 F1200
G1 X121.672 Y53.509 E1.14022
G1 X120.375 Y53.509 E.24733
G1 X125.499 Y58.633 E1.38167
G1 X125.499 Y59.93 E.24733
G1 X119.078 Y53.509 E1.73145
G1 X117.78 Y53.509 E.24733
G1 X125.499 Y61.228 E2.08122
G1 X125.499 Y62.525 E.24733
G1 X116.483 Y53.509 E2.431
G1 X115.186 Y53.509 E.24733
G1 X125.499 Y63.822 E2.78077
G1 X125.499 Y65.119 E.24733
G1 X113.889 Y53.509 E3.13055
G1 X112.592 Y53.509 E.24733
G1 X125.499 Y66.416 E3.48033
G1 X125.499 Y67.713 E.24733
G1 X111.295 Y53.509 E3.8301
G1 X109.997 Y53.509 E.24733
G1 X125.499 Y69.011 E4.17988
G1 X125.499 Y70.308 E.24733
G1 X108.7 Y53.509 E4.52965
G1 X107.403 Y53.509 E.24733
G1 X125.221 Y71.327 E4.80458
G1 X120.156 Y67.559 E1.20364
G1 X106.106 Y53.509 E3.7886
G1 X104.809 Y53.509 E.24733
G1 X115.091 Y63.792 E2.77262
G1 X110.026 Y60.024 E1.20364
G1 X103.519 Y53.516 E1.75475
;LAYER_CHANGE
;Z:1.85
;HEIGHT:0.5
;BEFORE_LAYER_CHANGE
G92 E0
;1.85


G1 E-.7 F3600
;WIPE_START
G1 F6240
G1 X103.886 Y53.884 E-.285
;WIPE_END
G1 E-.015 F3600
G1 Z1.85 F7800
;AFTER_LAYER_CHANGE
;1.85
G1 X126.168 Y73.159
G1 E1 F2400
;TYPE:Perimeter
;WIDTH:1
G1 F900
G1 X109.476 Y60.742 E3.8606
G1 X102.258 Y52.84 E1.98613
G1 X121.901 Y52.84 E3.64524
G1 X126.168 Y56.018 E.98737
G1 X126.168 Y73.009 E3.15298
G1 E-.7 F3600
;WIPE_START
G1 F6240
G1 X125.749 Y72.701 E-.285
;WIPE_END
G1 E-.015 F3600
G1 X127.061 Y74.936 F7800
G1 E1 F2400
;TYPE:External perimeter
G1 F900
G1 X108.875 Y61.407 E4.20617
G1 X100.233 Y51.947 E2.3777
G1 X122.197 Y51.947 E4.07585
G1 X127.061 Y55.57 E1.12546
G1 X127.061 Y74.786 E3.56585
G1 X126.424 Y74.165 F7800
G1 E-.7 F3600
;WIPE_START
G1 F6240
G1 X126.642 Y74.478 E-.285
;WIPE_END
G1 E-.015 F3600
G1 X117.039 Y65.533 F7800
G1 E1 F2400
;TYPE:Internal infill
;WIDTH:0.842699
;HEIGHT:1
G1 F900
G1 X121.336 Y68.73 E1.24201
G1 X122.816 Y68.73 E.34314
G1 X125.499 Y71.413 E.87972
G1 X125.499 Y56.354 E3.49176
G1 X123.847 Y55.124 E.47749
G1 X122.816 Y57.187 E.53471
G1 X111.273 Y57.187 E2.67669
G1 X107.595 Y53.509 E1.20599
G1 X103.776 Y53.509 E.88556
G1 X104.813 Y54.644 E.35645
;LAYER_CHANGE
;Z:2.35
;HEIGHT:0.5
;BEFORE_LAYER_CHANGE
G92 E0
;2.35


G1 E-.7 F3600
;WIPE_START
G1 F6240
G1 X104.462 Y54.26 E-.285
;WIPE_END
G1 E-.015 F3600
G1 Z2.35 F7800
;AFTER_LAYER_CHANGE
;2.35
G1 X126.168 Y73.452
G1 E1 F2400
;TYPE:Perimeter
;WIDTH:1
G1 F900
G1 X109.437 Y61.005 E3.86976
G1 X101.978 Y52.84 E2.05233
G1 X121.508 Y52.84 E3.62425
G1 X126.168 Y56.312 E1.07845
G1 X126.168 Y73.302 E3.15283
G1 E-.7 F3600
;WIPE_START
G1 F6240
G1 X125.749 Y72.994 E-.285
;WIPE_END
G1 E-.015 F3600
G1 X127.061 Y75.229 F7800
G1 E1 F2400
;TYPE:External perimeter
G1 F900
G1 X108.835 Y61.671 E4.21533
G1 X99.953 Y51.947 E2.44389
G1 X121.804 Y51.947 E4.05487
G1 X127.061 Y55.864 E1.21654
G1 X127.061 Y75.079 E3.56568
G1 X126.421 Y74.46 F7800
G1 E-.7 F3600
;WIPE_START
G1 F6240
G1 X126.642 Y74.77 E-.285
;WIPE_END
G1 E-.015 F3600
G1 X125.499 Y68.373 F7800
G1 E1 F2400
;TYPE:Internal infill
;WIDTH:0.842699
;HEIGHT:1
G1 F900
G1 X125.499 Y72.119 E.86871
G1 X124.207 Y71.159 E.3733
G1 X123.17 Y69.084 E.5379
G1 X123.17 Y56.833 E2.84066
G1 X123.869 Y55.434 E.36277
G1 X121.286 Y53.509 E.74701
G1 X107.595 Y53.509 E3.17465
G1 X110.919 Y56.833 E1.09005
M73 P1 R104
G1 X110.919 Y61.274 E1.02967
G1 X115.217 Y64.471 E1.24201
;LAYER_CHANGE
;Z:2.85
;HEIGHT:0.5
;BEFORE_LAYER_CHANGE
G92 E0
;2.85


G1 E-.7 F3600
;WIPE_START
G1 F6240
G1 X114.799 Y64.16 E-.285
;WIPE_END
G1 E-.015 F3600
G1 Z2.85 F7800
;AFTER_LAYER_CHANGE
;2.85
G1 X126.168 Y73.745
G1 E1 F2400
;TYPE:Perimeter
;WIDTH:1
G1 F900
G1 X109.397 Y61.269 E3.87891
G1 X101.697 Y52.84 E2.11852
G1 X121.115 Y52.84 E3.60326
G1 X126.168 Y56.605 E1.16948
G1 X126.168 Y73.595 E3.15274
M73 P2 R104
G1 E-.7 F3600
;WIPE_START
G1 F6240
G1 X125.749 Y73.287 E-.285
;WIPE_END
G1 E-.015 F3600
G1 X127.061 Y75.521 F7800
G1 E1 F2400
;TYPE:External perimeter
G1 F900
G1 X108.796 Y61.934 E4.22448
G1 X99.673 Y51.947 E2.51008
G1 X121.411 Y51.947 E4.03389
G1 X127.061 Y56.157 E1.30757
G1 X127.061 Y75.371 E3.5656
G1 X126.417 Y74.756 F7800
G1 E-.7 F3600
;WIPE_START
G1 F6240
G1 X126.642 Y75.063 E-.285
;WIPE_END
G1 E-.015 F3600
G1 X117.202 Y66.24 F7800
G1 E1 F2400
;TYPE:Internal infill
;WIDTH:0.842699
;HEIGHT:1
G1 F900
G1 X121.5 Y69.437 E1.24201
G1 X123.523 Y69.437 E.46924
G1 X124.722 Y71.834 E.62139
G1 X125.499 Y72.412 E.22458
G1 X125.499 Y56.941 E3.58743
G1 X123.891 Y55.744 E.46483
G1 X123.523 Y56.48 E.19086
G1 X110.566 Y56.48 E3.00462
G1 X107.595 Y53.509 E.9741
G1 X103.216 Y53.509 E1.01549
G1 X103.875 Y54.231 E.22652
;LAYER_CHANGE
;Z:3.35
;HEIGHT:0.5
;BEFORE_LAYER_CHANGE
G92 E0
;3.35


G1 E-.7 F3600
;WIPE_START
G1 F6240
G1 X103.524 Y53.847 E-.285
;WIPE_END
G1 E-.015 F3600
G1 Z3.35 F7800
;AFTER_LAYER_CHANGE
;3.35
G1 X126.168 Y74.037
G1 E1 F2400
;TYPE:Perimeter
;WIDTH:1
G1 F900
G1 X109.357 Y61.532 E3.88807
G1 X101.417 Y52.84 E2.18471
G1 X120.721 Y52.84 E3.58229
G1 X126.168 Y56.898 E1.26047
G1 X126.168 Y73.887 E3.15271
G1 E-.7 F3600
;WIPE_START
G1 F6240
G1 X125.749 Y73.58 E-.285
;WIPE_END
G1 E-.015 F3600
G1 X127.061 Y75.814 F7800
G1 E1 F2400
;TYPE:External perimeter
G1 F900
G1 X108.756 Y62.197 E4.23364
G1 X99.393 Y51.947 E2.57628
G1 X121.017 Y51.947 E4.01291
G1 X127.061 Y56.45 E1.39856
G1 X127.061 Y75.664 E3.56557
G1 X126.414 Y75.052 F7800
G1 E-.7 F3600
;WIPE_START
G1 F6240
G1 X126.642 Y75.356 E-.285
;WIPE_END
G1 E-.015 F3600
G1 X125.499 Y67.676 F7800
G1 E1 F2400
;TYPE:Internal infill
;WIDTH:0.842699
;HEIGHT:1
G1 F900
G1 X125.499 Y72.705 E1.16614
G1 X125.236 Y72.51 E.07587
G1 X123.877 Y69.791 E.70488
G1 X123.877 Y56.126 E3.16859
G1 X123.913 Y56.053 E.01898
G1 X120.499 Y53.509 E.98719
G1 X107.595 Y53.509 E2.99228
G1 X110.212 Y56.126 E.85816
G1 X110.212 Y61.333 E1.20745
G1 X114.51 Y64.53 E1.24201
;LAYER_CHANGE
;Z:3.85
;HEIGHT:0.5
;BEFORE_LAYER_CHANGE
G92 E0
;3.85


G1 E-.7 F3600
;WIPE_START
G1 F6240
G1 X114.092 Y64.22 E-.285
;WIPE_END
G1 E-.015 F3600
G1 Z3.85 F7800
;AFTER_LAYER_CHANGE
;3.85
G1 X126.168 Y74.33
G1 E1 F2400
;TYPE:Perimeter
;WIDTH:1
G1 F900
G1 X109.318 Y61.795 E3.89722
G1 X101.137 Y52.84 E2.25091
G1 X120.328 Y52.84 E3.56131
G1 X126.168 Y57.191 E1.35147
G1 X126.168 Y74.18 E3.15268
G1 E-.7 F3600
;WIPE_START
G1 F6240
G1 X125.749 Y73.872 E-.285
;WIPE_END
G1 E-.015 F3600
G1 X127.061 Y76.107 F7800
G1 E1 F2400
;TYPE:External perimeter
G1 F900
G1 X108.716 Y62.461 E4.24279
G1 X99.113 Y51.947 E2.64247
G1 X120.624 Y51.947 E3.99193
G1 X127.061 Y56.743 E1.48955
G1 X127.061 Y75.957 E3.56554
G1 X126.411 Y75.347 F7800
G1 E-.7 F3600
;WIPE_START
G1 F6240
G1 X126.642 Y75.649 E-.285
;WIPE_END
G1 E-.015 F3600
G1 X122.021 Y70.411 F7800
G1 E1 F2400
;TYPE:Internal infill
;WIDTH:0.842699
;HEIGHT:1
G1 F900
G1 X125.499 Y72.998 E1.00507
G1 X125.499 Y72.681 E.07342
G1 X124.23 Y70.144 E.65767
G1 X121.663 Y70.144 E.59533
G1 X109.769 Y61.297 E3.43742
G1 X102.656 Y53.509 E2.44569
G1 X107.595 Y53.509 E1.14542
G1 X109.859 Y55.773 E.74222
G1 X123.144 Y55.773 E3.08064
G1 X125.499 Y57.527 E.68095
G1 X125.499 Y59.947 E.56106
;LAYER_CHANGE
;Z:4.35
;HEIGHT:0.5
;BEFORE_LAYER_CHANGE
G92 E0
;4.35


G1 E-.7 F3600
;WIPE_START
G1 F6240
G1 X125.499 Y59.427 E-.285
;WIPE_END
G1 E-.015 F3600
G1 Z4.35 F7800
;AFTER_LAYER_CHANGE
;4.35
G1 X126.168 Y74.623
G1 E1 F2400
;TYPE:Perimeter
;WIDTH:1
G1 F900
G1 X109.278 Y62.059 E3.90638
G1 X100.857 Y52.84 E2.3171
G1 X119.935 Y52.84 E3.54033
G1 X126.168 Y57.484 E1.44246
G1 X126.168 Y74.473 E3.15265
G1 E-.7 F3600
;WIPE_START
G1 F6240
G1 X125.749 Y74.165 E-.285
;WIPE_END
G1 E-.015 F3600
G1 X127.061 Y76.4 F7800
G1 E1 F2400
;TYPE:External perimeter
G1 F900
G1 X108.677 Y62.724 E4.25195
G1 X98.832 Y51.947 E2.70866
G1 X120.231 Y51.947 E3.97095
G1 X127.061 Y57.036 E1.58055
G1 X127.061 Y76.25 E3.56551
G1 X126.408 Y75.642 F7800
M73 P2 R103
G1 E-.7 F3600
;WIPE_START
G1 F6240
G1 X126.642 Y75.942 E-.285
;WIPE_END
G1 E-.015 F3600
G1 X121.974 Y70.668 F7800
G1 E1 F2400
;TYPE:Internal infill
;WIDTH:0.842699
;HEIGHT:1
G1 F900
G1 X125.499 Y73.291 E1.01871
G1 X125.499 Y72.328 E.2233
G1 X124.584 Y70.498 E.47435
G1 X124.584 Y57.139 E3.09781
G1 X119.713 Y53.509 E1.40849
