; generated by PrusaSlicer 2.5.0+win64 on 2022-12-07 at 00:28:14 UTC

; 

; external perimeters extrusion width = 1.00mm
; perimeters extrusion width = 1.00mm
; infill extrusion width = 1.00mm
; solid infill extrusion width = 1.00mm
; top infill extrusion width = 1.00mm
; support material extrusion width = 1.00mm
; first layer extrusion width = 0.42mm

M73 P0 R275
M107
;TYPE:Custom
G90 ; use absolute coordinates
M83 ; extruder relative mode
M140 S60 ; set final bed temp
M104 S150 ; set temporary nozzle temp to prevent oozing during homing and auto bed leveling
G4 S10 ; allow partial nozzle warmup
G28 ; home all axisG1 Z50 F240
G1 X7.6 Y10 F3000
M104 S210 ; set final nozzle temp
M190 S60 ; wait for bed temp to stabilize
M109 S210 ; wait for nozzle temp to stabilize
G1 Z0.28 F240
G92 E0
G1 Y140 E10 F1500 ; prime the nozzle
G1 X4 F5000
G92 E0
G1 Y10 E10 F1200 ; prime the nozzle
G92 E0
G21 ; set units to millimeters
G90 ; use absolute coordinates
M83 ; use relative distances for extrusion
; Filament gcode
M107
;LAYER_CHANGE
;Z:0.35
;HEIGHT:0.35
;BEFORE_LAYER_CHANGE
G92 E0
;0.35


G1 E-1 F3600
G1 Z.35 F7800
;AFTER_LAYER_CHANGE
;0.35
G1 X79.833 Y59.622
G1 E1 F2400
;TYPE:Support material
;WIDTH:0.42
G1 F1800
G1 X83.226 Y59.622 E.17027
G1 X83.226 Y66.408 E.34053
G1 X86.619 Y66.408 E.17027
G1 X86.619 Y73.193 E.34053
G1 X90.011 Y73.193 E.17027
G1 X90.011 Y79.978 E.34053
G1 X93.404 Y79.978 E.17027
G1 X93.404 Y86.764 E.34053
G1 X96.797 Y86.764 E.17027
G1 X96.797 Y93.549 E.34053
G1 X100.189 Y93.549 E.17027
G1 X100.189 Y110.2 E.83563
G1 X94.542 Y110.2 E.28344
G1 X74.789 Y61.09 E2.65649
G1 X74.293 Y57.151 E.19926
G1 X79.833 Y53.598 E.3303
G1 X79.833 Y59.57 E.29972
G1 X99.748 Y110.045 F7800
G1 F1800
G1 X99.748 Y93.86 E.81226
G1 X99.365 Y93.86 E.01923
G1 X99.365 Y109.889 E.80447
G1 X98.982 Y109.889 E.01923
G1 X98.982 Y93.86 E.80447
G1 X98.598 Y93.86 E.01923
G1 X98.598 Y109.889 E.80447
G1 X98.215 Y109.889 E.01923
G1 X98.215 Y93.86 E.80447
G1 X97.832 Y93.86 E.01923
G1 X97.832 Y109.889 E.80447
G1 X97.449 Y109.889 E.01923
G1 X97.449 Y93.86 E.80447
G1 X97.066 Y93.86 E.01923
G1 X97.066 Y109.889 E.80447
G1 X96.682 Y109.889 E.01923
G1 X96.682 Y93.86 E.80447
G1 X96.486 Y93.86 E.00984
G1 X96.486 Y87.074 E.34053
G1 X96.299 Y87.074 E.00939
G1 X96.299 Y109.889 E1.145
G1 X95.916 Y109.889 E.01923
G1 X95.916 Y87.074 E1.145
G1 X95.533 Y87.074 E.01923
G1 X95.533 Y109.889 E1.145
G1 X95.149 Y109.889 E.01923
G1 X95.149 Y87.074 E1.145
G1 X94.766 Y87.074 E.01923
G1 X94.766 Y109.889 E1.145
G1 X94.751 Y109.889 E.00075
G1 X94.383 Y108.974 E.04953
G1 X94.383 Y87.074 E1.09905
G1 X94 Y87.074 E.01923
G1 X94 Y108.021 E1.05123
G1 X93.617 Y107.068 E.05154
G1 X93.617 Y87.074 E1.00342
G1 X93.233 Y87.074 E.01923
G1 X93.233 Y106.115 E.95561
G1 X92.85 Y105.163 E.05154
G1 X92.85 Y80.289 E1.24832
G1 X92.467 Y80.289 E.01923
G1 X92.467 Y104.21 E1.20051
G1 X92.084 Y103.257 E.05154
G1 X92.084 Y80.289 E1.1527
G1 X91.701 Y80.289 E.01923
G1 X91.701 Y102.305 E1.10488
G1 X91.317 Y101.352 E.05154
G1 X91.317 Y80.289 E1.05707
G1 X90.934 Y80.289 E.01923
G1 X90.934 Y100.399 E1.00926
G1 X90.551 Y99.446 E.05154
G1 X90.551 Y80.289 E.96144
G1 X90.168 Y80.289 E.01923
G1 X90.168 Y98.494 E.91363
G1 X89.785 Y97.541 E.05154
G1 X89.785 Y80.289 E.86581
G1 X89.701 Y80.289 E.0042
G1 X89.701 Y73.503 E.34053
G1 X89.401 Y73.503 E.01503
G1 X89.401 Y96.588 E1.15853
G1 X89.018 Y95.635 E.05154
G1 X89.018 Y73.503 E1.11072
G1 X88.635 Y73.503 E.01923
G1 X88.635 Y94.683 E1.06291
G1 X88.252 Y93.73 E.05154
G1 X88.252 Y73.503 E1.01509
G1 X87.868 Y73.503 E.01923
G1 X87.868 Y92.777 E.96728
G1 X87.485 Y91.824 E.05154
G1 X87.485 Y73.503 E.91946
G1 X87.102 Y73.503 E.01923
G1 X87.102 Y90.872 E.87165
G1 X86.719 Y89.919 E.05154
G1 X86.719 Y73.503 E.82384
G1 X86.336 Y73.503 E.01923
G1 X86.336 Y88.966 E.77602
G1 X85.952 Y88.014 E.05154
G1 X85.952 Y66.718 E1.06874
G1 X85.569 Y66.718 E.01923
G1 X85.569 Y87.061 E1.02093
G1 X85.186 Y86.108 E.05154
G1 X85.186 Y66.718 E.97311
G1 X84.803 Y66.718 E.01923
G1 X84.803 Y85.155 E.9253
G1 X84.42 Y84.203 E.05154
G1 X84.42 Y66.718 E.87749
G1 X84.036 Y66.718 E.01923
G1 X84.036 Y83.25 E.82967
G1 X83.653 Y82.297 E.05154
G1 X83.653 Y66.718 E.78186
G1 X83.27 Y66.718 E.01923
G1 X83.27 Y81.344 E.73405
G1 X82.887 Y80.392 E.05154
G1 X82.887 Y59.933 E1.02676
G1 X82.504 Y59.933 E.01923
M73 P0 R274
G1 X82.504 Y79.439 E.97895
G1 X82.12 Y78.486 E.05154
G1 X82.12 Y59.933 E.93114
G1 X81.737 Y59.933 E.01923
G1 X81.737 Y77.534 E.88332
G1 X81.354 Y76.581 E.05154
G1 X81.354 Y59.933 E.83551
G1 X80.971 Y59.933 E.01923
G1 X80.971 Y75.628 E.7877
G1 X80.587 Y74.675 E.05154
G1 X80.587 Y59.933 E.73988
G1 X80.204 Y59.933 E.01923
G1 X80.204 Y73.723 E.69207
G1 X79.821 Y72.77 E.05154
G1 X79.821 Y59.933 E.64426
G1 X79.523 Y59.933 E.01497
G1 X79.523 Y54.178 E.28879
G1 X79.438 Y54.232 E.00506
G1 X79.438 Y71.817 E.88251
G1 X79.055 Y70.864 E.05154
G1 X79.055 Y54.477 E.82241
G1 X78.671 Y54.722 E.02282
G1 X78.671 Y69.912 E.76231
G1 X78.288 Y68.959 E.05154
G1 X78.288 Y54.967 E.70221
G1 X77.905 Y55.212 E.02282
G1 X77.905 Y68.006 E.6421
G1 X77.522 Y67.054 E.05154
G1 X77.522 Y55.457 E.582
G1 X77.139 Y55.701 E.02282
G1 X77.139 Y66.101 E.5219
G1 X76.755 Y65.148 E.05154
G1 X76.755 Y55.946 E.4618
G1 X76.372 Y56.191 E.02282
G1 X76.372 Y64.195 E.4017
G1 X75.989 Y63.243 E.05154
G1 X75.989 Y56.436 E.3416
G1 X75.606 Y56.681 E.02282
G1 X75.606 Y62.29 E.28149
G1 X75.223 Y61.337 E.05154
G1 X75.223 Y56.926 E.22139
G1 X74.839 Y57.171 E.02282
G1 X74.839 Y60.288 E.15644
G1 E-.7 F3600
;WIPE_START
G1 F6240
G1 X74.839 Y59.768 E-.285
;WIPE_END
G1 E-.015 F3600
G1 X73.194 Y56.355 F7800
G1 E1 F2400
;TYPE:Perimeter
;WIDTH:0.42
G1 F1800
G1 X73.149 Y56.389 E.00282
G1 X73.01 Y56.592 E.01238
G1 X72.98 Y56.839 E.01248
G1 X73.547 Y61.346 E.22796
G1 X73.58 Y61.475 E.00666
G1 X102.356 Y133.054 E3.87167
G1 X102.417 Y133.164 E.00635
G1 X109.604 Y143.052 E.61344
G1 X120.397 Y162.82 E1.13031
G1 X104.568 Y162.82 E.79437
G1 X98.038 Y150.867 E.68355
G1 X90.123 Y139.949 E.67675
G1 X58.791 Y62.01 E4.21569
G1 X56.868 Y47.004 E.75923
G1 X70.686 Y38.432 E.81608
G1 X70.869 Y38.238 E.01339
G1 X72.833 Y34.588 E.20799
G1 X88.874 Y37.944 E.82247
G1 X88.991 Y37.955 E.00587
G1 X144.19 Y36.836 E2.77078
G1 X144.19 Y51.8 E.75099
G1 X88.095 Y52.94 E2.81574
G1 X86.572 Y52.786 E.07681
G1 X80.79 Y51.614 E.29609
G1 X80.647 Y51.605 E.00719
G1 X80.398 Y51.692 E.01323
G1 X78.759 Y52.797 E.0992
G1 X73.319 Y56.273 E.32398
G1 X73.401 Y56.63 F7800
;TYPE:External perimeter
G1 F1800
G1 X73.375 Y56.649 E.00163
G1 X73.323 Y56.796 E.00783
G1 X73.9 Y61.346 E.23016
G1 X102.676 Y132.925 E3.87167
G1 X109.896 Y142.867 E.61663
G1 X120.978 Y163.165 E1.16059
G1 X104.363 Y163.165 E.83381
G1 X97.758 Y151.068 E.69167
G1 X89.819 Y140.117 E.67883
G1 X58.455 Y62.097 E4.22003
G1 X56.497 Y46.828 E.77258
G1 X69.72 Y38.625 E.78091
G1 X70.565 Y38.074 E.05063
G1 X72.651 Y34.198 E.22093
G1 X88.984 Y37.61 E.83735
G1 X144.535 Y36.484 E2.78844
G1 X144.535 Y52.138 E.78561
G1 X88.081 Y53.285 E2.83375
G1 X86.521 Y53.128 E.07872
G1 X80.721 Y51.952 E.29696
G1 X80.591 Y51.978 E.00668
G1 X78.948 Y53.085 E.09941
G1 X73.527 Y56.549 E.32285
G1 X73.371 Y56.617 F7800
G1 E-.7 F3600
;WIPE_START
G1 F6240
G1 X73.375 Y56.649 E-.09991
G1 X73.323 Y56.796 E-.08552
G1 X73.345 Y56.977 E-.09957
;WIPE_END
G1 E-.015 F3600
G1 X143.401 Y36.956 F7800
G1 E1 F2400
;TYPE:Solid infill
;WIDTH:0.420911
G1 F1800
G1 X143.931 Y37.485 E.03769
G1 X143.931 Y37.974 E.02461
G1 X143.074 Y37.117 E.06098
G1 X142.595 Y37.127 E.02412
G1 X143.931 Y38.463 E.09509
G1 X143.931 Y38.952 E.02461
G1 X142.116 Y37.137 E.12919
G1 X141.636 Y37.147 E.02412
G1 X143.931 Y39.441 E.1633
G1 X143.931 Y39.93 E.02461
G1 X141.157 Y37.156 E.19741
G1 X140.678 Y37.166 E.02412
G1 X143.931 Y40.419 E.23152
G1 X143.931 Y40.908 E.02461
G1 X140.198 Y37.176 E.26563
G1 X139.719 Y37.185 E.02412
G1 X143.931 Y41.398 E.29974
G1 X143.931 Y41.887 E.02461
G1 X139.24 Y37.195 E.33385
G1 X138.76 Y37.205 E.02412
G1 X143.931 Y42.376 E.36796
G1 X143.931 Y42.865 E.02461
G1 X138.281 Y37.215 E.40207
G1 X137.802 Y37.224 E.02412
G1 X143.931 Y43.354 E.43618
G1 X143.931 Y43.843 E.02461
G1 X137.322 Y37.234 E.47029
G1 X136.843 Y37.244 E.02412
G1 X143.931 Y44.332 E.50439
G1 X143.931 Y44.821 E.02461
G1 X136.364 Y37.253 E.5385
G1 X135.884 Y37.263 E.02412
G1 X143.931 Y45.31 E.57261
G1 X143.931 Y45.799 E.02461
G1 X135.405 Y37.273 E.60672
G1 X134.926 Y37.282 E.02412
G1 X143.931 Y46.288 E.64083
G1 X143.931 Y46.777 E.02461
G1 X134.446 Y37.292 E.67494
G1 X133.967 Y37.302 E.02412
G1 X143.931 Y47.266 E.70905
G1 X143.931 Y47.755 E.02461
G1 X133.488 Y37.312 E.74316
G1 X133.008 Y37.321 E.02412
G1 X143.931 Y48.244 E.77727
G1 X143.931 Y48.733 E.02461
G1 X132.529 Y37.331 E.81138
G1 X132.05 Y37.341 E.02412
G1 X143.931 Y49.222 E.84548
G1 X143.931 Y49.711 E.02461
G1 X131.57 Y37.35 E.87959
G1 X131.091 Y37.36 E.02412
G1 X143.931 Y50.2 E.9137
G1 X143.931 Y50.689 E.02461
G1 X130.612 Y37.37 E.94781
G1 X130.133 Y37.38 E.02412
G1 X143.931 Y51.178 E.98192
G1 X143.931 Y51.547 E.01854
G1 X143.813 Y51.549 E.00594
G1 X129.653 Y37.389 E1.00763
G1 X129.174 Y37.399 E.02412
G1 X143.334 Y51.559 E1.00763
G1 X142.854 Y51.569 E.02412
G1 X128.695 Y37.409 E1.00763
G1 X128.215 Y37.418 E.02412
G1 X142.375 Y51.578 E1.00763
G1 X141.896 Y51.588 E.02412
G1 X127.736 Y37.428 E1.00763
G1 X127.257 Y37.438 E.02412
G1 X141.417 Y51.598 E1.00763
G1 X140.937 Y51.608 E.02412
G1 X126.777 Y37.448 E1.00764
G1 X126.298 Y37.457 E.02412
G1 X140.458 Y51.617 E1.00764
G1 X139.979 Y51.627 E.02412
G1 X125.819 Y37.467 E1.00764
G1 X125.339 Y37.477 E.02412
G1 X139.499 Y51.637 E1.00764
G1 X139.02 Y51.647 E.02412
M73 P0 R273
G1 X124.86 Y37.486 E1.00764
G1 X124.381 Y37.496 E.02412
G1 X138.541 Y51.656 E1.00764
G1 X138.061 Y51.666 E.02412
G1 X123.901 Y37.506 E1.00765
G1 X123.422 Y37.516 E.02412
G1 X137.582 Y51.676 E1.00765
G1 X137.103 Y51.685 E.02412
G1 X122.943 Y37.525 E1.00765
G1 X122.463 Y37.535 E.02412
G1 X136.624 Y51.695 E1.00765
G1 X136.144 Y51.705 E.02412
G1 X121.984 Y37.545 E1.00765
G1 X121.505 Y37.554 E.02412
G1 X135.665 Y51.715 E1.00765
G1 X135.186 Y51.724 E.02412
G1 X121.025 Y37.564 E1.00766
G1 X120.546 Y37.574 E.02412
G1 X134.706 Y51.734 E1.00766
G1 X134.227 Y51.744 E.02412
G1 X120.067 Y37.584 E1.00766
G1 X119.587 Y37.593 E.02412
G1 X133.748 Y51.754 E1.00766
G1 X133.268 Y51.763 E.02412
G1 X119.108 Y37.603 E1.00766
G1 X118.629 Y37.613 E.02412
G1 X132.789 Y51.773 E1.00766
G1 X132.31 Y51.783 E.02412
G1 X118.149 Y37.622 E1.00767
G1 X117.67 Y37.632 E.02412
G1 X131.831 Y51.793 E1.00767
G1 X131.351 Y51.802 E.02412
G1 X117.191 Y37.642 E1.00767
G1 X116.712 Y37.652 E.02412
G1 X130.872 Y51.812 E1.00767
G1 X130.393 Y51.822 E.02412
G1 X116.232 Y37.661 E1.00767
G1 X115.753 Y37.671 E.02412
G1 X129.913 Y51.831 E1.00768
G1 X129.434 Y51.841 E.02412
G1 X115.274 Y37.681 E1.00768
G1 X114.794 Y37.69 E.02412
G1 X128.955 Y51.851 E1.00768
G1 X128.475 Y51.861 E.02412
G1 X114.315 Y37.7 E1.00768
G1 X113.836 Y37.71 E.02412
G1 X127.996 Y51.87 E1.00768
G1 X127.517 Y51.88 E.02412
G1 X113.356 Y37.72 E1.00768
G1 X112.877 Y37.729 E.02412
G1 X127.038 Y51.89 E1.00768
G1 X126.558 Y51.9 E.02412
G1 X112.398 Y37.739 E1.00769
G1 X111.918 Y37.749 E.02412
G1 X126.079 Y51.909 E1.00769
G1 X125.6 Y51.919 E.02412
G1 X111.439 Y37.758 E1.00769
G1 X110.96 Y37.768 E.02412
G1 X125.12 Y51.929 E1.00769
G1 X124.641 Y51.939 E.02412
G1 X110.48 Y37.778 E1.00769
G1 X110.001 Y37.788 E.02412
G1 X124.162 Y51.948 E1.0077
G1 X123.682 Y51.958 E.02412
G1 X109.522 Y37.797 E1.0077
G1 X109.042 Y37.807 E.02412
G1 X123.203 Y51.968 E1.0077
G1 X122.724 Y51.978 E.02412
G1 X108.563 Y37.817 E1.0077
G1 X108.084 Y37.826 E.02412
G1 X122.245 Y51.987 E1.0077
G1 X121.765 Y51.997 E.02412
G1 X107.604 Y37.836 E1.0077
G1 X107.125 Y37.846 E.02412
G1 X121.286 Y52.007 E1.00771
G1 X120.807 Y52.016 E.02412
G1 X106.646 Y37.856 E1.00771
G1 X106.166 Y37.865 E.02412
G1 X120.327 Y52.026 E1.00771
G1 X119.848 Y52.036 E.02412
G1 X105.687 Y37.875 E1.00771
G1 X105.208 Y37.885 E.02412
G1 X119.369 Y52.046 E1.00771
G1 X118.889 Y52.055 E.02412
G1 X104.728 Y37.894 E1.00771
G1 X104.249 Y37.904 E.02412
G1 X118.41 Y52.065 E1.00772
G1 X117.931 Y52.075 E.02412
G1 X103.77 Y37.914 E1.00772
G1 X103.29 Y37.924 E.02412
G1 X117.452 Y52.085 E1.00772
G1 X116.972 Y52.094 E.02412
G1 X102.811 Y37.933 E1.00772
G1 X102.332 Y37.943 E.02412
G1 X116.493 Y52.104 E1.00772
G1 X116.014 Y52.114 E.02412
G1 X101.853 Y37.953 E1.00772
G1 X101.373 Y37.962 E.02412
G1 X115.534 Y52.124 E1.00773
G1 X115.055 Y52.133 E.02412
G1 X100.894 Y37.972 E1.00773
G1 X100.415 Y37.982 E.02412
G1 X114.576 Y52.143 E1.00773
G1 X114.096 Y52.153 E.02412
G1 X99.935 Y37.992 E1.00773
G1 X99.456 Y38.001 E.02412
G1 X113.617 Y52.163 E1.00773
G1 X113.138 Y52.172 E.02412
G1 X98.977 Y38.011 E1.00773
G1 X98.497 Y38.021 E.02412
G1 X112.659 Y52.182 E1.00774
G1 X112.179 Y52.192 E.02412
G1 X98.018 Y38.03 E1.00774
G1 X97.539 Y38.04 E.02412
G1 X111.7 Y52.201 E1.00774
G1 X111.221 Y52.211 E.02412
G1 X97.059 Y38.05 E1.00774
G1 X96.58 Y38.06 E.02412
G1 X110.741 Y52.221 E1.00774
G1 X110.262 Y52.231 E.02412
G1 X96.101 Y38.069 E1.00774
G1 X95.621 Y38.079 E.02412
G1 X109.783 Y52.24 E1.00775
G1 X109.304 Y52.25 E.02412
G1 X95.142 Y38.089 E1.00775
G1 X94.663 Y38.098 E.02412
G1 X108.824 Y52.26 E1.00775
G1 X108.345 Y52.27 E.02412
G1 X94.183 Y38.108 E1.00775
G1 X93.704 Y38.118 E.02412
G1 X107.866 Y52.279 E1.00775
G1 X107.386 Y52.289 E.02412
G1 X93.225 Y38.127 E1.00775
G1 X92.745 Y38.137 E.02412
G1 X106.907 Y52.299 E1.00776
G1 X106.428 Y52.309 E.02412
G1 X92.266 Y38.147 E1.00776
G1 X91.787 Y38.157 E.02412
G1 X105.948 Y52.318 E1.00776
G1 X105.469 Y52.328 E.02412
G1 X91.307 Y38.166 E1.00776
G1 X90.828 Y38.176 E.02412
G1 X104.99 Y52.338 E1.00776
G1 X104.511 Y52.348 E.02412
G1 X90.349 Y38.186 E1.00776
G1 X89.869 Y38.195 E.02412
G1 X104.031 Y52.357 E1.00777
G1 X103.552 Y52.367 E.02412
M73 P1 R273
G1 X89.39 Y38.205 E1.00777
G1 X88.901 Y38.205 E.02462
G1 X103.073 Y52.377 E1.00848
G1 X102.593 Y52.386 E.02412
G1 X88.293 Y38.086 E1.01761
G1 X87.675 Y37.957 E.03179
G1 X102.114 Y52.396 E1.0275
G1 X101.635 Y52.406 E.02412
G1 X87.056 Y37.828 E1.0374
G1 X86.438 Y37.698 E.03179
G1 X101.155 Y52.416 E1.0473
G1 X100.676 Y52.425 E.02412
G1 X85.82 Y37.569 E1.0572
G1 X85.201 Y37.44 E.03179
G1 X100.197 Y52.435 E1.06709
G1 X99.718 Y52.445 E.02412
M73 P1 R272
G1 X84.583 Y37.31 E1.07699
G1 X83.965 Y37.181 E.03179
G1 X99.238 Y52.455 E1.08689
G1 X98.759 Y52.464 E.02412
G1 X83.346 Y37.052 E1.09679
G1 X82.728 Y36.922 E.03179
G1 X98.28 Y52.474 E1.10669
G1 X97.8 Y52.484 E.02412
G1 X82.109 Y36.793 E1.11658
G1 X81.491 Y36.664 E.03179
G1 X97.321 Y52.494 E1.12648
G1 X96.842 Y52.503 E.02412
G1 X80.873 Y36.534 E1.13638
G1 X80.254 Y36.405 E.03179
G1 X96.362 Y52.513 E1.14628
G1 X95.883 Y52.523 E.02412
G1 X79.636 Y36.275 E1.15618
G1 X79.017 Y36.146 E.03179
G1 X95.404 Y52.532 E1.16607
G1 X94.925 Y52.542 E.02412
G1 X78.399 Y36.017 E1.17597
G1 X77.781 Y35.887 E.03179
G1 X94.445 Y52.552 E1.18587
G1 X93.966 Y52.562 E.02412
G1 X77.162 Y35.758 E1.19577
G1 X76.544 Y35.629 E.03179
G1 X93.487 Y52.571 E1.20567
G1 X93.007 Y52.581 E.02412
G1 X75.925 Y35.499 E1.21556
G1 X75.307 Y35.37 E.03179
G1 X92.528 Y52.591 E1.22546
G1 X92.049 Y52.601 E.02412
G1 X74.689 Y35.241 E1.23536
G1 X74.07 Y35.111 E.03179
G1 X91.569 Y52.61 E1.24526
G1 X91.09 Y52.62 E.02412
G1 X73.452 Y34.982 E1.25515
G1 X72.969 Y34.881 E.02481
G1 X72.932 Y34.951 E.00399
G1 X90.611 Y52.63 E1.25807
G1 X90.132 Y52.64 E.02412
G1 X72.761 Y35.269 E1.23613
G1 X72.589 Y35.587 E.01817
G1 X89.652 Y52.649 E1.2142
G1 X89.173 Y52.659 E.02412
G1 X72.418 Y35.905 E1.19227
G1 X72.247 Y36.222 E.01817
G1 X88.694 Y52.669 E1.17034
G1 X88.214 Y52.679 E.02412
G1 X72.076 Y36.54 E1.14841
G1 X71.905 Y36.858 E.01817
G1 X87.685 Y52.638 E1.12293
G1 X87.141 Y52.584 E.0275
G1 X71.734 Y37.176 E1.0964
G1 X71.563 Y37.494 E.01817
G1 X86.596 Y52.527 E1.06975
G1 X85.982 Y52.403 E.03149
G1 X71.392 Y37.812 E1.03828
G1 X71.221 Y38.13 E.01817
G1 X85.369 Y52.278 E1.00681
G1 X84.756 Y52.154 E.03149
G1 X71.041 Y38.44 E.97594
G1 X70.891 Y38.604 E.01122
G1 X70.784 Y38.671 E.00636
G1 X84.142 Y52.03 E.9506
G1 X83.529 Y51.905 E.03149
G1 X70.482 Y38.858 E.92843
G1 X70.18 Y39.046 E.01787
