; generated by PrusaSlicer 2.5.0+win64 on 2022-12-07 at 00:28:30 UTC

; 

; external perimeters extrusion width = 1.00mm
; perimeters extrusion width = 1.00mm
; infill extrusion width = 1.00mm
; solid infill extrusion width = 1.00mm
; top infill extrusion width = 1.00mm
; support material extrusion width = 1.00mm
; first layer extrusion width = 0.42mm

M73 P0 R62
M107
;TYPE:Custom
G90 ; use absolute coordinates
M83 ; extruder relative mode
M140 S60 ; set final bed temp
M104 S150 ; set temporary nozzle temp to prevent oozing during homing and auto bed leveling
G4 S10 ; allow partial nozzle warmup
G28 ; home all axisG1 Z50 F240
G1 X7.6 Y10 F3000
M104 S210 ; set final nozzle temp
M190 S60 ; wait for bed temp to stabilize
M109 S210 ; wait for nozzle temp to stabilize
G1 Z0.28 F240
G92 E0
G1 Y140 E10 F1500 ; prime the nozzle
G1 X4 F5000
G92 E0
G1 Y10 E10 F1200 ; prime the nozzle
G92 E0
G21 ; set units to millimeters
G90 ; use absolute coordinates
M83 ; use relative distances for extrusion
; Filament gcode
M107
;LAYER_CHANGE
;Z:0.35
;HEIGHT:0.35
;BEFORE_LAYER_CHANGE
G92 E0
;0.35


G1 E-1 F3600
G1 Z.35 F7800
;AFTER_LAYER_CHANGE
;0.35
M73 P0 R61
G1 X97.589 Y143.895
G1 E1 F2400
;TYPE:Support material interface
;WIDTH:1
G1 F1800
G1 X97.589 Y151.082 E.96727
G1 X98.481 Y151.082 E.12014
G1 X98.481 Y144.296 E.91321
G1 X99.374 Y144.296 E.12014
G1 X99.374 Y151.082 E.91321
G1 X100.267 Y151.082 E.12014
G1 X100.267 Y140.904 E1.36981
G1 X101.159 Y140.904 E.12014
G1 X101.159 Y151.082 E1.36981
G1 X102.052 Y151.082 E.12014
G1 X102.052 Y140.904 E1.36981
G1 X102.945 Y140.904 E.12014
G1 X102.945 Y151.483 E1.42387
G1 E-.7 F3600
;WIPE_START
G1 F6240
G1 X102.945 Y150.963 E-.285
;WIPE_END
G1 E-.015 F3600
G1 X110.086 Y150.669 F7800
G1 E1 F2400
G1 F1800
G1 X110.086 Y151.082 E.05549
G1 X103.838 Y151.082 E.841
G1 X103.838 Y134.118 E2.28301
G1 X104.73 Y134.118 E.12014
G1 X104.73 Y147.827 E1.845
G1 X105.623 Y146.672 E.19648
G1 X105.623 Y134.118 E1.68954
G1 X106.516 Y134.118 E.12014
G1 X106.516 Y145.517 E1.53408
G1 X107.408 Y144.362 E.19648
G1 X107.408 Y130.726 E1.83522
G1 X108.301 Y130.726 E.12014
G1 X108.301 Y143.207 E1.67976
G1 X109.194 Y142.047 E.19695
G1 X109.194 Y130.726 E1.52369
G1 X110.086 Y130.726 E.12014
G1 X110.086 Y140.228 E1.27888
G1 X110.979 Y140.562 E.12825
G1 X110.979 Y127.333 E1.78036
G1 X111.872 Y127.333 E.12014
G1 X111.872 Y140.636 E1.79039
G1 X112.544 Y140.636 E.09051
G1 X112.544 Y147.689 E.94922
G1 X112.765 Y147.689 E.02963
G1 X112.765 Y127.333 E2.73961
G1 X113.657 Y127.333 E.12014
G1 X113.657 Y148.091 E2.79368
G1 E-.7 F3600
;WIPE_START
G1 F6240
G1 X113.657 Y147.571 E-.285
;WIPE_END
G1 E-.015 F3600
G1 X116.986 Y129.676 F7800
G1 E1 F2400
;TYPE:Support material
;WIDTH:0.42
G1 F1800
G1 X114.406 Y129.676 E.12947
G1 X114.406 Y126.676 E.15056
G1 X109.7 Y126.676 E.23616
G1 X109.7 Y130.069 E.17027
G1 X106.308 Y130.069 E.17027
G1 X106.308 Y133.462 E.17027
G1 X102.915 Y133.462 E.17027
G1 X102.915 Y140.247 E.34053
G1 X99.522 Y140.247 E.17027
G1 X99.522 Y143.64 E.17027
G1 X96.13 Y143.64 E.17027
G1 X96.13 Y151.738 E.40642
G1 X99.13 Y151.738 E.15056
G1 X99.13 Y154.318 E.12947
G1 X69.801 Y154.318 E1.47189
G1 X69.801 Y144.14 E.5108
G1 X66.408 Y144.14 E.17027
G1 X66.408 Y123.784 E1.02159
G1 X63.016 Y123.784 E.17027
G1 X63.016 Y107.133 E.83563
G1 X66.408 Y107.133 E.17027
G1 X66.408 Y103.74 E.17027
G1 X69.801 Y103.74 E.17027
G1 X69.801 Y90.17 E.68106
G1 X73.194 Y90.17 E.17027
G1 X73.194 Y86.464 E.18597
G1 X69.801 Y86.464 E.17027
G1 X69.801 Y59.635 E1.34642
G1 X73.194 Y59.635 E.17027
G1 X73.194 Y52.85 E.34053
G1 X76.586 Y52.85 E.17027
G1 X76.586 Y49.457 E.17027
G1 X79.979 Y49.457 E.17027
G1 X79.979 Y46.065 E.17027
G1 X83.372 Y46.065 E.17027
G1 X83.372 Y39.279 E.34053
G1 X86.765 Y39.279 E.17027
G1 X86.765 Y35.886 E.17027
G1 X90.157 Y35.886 E.17027
G1 X90.157 Y32.494 E.17027
G1 X93.55 Y32.494 E.17027
G1 X93.55 Y29.101 E.17027
G1 X96.943 Y29.101 E.17027
G1 X96.943 Y25.708 E.17027
G1 X116.986 Y25.708 E1.00589
G1 X116.986 Y129.625 E5.21514
G1 X116.442 Y129.521 F7800
M73 P1 R61
G1 F1800
G1 X116.442 Y26.019 E5.19437
G1 X116.059 Y26.019 E.01923
G1 X116.059 Y129.366 E5.18658
G1 X115.676 Y129.366 E.01923
G1 X115.676 Y26.019 E5.18658
G1 X115.293 Y26.019 E.01923
G1 X115.293 Y129.366 E5.18658
G1 X114.909 Y129.366 E.01923
G1 X114.909 Y26.019 E5.18658
G1 X114.526 Y26.019 E.01923
G1 X114.526 Y126.366 E5.03602
G1 X114.143 Y126.366 E.01923
G1 X114.143 Y26.019 E5.03602
G1 X113.76 Y26.019 E.01923
G1 X113.76 Y126.366 E5.03602
G1 X113.377 Y126.366 E.01923
G1 X113.377 Y26.019 E5.03602
G1 X112.993 Y26.019 E.01923
G1 X112.993 Y126.366 E5.03602
G1 X112.61 Y126.366 E.01923
M73 P1 R60
G1 X112.61 Y26.019 E5.03602
G1 X112.227 Y26.019 E.01923
M73 P2 R60
G1 X112.227 Y126.366 E5.03602
G1 X111.844 Y126.366 E.01923
G1 X111.844 Y26.019 E5.03602
G1 X111.461 Y26.019 E.01923
G1 X111.461 Y126.366 E5.03602
G1 X111.077 Y126.366 E.01923
G1 X111.077 Y26.019 E5.03602
G1 X110.694 Y26.019 E.01923
G1 X110.694 Y126.366 E5.03602
G1 X110.311 Y126.366 E.01923
G1 X110.311 Y26.019 E5.03602
G1 X109.928 Y26.019 E.01923
G1 X109.928 Y126.366 E5.03602
G1 X109.544 Y126.366 E.01923
G1 X109.544 Y26.019 E5.03602
G1 X109.161 Y26.019 E.01923
G1 X109.161 Y129.759 E5.20628
G1 X108.778 Y129.759 E.01923
G1 X108.778 Y26.019 E5.20628
G1 X108.395 Y26.019 E.01923
G1 X108.395 Y129.759 E5.20628
G1 X108.012 Y129.759 E.01923
M73 P3 R60
G1 X108.012 Y26.019 E5.20628
G1 X107.628 Y26.019 E.01923
G1 X107.628 Y129.759 E5.20628
G1 X107.245 Y129.759 E.01923
G1 X107.245 Y26.019 E5.20628
G1 X106.862 Y26.019 E.01923
G1 X106.862 Y129.759 E5.20628
G1 X106.479 Y129.759 E.01923
G1 X106.479 Y26.019 E5.20628
G1 X106.096 Y26.019 E.01923
M73 P3 R59
G1 X106.096 Y129.759 E5.20628
G1 X105.997 Y129.759 E.00493
G1 X105.997 Y133.151 E.17027
G1 X105.712 Y133.151 E.0143
G1 X105.712 Y26.019 E5.37655
G1 X105.329 Y26.019 E.01923
G1 X105.329 Y133.151 E5.37655
G1 X104.946 Y133.151 E.01923
G1 X104.946 Y26.019 E5.37655
G1 X104.563 Y26.019 E.01923
G1 X104.563 Y133.151 E5.37655
G1 X104.18 Y133.151 E.01923
M73 P4 R59
G1 X104.18 Y26.019 E5.37655
G1 X103.796 Y26.019 E.01923
G1 X103.796 Y133.151 E5.37655
G1 X103.413 Y133.151 E.01923
G1 X103.413 Y26.019 E5.37655
G1 X103.03 Y26.019 E.01923
G1 X103.03 Y133.151 E5.37655
G1 X102.647 Y133.151 E.01923
G1 X102.647 Y26.019 E5.37655
G1 X102.263 Y26.019 E.01923
G1 X102.263 Y139.937 E5.71708
G1 X101.88 Y139.937 E.01923
G1 X101.88 Y26.019 E5.71708
G1 X101.497 Y26.019 E.01923
G1 X101.497 Y139.937 E5.71708
G1 X101.114 Y139.937 E.01923
G1 X101.114 Y26.019 E5.71708
G1 X100.731 Y26.019 E.01923
G1 X100.731 Y139.937 E5.71708
G1 X100.347 Y139.937 E.01923
M73 P5 R59
G1 X100.347 Y26.019 E5.71708
G1 X99.964 Y26.019 E.01923
G1 X99.964 Y139.937 E5.71708
G1 X99.581 Y139.937 E.01923
M73 P5 R58
G1 X99.581 Y26.019 E5.71708
G1 X99.198 Y26.019 E.01923
G1 X99.198 Y143.329 E5.88735
G1 X98.815 Y143.329 E.01923
G1 X98.815 Y26.019 E5.88735
G1 X98.431 Y26.019 E.01923
G1 X98.431 Y143.329 E5.88735
G1 X98.048 Y143.329 E.01923
G1 X98.048 Y26.019 E5.88735
G1 X97.665 Y26.019 E.01923
G1 X97.665 Y143.329 E5.88735
G1 X97.282 Y143.329 E.01923
G1 X97.282 Y26.019 E5.88735
G1 X97.253 Y26.019 E.00144
G1 X97.253 Y29.411 E.17027
G1 X96.899 Y29.411 E.01779
G1 X96.899 Y143.329 E5.71708
G1 X96.515 Y143.329 E.01923
M73 P6 R58
G1 X96.515 Y29.411 E5.71708
G1 X96.132 Y29.411 E.01923
G1 X96.132 Y143.329 E5.71708
G1 X95.819 Y143.329 E.0157
G1 X95.819 Y152.049 E.43758
G1 X96.132 Y152.049 E.0157
G1 X96.132 Y154.008 E.09831
G1 X96.515 Y154.008 E.01923
G1 X96.515 Y152.049 E.09831
G1 X96.899 Y152.049 E.01923
G1 X96.899 Y154.008 E.09831
G1 X97.282 Y154.008 E.01923
G1 X97.282 Y152.049 E.09831
G1 X97.665 Y152.049 E.01923
G1 X97.665 Y154.008 E.09831
G1 X98.048 Y154.008 E.01923
G1 X98.048 Y152.049 E.09831
G1 X98.431 Y152.049 E.01923
G1 X98.431 Y154.008 E.09831
G1 X98.815 Y154.008 E.01923
G1 X98.815 Y151.893 E.1061
G1 X95.749 Y154.163 F7800
G1 F1800
G1 X95.749 Y29.411 E6.26076
G1 X95.366 Y29.411 E.01923
G1 X95.366 Y154.008 E6.25297
G1 X94.982 Y154.008 E.01923
G1 X94.983 Y29.411 E6.25297
G1 X94.599 Y29.411 E.01923
G1 X94.599 Y154.008 E6.25297
G1 X94.216 Y154.008 E.01923
M73 P6 R57
G1 X94.216 Y29.411 E6.25297
G1 X93.86 Y29.411 E.01785
G1 X93.86 Y32.804 E.17027
G1 X93.833 Y32.804 E.00138
G1 X93.833 Y154.008 E6.08271
G1 X93.45 Y154.008 E.01923
M73 P7 R57
G1 X93.45 Y32.804 E6.08271
G1 X93.066 Y32.804 E.01923
G1 X93.066 Y154.008 E6.08271
G1 X92.683 Y154.008 E.01923
G1 X92.683 Y32.804 E6.08271
G1 X92.3 Y32.804 E.01923
G1 X92.3 Y154.008 E6.08271
G1 X91.917 Y154.008 E.01923
G1 X91.917 Y32.804 E6.08271
G1 X91.534 Y32.804 E.01923
G1 X91.534 Y154.008 E6.08271
G1 X91.15 Y154.008 E.01923
G1 X91.15 Y32.804 E6.08271
G1 X90.767 Y32.804 E.01923
G1 X90.767 Y154.008 E6.08271
G1 X90.384 Y154.008 E.01923
G1 X90.384 Y36.197 E5.91244
G1 X90.001 Y36.197 E.01923
M73 P8 R57
G1 X90.001 Y154.008 E5.91244
G1 X89.618 Y154.008 E.01923
G1 X89.618 Y36.197 E5.91244
G1 X89.234 Y36.197 E.01923
G1 X89.234 Y154.008 E5.91244
G1 X88.851 Y154.008 E.01923
G1 X88.851 Y36.197 E5.91244
G1 X88.468 Y36.197 E.01923
M73 P8 R56
G1 X88.468 Y154.008 E5.91244
G1 X88.085 Y154.008 E.01923
G1 X88.085 Y36.197 E5.91244
G1 X87.702 Y36.197 E.01923
G1 X87.701 Y154.008 E5.91244
G1 X87.318 Y154.008 E.01923
G1 X87.318 Y36.197 E5.91244
G1 X87.075 Y36.197 E.01221
G1 X87.075 Y39.59 E.17027
G1 X86.935 Y39.59 E.00702
G1 X86.935 Y154.008 E5.74218
G1 X86.552 Y154.008 E.01923
G1 X86.552 Y39.59 E5.74218
G1 X86.169 Y39.59 E.01923
M73 P9 R56
G1 X86.169 Y154.008 E5.74218
G1 X85.785 Y154.008 E.01923
G1 X85.785 Y39.59 E5.74218
G1 X85.402 Y39.59 E.01923
G1 X85.402 Y154.008 E5.74218
G1 X85.019 Y154.008 E.01923
G1 X85.019 Y39.59 E5.74218
G1 X84.636 Y39.59 E.01923
G1 X84.636 Y154.008 E5.74218
G1 X84.253 Y154.008 E.01923
G1 X84.253 Y39.59 E5.74218
G1 X83.869 Y39.59 E.01923
G1 X83.869 Y154.008 E5.74218
G1 X83.486 Y154.008 E.01923
G1 X83.486 Y46.375 E5.40164
G1 X83.103 Y46.375 E.01923
G1 X83.103 Y154.008 E5.40164
G1 X82.72 Y154.008 E.01923
M73 P10 R55
G1 X82.72 Y46.375 E5.40164
G1 X82.337 Y46.375 E.01923
G1 X82.337 Y154.008 E5.40164
G1 X81.953 Y154.008 E.01923
G1 X81.953 Y46.375 E5.40164
G1 X81.57 Y46.375 E.01923
G1 X81.57 Y154.008 E5.40164
G1 X81.187 Y154.008 E.01923
G1 X81.187 Y46.375 E5.40164
G1 X80.804 Y46.375 E.01923
G1 X80.804 Y154.008 E5.40164
G1 X80.421 Y154.008 E.01923
G1 X80.421 Y46.375 E5.40164
G1 X80.29 Y46.375 E.00657
G1 X80.29 Y49.768 E.17027
G1 X80.037 Y49.768 E.01266
G1 X80.037 Y154.008 E5.23138
G1 X79.654 Y154.008 E.01923
G1 X79.654 Y49.768 E5.23138
G1 X79.271 Y49.768 E.01923
G1 X79.271 Y154.008 E5.23138
G1 X78.888 Y154.008 E.01923
G1 X78.888 Y49.768 E5.23138
G1 X78.504 Y49.768 E.01923
M73 P11 R55
G1 X78.504 Y154.008 E5.23138
G1 X78.121 Y154.008 E.01923
G1 X78.121 Y49.768 E5.23138
G1 X77.738 Y49.768 E.01923
G1 X77.738 Y154.008 E5.23138
G1 X77.355 Y154.008 E.01923
G1 X77.355 Y49.768 E5.23138
G1 X76.972 Y49.768 E.01923
G1 X76.972 Y154.008 E5.23138
G1 X76.588 Y154.008 E.01923
G1 X76.588 Y53.16 E5.06111
G1 X76.205 Y53.16 E.01923
M73 P11 R54
G1 X76.205 Y154.008 E5.06111
G1 X75.822 Y154.008 E.01923
G1 X75.822 Y53.16 E5.06111
G1 X75.439 Y53.16 E.01923
G1 X75.439 Y154.008 E5.06111
G1 X75.056 Y154.008 E.01923
G1 X75.056 Y53.16 E5.06111
G1 X74.672 Y53.16 E.01923
M73 P12 R54
G1 X74.672 Y154.008 E5.06111
G1 X74.289 Y154.008 E.01923
G1 X74.289 Y53.16 E5.06111
G1 X73.906 Y53.16 E.01923
G1 X73.906 Y154.008 E5.06111
G1 X73.523 Y154.008 E.01923
G1 X73.523 Y53.16 E5.06111
G1 X73.504 Y53.16 E.00093
G1 X73.504 Y59.946 E.34053
G1 X73.14 Y59.946 E.0183
G1 X73.14 Y86.154 E1.31527
G1 X72.756 Y86.154 E.01923
G1 X72.756 Y59.946 E1.31527
G1 X72.373 Y59.946 E.01923
G1 X72.373 Y86.154 E1.31527
G1 X71.99 Y86.154 E.01923
G1 X71.99 Y59.946 E1.31527
G1 X71.607 Y59.946 E.01923
G1 X71.607 Y86.154 E1.31527
G1 X71.223 Y86.154 E.01923
G1 X71.223 Y59.946 E1.31527
G1 X70.84 Y59.946 E.01923
G1 X70.84 Y86.154 E1.31527
G1 X70.457 Y86.154 E.01923
G1 X70.457 Y59.791 E1.32306
G1 E-.7 F3600
;WIPE_START
G1 F6240
G1 X70.457 Y60.311 E-.285
;WIPE_END
G1 E-.015 F3600
G1 X73.14 Y154.163 F7800
G1 E1 F2400
G1 F1800
G1 X73.14 Y90.48 E3.19598
G1 X72.756 Y90.48 E.01923
G1 X72.756 Y154.008 E3.18819
G1 X72.373 Y154.008 E.01923
G1 X72.373 Y90.48 E3.18819
G1 X71.99 Y90.48 E.01923
G1 X71.99 Y154.008 E3.18819
G1 X71.607 Y154.008 E.01923
G1 X71.607 Y90.48 E3.18819
G1 X71.223 Y90.48 E.01923
G1 X71.223 Y154.008 E3.18819
G1 X70.84 Y154.008 E.01923
G1 X70.84 Y90.48 E3.18819
G1 X70.457 Y90.48 E.01923
M73 P13 R54
G1 X70.457 Y154.008 E3.18819
G1 X70.111 Y154.008 E.01735
G1 X70.111 Y143.83 E.5108
G1 X70.074 Y143.83 E.00189
G1 X70.074 Y104.051 E1.99633
G1 X69.691 Y104.051 E.01923
G1 X69.691 Y143.83 E1.99633
G1 X69.307 Y143.83 E.01923
G1 X69.307 Y104.051 E1.99633
G1 X68.924 Y104.051 E.01923
M73 P13 R53
G1 X68.924 Y143.83 E1.99633
G1 X68.541 Y143.83 E.01923
G1 X68.541 Y104.051 E1.99633
G1 X68.158 Y104.051 E.01923
G1 X68.158 Y143.83 E1.99633
G1 X67.775 Y143.83 E.01923
G1 X67.775 Y104.051 E1.99633
G1 X67.391 Y104.051 E.01923
G1 X67.391 Y143.83 E1.99633
G1 X67.008 Y143.83 E.01923
G1 X67.008 Y104.051 E1.99633
G1 X66.719 Y104.051 E.01453
G1 X66.719 Y107.444 E.17027
G1 X66.625 Y107.444 E.00471
G1 X66.625 Y123.473 E.80447
G1 X66.242 Y123.473 E.01923
G1 X66.242 Y107.444 E.80447
G1 X65.859 Y107.444 E.01923
G1 X65.859 Y123.473 E.80447
G1 X65.475 Y123.473 E.01923
G1 X65.475 Y107.444 E.80447
G1 X65.092 Y107.444 E.01923
G1 X65.092 Y123.473 E.80447
G1 X64.709 Y123.473 E.01923
G1 X64.709 Y107.444 E.80447
G1 X64.326 Y107.444 E.01923
G1 X64.326 Y123.473 E.80447
G1 X63.942 Y123.473 E.01923
G1 X63.942 Y107.444 E.80447
G1 X63.559 Y107.444 E.01923
G1 X63.559 Y123.629 E.81226
G1 E-.7 F3600
;WIPE_START
G1 F6240
G1 X63.559 Y123.109 E-.285
;WIPE_END
G1 E-.015 F3600
G1 X111.354 Y149.881 F7800
G1 E1 F2400
;TYPE:External perimeter
;WIDTH:0.487507
G1 F1800
G1 X110.729 Y149.881 E.03752
G1 X111.354 Y149.069 E.06149
G1 X111.354 Y149.731 E.03971
G1 X111.667 Y149.34 F7800
M106 S255
;LAYER_CHANGE
;Z:0.65
;HEIGHT:0.3
;BEFORE_LAYER_CHANGE
G92 E0
;0.65


G1 E-.7 F3600
;WIPE_START
G1 F6240
G1 X110.849 Y149.852 E-.285
;WIPE_END
G1 E-.015 F3600
G1 Z.65 F7800
;AFTER_LAYER_CHANGE
;0.65
M104 S205 ; set temperature
G1 X110.086 Y150.669
G1 E1 F2400
;TYPE:Support material interface
;WIDTH:1
G1 F3206.432
G1 X110.086 Y151.082 E.04812
G1 X103.838 Y151.082 E.72922
G1 X103.838 Y140.904 E1.18774
G1 X104.73 Y140.904 E.10417
G1 X104.73 Y147.827 E.80795
G1 X105.623 Y146.672 E.17036
G1 X105.623 Y140.904 E.67315
G1 X106.516 Y140.904 E.10417
G1 X106.516 Y145.517 E.53835
G1 X107.408 Y144.362 E.17036
G1 X107.408 Y134.118 E1.19538
G1 X108.301 Y134.118 E.10417
G1 X108.301 Y143.207 E1.06058
G1 X109.194 Y142.047 E.17078
G1 X109.194 Y134.118 E.92526
G1 X110.086 Y134.118 E.10417
G1 X110.086 Y140.228 E.71299
G1 X110.979 Y140.562 E.1112
G1 X110.979 Y134.118 E.7519
G1 X111.872 Y134.118 E.10417
G1 X111.872 Y140.636 E.7606
G1 X112.544 Y140.636 E.07848
G1 X112.544 Y147.689 E.82305
G1 X112.765 Y147.689 E.02569
G1 X112.765 Y134.118 E1.58366
G1 X113.657 Y134.118 E.10417
G1 X113.657 Y148.091 E1.63053
G1 E-.7 F3600
;WIPE_START
G1 F6240
G1 X113.657 Y147.571 E-.285
;WIPE_END
G1 E-.015 F3600
G1 X102.945 Y151.483 F7800
G1 E1 F2400
G1 F3206.432
G1 X102.945 Y144.296 E.83871
G1 X102.052 Y144.296 E.10417
G1 X102.052 Y151.082 E.79183
G1 X101.159 Y151.082 E.10417
G1 X101.159 Y144.296 E.79183
G1 X100.267 Y144.296 E.10417
G1 X100.267 Y151.483 E.83871
;LAYER_CHANGE
;Z:0.75
;HEIGHT:0.1
;BEFORE_LAYER_CHANGE
G92 E0
;0.75


G1 E-.7 F3600
;WIPE_START
G1 F6240
G1 X100.267 Y150.963 E-.285
;WIPE_END
G1 E-.015 F3600
G1 Z.75 F7800
;AFTER_LAYER_CHANGE
;0.75
G1 X99.374 Y151.483
G1 E1 F2400
G1 F3600
G1 X99.374 Y143.35 E.33089
;HEIGHT:0.4
G1 F2461.278
G1 X99.374 Y140.904 E.37191
G1 X98.481 Y140.904 E.13571
G1 X98.481 Y151.082 E1.54733
G1 X97.589 Y151.082 E.13571
G1 X97.589 Y140.904 E1.54733
G1 X96.786 Y140.904 E.122
G1 X96.786 Y144.296 E.51578
G1 X96.696 Y144.296 E.01371
G1 X96.696 Y151.082 E1.03156
G1 X95.803 Y151.082 E.13571
G1 X95.803 Y144.296 E1.03156
G1 X94.911 Y144.296 E.13571
G1 X94.911 Y151.082 E1.03156
G1 X94.018 Y151.082 E.13571
G1 X94.018 Y143.895 E1.09263
G1 E-.7 F3600
;WIPE_START
G1 F6240
