; generated by PrusaSlicer 2.5.0+win64 on 2022-12-07 at 00:28:51 UTC

; 

; external perimeters extrusion width = 1.00mm
; perimeters extrusion width = 1.00mm
; infill extrusion width = 1.00mm
; solid infill extrusion width = 1.00mm
; top infill extrusion width = 1.00mm
; support material extrusion width = 1.00mm
; first layer extrusion width = 0.42mm

M73 P0 R241
M107
;TYPE:Custom
G90 ; use absolute coordinates
M83 ; extruder relative mode
M140 S60 ; set final bed temp
M104 S150 ; set temporary nozzle temp to prevent oozing during homing and auto bed leveling
G4 S10 ; allow partial nozzle warmup
G28 ; home all axisG1 Z50 F240
G1 X7.6 Y10 F3000
M104 S210 ; set final nozzle temp
M190 S60 ; wait for bed temp to stabilize
M109 S210 ; wait for nozzle temp to stabilize
G1 Z0.28 F240
G92 E0
G1 Y140 E10 F1500 ; prime the nozzle
G1 X4 F5000
G92 E0
G1 Y10 E10 F1200 ; prime the nozzle
G92 E0
G21 ; set units to millimeters
G90 ; use absolute coordinates
M83 ; use relative distances for extrusion
; Filament gcode
M107
;LAYER_CHANGE
;Z:0.35
;HEIGHT:0.35
;BEFORE_LAYER_CHANGE
G92 E0
;0.35


G1 E-1 F3600
G1 Z.35 F7800
;AFTER_LAYER_CHANGE
;0.35
G1 X96.799 Y18.91
G1 E1 F2400
;TYPE:Support material
;WIDTH:0.42
G1 F1800
G1 X100.192 Y18.91 E.17027
G1 X100.192 Y22.302 E.17027
G1 X103.585 Y22.302 E.17027
G1 X103.585 Y25.695 E.17027
G1 X106.978 Y25.695 E.17027
G1 X106.978 Y32.481 E.34053
G1 X110.37 Y32.481 E.17027
G1 X110.37 Y39.266 E.34053
G1 X113.763 Y39.266 E.17027
G1 X113.763 Y42.659 E.17027
G1 X117.156 Y42.659 E.17027
G1 X117.156 Y49.444 E.34053
G1 X120.548 Y49.444 E.17027
G1 X120.548 Y56.229 E.34053
G1 X123.941 Y56.229 E.17027
G1 X123.941 Y59.622 E.17027
G1 X127.334 Y59.622 E.17027
G1 X127.334 Y79.665 E1.00589
G1 X121.78 Y79.665 E.27869
G1 X121.78 Y73.533 E.30777
G1 X121.741 Y73.368 E.0085
G1 X93.461 Y18.262 E3.10844
G1 X92.497 Y16.143 E.11686
G1 X92.146 Y15.917 E.02095
G1 X83.542 Y15.917 E.43182
G1 X83.542 Y12.124 E.19034
G1 X96.799 Y12.124 E.66536
G1 X96.799 Y18.858 E.33794
G1 X126.959 Y79.51 F7800
G1 F1800
G1 X126.959 Y59.933 E.98253
G1 X126.575 Y59.933 E.01923
G1 X126.575 Y79.355 E.97474
G1 X126.192 Y79.355 E.01923
G1 X126.192 Y59.933 E.97474
G1 X125.809 Y59.933 E.01923
G1 X125.809 Y79.355 E.97474
G1 X125.426 Y79.355 E.01923
G1 X125.426 Y59.933 E.97474
G1 X125.043 Y59.933 E.01923
G1 X125.043 Y79.355 E.97474
G1 X124.659 Y79.355 E.01923
G1 X124.659 Y59.933 E.97474
G1 X124.276 Y59.933 E.01923
M73 P0 R240
G1 X124.276 Y79.355 E.97474
G1 X123.893 Y79.355 E.01923
G1 X123.893 Y59.933 E.97474
G1 X123.631 Y59.933 E.01317
G1 X123.631 Y56.54 E.17027
G1 X123.51 Y56.54 E.00607
G1 X123.51 Y79.355 E1.145
G1 X123.127 Y79.355 E.01923
G1 X123.127 Y56.54 E1.145
G1 X122.743 Y56.54 E.01923
G1 X122.743 Y79.355 E1.145
G1 X122.36 Y79.355 E.01923
G1 X122.36 Y56.54 E1.145
G1 X121.977 Y56.54 E.01923
G1 X121.977 Y73.149 E.83354
G1 X121.594 Y72.403 E.04209
G1 X121.594 Y56.54 E.7961
G1 X121.21 Y56.54 E.01923
G1 X121.21 Y71.657 E.75865
G1 X120.827 Y70.911 E.0421
G1 X120.827 Y56.54 E.7212
G1 X120.444 Y56.54 E.01923
G1 X120.444 Y70.164 E.68376
G1 X120.061 Y69.418 E.0421
G1 X120.061 Y49.754 E.98684
G1 X119.678 Y49.754 E.01923
G1 X119.678 Y68.672 E.9494
G1 X119.294 Y67.926 E.0421
G1 X119.294 Y49.754 E.91195
G1 X118.911 Y49.754 E.01923
G1 X118.911 Y67.18 E.87451
G1 X118.528 Y66.434 E.0421
G1 X118.528 Y49.754 E.83706
G1 X118.145 Y49.754 E.01923
G1 X118.145 Y65.688 E.79962
G1 X117.762 Y64.942 E.04209
G1 X117.762 Y49.754 E.76218
G1 X117.378 Y49.754 E.01923
G1 X117.378 Y64.195 E.72473
G1 X116.995 Y63.449 E.04209
G1 X116.995 Y49.754 E.68729
G1 X116.845 Y49.754 E.00753
G1 X116.845 Y42.969 E.34053
G1 X116.612 Y42.969 E.01171
G1 X116.612 Y62.703 E.99038
G1 X116.229 Y61.957 E.04209
G1 X116.229 Y42.969 E.95294
G1 X115.846 Y42.969 E.01923
G1 X115.846 Y61.211 E.9155
G1 X115.462 Y60.465 E.04209
G1 X115.462 Y42.969 E.87805
G1 X115.079 Y42.969 E.01923
G1 X115.079 Y59.719 E.84061
G1 X114.696 Y58.973 E.04209
G1 X114.696 Y42.969 E.80317
G1 X114.313 Y42.969 E.01923
G1 X114.313 Y58.227 E.76573
G1 X113.929 Y57.481 E.04209
G1 X113.93 Y42.969 E.72828
G1 X113.546 Y42.969 E.01923
G1 X113.546 Y56.735 E.69084
G1 X113.163 Y55.989 E.04209
G1 X113.163 Y39.576 E.82366
G1 X112.78 Y39.576 E.01923
G1 X112.78 Y55.243 E.78622
G1 X112.397 Y54.496 E.04209
G1 X112.397 Y39.576 E.74878
G1 X112.013 Y39.576 E.01923
G1 X112.013 Y53.75 E.71134
G1 X111.63 Y53.004 E.04209
G1 X111.63 Y39.576 E.6739
G1 X111.247 Y39.576 E.01923
G1 X111.247 Y52.258 E.63645
G1 X110.864 Y51.512 E.04209
G1 X110.864 Y39.576 E.59901
G1 X110.481 Y39.576 E.01923
G1 X110.481 Y50.766 E.56157
G1 X110.097 Y50.02 E.04209
G1 X110.097 Y39.576 E.52413
G1 X110.06 Y39.576 E.00189
G1 X110.06 Y32.791 E.34053
G1 X109.714 Y32.791 E.01735
G1 X109.714 Y49.274 E.82721
G1 X109.331 Y48.528 E.04209
G1 X109.331 Y32.791 E.78977
G1 X108.948 Y32.791 E.01923
G1 X108.948 Y47.782 E.75233
G1 X108.565 Y47.036 E.04209
G1 X108.565 Y32.791 E.71489
G1 X108.181 Y32.791 E.01923
G1 X108.181 Y46.289 E.6774
G1 X107.798 Y45.541 E.04215
G1 X107.798 Y32.791 E.6399
G1 X107.415 Y32.791 E.01923
G1 X107.415 Y44.794 E.60239
G1 X107.032 Y44.047 E.04215
G1 X107.032 Y32.791 E.56489
G1 X106.667 Y32.791 E.0183
G1 X106.667 Y26.006 E.34053
G1 X106.649 Y26.006 E.00093
G1 X106.649 Y43.3 E.86791
G1 X106.265 Y42.552 E.04215
G1 X106.265 Y26.006 E.83041
G1 X105.882 Y26.006 E.01923
G1 X105.882 Y41.805 E.7929
G1 X105.499 Y41.058 E.04215
G1 X105.499 Y26.006 E.7554
G1 X105.116 Y26.006 E.01923
G1 X105.116 Y40.31 E.71789
G1 X104.732 Y39.563 E.04215
G1 X104.732 Y26.006 E.68039
G1 X104.349 Y26.006 E.01923
G1 X104.349 Y38.816 E.64289
G1 X103.966 Y38.068 E.04215
G1 X103.966 Y26.006 E.60538
G1 X103.583 Y26.006 E.01923
G1 X103.583 Y37.321 E.56788
G1 X103.2 Y36.574 E.04215
G1 X103.2 Y22.613 E.70064
G1 X102.816 Y22.613 E.01923
G1 X102.816 Y35.826 E.66313
G1 X102.433 Y35.079 E.04215
G1 X102.433 Y22.613 E.62563
G1 X102.05 Y22.613 E.01923
G1 X102.05 Y34.332 E.58812
G1 X101.667 Y33.584 E.04215
G1 X101.667 Y22.613 E.55062
G1 X101.284 Y22.613 E.01923
G1 X101.284 Y32.837 E.51311
G1 X100.9 Y32.09 E.04215
G1 X100.9 Y22.613 E.47561
G1 X100.517 Y22.613 E.01923
G1 X100.517 Y31.342 E.4381
G1 X100.134 Y30.595 E.04215
G1 X100.134 Y22.613 E.4006
G1 X99.882 Y22.613 E.01266
G1 X99.882 Y19.22 E.17027
G1 X99.751 Y19.22 E.00657
G1 X99.751 Y29.848 E.53336
G1 X99.368 Y29.101 E.04215
G1 X99.368 Y19.22 E.49585
G1 X98.984 Y19.22 E.01923
G1 X98.984 Y28.353 E.45835
G1 X98.601 Y27.606 E.04215
G1 X98.601 Y19.22 E.42084
G1 X98.218 Y19.22 E.01923
G1 X98.218 Y26.859 E.38334
G1 X97.835 Y26.111 E.04215
G1 X97.835 Y19.22 E.34584
G1 X97.451 Y19.22 E.01923
G1 X97.451 Y25.364 E.30833
G1 X97.068 Y24.617 E.04215
G1 X97.068 Y19.22 E.27083
G1 X96.685 Y19.22 E.01923
G1 X96.685 Y23.869 E.23332
G1 X96.302 Y23.122 E.04215
G1 X96.302 Y12.435 E.53635
G1 X95.919 Y12.435 E.01923
G1 X95.919 Y22.375 E.49884
G1 X95.535 Y21.627 E.04215
G1 X95.535 Y12.435 E.46134
G1 X95.152 Y12.435 E.01923
G1 X95.152 Y20.88 E.42383
G1 X94.769 Y20.133 E.04215
G1 X94.769 Y12.435 E.38632
G1 X94.386 Y12.435 E.01923
G1 X94.386 Y19.385 E.34882
G1 X94.003 Y18.638 E.04215
G1 X94.003 Y12.435 E.31131
G1 X93.619 Y12.435 E.01923
G1 X93.619 Y17.86 E.27229
G1 X93.236 Y17.018 E.04644
G1 X93.236 Y12.435 E.23001
G1 X92.853 Y12.435 E.01923
G1 X92.853 Y16.176 E.18774
G1 X92.742 Y15.931 E.01347
G1 X92.47 Y15.756 E.01624
G1 X92.47 Y12.435 E.16669
G1 X92.087 Y12.435 E.01923
G1 X92.087 Y15.607 E.15918
G1 X91.703 Y15.607 E.01923
G1 X91.703 Y12.435 E.15918
G1 X91.32 Y12.435 E.01923
G1 X91.32 Y15.607 E.15918
G1 X90.937 Y15.607 E.01923
G1 X90.937 Y12.435 E.15918
G1 X90.554 Y12.435 E.01923
G1 X90.554 Y15.607 E.15918
G1 X90.17 Y15.607 E.01923
G1 X90.17 Y12.435 E.15918
G1 X89.787 Y12.435 E.01923
G1 X89.787 Y15.607 E.15918
G1 X89.404 Y15.607 E.01923
G1 X89.404 Y12.435 E.15918
G1 X89.021 Y12.435 E.01923
G1 X89.021 Y15.607 E.15918
G1 X88.638 Y15.607 E.01923
G1 X88.638 Y12.435 E.15918
G1 X88.254 Y12.435 E.01923
G1 X88.254 Y15.607 E.15918
G1 X87.871 Y15.607 E.01923
G1 X87.871 Y12.435 E.15918
G1 X87.488 Y12.435 E.01923
G1 X87.488 Y15.607 E.15918
G1 X87.105 Y15.607 E.01923
G1 X87.105 Y12.435 E.15918
G1 X86.722 Y12.435 E.01923
G1 X86.722 Y15.607 E.15918
G1 X86.338 Y15.607 E.01923
G1 X86.338 Y12.435 E.15918
G1 X85.955 Y12.435 E.01923
G1 X85.955 Y15.607 E.15918
G1 X85.572 Y15.607 E.01923
G1 X85.572 Y12.435 E.15918
G1 X85.189 Y12.435 E.01923
G1 X85.189 Y15.607 E.15918
G1 X84.806 Y15.607 E.01923
G1 X84.806 Y12.435 E.15918
G1 X84.422 Y12.435 E.01923
G1 X84.422 Y15.607 E.15918
G1 X84.039 Y15.607 E.01923
G1 X84.039 Y12.28 E.16697
G1 E-.7 F3600
;WIPE_START
G1 F6240
G1 X84.039 Y12.8 E-.285
;WIPE_END
G1 E-.015 F3600
G1 X94.027 Y55.387 F7800
G1 E1 F2400
G1 F1800
G1 X113.763 Y93.814 E2.16798
G1 X113.763 Y96.942 E.15698
G1 X115.368 Y96.942 E.08054
G1 X117.156 Y100.427 E.19658
G1 X117.156 Y103.727 E.16562
G1 X118.849 Y103.727 E.08497
G1 X120.548 Y107.04 E.18687
G1 X120.548 Y110.513 E.17426
G1 X123.941 Y110.513 E.17027
G1 X123.941 Y113.905 E.17027
G1 X127.334 Y113.905 E.17027
G1 X127.334 Y167.876 E2.70855
G1 X103.898 Y167.876 E1.17616
G1 X103.898 Y157.698 E.5108
G1 X100.505 Y157.698 E.17027
G1 X100.505 Y147.519 E.5108
G1 X97.112 Y147.519 E.17027
G1 X97.112 Y133.949 E.68106
G1 X93.72 Y133.949 E.17027
G1 X93.72 Y123.771 E.5108
G1 X90.327 Y123.771 E.17027
G1 X90.327 Y113.592 E.5108
G1 X86.934 Y113.592 E.17027
G1 X86.934 Y100.022 E.68106
G1 X83.542 Y100.022 E.17027
G1 X83.542 Y89.844 E.5108
G1 X80.149 Y89.844 E.17027
G1 X80.149 Y79.665 E.5108
G1 X76.756 Y79.665 E.17027
G1 X76.756 Y69.487 E.5108
G1 X73.363 Y69.487 E.17027
G1 X73.363 Y55.917 E.68106
G1 X69.971 Y55.917 E.17027
G1 X69.971 Y45.738 E.5108
G1 X66.578 Y45.738 E.17027
G1 X66.578 Y35.873 E.49509
G1 X73.363 Y35.873 E.34053
G1 X73.363 Y32.481 E.17027
M73 P0 R239
G1 X82.252 Y32.481 E.4461
G1 X94.004 Y55.341 E1.28996
G1 X126.959 Y167.72 F7800
G1 F1800
G1 X126.959 Y114.216 E2.68518
G1 X126.575 Y114.216 E.01923
G1 X126.575 Y167.565 E2.67739
G1 X126.192 Y167.565 E.01923
G1 X126.192 Y114.216 E2.67739
G1 X125.809 Y114.216 E.01923
G1 X125.809 Y167.565 E2.67739
G1 X125.426 Y167.565 E.01923
G1 X125.426 Y114.216 E2.67739
G1 X125.043 Y114.216 E.01923
G1 X125.043 Y167.565 E2.67739
G1 X124.659 Y167.565 E.01923
G1 X124.659 Y114.216 E2.67739
G1 X124.276 Y114.216 E.01923
G1 X124.276 Y167.565 E2.67739
G1 X123.893 Y167.565 E.01923
G1 X123.893 Y114.216 E2.67739
G1 X123.631 Y114.216 E.01317
G1 X123.631 Y110.823 E.17027
G1 X123.51 Y110.823 E.00607
G1 X123.51 Y167.565 E2.84766
G1 X123.127 Y167.565 E.01923
G1 X123.127 Y110.823 E2.84766
G1 X122.743 Y110.823 E.01923
G1 X122.743 Y167.565 E2.84766
G1 X122.36 Y167.565 E.01923
G1 X122.36 Y110.823 E2.84766
G1 X121.977 Y110.823 E.01923
G1 X121.977 Y167.565 E2.84766
G1 X121.594 Y167.565 E.01923
G1 X121.594 Y110.823 E2.84766
G1 X121.21 Y110.823 E.01923
G1 X121.21 Y167.565 E2.84766
G1 X120.827 Y167.565 E.01923
G1 X120.827 Y110.823 E2.84766
G1 X120.444 Y110.823 E.01923
G1 X120.444 Y167.565 E2.84766
G1 X120.061 Y167.565 E.01923
G1 X120.061 Y106.77 E3.05106
G1 X119.678 Y106.023 E.04213
G1 X119.678 Y167.565 E3.08855
G1 X119.294 Y167.565 E.01923
G1 X119.294 Y105.276 E3.12603
G1 X118.911 Y104.529 E.04213
G1 X118.911 Y167.565 E3.16352
G1 X118.528 Y167.565 E.01923
G1 X118.528 Y104.038 E3.18819
G1 X118.145 Y104.038 E.01923
G1 X118.145 Y167.565 E3.18819
G1 X117.762 Y167.565 E.01923
G1 X117.762 Y104.038 E3.18819
G1 X117.378 Y104.038 E.01923
G1 X117.378 Y167.565 E3.18819
G1 X116.995 Y167.565 E.01923
G1 X116.995 Y104.038 E3.18819
G1 X116.845 Y104.038 E.00753
G1 X116.845 Y100.502 E.17744
G1 X116.612 Y100.047 E.02565
G1 X116.612 Y167.565 E3.38845
G1 X116.229 Y167.565 E.01923
M73 P1 R239
G1 X116.229 Y99.3 E3.42594
G1 X115.846 Y98.553 E.04213
M73 P1 R238
G1 X115.846 Y167.565 E3.46342
G1 X115.462 Y167.565 E.01923
G1 X115.462 Y97.806 E3.50091
G1 X115.178 Y97.252 E.03126
G1 X115.079 Y97.252 E.00496
G1 X115.079 Y167.565 E3.52872
G1 X114.696 Y167.565 E.01923
G1 X114.696 Y97.252 E3.52872
G1 X114.313 Y97.252 E.01923
G1 X114.313 Y167.565 E3.52872
G1 X113.929 Y167.565 E.01923
G1 X113.929 Y97.252 E3.52872
G1 X113.546 Y97.252 E.01923
G1 X113.546 Y167.565 E3.52872
G1 X113.163 Y167.565 E.01923
G1 X113.163 Y93.325 E3.72584
G1 X112.78 Y92.578 E.04213
G1 X112.78 Y167.565 E3.76333
G1 X112.397 Y167.565 E.01923
G1 X112.397 Y91.831 E3.80081
G1 X112.013 Y91.084 E.04213
G1 X112.013 Y167.565 E3.8383
G1 X111.63 Y167.565 E.01923
G1 X111.63 Y90.337 E3.87579
G1 X111.247 Y89.59 E.04213
G1 X111.247 Y167.565 E3.91328
G1 X110.864 Y167.565 E.01923
G1 X110.864 Y88.843 E3.95076
G1 X110.481 Y88.096 E.04213
G1 X110.481 Y167.565 E3.98825
G1 X110.097 Y167.565 E.01923
G1 X110.097 Y87.349 E4.02574
G1 X109.714 Y86.602 E.04213
G1 X109.714 Y167.565 E4.06323
G1 X109.331 Y167.565 E.01923
G1 X109.331 Y85.855 E4.10071
G1 X108.948 Y85.108 E.04213
G1 X108.948 Y167.565 E4.1382
G1 X108.565 Y167.565 E.01923
G1 X108.565 Y84.361 E4.17569
G1 X108.181 Y83.614 E.04213
G1 X108.181 Y167.565 E4.21318
G1 X107.798 Y167.565 E.01923
G1 X107.798 Y82.867 E4.25067
G1 X107.415 Y82.12 E.04213
G1 X107.415 Y167.565 E4.28815
G1 X107.032 Y167.565 E.01923
M73 P1 R237
G1 X107.032 Y81.373 E4.32564
G1 X106.649 Y80.626 E.04213
G1 X106.648 Y167.565 E4.36313
G1 X106.265 Y167.565 E.01923
G1 X106.265 Y79.879 E4.40062
G1 X105.882 Y79.132 E.04213
G1 X105.882 Y167.565 E4.4381
G1 X105.499 Y167.565 E.01923
G1 X105.499 Y78.385 E4.47559
G1 X105.116 Y77.638 E.04213
G1 X105.116 Y167.565 E4.51308
G1 X104.732 Y167.565 E.01923
G1 X104.732 Y76.891 E4.55057
G1 X104.349 Y76.144 E.04213
G1 X104.349 Y167.565 E4.58805
G1 X104.208 Y167.565 E.00708
G1 X104.208 Y157.387 E.5108
G1 X103.966 Y157.387 E.01215
G1 X103.966 Y75.397 E4.11475
G1 X103.583 Y74.65 E.04213
G1 X103.583 Y157.387 E4.15223
G1 X103.2 Y157.387 E.01923
G1 X103.2 Y73.903 E4.18972
G1 X102.816 Y73.158 E.04206
G1 X102.816 Y157.387 E4.22712
G1 X102.433 Y157.387 E.01923
G1 X102.433 Y72.413 E4.26452
G1 X102.05 Y71.667 E.04206
G1 X102.05 Y157.387 E4.30192
G1 X101.667 Y157.387 E.01923
G1 X101.667 Y70.922 E4.33932
G1 X101.284 Y70.177 E.04206
G1 X101.284 Y157.387 E4.37672
G1 X100.9 Y157.387 E.01923
G1 X100.9 Y69.432 E4.41412
G1 X100.517 Y68.687 E.04206
G1 X100.517 Y147.209 E3.94072
G1 X100.134 Y147.209 E.01923
G1 X100.134 Y67.941 E3.97812
G1 X99.751 Y67.196 E.04206
G1 X99.751 Y147.209 E4.01552
G1 X99.368 Y147.209 E.01923
M73 P1 R236
G1 X99.368 Y66.451 E4.05292
G1 X98.984 Y65.706 E.04206
G1 X98.984 Y147.209 E4.09033
G1 X98.601 Y147.209 E.01923
G1 X98.601 Y64.96 E4.12773
G1 X98.218 Y64.215 E.04206
G1 X98.218 Y147.209 E4.16513
G1 X97.835 Y147.209 E.01923
G1 X97.835 Y63.47 E4.20253
G1 X97.451 Y62.725 E.04206
G1 X97.451 Y147.209 E4.23993
G1 X97.423 Y147.209 E.00144
G1 X97.423 Y133.638 E.68106
G1 X97.068 Y133.638 E.01779
G1 X97.068 Y61.979 E3.59626
G1 X96.685 Y61.234 E.04206
G1 X96.685 Y133.638 E3.63366
G1 X96.302 Y133.638 E.01923
G1 X96.302 Y60.489 E3.67106
G1 X95.919 Y59.744 E.04206
M73 P2 R236
G1 X95.919 Y133.638 E3.70846
G1 X95.535 Y133.638 E.01923
G1 X95.535 Y58.998 E3.74586
G1 X95.152 Y58.253 E.04206
G1 X95.152 Y133.638 E3.78326
G1 X94.769 Y133.638 E.01923
G1 X94.769 Y57.508 E3.82067
G1 X94.386 Y56.763 E.04206
G1 X94.386 Y133.638 E3.85807
G1 X94.03 Y133.638 E.01785
G1 X94.03 Y123.46 E.5108
G1 X94.003 Y123.46 E.00138
G1 X94.003 Y56.018 E3.38467
G1 X93.619 Y55.272 E.04206
G1 X93.619 Y123.46 E3.42207
G1 X93.236 Y123.46 E.01923
G1 X93.236 Y54.527 E3.45949
G1 X92.853 Y53.781 E.04207
G1 X92.853 Y123.46 E3.4969
G1 X92.47 Y123.46 E.01923
G1 X92.47 Y53.036 E3.53431
G1 X92.087 Y52.29 E.04207
G1 X92.087 Y123.46 E3.57172
G1 X91.703 Y123.46 E.01923
G1 X91.703 Y51.545 E3.60913
G1 X91.32 Y50.799 E.04207
G1 X91.32 Y123.46 E3.64655
G1 X90.937 Y123.46 E.01923
G1 X90.937 Y50.054 E3.68396
G1 X90.554 Y49.308 E.04207
M73 P2 R235
G1 X90.554 Y113.282 E3.21057
G1 X90.17 Y113.282 E.01923
G1 X90.17 Y48.563 E3.24798
G1 X89.787 Y47.818 E.04207
G1 X89.787 Y113.282 E3.2854
G1 X89.404 Y113.282 E.01923
G1 X89.404 Y47.072 E3.32281
G1 X89.021 Y46.327 E.04207
G1 X89.021 Y113.282 E3.36022
G1 X88.638 Y113.282 E.01923
G1 X88.638 Y45.581 E3.39763
G1 X88.254 Y44.836 E.04207
G1 X88.254 Y113.282 E3.43505
G1 X87.871 Y113.282 E.01923
