; generated by PrusaSlicer 2.5.0+win64 on 2022-12-07 at 00:06:48 UTC

; 

; external perimeters extrusion width = 1.00mm
; perimeters extrusion width = 1.00mm
; infill extrusion width = 1.00mm
; solid infill extrusion width = 1.00mm
; top infill extrusion width = 1.00mm
; support material extrusion width = 1.00mm
; first layer extrusion width = 0.42mm

M73 P0 R168
M107
;TYPE:Custom
G90 ; use absolute coordinates
M83 ; extruder relative mode
M140 S60 ; set final bed temp
M104 S150 ; set temporary nozzle temp to prevent oozing during homing and auto bed leveling
G4 S10 ; allow partial nozzle warmup
G28 ; home all axisG1 Z50 F240
G1 X7.6 Y10 F3000
M104 S210 ; set final nozzle temp
M190 S60 ; wait for bed temp to stabilize
M109 S210 ; wait for nozzle temp to stabilize
G1 Z0.28 F240
G92 E0
G1 Y140 E10 F1500 ; prime the nozzle
G1 X4 F5000
G92 E0
G1 Y10 E10 F1200 ; prime the nozzle
G92 E0
G21 ; set units to millimeters
G90 ; use absolute coordinates
M83 ; use relative distances for extrusion
; Filament gcode
M107
;LAYER_CHANGE
;Z:0.35
;HEIGHT:0.35
;BEFORE_LAYER_CHANGE
G92 E0
;0.35


G1 E-1 F3600
G1 Z.35 F7800
;AFTER_LAYER_CHANGE
;0.35
G1 X62.773 Y16.083
G1 E1 F2400
;TYPE:Support material interface
;WIDTH:1
G1 F1800
G1 X62.773 Y15.361 E.09719
G1 X61.88 Y15.361 E.12014
G1 X61.88 Y15.681 E.04312
G1 X60.987 Y15.681 E.12014
G1 X60.987 Y15.361 E.04312
G1 X60.095 Y15.361 E.12014
G1 X60.095 Y15.681 E.04312
G1 X59.202 Y15.681 E.12014
G1 X59.202 Y15.361 E.04312
G1 X58.309 Y15.361 E.12014
G1 X58.309 Y15.681 E.04312
G1 X57.416 Y15.681 E.12014
G1 X57.416 Y15.361 E.04312
G1 X56.524 Y15.361 E.12014
G1 X56.524 Y15.681 E.04312
G1 X55.631 Y15.681 E.12014
G1 X55.631 Y15.361 E.04312
G1 X54.738 Y15.361 E.12014
G1 X54.738 Y15.681 E.04312
G1 X53.846 Y15.681 E.12014
G1 X53.846 Y15.361 E.04312
G1 X52.953 Y15.361 E.12014
G1 X52.953 Y15.681 E.04312
G1 X52.06 Y15.681 E.12014
G1 X52.06 Y15.361 E.04312
G1 X51.168 Y15.361 E.12014
G1 X51.168 Y15.681 E.04312
G1 X50.275 Y15.681 E.12014
G1 X50.275 Y15.361 E.04312
G1 X49.382 Y15.361 E.12014
G1 X49.382 Y15.681 E.04312
G1 X48.489 Y15.681 E.12014
G1 X48.489 Y15.361 E.04312
G1 X47.597 Y15.361 E.12014
G1 X47.597 Y15.681 E.04312
G1 X46.704 Y15.681 E.12014
G1 X46.704 Y15.361 E.04312
G1 X45.811 Y15.361 E.12014
G1 X45.811 Y15.681 E.04312
G1 X44.919 Y15.681 E.12014
G1 X44.919 Y15.361 E.04312
G1 X44.026 Y15.361 E.12014
G1 X44.026 Y15.681 E.04312
G1 X43.133 Y15.681 E.12014
G1 X43.133 Y15.361 E.04312
G1 X42.241 Y15.361 E.12014
G1 X42.241 Y15.681 E.04312
G1 X41.348 Y15.681 E.12014
G1 X41.348 Y15.361 E.04312
G1 X40.455 Y15.361 E.12014
G1 X40.455 Y15.681 E.04312
G1 X39.562 Y15.681 E.12014
G1 X39.562 Y15.361 E.04312
G1 X38.67 Y15.361 E.12014
G1 X38.67 Y15.681 E.04312
G1 X37.777 Y15.681 E.12014
G1 X37.777 Y15.361 E.04312
G1 X36.884 Y15.361 E.12014
G1 X36.884 Y15.681 E.04312
G1 X35.992 Y15.681 E.12014
G1 X35.992 Y15.361 E.04312
G1 X35.099 Y15.361 E.12014
G1 X35.099 Y15.681 E.04312
G1 X34.206 Y15.681 E.12014
G1 X34.206 Y15.361 E.04312
G1 X33.314 Y15.361 E.12014
G1 X33.314 Y15.681 E.04312
G1 X32.421 Y15.681 E.12014
G1 X32.421 Y15.361 E.04312
G1 X31.528 Y15.361 E.12014
G1 X31.528 Y15.681 E.04312
G1 X30.635 Y15.681 E.12014
G1 X30.635 Y15.361 E.04312
G1 X29.743 Y15.361 E.12014
G1 X29.743 Y15.681 E.04312
G1 X28.85 Y15.681 E.12014
G1 X28.85 Y15.361 E.04312
G1 X27.957 Y15.361 E.12014
G1 X27.957 Y15.681 E.04312
G1 X27.065 Y15.681 E.12014
G1 X27.065 Y15.361 E.04312
G1 X26.172 Y15.361 E.12014
G1 X26.172 Y15.681 E.04312
G1 X25.279 Y15.681 E.12014
G1 X25.279 Y15.361 E.04312
G1 X24.387 Y15.361 E.12014
G1 X24.387 Y15.681 E.04312
G1 X23.494 Y15.681 E.12014
G1 X23.494 Y15.361 E.04312
G1 X22.601 Y15.361 E.12014
G1 X22.601 Y15.681 E.04312
G1 X21.709 Y15.681 E.12014
G1 X21.709 Y15.361 E.04312
G1 X20.816 Y15.361 E.12014
G1 X20.816 Y15.681 E.04312
G1 X19.923 Y15.681 E.12014
G1 X19.923 Y15.361 E.04312
G1 X19.03 Y15.361 E.12014
G1 X19.03 Y15.681 E.04312
G1 X18.138 Y15.681 E.12014
G1 X18.138 Y15.361 E.04312
G1 X17.245 Y15.361 E.12014
G1 X17.245 Y164.639 E20.09046
G1 X16.352 Y164.639 E.12014
M73 P0 R167
G1 X16.352 Y15.361 E20.09046
G1 X15.46 Y15.361 E.12014
G1 X15.46 Y165.041 E20.14453
G1 E-.7 F3600
;WIPE_START
G1 F6240
G1 X15.46 Y164.521 E-.285
;WIPE_END
G1 E-.015 F3600
G1 X18.138 Y163.891 F7800
G1 E1 F2400
G1 F1800
G1 X18.138 Y164.639 E.10074
G1 X19.03 Y164.639 E.12014
G1 X19.03 Y164.319 E.04312
G1 X19.923 Y164.319 E.12014
G1 X19.923 Y164.639 E.04312
G1 X20.816 Y164.639 E.12014
G1 X20.816 Y164.319 E.04312
G1 X21.708 Y164.319 E.12014
G1 X21.708 Y164.639 E.04312
G1 X22.601 Y164.639 E.12014
G1 X22.601 Y164.319 E.04312
G1 X23.494 Y164.319 E.12014
G1 X23.494 Y164.639 E.04312
G1 X24.387 Y164.639 E.12014
G1 X24.387 Y164.319 E.04312
G1 X25.279 Y164.319 E.12014
G1 X25.279 Y164.639 E.04312
G1 X26.172 Y164.639 E.12014
G1 X26.172 Y164.319 E.04312
G1 X27.065 Y164.319 E.12014
G1 X27.065 Y164.639 E.04312
G1 X27.957 Y164.639 E.12014
G1 X27.957 Y164.319 E.04312
G1 X28.85 Y164.319 E.12014
G1 X28.85 Y164.639 E.04312
G1 X29.743 Y164.639 E.12014
G1 X29.743 Y164.319 E.04312
G1 X30.635 Y164.319 E.12014
G1 X30.635 Y164.639 E.04312
G1 X31.528 Y164.639 E.12014
G1 X31.528 Y164.319 E.04312
G1 X32.421 Y164.319 E.12014
G1 X32.421 Y164.639 E.04312
G1 X33.314 Y164.639 E.12014
G1 X33.314 Y164.319 E.04312
G1 X34.206 Y164.319 E.12014
G1 X34.206 Y164.639 E.04312
G1 X35.099 Y164.639 E.12014
G1 X35.099 Y164.319 E.04312
G1 X35.992 Y164.319 E.12014
G1 X35.992 Y164.639 E.04312
G1 X36.884 Y164.639 E.12014
G1 X36.884 Y164.319 E.04312
G1 X37.777 Y164.319 E.12014
G1 X37.777 Y164.639 E.04312
G1 X38.67 Y164.639 E.12014
G1 X38.67 Y164.319 E.04312
G1 X39.562 Y164.319 E.12014
G1 X39.562 Y164.639 E.04312
G1 X40.455 Y164.639 E.12014
G1 X40.455 Y164.319 E.04312
G1 X41.348 Y164.319 E.12014
G1 X41.348 Y164.639 E.04312
G1 X42.241 Y164.639 E.12014
G1 X42.241 Y164.319 E.04312
G1 X43.133 Y164.319 E.12014
G1 X43.133 Y164.639 E.04312
G1 X44.026 Y164.639 E.12014
G1 X44.026 Y164.319 E.04312
G1 X44.919 Y164.319 E.12014
G1 X44.919 Y164.639 E.04312
G1 X45.811 Y164.639 E.12014
G1 X45.811 Y164.319 E.04312
G1 X46.704 Y164.319 E.12014
G1 X46.704 Y164.639 E.04312
G1 X47.597 Y164.639 E.12014
G1 X47.597 Y164.319 E.04312
G1 X48.489 Y164.319 E.12014
G1 X48.489 Y164.639 E.04312
G1 X49.382 Y164.639 E.12014
G1 X49.382 Y164.319 E.04312
G1 X50.275 Y164.319 E.12014
G1 X50.275 Y164.639 E.04312
G1 X51.168 Y164.639 E.12014
G1 X51.168 Y164.319 E.04312
G1 X52.06 Y164.319 E.12014
G1 X52.06 Y164.639 E.04312
G1 X52.953 Y164.639 E.12014
G1 X52.953 Y164.319 E.04312
G1 X53.846 Y164.319 E.12014
G1 X53.846 Y164.639 E.04312
G1 X54.738 Y164.639 E.12014
G1 X54.738 Y164.319 E.04312
G1 X55.631 Y164.319 E.12014
G1 X55.631 Y164.639 E.04312
G1 X56.524 Y164.639 E.12014
G1 X56.524 Y164.319 E.04312
G1 X57.416 Y164.319 E.12014
G1 X57.416 Y164.639 E.04312
G1 X58.309 Y164.639 E.12014
G1 X58.309 Y164.319 E.04312
G1 X59.202 Y164.319 E.12014
G1 X59.202 Y164.639 E.04312
G1 X60.095 Y164.639 E.12014
G1 X60.095 Y164.319 E.04312
G1 X60.987 Y164.319 E.12014
G1 X60.987 Y164.639 E.04312
G1 X61.88 Y164.639 E.12014
G1 X61.88 Y164.319 E.04312
G1 X62.773 Y164.319 E.12014
G1 X62.773 Y164.639 E.04312
G1 X63.665 Y164.639 E.12014
G1 X63.665 Y164.319 E.04312
G1 X64.558 Y164.319 E.12014
G1 X64.558 Y164.639 E.04312
G1 X65.451 Y164.639 E.12014
G1 X65.451 Y164.319 E.04312
G1 X66.343 Y164.319 E.12014
G1 X66.343 Y164.639 E.04312
G1 X67.236 Y164.639 E.12014
G1 X67.236 Y164.319 E.04312
G1 X68.129 Y164.319 E.12014
G1 X68.129 Y164.639 E.04312
G1 X69.022 Y164.639 E.12014
G1 X69.022 Y164.319 E.04312
G1 X69.914 Y164.319 E.12014
G1 X69.914 Y164.639 E.04312
G1 X70.807 Y164.639 E.12014
G1 X70.807 Y164.319 E.04312
G1 X71.7 Y164.319 E.12014
G1 X71.7 Y164.639 E.04312
G1 X72.592 Y164.639 E.12014
G1 X72.592 Y164.319 E.04312
G1 X73.485 Y164.319 E.12014
G1 X73.485 Y164.639 E.04312
G1 X74.378 Y164.639 E.12014
G1 X74.378 Y164.319 E.04312
G1 X75.27 Y164.319 E.12014
G1 X75.27 Y164.639 E.04312
G1 X76.163 Y164.639 E.12014
G1 X76.163 Y164.319 E.04312
G1 X77.056 Y164.319 E.12014
G1 X77.056 Y164.639 E.04312
G1 X77.949 Y164.639 E.12014
G1 X77.949 Y164.319 E.04312
G1 X78.841 Y164.319 E.12014
G1 X78.841 Y164.639 E.04312
G1 X79.734 Y164.639 E.12014
G1 X79.734 Y164.319 E.04312
G1 X80.627 Y164.319 E.12014
G1 X80.627 Y164.639 E.04312
G1 X81.519 Y164.639 E.12014
G1 X81.519 Y164.319 E.04312
G1 X82.412 Y164.319 E.12014
G1 X82.412 Y164.639 E.04312
G1 X83.305 Y164.639 E.12014
G1 X83.305 Y164.319 E.04312
G1 X84.197 Y164.319 E.12014
G1 X84.197 Y164.639 E.04312
G1 X85.09 Y164.639 E.12014
G1 X85.09 Y164.319 E.04312
G1 X85.983 Y164.319 E.12014
G1 X85.983 Y164.639 E.04312
G1 X86.876 Y164.639 E.12014
G1 X86.876 Y164.319 E.04312
G1 X87.768 Y164.319 E.12014
G1 X87.768 Y164.639 E.04312
G1 X88.661 Y164.639 E.12014
G1 X88.661 Y164.319 E.04312
G1 X89.554 Y164.319 E.12014
G1 X89.554 Y164.639 E.04312
G1 X90.446 Y164.639 E.12014
G1 X90.446 Y164.319 E.04312
G1 X91.339 Y164.319 E.12014
G1 X91.339 Y164.639 E.04312
G1 X92.232 Y164.639 E.12014
G1 X92.232 Y164.319 E.04312
G1 X93.124 Y164.319 E.12014
G1 X93.124 Y165.041 E.09719
G1 E-.7 F3600
;WIPE_START
G1 F6240
G1 X93.124 Y164.521 E-.285
;WIPE_END
G1 E-.015 F3600
G1 X69.487 Y18.917 F7800
G1 E1 F2400
;TYPE:Support material
;WIDTH:0.42
G1 F1800
G1 X60.515 Y18.917 E.45029
G1 X60.515 Y16.337 E.12947
G1 X62.09 Y16.337 E.07905
G1 X62.09 Y16.926 E.02956
G1 X62.575 Y16.337 E.03828
G1 X63.515 Y16.337 E.04718
G1 X63.515 Y14.704 E.08197
G1 X60.515 Y14.704 E.15056
G1 X60.515 Y12.124 E.12947
G1 X69.487 Y12.124 E.45029
G1 X69.487 Y18.866 E.33831
G1 X68.923 Y18.762 F7800
G1 F1800
G1 X68.923 Y12.435 E.31754
G1 X68.54 Y12.435 E.01923
G1 X68.54 Y18.607 E.30975
G1 X68.157 Y18.607 E.01923
G1 X68.157 Y12.435 E.30975
G1 X67.774 Y12.435 E.01923
G1 X67.774 Y18.607 E.30975
G1 X67.391 Y18.607 E.01923
G1 X67.391 Y12.435 E.30975
G1 X67.007 Y12.435 E.01923
G1 X67.007 Y18.607 E.30975
G1 X66.624 Y18.607 E.01923
G1 X66.624 Y12.435 E.30975
G1 X66.241 Y12.435 E.01923
G1 X66.241 Y18.607 E.30975
G1 X65.858 Y18.607 E.01923
G1 X65.858 Y12.435 E.30975
G1 X65.475 Y12.435 E.01923
G1 X65.475 Y18.607 E.30975
G1 X65.091 Y18.607 E.01923
G1 X65.091 Y12.435 E.30975
G1 X64.708 Y12.435 E.01923
G1 X64.708 Y18.607 E.30975
G1 X64.325 Y18.607 E.01923
G1 X64.325 Y12.435 E.30975
G1 X63.942 Y12.435 E.01923
G1 X63.942 Y18.607 E.30975
G1 X63.559 Y18.607 E.01923
G1 X63.559 Y16.648 E.09831
G1 X63.175 Y16.648 E.01923
G1 X63.175 Y18.607 E.09831
G1 X62.792 Y18.607 E.01923
G1 X62.792 Y16.648 E.09831
G1 X62.721 Y16.648 E.00355
G1 X62.409 Y17.027 E.02467
G1 X62.409 Y18.607 E.07927
G1 X62.026 Y18.607 E.01923
G1 X62.026 Y17.493 E.0559
G1 X61.78 Y17.792 E.01943
G1 X61.78 Y16.648 E.05742
G1 X61.642 Y16.648 E.00688
G1 X61.642 Y18.607 E.09831
G1 X61.259 Y18.607 E.01923
G1 X61.259 Y16.648 E.09831
G1 X60.876 Y16.648 E.01923
G1 X60.876 Y18.762 E.1061
G1 E-.7 F3600
;WIPE_START
G1 F6240
G1 X60.876 Y18.242 E-.285
;WIPE_END
G1 E-.015 F3600
G1 X63.559 Y14.549 F7800
G1 E1 F2400
G1 F1800
G1 X63.559 Y12.435 E.1061
G1 X63.175 Y12.435 E.01923
G1 X63.175 Y14.394 E.09831
G1 X62.792 Y14.394 E.01923
G1 X62.792 Y12.435 E.09831
G1 X62.409 Y12.435 E.01923
G1 X62.409 Y14.394 E.09831
G1 X62.026 Y14.394 E.01923
G1 X62.026 Y12.435 E.09831
G1 X61.642 Y12.435 E.01923
G1 X61.642 Y14.394 E.09831
G1 X61.259 Y14.394 E.01923
G1 X61.259 Y12.435 E.09831
G1 X60.876 Y12.435 E.01923
G1 X60.876 Y14.549 E.1061
G1 E-.7 F3600
;WIPE_START
G1 F6240
G1 X60.876 Y14.029 E-.285
;WIPE_END
G1 E-.015 F3600
G1 X159.827 Y162.818 F7800
G1 E1 F2400
;TYPE:Perimeter
;WIDTH:0.42
G1 F1800
G1 X159.719 Y160.643 E.10925
G1 X159.411 Y156.364 E.21535
G1 X156.83 Y110.515 E2.30457
G1 X155.668 Y93.221 E.8699
G1 X155.385 Y90.697 E.12746
G1 X155.006 Y79.886 E.5429
G1 X147.296 Y40.741 E2.00222
G1 X147.061 Y40.04 E.03714
G1 X143.833 Y29.584 E.54915
G1 X141.404 Y17.182 E.63424
G1 X161.348 Y17.182 E1.00094
G1 X161.348 Y162.818 E7.30884
G1 X159.977 Y162.818 E.0688
G1 X159.499 Y163.163 F7800
;TYPE:External perimeter
G1 F1800
G1 X159.375 Y160.668 E.12534
G1 X159.067 Y156.386 E.21548
G1 X156.486 Y110.535 E2.30471
G1 X155.324 Y93.244 E.86972
G1 X155.041 Y90.722 E.12736
G1 X154.667 Y79.952 E.54082
G1 X146.958 Y40.808 E2.00222
G1 X146.733 Y40.147 E.03506
G1 X143.498 Y29.669 E.55034
G1 X140.985 Y16.837 E.65619
G1 X161.693 Y16.837 E1.03928
G1 X161.693 Y163.163 E7.34346
G1 X159.649 Y163.163 E.10258
G1 X159.471 Y162.163 F7800
G1 E-.7 F3600
;WIPE_START
G1 F6240
G1 X159.592 Y162.646 E-.285
;WIPE_END
G1 E-.015 F3600
G1 X161.245 Y17.983 F7800
G1 E1 F2400
;TYPE:Solid infill
;WIDTH:0.420009
G1 F1800
G1 X160.703 Y17.441 E.03847
G1 X160.215 Y17.441 E.02448
G1 X161.09 Y18.315 E.06207
G1 X161.09 Y18.803 E.02448
G1 X159.727 Y17.441 E.09669
G1 X159.24 Y17.441 E.02448
G1 X161.09 Y19.291 E.13131
G1 X161.09 Y19.779 E.02448
G1 X158.752 Y17.441 E.16593
G1 X158.264 Y17.441 E.02448
G1 X161.09 Y20.267 E.20055
G1 X161.09 Y20.754 E.02448
G1 X157.776 Y17.441 E.23517
G1 X157.289 Y17.441 E.02448
G1 X161.09 Y21.242 E.26979
G1 X161.09 Y21.73 E.02448
G1 X156.801 Y17.441 E.30441
G1 X156.313 Y17.441 E.02448
G1 X161.09 Y22.218 E.33903
G1 X161.09 Y22.705 E.02448
G1 X155.825 Y17.441 E.37364
G1 X155.338 Y17.441 E.02448
G1 X161.09 Y23.193 E.40826
G1 X161.09 Y23.681 E.02448
G1 X154.85 Y17.441 E.44288
G1 X154.362 Y17.441 E.02448
G1 X161.09 Y24.169 E.4775
G1 X161.09 Y24.656 E.02448
G1 X153.874 Y17.441 E.51212
G1 X153.387 Y17.441 E.02448
G1 X161.09 Y25.144 E.54674
G1 X161.09 Y25.632 E.02448
G1 X152.899 Y17.441 E.58136
G1 X152.411 Y17.441 E.02448
G1 X161.09 Y26.12 E.61598
G1 X161.09 Y26.607 E.02448
G1 X151.923 Y17.441 E.6506
G1 X151.435 Y17.441 E.02448
G1 X161.09 Y27.095 E.68521
G1 X161.09 Y27.583 E.02448
G1 X150.948 Y17.441 E.71983
G1 X150.46 Y17.441 E.02448
G1 X161.09 Y28.071 E.75445
G1 X161.09 Y28.558 E.02448
G1 X149.972 Y17.441 E.78907
G1 X149.484 Y17.441 E.02448
M73 P0 R166
G1 X161.09 Y29.046 E.82369
G1 X161.09 Y29.534 E.02448
G1 X148.997 Y17.441 E.85831
G1 X148.509 Y17.441 E.02448
G1 X161.09 Y30.022 E.89293
G1 X161.09 Y30.509 E.02448
G1 X148.021 Y17.441 E.92755
G1 X147.533 Y17.441 E.02448
G1 X161.09 Y30.997 E.96217
G1 X161.09 Y31.485 E.02448
G1 X147.046 Y17.441 E.99678
G1 X146.558 Y17.441 E.02448
G1 X161.09 Y31.973 E1.0314
G1 X161.09 Y32.461 E.02448
G1 X146.07 Y17.441 E1.06602
G1 X145.582 Y17.441 E.02448
G1 X161.09 Y32.948 E1.10064
G1 X161.09 Y33.436 E.02448
G1 X145.095 Y17.441 E1.13526
G1 X144.607 Y17.441 E.02448
G1 X161.09 Y33.924 E1.16988
G1 X161.09 Y34.412 E.02448
G1 X144.119 Y17.441 E1.2045
G1 X143.631 Y17.441 E.02448
G1 X161.09 Y34.899 E1.23912
G1 X161.09 Y35.387 E.02448
G1 X143.144 Y17.441 E1.27374
G1 X142.656 Y17.441 E.02448
G1 X161.09 Y35.875 E1.30835
G1 X161.09 Y36.363 E.02448
G1 X142.168 Y17.441 E1.34297
G1 X141.718 Y17.441 E.02259
G1 X141.727 Y17.488 E.0024
G1 X161.09 Y36.85 E1.37426
G1 X161.09 Y37.338 E.02448
G1 X141.846 Y18.094 E1.36583
G1 X141.965 Y18.701 E.03102
G1 X161.09 Y37.826 E1.3574
G1 X161.09 Y38.314 E.02448
G1 X142.084 Y19.308 E1.34896
G1 X142.202 Y19.914 E.03102
G1 X161.09 Y38.801 E1.34053
G1 X161.09 Y39.289 E.02448
G1 X142.321 Y20.521 E1.33209
G1 X142.44 Y21.127 E.03102
G1 X161.09 Y39.777 E1.32366
G1 X161.09 Y40.265 E.02448
M73 P1 R166
G1 X142.559 Y21.734 E1.31523
G1 X142.678 Y22.341 E.03102
G1 X161.09 Y40.752 E1.30679
G1 X161.09 Y41.24 E.02448
G1 X142.797 Y22.947 E1.29836
G1 X142.915 Y23.554 E.03102
G1 X161.09 Y41.728 E1.28992
G1 X161.09 Y42.216 E.02448
G1 X143.034 Y24.16 E1.28149
G1 X143.153 Y24.767 E.03102
G1 X161.09 Y42.703 E1.27306
G1 X161.09 Y43.191 E.02448
G1 X143.272 Y25.373 E1.26462
G1 X143.391 Y25.98 E.03102
G1 X161.09 Y43.679 E1.25619
G1 X161.09 Y44.167 E.02448
G1 X143.51 Y26.587 E1.24775
G1 X143.628 Y27.193 E.03102
G1 X161.09 Y44.655 E1.23932
G1 X161.09 Y45.142 E.02448
G1 X143.747 Y27.8 E1.23088
G1 X143.866 Y28.406 E.03102
G1 X161.09 Y45.63 E1.22245
G1 X161.09 Y46.118 E.02448
G1 X143.985 Y29.013 E1.21402
G1 X144.12 Y29.636 E.03197
G1 X161.09 Y46.606 E1.20444
G1 X161.09 Y47.093 E.02448
G1 X144.338 Y30.341 E1.18899
G1 X144.555 Y31.047 E.03706
G1 X161.09 Y47.581 E1.17353
G1 X161.09 Y48.069 E.02448
G1 X144.773 Y31.752 E1.15807
G1 X144.991 Y32.458 E.03706
G1 X161.09 Y48.557 E1.14262
G1 X161.09 Y49.044 E.02448
