; generated by PrusaSlicer 2.5.0+win64 on 2022-12-07 at 00:07:04 UTC

; 

; external perimeters extrusion width = 1.00mm
; perimeters extrusion width = 1.00mm
; infill extrusion width = 1.00mm
; solid infill extrusion width = 1.00mm
; top infill extrusion width = 1.00mm
; support material extrusion width = 1.00mm
; first layer extrusion width = 0.42mm

M73 P0 R162
M107
;TYPE:Custom
G90 ; use absolute coordinates
M83 ; extruder relative mode
M140 S60 ; set final bed temp
M104 S150 ; set temporary nozzle temp to prevent oozing during homing and auto bed leveling
G4 S10 ; allow partial nozzle warmup
G28 ; home all axisG1 Z50 F240
G1 X7.6 Y10 F3000
M104 S210 ; set final nozzle temp
M190 S60 ; wait for bed temp to stabilize
M109 S210 ; wait for nozzle temp to stabilize
G1 Z0.28 F240
G92 E0
G1 Y140 E10 F1500 ; prime the nozzle
G1 X4 F5000
G92 E0
G1 Y10 E10 F1200 ; prime the nozzle
G92 E0
G21 ; set units to millimeters
G90 ; use absolute coordinates
M83 ; use relative distances for extrusion
; Filament gcode
M107
;LAYER_CHANGE
;Z:0.35
;HEIGHT:0.35
;BEFORE_LAYER_CHANGE
G92 E0
;0.35


G1 E-1 F3600
G1 Z.35 F7800
;AFTER_LAYER_CHANGE
;0.35
G1 X49.237 Y95.724
G1 E1 F2400
;TYPE:Perimeter
;WIDTH:0.42
G1 F1800
G1 X49.142 Y95.74 E.00484
G1 X48.934 Y95.871 E.01237
G1 X48.808 Y96.088 E.01259
G1 X48.798 Y96.33 E.01211
G1 X49.961 Y102.281 E.30435
G1 X50.006 Y102.688 E.02054
G1 X50.179 Y103.608 E.04697
G1 X36.077 Y103.608 E.70772
G1 X35.689 Y101.541 E.10552
G1 X33.669 Y91.344 E.52172
G1 X32.016 Y81.946 E.47888
G1 X38.364 Y81.98 E.3186
G1 X80.755 Y81.538 E2.12753
G1 X153.712 Y79.755 E3.66248
G1 X153.712 Y93.677 E.69867
G1 X87.596 Y95.291 E3.31905
G1 X49.386 Y95.712 E1.91771
G1 X49.304 Y96.058 F7800
;TYPE:External perimeter
G1 F1800
G1 X49.172 Y96.122 E.00737
G1 X49.136 Y96.263 E.00732
G1 X50.299 Y102.215 E.30435
G1 X50.345 Y102.624 E.02065
G1 X50.595 Y103.953 E.06784
G1 X35.791 Y103.953 E.74295
G1 X35.351 Y101.605 E.11988
G1 X33.33 Y91.407 E.52173
G1 X31.605 Y81.599 E.4998
G1 X38.358 Y81.635 E.33892
G1 X80.744 Y81.193 E2.12731
G1 X154.056 Y79.401 E3.68034
G1 X154.056 Y94.013 E.7333
G1 X87.602 Y95.636 E3.33606
G1 X49.454 Y96.056 E1.91462
G1 X49.195 Y95.959 F7800
G1 E-.7 F3600
;WIPE_START
G1 F6240
G1 X49.172 Y96.122 E-.15874
G1 X49.136 Y96.263 E-.07996
G1 X49.153 Y96.346 E-.04629
;WIPE_END
G1 E-.015 F3600
G1 X153.608 Y80.559 F7800
G1 E1 F2400
;TYPE:Solid infill
;WIDTH:0.420479
G1 F1800
G1 X153.078 Y80.029 E.03764
G1 X152.602 Y80.041 E.02397
G1 X153.453 Y80.892 E.06049
G1 X153.453 Y81.38 E.02455
G1 X152.125 Y80.052 E.09438
G1 X151.648 Y80.064 E.02397
G1 X153.453 Y81.869 E.12827
G1 X153.453 Y82.357 E.02455
G1 X151.171 Y80.076 E.16215
G1 X150.695 Y80.087 E.02397
G1 X153.453 Y82.846 E.19604
G1 X153.453 Y83.334 E.02455
G1 X150.218 Y80.099 E.22992
G1 X149.741 Y80.111 E.02397
G1 X153.453 Y83.822 E.26381
G1 X153.453 Y84.311 E.02455
G1 X149.264 Y80.122 E.29769
G1 X148.788 Y80.134 E.02397
G1 X153.453 Y84.799 E.33158
G1 X153.453 Y85.288 E.02455
G1 X148.311 Y80.146 E.36546
G1 X147.834 Y80.157 E.02397
G1 X153.453 Y85.776 E.39935
G1 X153.453 Y86.265 E.02455
G1 X147.357 Y80.169 E.43323
G1 X146.88 Y80.181 E.02397
G1 X153.453 Y86.753 E.46712
G1 X153.453 Y87.241 E.02455
G1 X146.404 Y80.192 E.501
G1 X145.927 Y80.204 E.02397
G1 X153.453 Y87.73 E.53489
G1 X153.453 Y88.218 E.02455
G1 X145.45 Y80.216 E.56877
G1 X144.973 Y80.227 E.02397
G1 X153.453 Y88.707 E.60266
G1 X153.453 Y89.195 E.02455
G1 X144.497 Y80.239 E.63654
G1 X144.02 Y80.25 E.02397
G1 X153.453 Y89.684 E.67043
G1 X153.453 Y90.172 E.02455
G1 X143.543 Y80.262 E.70431
G1 X143.066 Y80.274 E.02397
G1 X153.453 Y90.66 E.7382
G1 X153.453 Y91.149 E.02455
G1 X142.589 Y80.285 E.77208
G1 X142.113 Y80.297 E.02397
G1 X153.453 Y91.637 E.80597
G1 X153.453 Y92.126 E.02455
G1 X141.636 Y80.309 E.83985
G1 X141.159 Y80.32 E.02397
G1 X153.453 Y92.614 E.87374
G1 X153.453 Y93.103 E.02455
G1 X140.682 Y80.332 E.90762
G1 X140.206 Y80.344 E.02397
G1 X153.29 Y93.428 E.92994
G1 X152.813 Y93.44 E.02397
G1 X139.729 Y80.355 E.92994
G1 X139.252 Y80.367 E.02397
G1 X152.337 Y93.451 E.92994
G1 X151.86 Y93.463 E.02397
G1 X138.775 Y80.379 E.92994
G1 X138.299 Y80.39 E.02397
G1 X151.383 Y93.475 E.92994
G1 X150.906 Y93.486 E.02397
G1 X137.822 Y80.402 E.92994
G1 X137.345 Y80.414 E.02397
G1 X150.429 Y93.498 E.92994
G1 X149.953 Y93.51 E.02397
G1 X136.868 Y80.425 E.92994
G1 X136.391 Y80.437 E.02397
G1 X149.476 Y93.521 E.92994
G1 X148.999 Y93.533 E.02397
G1 X135.915 Y80.449 E.92993
G1 X135.438 Y80.46 E.02397
G1 X148.522 Y93.545 E.92993
G1 X148.045 Y93.556 E.02397
G1 X134.961 Y80.472 E.92993
G1 X134.484 Y80.484 E.02397
G1 X147.569 Y93.568 E.92993
G1 X147.092 Y93.58 E.02397
M73 P0 R161
G1 X134.008 Y80.495 E.92993
G1 X133.531 Y80.507 E.02397
G1 X146.615 Y93.591 E.92993
G1 X146.138 Y93.603 E.02397
G1 X133.054 Y80.518 E.92993
G1 X132.577 Y80.53 E.02397
G1 X145.662 Y93.614 E.92993
G1 X145.185 Y93.626 E.02397
G1 X132.1 Y80.542 E.92993
G1 X131.624 Y80.553 E.02397
G1 X144.708 Y93.638 E.92993
G1 X144.231 Y93.649 E.02397
G1 X131.147 Y80.565 E.92993
G1 X130.67 Y80.577 E.02397
G1 X143.754 Y93.661 E.92993
G1 X143.278 Y93.673 E.02397
G1 X130.193 Y80.588 E.92993
G1 X129.717 Y80.6 E.02397
G1 X142.801 Y93.684 E.92993
G1 X142.324 Y93.696 E.02397
G1 X129.24 Y80.612 E.92993
G1 X128.763 Y80.623 E.02397
G1 X141.847 Y93.708 E.92992
G1 X141.371 Y93.719 E.02397
G1 X128.286 Y80.635 E.92992
G1 X127.81 Y80.647 E.02397
G1 X140.894 Y93.731 E.92992
G1 X140.417 Y93.743 E.02397
G1 X127.333 Y80.658 E.92992
G1 X126.856 Y80.67 E.02397
G1 X139.94 Y93.754 E.92992
G1 X139.463 Y93.766 E.02397
G1 X126.379 Y80.682 E.92992
G1 X125.902 Y80.693 E.02397
G1 X138.987 Y93.777 E.92992
G1 X138.51 Y93.789 E.02397
G1 X125.426 Y80.705 E.92992
G1 X124.949 Y80.717 E.02397
G1 X138.033 Y93.801 E.92992
G1 X137.556 Y93.812 E.02397
G1 X124.472 Y80.728 E.92992
G1 X123.995 Y80.74 E.02397
G1 X137.08 Y93.824 E.92992
G1 X136.603 Y93.836 E.02397
G1 X123.519 Y80.752 E.92992
G1 X123.042 Y80.763 E.02397
G1 X136.126 Y93.847 E.92992
G1 X135.649 Y93.859 E.02397
G1 X122.565 Y80.775 E.92992
G1 X122.088 Y80.786 E.02397
G1 X135.172 Y93.871 E.92992
G1 X134.696 Y93.882 E.02397
G1 X121.612 Y80.798 E.92991
G1 X121.135 Y80.81 E.02397
G1 X134.219 Y93.894 E.92991
G1 X133.742 Y93.906 E.02397
G1 X120.658 Y80.821 E.92991
G1 X120.181 Y80.833 E.02397
G1 X133.265 Y93.917 E.92991
G1 X132.788 Y93.929 E.02397
G1 X119.704 Y80.845 E.92991
G1 X119.228 Y80.856 E.02397
G1 X132.312 Y93.94 E.92991
G1 X131.835 Y93.952 E.02397
G1 X118.751 Y80.868 E.92991
G1 X118.274 Y80.88 E.02397
G1 X131.358 Y93.964 E.92991
G1 X130.881 Y93.975 E.02397
G1 X117.797 Y80.891 E.92991
G1 X117.321 Y80.903 E.02397
G1 X130.405 Y93.987 E.92991
G1 X129.928 Y93.999 E.02397
G1 X116.844 Y80.915 E.92991
G1 X116.367 Y80.926 E.02397
G1 X129.451 Y94.01 E.92991
G1 X128.974 Y94.022 E.02397
G1 X115.89 Y80.938 E.92991
G1 X115.413 Y80.95 E.02397
G1 X128.497 Y94.034 E.92991
G1 X128.021 Y94.045 E.02397
G1 X114.937 Y80.961 E.92991
G1 X114.46 Y80.973 E.02397
G1 X127.544 Y94.057 E.9299
G1 X127.067 Y94.069 E.02397
G1 X113.983 Y80.985 E.9299
G1 X113.506 Y80.996 E.02397
G1 X126.59 Y94.08 E.9299
G1 X126.114 Y94.092 E.02397
G1 X113.03 Y81.008 E.9299
G1 X112.553 Y81.02 E.02397
G1 X125.637 Y94.103 E.9299
G1 X125.16 Y94.115 E.02397
G1 X112.076 Y81.031 E.9299
G1 X111.599 Y81.043 E.02397
G1 X124.683 Y94.127 E.9299
G1 X124.206 Y94.138 E.02397
G1 X111.123 Y81.054 E.9299
G1 X110.646 Y81.066 E.02397
G1 X123.73 Y94.15 E.9299
G1 X123.253 Y94.162 E.02397
G1 X110.169 Y81.078 E.9299
G1 X109.692 Y81.089 E.02397
G1 X122.776 Y94.173 E.9299
G1 X122.299 Y94.185 E.02397
G1 X109.215 Y81.101 E.9299
G1 X108.739 Y81.113 E.02397
G1 X121.823 Y94.197 E.9299
G1 X121.346 Y94.208 E.02397
G1 X108.262 Y81.124 E.9299
G1 X107.785 Y81.136 E.02397
G1 X120.869 Y94.22 E.9299
G1 X120.392 Y94.232 E.02397
G1 X107.308 Y81.148 E.92989
G1 X106.832 Y81.159 E.02397
G1 X119.915 Y94.243 E.92989
G1 X119.439 Y94.255 E.02397
G1 X106.355 Y81.171 E.92989
G1 X105.878 Y81.183 E.02397
G1 X118.962 Y94.266 E.92989
G1 X118.485 Y94.278 E.02397
G1 X105.401 Y81.194 E.92989
G1 X104.924 Y81.206 E.02397
G1 X118.008 Y94.29 E.92989
G1 X117.531 Y94.301 E.02397
G1 X104.448 Y81.218 E.92989
G1 X103.971 Y81.229 E.02397
G1 X117.055 Y94.313 E.92989
G1 X116.578 Y94.325 E.02397
G1 X103.494 Y81.241 E.92989
G1 X103.017 Y81.253 E.02397
G1 X116.101 Y94.336 E.92989
G1 X115.624 Y94.348 E.02397
M73 P1 R161
G1 X102.541 Y81.264 E.92989
G1 X102.064 Y81.276 E.02397
G1 X115.148 Y94.36 E.92989
G1 X114.671 Y94.371 E.02397
G1 X101.587 Y81.288 E.92989
G1 X101.11 Y81.299 E.02397
G1 X114.194 Y94.383 E.92989
G1 X113.717 Y94.395 E.02397
G1 X100.634 Y81.311 E.92989
G1 X100.157 Y81.322 E.02397
G1 X113.24 Y94.406 E.92988
G1 X112.764 Y94.418 E.02397
G1 X99.68 Y81.334 E.92988
G1 X99.203 Y81.346 E.02397
G1 X112.287 Y94.429 E.92988
G1 X111.81 Y94.441 E.02397
G1 X98.726 Y81.357 E.92988
G1 X98.25 Y81.369 E.02397
G1 X111.333 Y94.453 E.92988
G1 X110.857 Y94.464 E.02397
G1 X97.773 Y81.381 E.92988
G1 X97.296 Y81.392 E.02397
G1 X110.38 Y94.476 E.92988
G1 X109.903 Y94.488 E.02397
G1 X96.819 Y81.404 E.92988
G1 X96.343 Y81.416 E.02397
G1 X109.426 Y94.499 E.92988
G1 X108.949 Y94.511 E.02397
G1 X95.866 Y81.427 E.92988
G1 X95.389 Y81.439 E.02397
G1 X108.473 Y94.523 E.92988
G1 X107.996 Y94.534 E.02397
G1 X94.912 Y81.451 E.92988
G1 X94.435 Y81.462 E.02397
G1 X107.519 Y94.546 E.92988
G1 X107.042 Y94.557 E.02397
G1 X93.959 Y81.474 E.92988
G1 X93.482 Y81.486 E.02397
G1 X106.566 Y94.569 E.92988
G1 X106.089 Y94.581 E.02397
G1 X93.005 Y81.497 E.92987
G1 X92.528 Y81.509 E.02397
G1 X105.612 Y94.592 E.92987
G1 X105.135 Y94.604 E.02397
G1 X92.052 Y81.521 E.92987
G1 X91.575 Y81.532 E.02397
M73 P1 R160
G1 X104.658 Y94.616 E.92987
G1 X104.182 Y94.627 E.02397
G1 X91.098 Y81.544 E.92987
G1 X90.621 Y81.556 E.02397
G1 X103.705 Y94.639 E.92987
G1 X103.228 Y94.651 E.02397
G1 X90.145 Y81.567 E.92987
G1 X89.668 Y81.579 E.02397
G1 X102.751 Y94.662 E.92987
G1 X102.274 Y94.674 E.02397
G1 X89.191 Y81.59 E.92987
G1 X88.714 Y81.602 E.02397
G1 X101.798 Y94.686 E.92987
G1 X101.321 Y94.697 E.02397
G1 X88.237 Y81.614 E.92987
G1 X87.761 Y81.625 E.02397
G1 X100.844 Y94.709 E.92987
G1 X100.367 Y94.72 E.02397
G1 X87.284 Y81.637 E.92987
G1 X86.807 Y81.649 E.02397
G1 X99.891 Y94.732 E.92987
G1 X99.414 Y94.744 E.02397
G1 X86.33 Y81.66 E.92987
G1 X85.854 Y81.672 E.02397
G1 X98.937 Y94.755 E.92986
G1 X98.46 Y94.767 E.02397
G1 X85.377 Y81.684 E.92986
G1 X84.9 Y81.695 E.02397
G1 X97.983 Y94.779 E.92986
G1 X97.507 Y94.79 E.02397
G1 X84.423 Y81.707 E.92986
G1 X83.947 Y81.719 E.02397
G1 X97.03 Y94.802 E.92986
G1 X96.553 Y94.814 E.02397
G1 X83.47 Y81.73 E.92986
G1 X82.993 Y81.742 E.02397
G1 X96.076 Y94.825 E.92986
G1 X95.6 Y94.837 E.02397
G1 X82.516 Y81.754 E.92986
G1 X82.039 Y81.765 E.02397
G1 X95.123 Y94.849 E.92986
G1 X94.646 Y94.86 E.02397
G1 X81.563 Y81.777 E.92986
G1 X81.086 Y81.789 E.02397
G1 X94.169 Y94.872 E.92986
G1 X93.692 Y94.883 E.02397
G1 X80.607 Y81.798 E.93001
G1 X80.124 Y81.803 E.02429
G1 X93.216 Y94.895 E.93048
G1 X92.739 Y94.907 E.02397
G1 X79.64 Y81.808 E.93094
G1 X79.157 Y81.813 E.02429
G1 X92.262 Y94.918 E.93141
G1 X91.785 Y94.93 E.02397
G1 X78.673 Y81.818 E.93188
G1 X78.19 Y81.823 E.02429
G1 X91.308 Y94.942 E.93235
G1 X90.832 Y94.953 E.02397
G1 X77.707 Y81.828 E.93282
G1 X77.223 Y81.833 E.02429
G1 X90.355 Y94.965 E.93329
G1 X89.878 Y94.977 E.02397
G1 X76.74 Y81.838 E.93376
G1 X76.257 Y81.843 E.02429
G1 X89.401 Y94.988 E.93423
G1 X88.925 Y95 E.02397
G1 X75.773 Y81.849 E.9347
G1 X75.29 Y81.854 E.02429
G1 X88.448 Y95.012 E.93517
G1 X87.971 Y95.023 E.02397
G1 X74.806 Y81.859 E.93563
G1 X74.323 Y81.864 E.02429
G1 X87.493 Y95.034 E.93601
G1 X87.01 Y95.039 E.02428
G1 X73.84 Y81.869 E.93604
G1 X73.356 Y81.874 E.02429
G1 X86.527 Y95.044 E.93606
G1 X86.044 Y95.05 E.02428
G1 X72.873 Y81.879 E.93608
G1 X72.39 Y81.884 E.02429
G1 X85.561 Y95.055 E.93611
G1 X85.078 Y95.06 E.02428
G1 X71.906 Y81.889 E.93613
G1 X71.423 Y81.894 E.02429
G1 X84.595 Y95.066 E.93615
G1 X84.112 Y95.071 E.02428
G1 X70.939 Y81.899 E.93617
G1 X70.456 Y81.904 E.02429
G1 X83.629 Y95.077 E.9362
G1 X83.145 Y95.082 E.02428
G1 X69.973 Y81.909 E.93622
G1 X69.489 Y81.914 E.02429
G1 X82.662 Y95.087 E.93624
G1 X82.179 Y95.093 E.02428
G1 X69.006 Y81.919 E.93627
G1 X68.522 Y81.924 E.02429
G1 X81.696 Y95.098 E.93629
G1 X81.213 Y95.103 E.02428
G1 X68.039 Y81.929 E.93631
G1 X67.556 Y81.934 E.02429
G1 X80.73 Y95.109 E.93634
G1 X80.247 Y95.114 E.02428
G1 X67.072 Y81.939 E.93636
G1 X66.589 Y81.944 E.02429
G1 X79.764 Y95.119 E.93638
G1 X79.281 Y95.125 E.02428
G1 X66.106 Y81.949 E.93641
G1 X65.622 Y81.954 E.02429
G1 X78.798 Y95.13 E.93643
G1 X78.315 Y95.136 E.02428
G1 X65.139 Y81.959 E.93645
G1 X64.655 Y81.965 E.02429
G1 X77.832 Y95.141 E.93648
G1 X77.349 Y95.146 E.02428
G1 X64.172 Y81.97 E.9365
G1 X63.689 Y81.975 E.02429
G1 X76.866 Y95.152 E.93652
G1 X76.383 Y95.157 E.02428
G1 X63.205 Y81.98 E.93654
G1 X62.722 Y81.985 E.02429
G1 X75.9 Y95.162 E.93657
G1 X75.417 Y95.168 E.02428
G1 X62.239 Y81.99 E.93659
G1 X61.755 Y81.995 E.02429
G1 X74.934 Y95.173 E.93661
G1 X74.45 Y95.179 E.02428
G1 X61.272 Y82 E.93664
G1 X60.788 Y82.005 E.02429
G1 X73.967 Y95.184 E.93666
G1 X73.484 Y95.189 E.02428
G1 X60.305 Y82.01 E.93668
G1 X59.822 Y82.015 E.02429
G1 X73.001 Y95.195 E.93671
G1 X72.518 Y95.2 E.02428
G1 X59.338 Y82.02 E.93673
G1 X58.855 Y82.025 E.02429
G1 X72.035 Y95.205 E.93675
G1 X71.552 Y95.211 E.02428
G1 X58.372 Y82.03 E.93678
G1 X57.888 Y82.035 E.02429
G1 X71.069 Y95.216 E.9368
G1 X70.586 Y95.221 E.02428
G1 X57.405 Y82.04 E.93682
G1 X56.921 Y82.045 E.02429
G1 X70.103 Y95.227 E.93685
G1 X69.62 Y95.232 E.02428
G1 X56.438 Y82.05 E.93687
G1 X55.955 Y82.055 E.02429
G1 X69.137 Y95.238 E.93689
G1 X68.654 Y95.243 E.02428
G1 X55.471 Y82.06 E.93692
G1 X54.988 Y82.065 E.02429
G1 X68.171 Y95.248 E.93694
G1 X67.688 Y95.254 E.02428
G1 X54.504 Y82.07 E.93696
G1 X54.021 Y82.075 E.02429
G1 X67.205 Y95.259 E.93698
G1 X66.722 Y95.264 E.02428
G1 X53.538 Y82.081 E.93701
G1 X53.054 Y82.086 E.02429
G1 X66.239 Y95.27 E.93703
G1 X65.755 Y95.275 E.02428
G1 X52.571 Y82.091 E.93705
G1 X52.088 Y82.096 E.02429
G1 X65.272 Y95.281 E.93708
G1 X64.789 Y95.286 E.02428
G1 X51.604 Y82.101 E.9371
G1 X51.121 Y82.106 E.02429
G1 X64.306 Y95.291 E.93712
G1 X63.823 Y95.297 E.02428
G1 X50.637 Y82.111 E.93715
G1 X50.154 Y82.116 E.02429
G1 X63.34 Y95.302 E.93717
G1 X62.857 Y95.307 E.02428
G1 X49.671 Y82.121 E.93719
G1 X49.187 Y82.126 E.02429
M73 P1 R159
G1 X62.374 Y95.313 E.93722
G1 X61.891 Y95.318 E.02428
G1 X48.704 Y82.131 E.93724
G1 X48.221 Y82.136 E.02429
G1 X61.408 Y95.324 E.93726
G1 X60.925 Y95.329 E.02428
G1 X47.737 Y82.141 E.93729
G1 X47.254 Y82.146 E.02429
G1 X60.442 Y95.334 E.93731
G1 X59.959 Y95.34 E.02428
G1 X46.77 Y82.151 E.93733
G1 X46.287 Y82.156 E.02429
G1 X59.476 Y95.345 E.93735
G1 X58.993 Y95.35 E.02428
G1 X45.804 Y82.161 E.93738
G1 X45.32 Y82.166 E.02429
G1 X58.51 Y95.356 E.9374
G1 X58.027 Y95.361 E.02428
G1 X44.837 Y82.171 E.93742
G1 X44.353 Y82.176 E.02429
G1 X57.544 Y95.366 E.93745
G1 X57.061 Y95.372 E.02428
G1 X43.87 Y82.181 E.93747
G1 X43.387 Y82.186 E.02429
G1 X56.577 Y95.377 E.93749
G1 X56.094 Y95.383 E.02428
G1 X42.903 Y82.192 E.93752
G1 X42.42 Y82.197 E.02429
G1 X55.611 Y95.388 E.93754
G1 X55.128 Y95.393 E.02428
G1 X41.937 Y82.202 E.93756
G1 X41.453 Y82.207 E.02429
G1 X54.645 Y95.399 E.93759
G1 X54.162 Y95.404 E.02428
G1 X40.97 Y82.212 E.93761
G1 X40.486 Y82.217 E.02429
G1 X53.679 Y95.409 E.93763
G1 X53.196 Y95.415 E.02428
G1 X40.003 Y82.222 E.93766
G1 X39.52 Y82.227 E.02429
G1 X52.713 Y95.42 E.93768
G1 X52.23 Y95.426 E.02428
G1 X39.036 Y82.232 E.9377
G1 X38.553 Y82.237 E.02429
G1 X51.747 Y95.431 E.93773
G1 X51.264 Y95.436 E.02428
G1 X38.065 Y82.237 E.93808
G1 X37.574 Y82.235 E.02468
G1 X50.781 Y95.442 E.93865
G1 X50.298 Y95.447 E.02428
G1 X37.083 Y82.232 E.93922
G1 X36.592 Y82.229 E.02468
G1 X49.815 Y95.452 E.93979
G1 X49.332 Y95.458 E.02428
G1 X36.101 Y82.227 E.94036
G1 X35.609 Y82.224 E.02468
G1 X48.935 Y95.55 E.94709
G1 X48.704 Y95.739 E.01499
G1 X48.677 Y95.78 E.00249
G1 X35.118 Y82.221 E.96364
G1 X34.627 Y82.219 E.02468
G1 X48.545 Y96.136 E.98915
G1 X48.53 Y96.271 E.00681
