; generated by PrusaSlicer 2.5.0+win64 on 2022-12-07 at 00:07:01 UTC

; 

; external perimeters extrusion width = 1.00mm
; perimeters extrusion width = 1.00mm
; infill extrusion width = 1.00mm
; solid infill extrusion width = 1.00mm
; top infill extrusion width = 1.00mm
; support material extrusion width = 1.00mm
; first layer extrusion width = 0.42mm

M73 P0 R181
M107
;TYPE:Custom
G90 ; use absolute coordinates
M83 ; extruder relative mode
M140 S60 ; set final bed temp
M104 S150 ; set temporary nozzle temp to prevent oozing during homing and auto bed leveling
G4 S10 ; allow partial nozzle warmup
G28 ; home all axisG1 Z50 F240
G1 X7.6 Y10 F3000
M104 S210 ; set final nozzle temp
M190 S60 ; wait for bed temp to stabilize
M109 S210 ; wait for nozzle temp to stabilize
G1 Z0.28 F240
G92 E0
G1 Y140 E10 F1500 ; prime the nozzle
G1 X4 F5000
G92 E0
G1 Y10 E10 F1200 ; prime the nozzle
G92 E0
G21 ; set units to millimeters
G90 ; use absolute coordinates
M83 ; use relative distances for extrusion
; Filament gcode
M107
;LAYER_CHANGE
;Z:0.35
;HEIGHT:0.35
;BEFORE_LAYER_CHANGE
G92 E0
;0.35


G1 E-1 F3600
G1 Z.35 F7800
;AFTER_LAYER_CHANGE
;0.35
G1 X95.725 Y162.82
G1 E1 F2400
;TYPE:Perimeter
;WIDTH:0.42
M73 P0 R180
G1 F1800
G1 X81.779 Y162.82 E.69986
G1 X81.781 Y17.18 E7.30908
G1 X95.725 Y17.18 E.69977
G1 X95.725 Y162.67 E7.30155
G1 X96.07 Y163.165 F7800
;TYPE:External perimeter
G1 F1800
G1 X81.435 Y163.165 E.73447
G1 X81.437 Y16.835 E7.3437
G1 X96.07 Y16.835 E.73439
G1 X96.07 Y163.015 E7.33617
G1 X95.187 Y162.694 F7800
G1 E-.7 F3600
;WIPE_START
G1 F6240
G1 X95.55 Y163.02 E-.285
;WIPE_END
G1 E-.015 F3600
G1 X94.923 Y17.283 F7800
G1 E1 F2400
;TYPE:Solid infill
;WIDTH:0.420511
G1 F1800
G1 X95.466 Y17.826 E.0386
G1 X95.466 Y18.315 E.02455
G1 X94.59 Y17.439 E.06229
G1 X94.102 Y17.439 E.02455
G1 X95.466 Y18.803 E.09701
G1 X95.466 Y19.292 E.02455
G1 X93.613 Y17.439 E.13173
G1 X93.125 Y17.439 E.02455
G1 X95.466 Y19.78 E.16645
G1 X95.466 Y20.269 E.02455
G1 X92.636 Y17.439 E.20117
G1 X92.148 Y17.439 E.02455
G1 X95.466 Y20.757 E.23589
G1 X95.466 Y21.246 E.02455
G1 X91.659 Y17.439 E.27061
G1 X91.171 Y17.439 E.02455
G1 X95.466 Y21.734 E.30533
G1 X95.466 Y22.223 E.02455
G1 X90.682 Y17.439 E.34005
G1 X90.194 Y17.439 E.02455
G1 X95.466 Y22.711 E.37477
G1 X95.466 Y23.2 E.02455
G1 X89.705 Y17.439 E.40949
G1 X89.217 Y17.439 E.02455
G1 X95.466 Y23.688 E.44421
G1 X95.466 Y24.177 E.02455
G1 X88.728 Y17.439 E.47893
G1 X88.24 Y17.439 E.02455
G1 X95.466 Y24.665 E.51365
G1 X95.466 Y25.153 E.02455
G1 X87.752 Y17.439 E.54837
G1 X87.263 Y17.439 E.02455
G1 X95.466 Y25.642 E.58308
G1 X95.466 Y26.13 E.02455
G1 X86.775 Y17.439 E.6178
G1 X86.286 Y17.439 E.02455
G1 X95.466 Y26.619 E.65252
G1 X95.466 Y27.107 E.02455
G1 X85.798 Y17.439 E.68724
G1 X85.309 Y17.439 E.02455
G1 X95.466 Y27.596 E.72196
G1 X95.466 Y28.084 E.02455
G1 X84.821 Y17.439 E.75668
G1 X84.332 Y17.439 E.02455
G1 X95.466 Y28.573 E.7914
G1 X95.466 Y29.061 E.02455
G1 X83.844 Y17.439 E.82612
G1 X83.355 Y17.439 E.02455
G1 X95.466 Y29.55 E.86084
G1 X95.466 Y30.038 E.02455
G1 X82.867 Y17.439 E.89556
G1 X82.378 Y17.439 E.02455
G1 X95.466 Y30.527 E.93028
G1 X95.466 Y31.015 E.02455
G1 X82.04 Y17.589 E.95433
G1 X82.04 Y18.077 E.02455
G1 X95.466 Y31.504 E.95433
G1 X95.466 Y31.992 E.02455
G1 X82.04 Y18.566 E.95433
G1 X82.04 Y19.054 E.02455
G1 X95.466 Y32.48 E.95433
G1 X95.466 Y32.969 E.02455
G1 X82.04 Y19.543 E.95433
G1 X82.04 Y20.031 E.02455
G1 X95.466 Y33.457 E.95433
G1 X95.466 Y33.946 E.02455
G1 X82.04 Y20.52 E.95433
G1 X82.04 Y21.008 E.02455
G1 X95.466 Y34.434 E.95433
G1 X95.466 Y34.923 E.02455
G1 X82.04 Y21.496 E.95433
G1 X82.04 Y21.985 E.02455
G1 X95.466 Y35.411 E.95433
G1 X95.466 Y35.9 E.02455
G1 X82.04 Y22.473 E.95433
G1 X82.04 Y22.962 E.02455
G1 X95.466 Y36.388 E.95433
G1 X95.466 Y36.877 E.02455
G1 X82.04 Y23.45 E.95433
G1 X82.04 Y23.939 E.02455
G1 X95.466 Y37.365 E.95433
G1 X95.466 Y37.854 E.02455
G1 X82.04 Y24.427 E.95433
G1 X82.04 Y24.916 E.02455
G1 X95.466 Y38.342 E.95433
G1 X95.466 Y38.831 E.02455
G1 X82.04 Y25.404 E.95433
G1 X82.04 Y25.893 E.02455
G1 X95.466 Y39.319 E.95433
G1 X95.466 Y39.807 E.02455
G1 X82.04 Y26.381 E.95433
G1 X82.04 Y26.87 E.02455
G1 X95.466 Y40.296 E.95433
G1 X95.466 Y40.784 E.02455
G1 X82.04 Y27.358 E.95433
G1 X82.04 Y27.846 E.02455
G1 X95.466 Y41.273 E.95433
G1 X95.466 Y41.761 E.02455
G1 X82.04 Y28.335 E.95433
G1 X82.04 Y28.823 E.02455
G1 X95.466 Y42.25 E.95433
G1 X95.466 Y42.738 E.02455
G1 X82.04 Y29.312 E.95433
G1 X82.04 Y29.8 E.02455
G1 X95.466 Y43.227 E.95433
G1 X95.466 Y43.715 E.02455
G1 X82.04 Y30.289 E.95434
G1 X82.04 Y30.777 E.02455
G1 X95.466 Y44.204 E.95434
G1 X95.466 Y44.692 E.02455
G1 X82.04 Y31.266 E.95434
G1 X82.04 Y31.754 E.02455
G1 X95.466 Y45.181 E.95434
G1 X95.466 Y45.669 E.02455
G1 X82.04 Y32.243 E.95434
G1 X82.04 Y32.731 E.02455
G1 X95.466 Y46.158 E.95434
G1 X95.466 Y46.646 E.02455
G1 X82.04 Y33.22 E.95434
G1 X82.04 Y33.708 E.02455
G1 X95.466 Y47.135 E.95434
G1 X95.466 Y47.623 E.02455
G1 X82.04 Y34.196 E.95434
G1 X82.04 Y34.685 E.02455
G1 X95.466 Y48.111 E.95434
G1 X95.466 Y48.6 E.02455
G1 X82.04 Y35.173 E.95434
G1 X82.04 Y35.662 E.02455
G1 X95.466 Y49.088 E.95434
G1 X95.466 Y49.577 E.02455
M73 P0 R179
G1 X82.04 Y36.15 E.95434
G1 X82.04 Y36.639 E.02455
G1 X95.466 Y50.065 E.95434
G1 X95.466 Y50.554 E.02455
G1 X82.04 Y37.127 E.95434
G1 X82.04 Y37.616 E.02455
G1 X95.466 Y51.042 E.95434
G1 X95.466 Y51.531 E.02455
G1 X82.04 Y38.104 E.95434
G1 X82.04 Y38.593 E.02455
G1 X95.466 Y52.019 E.95434
G1 X95.466 Y52.508 E.02455
G1 X82.04 Y39.081 E.95434
G1 X82.04 Y39.57 E.02455
G1 X95.466 Y52.996 E.95434
G1 X95.466 Y53.485 E.02455
G1 X82.04 Y40.058 E.95434
G1 X82.04 Y40.546 E.02455
G1 X95.466 Y53.973 E.95434
G1 X95.466 Y54.462 E.02455
G1 X82.04 Y41.035 E.95434
G1 X82.04 Y41.523 E.02455
G1 X95.466 Y54.95 E.95434
G1 X95.466 Y55.438 E.02455
G1 X82.04 Y42.012 E.95434
G1 X82.04 Y42.5 E.02455
G1 X95.466 Y55.927 E.95434
G1 X95.466 Y56.415 E.02455
G1 X82.04 Y42.989 E.95435
G1 X82.04 Y43.477 E.02455
G1 X95.466 Y56.904 E.95435
G1 X95.466 Y57.392 E.02455
G1 X82.04 Y43.966 E.95435
G1 X82.04 Y44.454 E.02455
G1 X95.466 Y57.881 E.95435
G1 X95.466 Y58.369 E.02455
G1 X82.04 Y44.943 E.95435
G1 X82.04 Y45.431 E.02455
G1 X95.466 Y58.858 E.95435
G1 X95.466 Y59.346 E.02455
G1 X82.04 Y45.92 E.95435
G1 X82.04 Y46.408 E.02455
G1 X95.466 Y59.835 E.95435
G1 X95.466 Y60.323 E.02455
G1 X82.04 Y46.896 E.95435
G1 X82.04 Y47.385 E.02455
G1 X95.466 Y60.812 E.95435
G1 X95.466 Y61.3 E.02455
G1 X82.04 Y47.873 E.95435
G1 X82.04 Y48.362 E.02455
G1 X95.466 Y61.789 E.95435
G1 X95.466 Y62.277 E.02455
G1 X82.04 Y48.85 E.95435
G1 X82.04 Y49.339 E.02455
G1 X95.466 Y62.765 E.95435
G1 X95.466 Y63.254 E.02455
G1 X82.04 Y49.827 E.95435
G1 X82.04 Y50.316 E.02455
G1 X95.466 Y63.742 E.95435
G1 X95.466 Y64.231 E.02455
G1 X82.04 Y50.804 E.95435
G1 X82.04 Y51.293 E.02455
G1 X95.466 Y64.719 E.95435
G1 X95.466 Y65.208 E.02455
G1 X82.04 Y51.781 E.95435
G1 X82.04 Y52.27 E.02455
G1 X95.466 Y65.696 E.95435
G1 X95.466 Y66.185 E.02455
G1 X82.04 Y52.758 E.95435
G1 X82.04 Y53.247 E.02455
G1 X95.466 Y66.673 E.95435
G1 X95.466 Y67.162 E.02455
G1 X82.04 Y53.735 E.95435
G1 X82.04 Y54.223 E.02455
G1 X95.466 Y67.65 E.95435
G1 X95.466 Y68.139 E.02455
G1 X82.04 Y54.712 E.95435
G1 X82.04 Y55.2 E.02455
G1 X95.466 Y68.627 E.95435
G1 X95.466 Y69.116 E.02455
G1 X82.04 Y55.689 E.95436
G1 X82.04 Y56.177 E.02455
G1 X95.466 Y69.604 E.95436
G1 X95.466 Y70.092 E.02455
G1 X82.04 Y56.666 E.95436
G1 X82.04 Y57.154 E.02455
G1 X95.466 Y70.581 E.95436
G1 X95.466 Y71.069 E.02455
G1 X82.04 Y57.643 E.95436
G1 X82.04 Y58.131 E.02455
G1 X95.466 Y71.558 E.95436
G1 X95.466 Y72.046 E.02455
G1 X82.04 Y58.62 E.95436
G1 X82.04 Y59.108 E.02455
G1 X95.466 Y72.535 E.95436
G1 X95.466 Y73.023 E.02455
G1 X82.04 Y59.597 E.95436
G1 X82.04 Y60.085 E.02455
G1 X95.466 Y73.512 E.95436
G1 X95.466 Y74 E.02455
M73 P1 R179
G1 X82.04 Y60.573 E.95436
G1 X82.04 Y61.062 E.02455
G1 X95.466 Y74.489 E.95436
G1 X95.466 Y74.977 E.02455
G1 X82.039 Y61.55 E.95436
G1 X82.039 Y62.039 E.02455
G1 X95.466 Y75.466 E.95436
G1 X95.466 Y75.954 E.02455
G1 X82.039 Y62.527 E.95436
G1 X82.039 Y63.016 E.02455
G1 X95.466 Y76.443 E.95436
G1 X95.466 Y76.931 E.02455
G1 X82.039 Y63.504 E.95436
G1 X82.039 Y63.993 E.02455
G1 X95.466 Y77.42 E.95436
G1 X95.466 Y77.908 E.02455
G1 X82.039 Y64.481 E.95436
G1 X82.039 Y64.97 E.02455
G1 X95.466 Y78.396 E.95436
G1 X95.466 Y78.885 E.02455
G1 X82.039 Y65.458 E.95436
G1 X82.039 Y65.947 E.02455
G1 X95.466 Y79.373 E.95436
G1 X95.466 Y79.862 E.02455
G1 X82.039 Y66.435 E.95436
G1 X82.039 Y66.923 E.02455
G1 X95.466 Y80.35 E.95436
G1 X95.466 Y80.839 E.02455
G1 X82.039 Y67.412 E.95436
G1 X82.039 Y67.9 E.02455
G1 X95.466 Y81.327 E.95437
G1 X95.466 Y81.816 E.02455
G1 X82.039 Y68.389 E.95437
G1 X82.039 Y68.877 E.02455
G1 X95.466 Y82.304 E.95437
G1 X95.466 Y82.793 E.02455
G1 X82.039 Y69.366 E.95437
G1 X82.039 Y69.854 E.02455
G1 X95.466 Y83.281 E.95437
G1 X95.466 Y83.77 E.02455
G1 X82.039 Y70.343 E.95437
G1 X82.039 Y70.831 E.02455
G1 X95.466 Y84.258 E.95437
G1 X95.466 Y84.747 E.02455
G1 X82.039 Y71.32 E.95437
G1 X82.039 Y71.808 E.02455
G1 X95.466 Y85.235 E.95437
G1 X95.466 Y85.723 E.02455
G1 X82.039 Y72.297 E.95437
G1 X82.039 Y72.785 E.02455
G1 X95.466 Y86.212 E.95437
G1 X95.466 Y86.7 E.02455
G1 X82.039 Y73.273 E.95437
G1 X82.039 Y73.762 E.02455
G1 X95.466 Y87.189 E.95437
G1 X95.466 Y87.677 E.02455
G1 X82.039 Y74.25 E.95437
G1 X82.039 Y74.739 E.02455
G1 X95.466 Y88.166 E.95437
G1 X95.466 Y88.654 E.02455
G1 X82.039 Y75.227 E.95437
G1 X82.039 Y75.716 E.02455
G1 X95.466 Y89.143 E.95437
G1 X95.466 Y89.631 E.02455
G1 X82.039 Y76.204 E.95437
G1 X82.039 Y76.693 E.02455
G1 X95.466 Y90.12 E.95437
G1 X95.466 Y90.608 E.02455
G1 X82.039 Y77.181 E.95437
G1 X82.039 Y77.67 E.02455
G1 X95.466 Y91.097 E.95437
G1 X95.466 Y91.585 E.02455
M73 P1 R178
G1 X82.039 Y78.158 E.95437
G1 X82.039 Y78.647 E.02455
G1 X95.466 Y92.074 E.95437
G1 X95.466 Y92.562 E.02455
G1 X82.039 Y79.135 E.95437
G1 X82.039 Y79.623 E.02455
G1 X95.466 Y93.05 E.95437
G1 X95.466 Y93.539 E.02455
G1 X82.039 Y80.112 E.95437
G1 X82.039 Y80.6 E.02455
G1 X95.466 Y94.027 E.95438
G1 X95.466 Y94.516 E.02455
G1 X82.039 Y81.089 E.95438
G1 X82.039 Y81.577 E.02455
G1 X95.466 Y95.004 E.95438
G1 X95.466 Y95.493 E.02455
G1 X82.039 Y82.066 E.95438
G1 X82.039 Y82.554 E.02455
G1 X95.466 Y95.981 E.95438
G1 X95.466 Y96.47 E.02455
G1 X82.039 Y83.043 E.95438
G1 X82.039 Y83.531 E.02455
G1 X95.466 Y96.958 E.95438
G1 X95.466 Y97.447 E.02455
G1 X82.039 Y84.02 E.95438
G1 X82.039 Y84.508 E.02455
G1 X95.466 Y97.935 E.95438
G1 X95.466 Y98.424 E.02455
G1 X82.039 Y84.997 E.95438
G1 X82.039 Y85.485 E.02455
G1 X95.466 Y98.912 E.95438
G1 X95.466 Y99.401 E.02455
G1 X82.039 Y85.973 E.95438
G1 X82.039 Y86.462 E.02455
G1 X95.466 Y99.889 E.95438
G1 X95.466 Y100.378 E.02455
G1 X82.039 Y86.95 E.95438
G1 X82.039 Y87.439 E.02455
G1 X95.466 Y100.866 E.95438
G1 X95.466 Y101.354 E.02455
G1 X82.039 Y87.927 E.95438
G1 X82.039 Y88.416 E.02455
G1 X95.466 Y101.843 E.95438
G1 X95.466 Y102.331 E.02455
G1 X82.039 Y88.904 E.95438
G1 X82.039 Y89.393 E.02455
G1 X95.466 Y102.82 E.95438
G1 X95.466 Y103.308 E.02455
G1 X82.039 Y89.881 E.95438
G1 X82.039 Y90.37 E.02455
G1 X95.466 Y103.797 E.95438
G1 X95.466 Y104.285 E.02455
G1 X82.039 Y90.858 E.95438
G1 X82.039 Y91.347 E.02455
G1 X95.466 Y104.774 E.95438
G1 X95.466 Y105.262 E.02455
G1 X82.039 Y91.835 E.95438
G1 X82.039 Y92.324 E.02455
G1 X95.466 Y105.751 E.95438
G1 X95.466 Y106.239 E.02455
G1 X82.039 Y92.812 E.95438
G1 X82.039 Y93.3 E.02455
G1 X95.466 Y106.728 E.95439
G1 X95.466 Y107.216 E.02455
G1 X82.039 Y93.789 E.95439
G1 X82.039 Y94.277 E.02455
G1 X95.466 Y107.705 E.95439
G1 X95.466 Y108.193 E.02455
G1 X82.039 Y94.766 E.95439
G1 X82.039 Y95.254 E.02455
G1 X95.466 Y108.681 E.95439
G1 X95.466 Y109.17 E.02455
G1 X82.039 Y95.743 E.95439
G1 X82.039 Y96.231 E.02455
G1 X95.466 Y109.658 E.95439
G1 X95.466 Y110.147 E.02455
G1 X82.039 Y96.72 E.95439
G1 X82.039 Y97.208 E.02455
G1 X95.466 Y110.635 E.95439
G1 X95.466 Y111.124 E.02455
G1 X82.039 Y97.697 E.95439
G1 X82.039 Y98.185 E.02455
G1 X95.466 Y111.612 E.95439
G1 X95.466 Y112.101 E.02455
G1 X82.039 Y98.674 E.95439
G1 X82.039 Y99.162 E.02455
G1 X95.466 Y112.589 E.95439
G1 X95.466 Y113.078 E.02455
G1 X82.039 Y99.65 E.95439
G1 X82.039 Y100.139 E.02455
G1 X95.466 Y113.566 E.95439
G1 X95.466 Y114.055 E.02455
G1 X82.039 Y100.627 E.95439
G1 X82.039 Y101.116 E.02455
G1 X95.466 Y114.543 E.95439
G1 X95.466 Y115.032 E.02455
G1 X82.039 Y101.604 E.95439
G1 X82.039 Y102.093 E.02455
G1 X95.466 Y115.52 E.95439
G1 X95.466 Y116.008 E.02455
G1 X82.039 Y102.581 E.95439
G1 X82.039 Y103.07 E.02455
G1 X95.466 Y116.497 E.95439
G1 X95.466 Y116.985 E.02455
G1 X82.039 Y103.558 E.95439
G1 X82.039 Y104.047 E.02455
G1 X95.466 Y117.474 E.95439
G1 X95.466 Y117.962 E.02455
G1 X82.039 Y104.535 E.95439
G1 X82.039 Y105.024 E.02455
G1 X95.466 Y118.451 E.95439
G1 X95.466 Y118.939 E.02455
G1 X82.039 Y105.512 E.95439
G1 X82.039 Y106 E.02455
G1 X95.466 Y119.428 E.9544
G1 X95.466 Y119.916 E.02455
G1 X82.039 Y106.489 E.9544
G1 X82.039 Y106.977 E.02455
G1 X95.466 Y120.405 E.9544
G1 X95.466 Y120.893 E.02455
G1 X82.039 Y107.466 E.9544
G1 X82.039 Y107.954 E.02455
G1 X95.466 Y121.382 E.9544
G1 X95.466 Y121.87 E.02455
G1 X82.039 Y108.443 E.9544
G1 X82.039 Y108.931 E.02455
G1 X95.466 Y122.359 E.9544
G1 X95.466 Y122.847 E.02455
G1 X82.039 Y109.42 E.9544
G1 X82.039 Y109.908 E.02455
G1 X95.466 Y123.336 E.9544
G1 X95.466 Y123.824 E.02455
G1 X82.039 Y110.397 E.9544
G1 X82.039 Y110.885 E.02455
G1 X95.466 Y124.312 E.9544
G1 X95.466 Y124.801 E.02455
G1 X82.039 Y111.374 E.9544
G1 X82.039 Y111.862 E.02455
G1 X95.466 Y125.289 E.9544
G1 X95.466 Y125.778 E.02455
G1 X82.039 Y112.35 E.9544
G1 X82.039 Y112.839 E.02455
G1 X95.466 Y126.266 E.9544
G1 X95.466 Y126.755 E.02455
G1 X82.039 Y113.327 E.9544
G1 X82.039 Y113.816 E.02455
G1 X95.466 Y127.243 E.9544
G1 X95.466 Y127.732 E.02455
G1 X82.039 Y114.304 E.9544
G1 X82.039 Y114.793 E.02455
G1 X95.466 Y128.22 E.9544
G1 X95.466 Y128.709 E.02455
G1 X82.039 Y115.281 E.9544
G1 X82.039 Y115.77 E.02455
G1 X95.466 Y129.197 E.9544
G1 X95.466 Y129.686 E.02455
G1 X82.039 Y116.258 E.9544
G1 X82.039 Y116.747 E.02455
G1 X95.466 Y130.174 E.9544
G1 X95.466 Y130.663 E.02455
G1 X82.039 Y117.235 E.9544
G1 X82.039 Y117.724 E.02455
G1 X95.466 Y131.151 E.9544
G1 X95.466 Y131.639 E.02455
G1 X82.039 Y118.212 E.9544
G1 X82.039 Y118.7 E.02455
G1 X95.466 Y132.128 E.95441
G1 X95.466 Y132.616 E.02455
G1 X82.039 Y119.189 E.95441
G1 X82.039 Y119.677 E.02455
G1 X95.466 Y133.105 E.95441
G1 X95.466 Y133.593 E.02455
G1 X82.039 Y120.166 E.95441
G1 X82.039 Y120.654 E.02455
M73 P1 R177
G1 X95.466 Y134.082 E.95441
G1 X95.466 Y134.57 E.02455
G1 X82.039 Y121.143 E.95441
G1 X82.039 Y121.631 E.02455
G1 X95.466 Y135.059 E.95441
G1 X95.466 Y135.547 E.02455
G1 X82.039 Y122.12 E.95441
G1 X82.039 Y122.608 E.02455
G1 X95.466 Y136.036 E.95441
G1 X95.466 Y136.524 E.02455
G1 X82.039 Y123.097 E.95441
G1 X82.039 Y123.585 E.02455
G1 X95.466 Y137.013 E.95441
G1 X95.466 Y137.501 E.02455
G1 X82.039 Y124.074 E.95441
G1 X82.039 Y124.562 E.02455
G1 X95.466 Y137.99 E.95441
G1 X95.466 Y138.478 E.02455
G1 X82.039 Y125.05 E.95441
G1 X82.039 Y125.539 E.02455
G1 X95.466 Y138.966 E.95441
G1 X95.466 Y139.455 E.02455
G1 X82.039 Y126.027 E.95441
G1 X82.039 Y126.516 E.02455
G1 X95.466 Y139.943 E.95441
G1 X95.466 Y140.432 E.02455
G1 X82.039 Y127.004 E.95441
G1 X82.039 Y127.493 E.02455
G1 X95.466 Y140.92 E.95441
G1 X95.466 Y141.409 E.02455
G1 X82.039 Y127.981 E.95441
G1 X82.039 Y128.47 E.02455
G1 X95.466 Y141.897 E.95441
G1 X95.466 Y142.386 E.02455
G1 X82.039 Y128.958 E.95441
G1 X82.039 Y129.447 E.02455
G1 X95.466 Y142.874 E.95441
G1 X95.466 Y143.363 E.02455
G1 X82.039 Y129.935 E.95441
G1 X82.039 Y130.424 E.02455
G1 X95.466 Y143.851 E.95441
G1 X95.466 Y144.34 E.02455
G1 X82.039 Y130.912 E.95441
G1 X82.039 Y131.401 E.02455
G1 X95.466 Y144.828 E.95442
G1 X95.466 Y145.317 E.02455
G1 X82.039 Y131.889 E.95442
G1 X82.039 Y132.377 E.02455
G1 X95.466 Y145.805 E.95442
G1 X95.466 Y146.293 E.02455
G1 X82.039 Y132.866 E.95442
G1 X82.038 Y133.354 E.02455
G1 X95.466 Y146.782 E.95442
