; generated by PrusaSlicer 2.5.0+win64 on 2022-12-07 at 00:07:02 UTC

; 

; external perimeters extrusion width = 1.00mm
; perimeters extrusion width = 1.00mm
; infill extrusion width = 1.00mm
; solid infill extrusion width = 1.00mm
; top infill extrusion width = 1.00mm
; support material extrusion width = 1.00mm
; first layer extrusion width = 0.42mm

M73 P0 R181
M107
;TYPE:Custom
G90 ; use absolute coordinates
M83 ; extruder relative mode
M140 S60 ; set final bed temp
M104 S150 ; set temporary nozzle temp to prevent oozing during homing and auto bed leveling
G4 S10 ; allow partial nozzle warmup
G28 ; home all axisG1 Z50 F240
G1 X7.6 Y10 F3000
M104 S210 ; set final nozzle temp
M190 S60 ; wait for bed temp to stabilize
M109 S210 ; wait for nozzle temp to stabilize
G1 Z0.28 F240
G92 E0
G1 Y140 E10 F1500 ; prime the nozzle
G1 X4 F5000
G92 E0
G1 Y10 E10 F1200 ; prime the nozzle
G92 E0
G21 ; set units to millimeters
G90 ; use absolute coordinates
M83 ; use relative distances for extrusion
; Filament gcode
M107
;LAYER_CHANGE
;Z:0.35
;HEIGHT:0.35
;BEFORE_LAYER_CHANGE
G92 E0
;0.35


G1 E-1 F3600
G1 Z.35 F7800
;AFTER_LAYER_CHANGE
;0.35
G1 X95.731 Y162.82
G1 E1 F2400
;TYPE:Perimeter
;WIDTH:0.42
M73 P0 R180
G1 F1800
G1 X81.781 Y162.82 E.70013
G1 X81.785 Y17.18 E7.30904
G1 X95.731 Y17.18 E.69991
G1 X95.731 Y162.67 E7.30151
G1 X96.076 Y163.165 F7800
;TYPE:External perimeter
G1 F1800
G1 X81.436 Y163.165 E.73475
G1 X81.44 Y16.835 E7.34365
G1 X96.076 Y16.835 E.73453
G1 X96.076 Y163.015 E7.33613
G1 X95.194 Y162.694 F7800
G1 E-.7 F3600
;WIPE_START
G1 F6240
G1 X95.556 Y163.02 E-.285
;WIPE_END
G1 E-.015 F3600
G1 X95.627 Y17.982 F7800
G1 E1 F2400
;TYPE:Solid infill
;WIDTH:0.420519
G1 F1800
G1 X95.084 Y17.439 E.0386
G1 X94.596 Y17.439 E.02455
G1 X95.472 Y18.315 E.06229
G1 X95.472 Y18.804 E.02455
G1 X94.107 Y17.439 E.09702
G1 X93.619 Y17.439 E.02455
G1 X95.472 Y19.292 E.13174
G1 X95.472 Y19.781 E.02455
G1 X93.13 Y17.439 E.16646
G1 X92.642 Y17.439 E.02455
G1 X95.472 Y20.269 E.20118
G1 X95.472 Y20.758 E.02455
G1 X92.153 Y17.439 E.2359
G1 X91.665 Y17.439 E.02455
G1 X95.472 Y21.246 E.27062
G1 X95.472 Y21.735 E.02455
G1 X91.177 Y17.439 E.30534
G1 X90.688 Y17.439 E.02455
G1 X95.472 Y22.223 E.34007
G1 X95.472 Y22.712 E.02455
G1 X90.2 Y17.439 E.37479
G1 X89.711 Y17.439 E.02455
G1 X95.472 Y23.2 E.40951
G1 X95.472 Y23.689 E.02455
G1 X89.223 Y17.439 E.44423
G1 X88.734 Y17.439 E.02455
G1 X95.472 Y24.177 E.47895
G1 X95.472 Y24.666 E.02455
G1 X88.246 Y17.439 E.51367
G1 X87.757 Y17.439 E.02455
G1 X95.472 Y25.154 E.54839
G1 X95.472 Y25.643 E.02455
G1 X87.269 Y17.439 E.58312
G1 X86.78 Y17.439 E.02455
G1 X95.472 Y26.131 E.61784
G1 X95.472 Y26.62 E.02455
G1 X86.292 Y17.439 E.65256
G1 X85.803 Y17.439 E.02455
G1 X95.472 Y27.108 E.68728
G1 X95.472 Y27.597 E.02455
G1 X85.315 Y17.439 E.722
G1 X84.826 Y17.439 E.02455
G1 X95.472 Y28.085 E.75672
G1 X95.472 Y28.573 E.02455
G1 X84.338 Y17.439 E.79145
G1 X83.849 Y17.439 E.02455
G1 X95.472 Y29.062 E.82617
G1 X95.472 Y29.55 E.02455
G1 X83.361 Y17.439 E.86089
G1 X82.872 Y17.439 E.02455
G1 X95.472 Y30.039 E.89561
G1 X95.472 Y30.527 E.02455
G1 X82.384 Y17.439 E.93033
G1 X82.043 Y17.439 E.01712
G1 X82.043 Y17.587 E.00743
G1 X95.472 Y31.016 E.95455
G1 X95.472 Y31.504 E.02455
G1 X82.043 Y18.075 E.95455
G1 X82.043 Y18.564 E.02455
G1 X95.472 Y31.993 E.95455
G1 X95.472 Y32.481 E.02455
G1 X82.043 Y19.052 E.95455
G1 X82.043 Y19.541 E.02455
G1 X95.472 Y32.97 E.95455
G1 X95.472 Y33.458 E.02455
G1 X82.043 Y20.029 E.95455
G1 X82.043 Y20.518 E.02455
G1 X95.472 Y33.947 E.95455
G1 X95.472 Y34.435 E.02455
G1 X82.043 Y21.006 E.95455
G1 X82.043 Y21.494 E.02455
G1 X95.472 Y34.924 E.95456
G1 X95.472 Y35.412 E.02455
G1 X82.043 Y21.983 E.95456
G1 X82.043 Y22.471 E.02455
G1 X95.472 Y35.901 E.95456
G1 X95.472 Y36.389 E.02455
G1 X82.043 Y22.96 E.95456
G1 X82.043 Y23.448 E.02455
G1 X95.472 Y36.878 E.95456
G1 X95.472 Y37.366 E.02455
G1 X82.043 Y23.937 E.95456
G1 X82.043 Y24.425 E.02455
G1 X95.472 Y37.855 E.95456
G1 X95.472 Y38.343 E.02455
G1 X82.043 Y24.914 E.95456
G1 X82.043 Y25.402 E.02455
G1 X95.472 Y38.832 E.95456
G1 X95.472 Y39.32 E.02455
G1 X82.043 Y25.891 E.95456
G1 X82.043 Y26.379 E.02455
G1 X95.472 Y39.809 E.95457
G1 X95.472 Y40.297 E.02455
G1 X82.043 Y26.868 E.95457
G1 X82.043 Y27.356 E.02455
G1 X95.472 Y40.786 E.95457
G1 X95.472 Y41.274 E.02455
G1 X82.043 Y27.845 E.95457
G1 X82.043 Y28.333 E.02455
G1 X95.472 Y41.762 E.95457
G1 X95.472 Y42.251 E.02455
G1 X82.043 Y28.822 E.95457
G1 X82.043 Y29.31 E.02455
G1 X95.472 Y42.739 E.95457
G1 X95.472 Y43.228 E.02455
G1 X82.043 Y29.798 E.95457
G1 X82.043 Y30.287 E.02455
G1 X95.472 Y43.716 E.95457
G1 X95.472 Y44.205 E.02455
G1 X82.043 Y30.775 E.95457
G1 X82.043 Y31.264 E.02455
G1 X95.472 Y44.693 E.95458
G1 X95.472 Y45.182 E.02455
G1 X82.043 Y31.752 E.95458
G1 X82.043 Y32.241 E.02455
G1 X95.472 Y45.67 E.95458
G1 X95.472 Y46.159 E.02455
G1 X82.043 Y32.729 E.95458
G1 X82.043 Y33.218 E.02455
G1 X95.472 Y46.647 E.95458
G1 X95.472 Y47.136 E.02455
G1 X82.043 Y33.706 E.95458
G1 X82.043 Y34.195 E.02455
G1 X95.472 Y47.624 E.95458
G1 X95.472 Y48.113 E.02455
G1 X82.043 Y34.683 E.95458
G1 X82.043 Y35.172 E.02455
G1 X95.472 Y48.601 E.95458
G1 X95.472 Y49.09 E.02455
G1 X82.043 Y35.66 E.95459
G1 X82.043 Y36.149 E.02455
M73 P0 R179
G1 X95.472 Y49.578 E.95459
G1 X95.472 Y50.067 E.02455
G1 X82.043 Y36.637 E.95459
G1 X82.043 Y37.125 E.02455
G1 X95.472 Y50.555 E.95459
G1 X95.472 Y51.044 E.02455
G1 X82.043 Y37.614 E.95459
G1 X82.043 Y38.102 E.02455
G1 X95.472 Y51.532 E.95459
G1 X95.472 Y52.021 E.02455
G1 X82.043 Y38.591 E.95459
G1 X82.043 Y39.079 E.02455
G1 X95.472 Y52.509 E.95459
G1 X95.472 Y52.998 E.02455
G1 X82.043 Y39.568 E.95459
G1 X82.043 Y40.056 E.02455
G1 X95.472 Y53.486 E.95459
G1 X95.472 Y53.975 E.02455
G1 X82.043 Y40.545 E.9546
G1 X82.043 Y41.033 E.02455
G1 X95.472 Y54.463 E.9546
G1 X95.472 Y54.952 E.02455
G1 X82.043 Y41.522 E.9546
G1 X82.043 Y42.01 E.02455
G1 X95.472 Y55.44 E.9546
G1 X95.472 Y55.928 E.02455
G1 X82.043 Y42.499 E.9546
G1 X82.043 Y42.987 E.02455
G1 X95.472 Y56.417 E.9546
G1 X95.472 Y56.905 E.02455
G1 X82.042 Y43.476 E.9546
G1 X82.042 Y43.964 E.02455
G1 X95.472 Y57.394 E.9546
G1 X95.472 Y57.882 E.02455
G1 X82.042 Y44.452 E.9546
G1 X82.042 Y44.941 E.02455
G1 X95.472 Y58.371 E.9546
G1 X95.472 Y58.859 E.02455
G1 X82.042 Y45.429 E.95461
G1 X82.042 Y45.918 E.02455
G1 X95.472 Y59.348 E.95461
G1 X95.472 Y59.836 E.02455
G1 X82.042 Y46.406 E.95461
G1 X82.042 Y46.895 E.02455
G1 X95.472 Y60.325 E.95461
G1 X95.472 Y60.813 E.02455
G1 X82.042 Y47.383 E.95461
G1 X82.042 Y47.872 E.02455
G1 X95.472 Y61.302 E.95461
G1 X95.472 Y61.79 E.02455
G1 X82.042 Y48.36 E.95461
G1 X82.042 Y48.849 E.02455
G1 X95.472 Y62.279 E.95461
G1 X95.472 Y62.767 E.02455
G1 X82.042 Y49.337 E.95461
G1 X82.042 Y49.826 E.02455
G1 X95.472 Y63.256 E.95461
G1 X95.472 Y63.744 E.02455
G1 X82.042 Y50.314 E.95462
G1 X82.042 Y50.803 E.02455
G1 X95.472 Y64.233 E.95462
G1 X95.472 Y64.721 E.02455
G1 X82.042 Y51.291 E.95462
G1 X82.042 Y51.779 E.02455
G1 X95.472 Y65.21 E.95462
G1 X95.472 Y65.698 E.02455
G1 X82.042 Y52.268 E.95462
G1 X82.042 Y52.756 E.02455
G1 X95.472 Y66.187 E.95462
G1 X95.472 Y66.675 E.02455
G1 X82.042 Y53.245 E.95462
G1 X82.042 Y53.733 E.02455
G1 X95.472 Y67.164 E.95462
G1 X95.472 Y67.652 E.02455
G1 X82.042 Y54.222 E.95462
G1 X82.042 Y54.71 E.02455
G1 X95.472 Y68.141 E.95463
G1 X95.472 Y68.629 E.02455
G1 X82.042 Y55.199 E.95463
G1 X82.042 Y55.687 E.02455
G1 X95.472 Y69.117 E.95463
G1 X95.472 Y69.606 E.02455
G1 X82.042 Y56.176 E.95463
G1 X82.042 Y56.664 E.02455
G1 X95.472 Y70.094 E.95463
G1 X95.472 Y70.583 E.02455
G1 X82.042 Y57.153 E.95463
G1 X82.042 Y57.641 E.02455
G1 X95.472 Y71.071 E.95463
G1 X95.472 Y71.56 E.02455
G1 X82.042 Y58.13 E.95463
G1 X82.042 Y58.618 E.02455
G1 X95.472 Y72.048 E.95463
G1 X95.472 Y72.537 E.02455
G1 X82.042 Y59.107 E.95463
G1 X82.042 Y59.595 E.02455
G1 X95.472 Y73.025 E.95464
G1 X95.472 Y73.514 E.02455
G1 X82.042 Y60.083 E.95464
G1 X82.042 Y60.572 E.02455
M73 P1 R179
G1 X95.472 Y74.002 E.95464
G1 X95.472 Y74.491 E.02455
G1 X82.042 Y61.06 E.95464
G1 X82.042 Y61.549 E.02455
G1 X95.472 Y74.979 E.95464
G1 X95.472 Y75.468 E.02455
G1 X82.042 Y62.037 E.95464
G1 X82.042 Y62.526 E.02455
G1 X95.472 Y75.956 E.95464
G1 X95.472 Y76.445 E.02455
G1 X82.042 Y63.014 E.95464
G1 X82.042 Y63.503 E.02455
G1 X95.472 Y76.933 E.95464
G1 X95.472 Y77.422 E.02455
G1 X82.042 Y63.991 E.95464
G1 X82.042 Y64.48 E.02455
G1 X95.472 Y77.91 E.95465
G1 X95.472 Y78.399 E.02455
G1 X82.042 Y64.968 E.95465
G1 X82.042 Y65.457 E.02455
G1 X95.472 Y78.887 E.95465
G1 X95.472 Y79.376 E.02455
G1 X82.042 Y65.945 E.95465
G1 X82.042 Y66.434 E.02455
G1 X95.472 Y79.864 E.95465
G1 X95.472 Y80.353 E.02455
G1 X82.042 Y66.922 E.95465
G1 X82.042 Y67.41 E.02455
G1 X95.472 Y80.841 E.95465
G1 X95.472 Y81.33 E.02455
G1 X82.042 Y67.899 E.95465
G1 X82.042 Y68.387 E.02455
G1 X95.472 Y81.818 E.95465
G1 X95.472 Y82.307 E.02455
G1 X82.042 Y68.876 E.95465
G1 X82.042 Y69.364 E.02455
G1 X95.472 Y82.795 E.95466
G1 X95.472 Y83.283 E.02455
G1 X82.042 Y69.853 E.95466
G1 X82.042 Y70.341 E.02455
G1 X95.472 Y83.772 E.95466
G1 X95.472 Y84.26 E.02455
G1 X82.042 Y70.83 E.95466
G1 X82.042 Y71.318 E.02455
G1 X95.472 Y84.749 E.95466
G1 X95.472 Y85.237 E.02455
G1 X82.042 Y71.807 E.95466
G1 X82.042 Y72.295 E.02455
G1 X95.472 Y85.726 E.95466
G1 X95.472 Y86.214 E.02455
G1 X82.042 Y72.784 E.95466
G1 X82.042 Y73.272 E.02455
G1 X95.472 Y86.703 E.95466
G1 X95.472 Y87.191 E.02455
G1 X82.042 Y73.761 E.95467
G1 X82.042 Y74.249 E.02455
G1 X95.472 Y87.68 E.95467
G1 X95.472 Y88.168 E.02455
G1 X82.042 Y74.737 E.95467
G1 X82.042 Y75.226 E.02455
G1 X95.472 Y88.657 E.95467
G1 X95.472 Y89.145 E.02455
G1 X82.042 Y75.714 E.95467
G1 X82.042 Y76.203 E.02455
G1 X95.472 Y89.634 E.95467
G1 X95.472 Y90.122 E.02455
G1 X82.042 Y76.691 E.95467
G1 X82.042 Y77.18 E.02455
G1 X95.472 Y90.611 E.95467
G1 X95.472 Y91.099 E.02455
G1 X82.042 Y77.668 E.95467
G1 X82.042 Y78.157 E.02455
M73 P1 R178
G1 X95.473 Y91.588 E.95467
G1 X95.473 Y92.076 E.02455
G1 X82.042 Y78.645 E.95468
G1 X82.042 Y79.134 E.02455
G1 X95.473 Y92.565 E.95468
G1 X95.473 Y93.053 E.02455
G1 X82.042 Y79.622 E.95468
G1 X82.042 Y80.111 E.02455
G1 X95.473 Y93.542 E.95468
G1 X95.473 Y94.03 E.02455
G1 X82.042 Y80.599 E.95468
G1 X82.042 Y81.088 E.02455
G1 X95.473 Y94.519 E.95468
G1 X95.473 Y95.007 E.02455
G1 X82.041 Y81.576 E.95468
G1 X82.041 Y82.064 E.02455
G1 X95.473 Y95.496 E.95468
G1 X95.473 Y95.984 E.02455
G1 X82.041 Y82.553 E.95468
G1 X82.041 Y83.041 E.02455
G1 X95.473 Y96.473 E.95468
G1 X95.473 Y96.961 E.02455
G1 X82.041 Y83.53 E.95469
G1 X82.041 Y84.018 E.02455
G1 X95.473 Y97.449 E.95469
G1 X95.473 Y97.938 E.02455
G1 X82.041 Y84.507 E.95469
G1 X82.041 Y84.995 E.02455
G1 X95.473 Y98.426 E.95469
G1 X95.473 Y98.915 E.02455
G1 X82.041 Y85.484 E.95469
G1 X82.041 Y85.972 E.02455
G1 X95.473 Y99.403 E.95469
G1 X95.473 Y99.892 E.02455
G1 X82.041 Y86.461 E.95469
G1 X82.041 Y86.949 E.02455
G1 X95.473 Y100.38 E.95469
G1 X95.473 Y100.869 E.02455
G1 X82.041 Y87.438 E.95469
G1 X82.041 Y87.926 E.02455
G1 X95.473 Y101.357 E.95469
G1 X95.473 Y101.846 E.02455
G1 X82.041 Y88.415 E.9547
G1 X82.041 Y88.903 E.02455
G1 X95.473 Y102.334 E.9547
G1 X95.473 Y102.823 E.02455
G1 X82.041 Y89.392 E.9547
G1 X82.041 Y89.88 E.02455
G1 X95.473 Y103.311 E.9547
G1 X95.473 Y103.8 E.02455
G1 X82.041 Y90.368 E.9547
G1 X82.041 Y90.857 E.02455
G1 X95.473 Y104.288 E.9547
G1 X95.473 Y104.777 E.02455
G1 X82.041 Y91.345 E.9547
G1 X82.041 Y91.834 E.02455
G1 X95.473 Y105.265 E.9547
G1 X95.473 Y105.754 E.02455
G1 X82.041 Y92.322 E.9547
G1 X82.041 Y92.811 E.02455
G1 X95.473 Y106.242 E.95471
G1 X95.473 Y106.731 E.02455
G1 X82.041 Y93.299 E.95471
G1 X82.041 Y93.788 E.02455
G1 X95.473 Y107.219 E.95471
G1 X95.473 Y107.708 E.02455
G1 X82.041 Y94.276 E.95471
G1 X82.041 Y94.765 E.02455
G1 X95.473 Y108.196 E.95471
G1 X95.473 Y108.685 E.02455
G1 X82.041 Y95.253 E.95471
G1 X82.041 Y95.742 E.02455
G1 X95.473 Y109.173 E.95471
G1 X95.473 Y109.662 E.02455
G1 X82.041 Y96.23 E.95471
G1 X82.041 Y96.719 E.02455
G1 X95.473 Y110.15 E.95471
G1 X95.473 Y110.638 E.02455
G1 X82.041 Y97.207 E.95471
G1 X82.041 Y97.695 E.02455
G1 X95.473 Y111.127 E.95472
G1 X95.473 Y111.615 E.02455
G1 X82.041 Y98.184 E.95472
G1 X82.041 Y98.672 E.02455
G1 X95.473 Y112.104 E.95472
G1 X95.473 Y112.592 E.02455
G1 X82.041 Y99.161 E.95472
G1 X82.041 Y99.649 E.02455
G1 X95.473 Y113.081 E.95472
G1 X95.473 Y113.569 E.02455
G1 X82.041 Y100.138 E.95472
G1 X82.041 Y100.626 E.02455
G1 X95.473 Y114.058 E.95472
G1 X95.473 Y114.546 E.02455
G1 X82.041 Y101.115 E.95472
G1 X82.041 Y101.603 E.02455
G1 X95.473 Y115.035 E.95472
G1 X95.473 Y115.523 E.02455
G1 X82.041 Y102.092 E.95472
G1 X82.041 Y102.58 E.02455
G1 X95.473 Y116.012 E.95473
G1 X95.473 Y116.5 E.02455
G1 X82.041 Y103.069 E.95473
G1 X82.041 Y103.557 E.02455
G1 X95.473 Y116.989 E.95473
G1 X95.473 Y117.477 E.02455
G1 X82.041 Y104.046 E.95473
G1 X82.041 Y104.534 E.02455
G1 X95.473 Y117.966 E.95473
G1 X95.473 Y118.454 E.02455
G1 X82.041 Y105.022 E.95473
G1 X82.041 Y105.511 E.02455
G1 X95.473 Y118.943 E.95473
G1 X95.473 Y119.431 E.02455
G1 X82.041 Y105.999 E.95473
G1 X82.041 Y106.488 E.02455
G1 X95.473 Y119.92 E.95473
G1 X95.473 Y120.408 E.02455
G1 X82.041 Y106.976 E.95473
G1 X82.041 Y107.465 E.02455
G1 X95.473 Y120.897 E.95474
G1 X95.473 Y121.385 E.02455
G1 X82.041 Y107.953 E.95474
G1 X82.041 Y108.442 E.02455
G1 X95.473 Y121.874 E.95474
G1 X95.473 Y122.362 E.02455
G1 X82.041 Y108.93 E.95474
G1 X82.041 Y109.419 E.02455
G1 X95.473 Y122.851 E.95474
G1 X95.473 Y123.339 E.02455
G1 X82.041 Y109.907 E.95474
G1 X82.041 Y110.396 E.02455
G1 X95.473 Y123.828 E.95474
G1 X95.473 Y124.316 E.02455
G1 X82.041 Y110.884 E.95474
G1 X82.041 Y111.373 E.02455
G1 X95.473 Y124.804 E.95474
G1 X95.473 Y125.293 E.02455
G1 X82.041 Y111.861 E.95475
G1 X82.041 Y112.349 E.02455
G1 X95.473 Y125.781 E.95475
G1 X95.473 Y126.27 E.02455
G1 X82.041 Y112.838 E.95475
G1 X82.041 Y113.326 E.02455
G1 X95.473 Y126.758 E.95475
G1 X95.473 Y127.247 E.02455
G1 X82.041 Y113.815 E.95475
G1 X82.041 Y114.303 E.02455
G1 X95.473 Y127.735 E.95475
G1 X95.473 Y128.224 E.02455
G1 X82.041 Y114.792 E.95475
G1 X82.041 Y115.28 E.02455
G1 X95.473 Y128.712 E.95475
G1 X95.473 Y129.201 E.02455
G1 X82.041 Y115.769 E.95475
G1 X82.041 Y116.257 E.02455
G1 X95.473 Y129.689 E.95475
G1 X95.473 Y130.178 E.02455
G1 X82.041 Y116.746 E.95476
G1 X82.041 Y117.234 E.02455
G1 X95.473 Y130.666 E.95476
G1 X95.473 Y131.155 E.02455
G1 X82.041 Y117.723 E.95476
G1 X82.041 Y118.211 E.02455
G1 X95.473 Y131.643 E.95476
G1 X95.473 Y132.132 E.02455
G1 X82.041 Y118.7 E.95476
G1 X82.04 Y119.188 E.02455
G1 X95.473 Y132.62 E.95476
G1 X95.473 Y133.109 E.02455
G1 X82.04 Y119.677 E.95476
G1 X82.04 Y120.165 E.02455
G1 X95.473 Y133.597 E.95476
G1 X95.473 Y134.086 E.02455
M73 P1 R177
G1 X82.04 Y120.653 E.95476
G1 X82.04 Y121.142 E.02455
G1 X95.473 Y134.574 E.95476
G1 X95.473 Y135.063 E.02455
G1 X82.04 Y121.63 E.95477
G1 X82.04 Y122.119 E.02455
G1 X95.473 Y135.551 E.95477
G1 X95.473 Y136.04 E.02455
G1 X82.04 Y122.607 E.95477
G1 X82.04 Y123.096 E.02455
G1 X95.473 Y136.528 E.95477
G1 X95.473 Y137.017 E.02455
G1 X82.04 Y123.584 E.95477
G1 X82.04 Y124.073 E.02455
G1 X95.473 Y137.505 E.95477
G1 X95.473 Y137.993 E.02455
G1 X82.04 Y124.561 E.95477
G1 X82.04 Y125.05 E.02455
G1 X95.473 Y138.482 E.95477
G1 X95.473 Y138.97 E.02455
G1 X82.04 Y125.538 E.95477
G1 X82.04 Y126.027 E.02455
G1 X95.473 Y139.459 E.95478
G1 X95.473 Y139.947 E.02455
G1 X82.04 Y126.515 E.95478
G1 X82.04 Y127.004 E.02455
G1 X95.473 Y140.436 E.95478
G1 X95.473 Y140.924 E.02455
G1 X82.04 Y127.492 E.95478
G1 X82.04 Y127.98 E.02455
G1 X95.473 Y141.413 E.95478
G1 X95.473 Y141.901 E.02455
G1 X82.04 Y128.469 E.95478
G1 X82.04 Y128.957 E.02455
G1 X95.473 Y142.39 E.95478
G1 X95.473 Y142.878 E.02455
G1 X82.04 Y129.446 E.95478
G1 X82.04 Y129.934 E.02455
G1 X95.473 Y143.367 E.95478
G1 X95.473 Y143.855 E.02455
G1 X82.04 Y130.423 E.95478
G1 X82.04 Y130.911 E.02455
G1 X95.473 Y144.344 E.95479
G1 X95.473 Y144.832 E.02455
G1 X82.04 Y131.4 E.95479
G1 X82.04 Y131.888 E.02455
G1 X95.473 Y145.321 E.95479
G1 X95.473 Y145.809 E.02455
