; generated by PrusaSlicer 2.5.0+win64 on 2022-12-07 at 00:07:05 UTC

; 

; external perimeters extrusion width = 1.00mm
; perimeters extrusion width = 1.00mm
; infill extrusion width = 1.00mm
; solid infill extrusion width = 1.00mm
; top infill extrusion width = 1.00mm
; support material extrusion width = 1.00mm
; first layer extrusion width = 0.42mm

M73 P0 R176
M107
;TYPE:Custom
G90 ; use absolute coordinates
M83 ; extruder relative mode
M140 S60 ; set final bed temp
M104 S150 ; set temporary nozzle temp to prevent oozing during homing and auto bed leveling
G4 S10 ; allow partial nozzle warmup
G28 ; home all axisG1 Z50 F240
G1 X7.6 Y10 F3000
M104 S210 ; set final nozzle temp
M190 S60 ; wait for bed temp to stabilize
M109 S210 ; wait for nozzle temp to stabilize
G1 Z0.28 F240
G92 E0
G1 Y140 E10 F1500 ; prime the nozzle
G1 X4 F5000
G92 E0
G1 Y10 E10 F1200 ; prime the nozzle
G92 E0
G21 ; set units to millimeters
G90 ; use absolute coordinates
M83 ; use relative distances for extrusion
; Filament gcode
M107
;LAYER_CHANGE
;Z:0.35
;HEIGHT:0.35
;BEFORE_LAYER_CHANGE
G92 E0
;0.35


G1 E-1 F3600
M73 P0 R175
G1 Z.35 F7800
;AFTER_LAYER_CHANGE
;0.35
G1 X18.653 Y96.341
G1 E1 F2400
;TYPE:Perimeter
;WIDTH:0.42
G1 F1800
G1 X18.653 Y82.419 E.69868
G1 X161.347 Y78.931 E7.16337
G1 X161.347 Y92.864 E.69923
G1 X18.803 Y96.337 E7.15583
G1 X18.308 Y96.694 F7800
;TYPE:External perimeter
G1 F1800
G1 X18.308 Y82.082 E.73331
G1 X161.692 Y78.577 E7.198
G1 X161.692 Y93.2 E.73386
G1 X18.458 Y96.69 E7.19046
G1 X18.771 Y95.808 F7800
G1 E-.7 F3600
;WIPE_START
G1 F6240
G1 X18.453 Y96.17 E-.285
;WIPE_END
G1 E-.015 F3600
G1 X161.244 Y79.735 F7800
G1 E1 F2400
;TYPE:Solid infill
;WIDTH:0.420566
G1 F1800
G1 X160.714 Y79.205 E.03766
G1 X160.237 Y79.217 E.02398
G1 X161.088 Y80.068 E.06053
G1 X161.088 Y80.557 E.02456
G1 X159.76 Y79.228 E.09443
G1 X159.283 Y79.24 E.02398
G1 X161.088 Y81.045 E.12834
G1 X161.088 Y81.534 E.02456
G1 X158.806 Y79.252 E.16224
G1 X158.329 Y79.263 E.02398
G1 X161.088 Y82.022 E.19614
G1 X161.088 Y82.511 E.02456
G1 X157.853 Y79.275 E.23004
G1 X157.376 Y79.287 E.02398
G1 X161.088 Y82.999 E.26394
G1 X161.088 Y83.488 E.02456
G1 X156.899 Y79.298 E.29785
G1 X156.422 Y79.31 E.02398
G1 X161.088 Y83.977 E.33175
G1 X161.088 Y84.465 E.02456
G1 X155.945 Y79.322 E.36565
G1 X155.468 Y79.333 E.02398
G1 X161.088 Y84.954 E.39955
G1 X161.088 Y85.442 E.02456
G1 X154.991 Y79.345 E.43345
G1 X154.514 Y79.357 E.02398
G1 X161.088 Y85.931 E.46736
G1 X161.088 Y86.419 E.02456
G1 X154.037 Y79.368 E.50126
G1 X153.561 Y79.38 E.02398
G1 X161.088 Y86.908 E.53516
G1 X161.088 Y87.396 E.02456
G1 X153.084 Y79.392 E.56906
G1 X152.607 Y79.403 E.02398
G1 X161.088 Y87.885 E.60297
G1 X161.088 Y88.373 E.02456
G1 X152.13 Y79.415 E.63687
G1 X151.653 Y79.427 E.02398
G1 X161.088 Y88.862 E.67077
G1 X161.088 Y89.351 E.02456
G1 X151.176 Y79.438 E.70467
G1 X150.699 Y79.45 E.02398
G1 X161.088 Y89.839 E.73857
G1 X161.088 Y90.328 E.02456
G1 X150.222 Y79.462 E.77248
G1 X149.745 Y79.473 E.02398
G1 X161.088 Y90.816 E.80638
G1 X161.088 Y91.305 E.02456
G1 X149.269 Y79.485 E.84028
G1 X148.792 Y79.496 E.02398
G1 X161.088 Y91.793 E.87418
G1 X161.088 Y92.282 E.02456
G1 X148.315 Y79.508 E.90808
G1 X147.838 Y79.52 E.02398
G1 X160.933 Y92.615 E.93094
G1 X160.456 Y92.627 E.02398
G1 X147.361 Y79.531 E.93093
G1 X146.884 Y79.543 E.02398
G1 X159.979 Y92.638 E.93093
G1 X159.502 Y92.65 E.02398
G1 X146.407 Y79.555 E.93093
G1 X145.93 Y79.566 E.02398
G1 X159.025 Y92.661 E.93093
G1 X158.548 Y92.673 E.02398
G1 X145.453 Y79.578 E.93092
G1 X144.977 Y79.59 E.02398
G1 X158.071 Y92.685 E.93092
G1 X157.595 Y92.696 E.02398
G1 X144.5 Y79.601 E.93092
G1 X144.023 Y79.613 E.02398
G1 X157.118 Y92.708 E.93092
G1 X156.641 Y92.72 E.02398
G1 X143.546 Y79.625 E.93091
G1 X143.069 Y79.636 E.02398
G1 X156.164 Y92.731 E.93091
G1 X155.687 Y92.743 E.02398
G1 X142.592 Y79.648 E.93091
G1 X142.115 Y79.66 E.02398
G1 X155.21 Y92.754 E.93091
G1 X154.733 Y92.766 E.02398
G1 X141.638 Y79.671 E.9309
G1 X141.161 Y79.683 E.02398
G1 X154.256 Y92.778 E.9309
G1 X153.779 Y92.789 E.02398
G1 X140.685 Y79.695 E.9309
G1 X140.208 Y79.706 E.02398
G1 X153.302 Y92.801 E.9309
G1 X152.825 Y92.813 E.02398
G1 X139.731 Y79.718 E.93089
G1 X139.254 Y79.73 E.02398
G1 X152.348 Y92.824 E.93089
G1 X151.871 Y92.836 E.02398
G1 X138.777 Y79.741 E.93089
G1 X138.3 Y79.753 E.02398
G1 X151.395 Y92.847 E.93089
G1 X150.918 Y92.859 E.02398
G1 X137.823 Y79.765 E.93088
G1 X137.346 Y79.776 E.02398
G1 X150.441 Y92.871 E.93088
G1 X149.964 Y92.882 E.02398
G1 X136.869 Y79.788 E.93088
G1 X136.392 Y79.8 E.02398
G1 X149.487 Y92.894 E.93087
G1 X149.01 Y92.906 E.02398
G1 X135.916 Y79.811 E.93087
G1 X135.439 Y79.823 E.02398
G1 X148.533 Y92.917 E.93087
G1 X148.056 Y92.929 E.02398
G1 X134.962 Y79.835 E.93087
G1 X134.485 Y79.846 E.02398
G1 X147.579 Y92.94 E.93086
G1 X147.102 Y92.952 E.02398
G1 X134.008 Y79.858 E.93086
G1 X133.531 Y79.87 E.02398
G1 X146.625 Y92.964 E.93086
G1 X146.148 Y92.975 E.02398
G1 X133.054 Y79.881 E.93086
G1 X132.577 Y79.893 E.02398
G1 X145.671 Y92.987 E.93085
G1 X145.194 Y92.998 E.02398
G1 X132.1 Y79.904 E.93085
G1 X131.624 Y79.916 E.02398
G1 X144.718 Y93.01 E.93085
G1 X144.241 Y93.022 E.02398
G1 X131.147 Y79.928 E.93085
G1 X130.67 Y79.939 E.02398
G1 X143.764 Y93.033 E.93084
G1 X143.287 Y93.045 E.02398
M73 P0 R174
G1 X130.193 Y79.951 E.93084
G1 X129.716 Y79.963 E.02398
G1 X142.81 Y93.057 E.93084
G1 X142.333 Y93.068 E.02398
G1 X129.239 Y79.974 E.93084
G1 X128.762 Y79.986 E.02398
G1 X141.856 Y93.08 E.93083
G1 X141.379 Y93.091 E.02398
G1 X128.285 Y79.998 E.93083
G1 X127.808 Y80.009 E.02398
G1 X140.902 Y93.103 E.93083
G1 X140.425 Y93.115 E.02398
G1 X127.332 Y80.021 E.93083
G1 X126.855 Y80.033 E.02398
G1 X139.948 Y93.126 E.93082
G1 X139.471 Y93.138 E.02398
G1 X126.378 Y80.044 E.93082
G1 X125.901 Y80.056 E.02398
G1 X138.994 Y93.15 E.93082
G1 X138.518 Y93.161 E.02398
G1 X125.424 Y80.068 E.93082
G1 X124.947 Y80.079 E.02398
G1 X138.041 Y93.173 E.93081
G1 X137.564 Y93.184 E.02398
G1 X124.47 Y80.091 E.93081
G1 X123.993 Y80.103 E.02398
G1 X137.087 Y93.196 E.93081
G1 X136.61 Y93.208 E.02398
G1 X123.516 Y80.114 E.93081
G1 X123.04 Y80.126 E.02398
G1 X136.133 Y93.219 E.9308
G1 X135.656 Y93.231 E.02398
G1 X122.563 Y80.138 E.9308
G1 X122.086 Y80.149 E.02398
G1 X135.179 Y93.243 E.9308
G1 X134.702 Y93.254 E.02398
G1 X121.609 Y80.161 E.9308
G1 X121.132 Y80.173 E.02398
G1 X134.225 Y93.266 E.93079
G1 X133.748 Y93.277 E.02398
G1 X120.655 Y80.184 E.93079
G1 X120.178 Y80.196 E.02398
G1 X133.271 Y93.289 E.93079
G1 X132.794 Y93.301 E.02398
G1 X119.701 Y80.208 E.93079
G1 X119.224 Y80.219 E.02398
G1 X132.317 Y93.312 E.93078
G1 X131.841 Y93.324 E.02398
G1 X118.748 Y80.231 E.93078
G1 X118.271 Y80.243 E.02398
G1 X131.364 Y93.336 E.93078
G1 X130.887 Y93.347 E.02398
G1 X117.794 Y80.254 E.93078
G1 X117.317 Y80.266 E.02398
G1 X130.41 Y93.359 E.93077
G1 X129.933 Y93.37 E.02398
G1 X116.84 Y80.278 E.93077
G1 X116.363 Y80.289 E.02398
G1 X129.456 Y93.382 E.93077
G1 X128.979 Y93.394 E.02398
G1 X115.886 Y80.301 E.93077
G1 X115.409 Y80.312 E.02398
G1 X128.502 Y93.405 E.93076
G1 X128.025 Y93.417 E.02398
G1 X114.932 Y80.324 E.93076
G1 X114.456 Y80.336 E.02398
G1 X127.548 Y93.428 E.93076
G1 X127.071 Y93.44 E.02398
G1 X113.979 Y80.347 E.93076
G1 X113.502 Y80.359 E.02398
G1 X126.594 Y93.452 E.93075
G1 X126.117 Y93.463 E.02398
G1 X113.025 Y80.371 E.93075
G1 X112.548 Y80.382 E.02398
G1 X125.641 Y93.475 E.93075
G1 X125.164 Y93.487 E.02398
G1 X112.071 Y80.394 E.93075
G1 X111.594 Y80.406 E.02398
G1 X124.687 Y93.498 E.93074
G1 X124.21 Y93.51 E.02398
G1 X111.117 Y80.417 E.93074
G1 X110.64 Y80.429 E.02398
G1 X123.733 Y93.521 E.93074
G1 X123.256 Y93.533 E.02398
G1 X110.164 Y80.441 E.93074
G1 X109.687 Y80.452 E.02398
G1 X122.779 Y93.545 E.93073
G1 X122.302 Y93.556 E.02398
G1 X109.21 Y80.464 E.93073
G1 X108.733 Y80.476 E.02398
G1 X121.825 Y93.568 E.93073
G1 X121.348 Y93.58 E.02398
G1 X108.256 Y80.487 E.93073
G1 X107.779 Y80.499 E.02398
G1 X120.871 Y93.591 E.93072
G1 X120.394 Y93.603 E.02398
G1 X107.302 Y80.511 E.93072
G1 X106.825 Y80.522 E.02398
G1 X119.917 Y93.614 E.93072
G1 X119.44 Y93.626 E.02398
G1 X106.348 Y80.534 E.93072
G1 X105.872 Y80.546 E.02398
M73 P1 R174
G1 X118.964 Y93.638 E.93071
G1 X118.487 Y93.649 E.02398
G1 X105.395 Y80.557 E.93071
G1 X104.918 Y80.569 E.02398
G1 X118.01 Y93.661 E.93071
G1 X117.533 Y93.673 E.02398
G1 X104.441 Y80.581 E.93071
G1 X103.964 Y80.592 E.02398
G1 X117.056 Y93.684 E.9307
G1 X116.579 Y93.696 E.02398
G1 X103.487 Y80.604 E.9307
G1 X103.01 Y80.616 E.02398
G1 X116.102 Y93.707 E.9307
G1 X115.625 Y93.719 E.02398
G1 X102.533 Y80.627 E.9307
G1 X102.056 Y80.639 E.02398
G1 X115.148 Y93.731 E.93069
G1 X114.671 Y93.742 E.02398
G1 X101.58 Y80.651 E.93069
G1 X101.103 Y80.662 E.02398
G1 X114.194 Y93.754 E.93069
G1 X113.717 Y93.765 E.02398
G1 X100.626 Y80.674 E.93069
G1 X100.149 Y80.686 E.02398
G1 X113.24 Y93.777 E.93068
G1 X112.764 Y93.789 E.02398
G1 X99.672 Y80.697 E.93068
G1 X99.195 Y80.709 E.02398
G1 X112.287 Y93.8 E.93068
G1 X111.81 Y93.812 E.02398
G1 X98.718 Y80.72 E.93068
G1 X98.241 Y80.732 E.02398
G1 X111.333 Y93.824 E.93067
G1 X110.856 Y93.835 E.02398
G1 X97.764 Y80.744 E.93067
G1 X97.287 Y80.755 E.02398
G1 X110.379 Y93.847 E.93067
G1 X109.902 Y93.858 E.02398
G1 X96.811 Y80.767 E.93067
G1 X96.334 Y80.779 E.02398
G1 X109.425 Y93.87 E.93066
G1 X108.948 Y93.882 E.02398
G1 X95.857 Y80.79 E.93066
G1 X95.38 Y80.802 E.02398
G1 X108.471 Y93.893 E.93066
G1 X107.994 Y93.905 E.02398
G1 X94.903 Y80.814 E.93065
G1 X94.426 Y80.825 E.02398
G1 X107.517 Y93.917 E.93065
G1 X107.04 Y93.928 E.02398
G1 X93.949 Y80.837 E.93065
G1 X93.472 Y80.849 E.02398
G1 X106.563 Y93.94 E.93065
G1 X106.087 Y93.951 E.02398
G1 X92.995 Y80.86 E.93064
G1 X92.519 Y80.872 E.02398
G1 X105.61 Y93.963 E.93064
G1 X105.133 Y93.975 E.02398
G1 X92.042 Y80.884 E.93064
G1 X91.565 Y80.895 E.02398
G1 X104.656 Y93.986 E.93064
G1 X104.179 Y93.998 E.02398
G1 X91.088 Y80.907 E.93063
G1 X90.611 Y80.919 E.02398
G1 X103.702 Y94.01 E.93063
G1 X103.225 Y94.021 E.02398
G1 X90.134 Y80.93 E.93063
G1 X89.657 Y80.942 E.02398
G1 X102.748 Y94.033 E.93063
G1 X102.271 Y94.044 E.02398
G1 X89.18 Y80.954 E.93062
G1 X88.703 Y80.965 E.02398
G1 X101.794 Y94.056 E.93062
G1 X101.317 Y94.068 E.02398
M73 P1 R173
G1 X88.227 Y80.977 E.93062
G1 X87.75 Y80.989 E.02398
G1 X100.84 Y94.079 E.93062
G1 X100.363 Y94.091 E.02398
G1 X87.273 Y81 E.93061
G1 X86.796 Y81.012 E.02398
G1 X99.887 Y94.103 E.93061
G1 X99.41 Y94.114 E.02398
G1 X86.319 Y81.024 E.93061
G1 X85.842 Y81.035 E.02398
G1 X98.933 Y94.126 E.93061
G1 X98.456 Y94.137 E.02398
G1 X85.365 Y81.047 E.9306
G1 X84.888 Y81.059 E.02398
G1 X97.979 Y94.149 E.9306
G1 X97.502 Y94.161 E.02398
G1 X84.411 Y81.07 E.9306
G1 X83.935 Y81.082 E.02398
G1 X97.025 Y94.172 E.9306
G1 X96.548 Y94.184 E.02398
G1 X83.458 Y81.093 E.93059
G1 X82.981 Y81.105 E.02398
G1 X96.071 Y94.195 E.93059
G1 X95.594 Y94.207 E.02398
G1 X82.504 Y81.117 E.93059
G1 X82.027 Y81.128 E.02398
G1 X95.117 Y94.219 E.93059
G1 X94.64 Y94.23 E.02398
G1 X81.55 Y81.14 E.93058
G1 X81.073 Y81.152 E.02398
G1 X94.163 Y94.242 E.93058
G1 X93.686 Y94.254 E.02398
G1 X80.596 Y81.163 E.93058
G1 X80.119 Y81.175 E.02398
G1 X93.21 Y94.265 E.93058
G1 X92.733 Y94.277 E.02398
G1 X79.643 Y81.187 E.93057
G1 X79.166 Y81.198 E.02398
G1 X92.256 Y94.288 E.93057
G1 X91.779 Y94.3 E.02398
G1 X78.689 Y81.21 E.93057
G1 X78.212 Y81.222 E.02398
G1 X91.302 Y94.312 E.93057
G1 X90.825 Y94.323 E.02398
G1 X77.735 Y81.233 E.93056
G1 X77.258 Y81.245 E.02398
G1 X90.348 Y94.335 E.93056
G1 X89.871 Y94.347 E.02398
G1 X76.781 Y81.257 E.93056
G1 X76.304 Y81.268 E.02398
G1 X89.394 Y94.358 E.93056
G1 X88.917 Y94.37 E.02398
G1 X75.827 Y81.28 E.93055
G1 X75.351 Y81.292 E.02398
G1 X88.44 Y94.381 E.93055
G1 X87.963 Y94.393 E.02398
G1 X74.874 Y81.303 E.93055
G1 X74.397 Y81.315 E.02398
G1 X87.486 Y94.405 E.93055
G1 X87.01 Y94.416 E.02398
G1 X73.92 Y81.327 E.93054
G1 X73.443 Y81.338 E.02398
G1 X86.533 Y94.428 E.93054
G1 X86.056 Y94.44 E.02398
G1 X72.966 Y81.35 E.93054
G1 X72.489 Y81.362 E.02398
G1 X85.579 Y94.451 E.93054
G1 X85.102 Y94.463 E.02398
G1 X72.012 Y81.373 E.93053
G1 X71.535 Y81.385 E.02398
G1 X84.625 Y94.474 E.93053
G1 X84.148 Y94.486 E.02398
G1 X71.059 Y81.397 E.93053
G1 X70.582 Y81.408 E.02398
G1 X83.671 Y94.498 E.93053
G1 X83.194 Y94.509 E.02398
G1 X70.105 Y81.42 E.93052
G1 X69.628 Y81.432 E.02398
G1 X82.717 Y94.521 E.93052
G1 X82.24 Y94.533 E.02398
G1 X69.151 Y81.443 E.93052
G1 X68.674 Y81.455 E.02398
G1 X81.763 Y94.544 E.93052
G1 X81.286 Y94.556 E.02398
G1 X68.197 Y81.467 E.93051
G1 X67.72 Y81.478 E.02398
G1 X80.81 Y94.567 E.93051
G1 X80.333 Y94.579 E.02398
G1 X67.243 Y81.49 E.93051
G1 X66.767 Y81.501 E.02398
G1 X79.856 Y94.591 E.93051
G1 X79.379 Y94.602 E.02398
G1 X66.29 Y81.513 E.9305
G1 X65.813 Y81.525 E.02398
G1 X78.902 Y94.614 E.9305
G1 X78.425 Y94.625 E.02398
G1 X65.336 Y81.536 E.9305
G1 X64.859 Y81.548 E.02398
G1 X77.948 Y94.637 E.9305
G1 X77.471 Y94.649 E.02398
G1 X64.382 Y81.56 E.93049
G1 X63.905 Y81.571 E.02398
G1 X76.994 Y94.66 E.93049
G1 X76.517 Y94.672 E.02398
G1 X63.428 Y81.583 E.93049
G1 X62.951 Y81.595 E.02398
G1 X76.04 Y94.684 E.93049
G1 X75.563 Y94.695 E.02398
G1 X62.475 Y81.606 E.93048
G1 X61.998 Y81.618 E.02398
G1 X75.086 Y94.707 E.93048
G1 X74.609 Y94.718 E.02398
G1 X61.521 Y81.63 E.93048
G1 X61.044 Y81.641 E.02398
G1 X74.133 Y94.73 E.93048
G1 X73.656 Y94.742 E.02398
G1 X60.567 Y81.653 E.93047
G1 X60.09 Y81.665 E.02398
G1 X73.179 Y94.753 E.93047
G1 X72.702 Y94.765 E.02398
G1 X59.613 Y81.676 E.93047
G1 X59.136 Y81.688 E.02398
G1 X72.225 Y94.777 E.93047
G1 X71.748 Y94.788 E.02398
G1 X58.659 Y81.7 E.93046
G1 X58.183 Y81.711 E.02398
G1 X71.271 Y94.8 E.93046
G1 X70.794 Y94.811 E.02398
G1 X57.706 Y81.723 E.93046
G1 X57.229 Y81.735 E.02398
G1 X70.317 Y94.823 E.93046
G1 X69.84 Y94.835 E.02398
G1 X56.752 Y81.746 E.93045
G1 X56.275 Y81.758 E.02398
G1 X69.363 Y94.846 E.93045
G1 X68.886 Y94.858 E.02398
G1 X55.798 Y81.77 E.93045
G1 X55.321 Y81.781 E.02398
G1 X68.409 Y94.87 E.93044
G1 X67.933 Y94.881 E.02398
G1 X54.844 Y81.793 E.93044
G1 X54.367 Y81.805 E.02398
G1 X67.456 Y94.893 E.93044
G1 X66.979 Y94.904 E.02398
G1 X53.89 Y81.816 E.93044
G1 X53.414 Y81.828 E.02398
G1 X66.502 Y94.916 E.93043
G1 X66.025 Y94.928 E.02398
G1 X52.937 Y81.84 E.93043
G1 X52.46 Y81.851 E.02398
G1 X65.548 Y94.939 E.93043
G1 X65.071 Y94.951 E.02398
G1 X51.983 Y81.863 E.93043
G1 X51.506 Y81.875 E.02398
G1 X64.594 Y94.963 E.93042
G1 X64.117 Y94.974 E.02398
G1 X51.029 Y81.886 E.93042
G1 X50.552 Y81.898 E.02398
G1 X63.64 Y94.986 E.93042
G1 X63.163 Y94.997 E.02398
G1 X50.075 Y81.909 E.93042
G1 X49.598 Y81.921 E.02398
G1 X62.686 Y95.009 E.93041
G1 X62.209 Y95.021 E.02398
G1 X49.122 Y81.933 E.93041
G1 X48.645 Y81.944 E.02398
G1 X61.732 Y95.032 E.93041
G1 X61.256 Y95.044 E.02398
G1 X48.168 Y81.956 E.93041
G1 X47.691 Y81.968 E.02398
G1 X60.779 Y95.055 E.9304
G1 X60.302 Y95.067 E.02398
G1 X47.214 Y81.979 E.9304
G1 X46.737 Y81.991 E.02398
G1 X59.825 Y95.079 E.9304
G1 X59.348 Y95.09 E.02398
G1 X46.26 Y82.003 E.9304
G1 X45.783 Y82.014 E.02398
M73 P1 R172
G1 X58.871 Y95.102 E.93039
G1 X58.394 Y95.114 E.02398
G1 X45.306 Y82.026 E.93039
G1 X44.83 Y82.038 E.02398
G1 X57.917 Y95.125 E.93039
G1 X57.44 Y95.137 E.02398
G1 X44.353 Y82.049 E.93039
G1 X43.876 Y82.061 E.02398
G1 X56.963 Y95.148 E.93038
G1 X56.486 Y95.16 E.02398
G1 X43.399 Y82.073 E.93038
G1 X42.922 Y82.084 E.02398
G1 X56.009 Y95.172 E.93038
G1 X55.532 Y95.183 E.02398
G1 X42.445 Y82.096 E.93038
G1 X41.968 Y82.108 E.02398
G1 X55.056 Y95.195 E.93037
G1 X54.579 Y95.207 E.02398
G1 X41.491 Y82.119 E.93037
G1 X41.014 Y82.131 E.02398
G1 X54.102 Y95.218 E.93037
G1 X53.625 Y95.23 E.02398
G1 X40.538 Y82.143 E.93037
G1 X40.061 Y82.154 E.02398
G1 X53.148 Y95.241 E.93036
G1 X52.671 Y95.253 E.02398
G1 X39.584 Y82.166 E.93036
G1 X39.107 Y82.178 E.02398
G1 X52.194 Y95.265 E.93036
G1 X51.717 Y95.276 E.02398
G1 X38.63 Y82.189 E.93036
G1 X38.153 Y82.201 E.02398
G1 X51.24 Y95.288 E.93035
G1 X50.763 Y95.3 E.02398
G1 X37.676 Y82.213 E.93035
G1 X37.199 Y82.224 E.02398
G1 X50.286 Y95.311 E.93035
G1 X49.809 Y95.323 E.02398
G1 X36.722 Y82.236 E.93035
G1 X36.246 Y82.248 E.02398
