; generated by PrusaSlicer 2.5.0+win64 on 2022-12-07 at 00:07:06 UTC

; 

; external perimeters extrusion width = 1.00mm
; perimeters extrusion width = 1.00mm
; infill extrusion width = 1.00mm
; solid infill extrusion width = 1.00mm
; top infill extrusion width = 1.00mm
; support material extrusion width = 1.00mm
; first layer extrusion width = 0.42mm

M73 P0 R211
M107
;TYPE:Custom
G90 ; use absolute coordinates
M83 ; extruder relative mode
M140 S60 ; set final bed temp
M104 S150 ; set temporary nozzle temp to prevent oozing during homing and auto bed leveling
G4 S10 ; allow partial nozzle warmup
G28 ; home all axisG1 Z50 F240
G1 X7.6 Y10 F3000
M104 S210 ; set final nozzle temp
M190 S60 ; wait for bed temp to stabilize
M109 S210 ; wait for nozzle temp to stabilize
G1 Z0.28 F240
G92 E0
G1 Y140 E10 F1500 ; prime the nozzle
G1 X4 F5000
G92 E0
G1 Y10 E10 F1200 ; prime the nozzle
G92 E0
G21 ; set units to millimeters
G90 ; use absolute coordinates
M83 ; use relative distances for extrusion
; Filament gcode
M107
;LAYER_CHANGE
;Z:0.35
;HEIGHT:0.35
;BEFORE_LAYER_CHANGE
G92 E0
;0.35


G1 E-1 F3600
G1 Z.35 F7800
;AFTER_LAYER_CHANGE
;0.35
G1 X101.863 Y137.67
G1 E1 F2400
;TYPE:Perimeter
;WIDTH:0.42
G1 F1800
G1 X101.882 Y137.593 E.004
G1 X101.89 Y19.814 E5.91081
G1 X115.83 Y19.814 E.69957
G1 X115.823 Y143.562 E6.21041
G1 X107.383 Y151.997 E.59883
G1 X62.231 Y151.975 E2.26603
G1 X61.678 Y151.989 E.02775
G1 X61.677 Y138.058 E.69915
G1 X101.364 Y138.11 E1.99174
G1 X101.417 Y138.107 E.00263
G1 X101.662 Y138.016 E.01313
G1 X101.826 Y137.815 E.013
G1 X101.538 Y137.593 F7800
;TYPE:External perimeter
G1 F1800
G1 X101.546 Y19.469 E5.92812
G1 X116.175 Y19.469 E.73419
G1 X116.168 Y143.705 E6.23489
G1 X107.526 Y152.342 E.61317
G1 X62.23 Y152.32 E2.2732
G1 X61.333 Y152.343 E.04506
M73 P0 R210
G1 X61.332 Y137.721 E.7338
G1 X101.365 Y137.765 E2.00908
G1 X101.471 Y137.724 E.00573
G1 X102.538 Y137.592 F7800
G1 E-.7 F3600
;WIPE_START
G1 F6240
G1 X101.472 Y137.204 E-.285
;WIPE_END
G1 E-.015 F3600
G1 X115.727 Y20.615 F7800
G1 E1 F2400
;TYPE:Solid infill
;WIDTH:0.420271
G1 F1800
G1 X115.184 Y20.073 E.03854
G1 X114.696 Y20.073 E.02452
G1 X115.571 Y20.948 E.06218
G1 X115.571 Y21.436 E.02452
G1 X114.208 Y20.073 E.09685
G1 X113.72 Y20.073 E.02452
G1 X115.571 Y21.925 E.13152
G1 X115.571 Y22.413 E.02452
G1 X113.232 Y20.073 E.16619
G1 X112.743 Y20.073 E.02452
G1 X115.571 Y22.901 E.20086
G1 X115.571 Y23.389 E.02452
G1 X112.255 Y20.073 E.23553
G1 X111.767 Y20.073 E.02452
G1 X115.571 Y23.877 E.2702
G1 X115.571 Y24.365 E.02452
G1 X111.279 Y20.073 E.30487
G1 X110.791 Y20.073 E.02452
G1 X115.571 Y24.853 E.33954
G1 X115.571 Y25.341 E.02452
G1 X110.303 Y20.073 E.37421
G1 X109.815 Y20.073 E.02452
G1 X115.571 Y25.829 E.40888
G1 X115.571 Y26.317 E.02452
G1 X109.326 Y20.073 E.44355
G1 X108.838 Y20.073 E.02452
G1 X115.571 Y26.806 E.47822
G1 X115.571 Y27.294 E.02452
G1 X108.35 Y20.073 E.51289
G1 X107.862 Y20.073 E.02452
G1 X115.571 Y27.782 E.54756
G1 X115.571 Y28.27 E.02452
G1 X107.374 Y20.073 E.58223
G1 X106.886 Y20.073 E.02452
G1 X115.571 Y28.758 E.6169
G1 X115.571 Y29.246 E.02452
G1 X106.398 Y20.073 E.65157
G1 X105.91 Y20.073 E.02452
G1 X115.571 Y29.734 E.68623
G1 X115.571 Y30.222 E.02452
G1 X105.421 Y20.073 E.7209
G1 X104.933 Y20.073 E.02452
G1 X115.571 Y30.71 E.75557
G1 X115.571 Y31.199 E.02452
G1 X104.445 Y20.073 E.79024
G1 X103.957 Y20.073 E.02452
G1 X115.571 Y31.687 E.82491
G1 X115.571 Y32.175 E.02452
G1 X103.469 Y20.073 E.85958
G1 X102.981 Y20.073 E.02452
G1 X115.571 Y32.663 E.89425
G1 X115.571 Y33.151 E.02452
G1 X102.493 Y20.073 E.92892
G1 X102.149 Y20.073 E.01726
G1 X102.149 Y20.217 E.00726
G1 X115.571 Y33.639 E.95333
G1 X115.571 Y34.127 E.02452
G1 X102.149 Y20.706 E.95333
G1 X102.149 Y21.194 E.02451
G1 X115.571 Y34.615 E.95333
G1 X115.571 Y35.103 E.02452
G1 X102.149 Y21.682 E.95333
G1 X102.149 Y22.17 E.02451
G1 X115.571 Y35.591 E.95333
G1 X115.57 Y36.08 E.02452
G1 X102.149 Y22.658 E.95333
G1 X102.149 Y23.146 E.02451
G1 X115.57 Y36.568 E.95333
G1 X115.57 Y37.056 E.02452
G1 X102.149 Y23.634 E.95333
G1 X102.149 Y24.122 E.02451
G1 X115.57 Y37.544 E.95333
G1 X115.57 Y38.032 E.02452
G1 X102.149 Y24.61 E.95333
G1 X102.149 Y25.098 E.02451
G1 X115.57 Y38.52 E.95333
G1 X115.57 Y39.008 E.02452
G1 X102.149 Y25.587 E.95333
G1 X102.149 Y26.075 E.02451
G1 X115.57 Y39.496 E.95333
G1 X115.57 Y39.984 E.02452
G1 X102.149 Y26.563 E.95333
G1 X102.149 Y27.051 E.02451
G1 X115.57 Y40.472 E.95333
G1 X115.57 Y40.961 E.02452
G1 X102.149 Y27.539 E.95333
G1 X102.149 Y28.027 E.02451
G1 X115.57 Y41.449 E.95333
G1 X115.57 Y41.937 E.02452
G1 X102.148 Y28.515 E.95333
G1 X102.148 Y29.003 E.02451
G1 X115.57 Y42.425 E.95333
G1 X115.57 Y42.913 E.02452
G1 X102.148 Y29.491 E.95333
G1 X102.148 Y29.979 E.02451
G1 X115.57 Y43.401 E.95333
G1 X115.57 Y43.889 E.02452
G1 X102.148 Y30.467 E.95333
G1 X102.148 Y30.956 E.02451
G1 X115.57 Y44.377 E.95333
G1 X115.57 Y44.865 E.02452
G1 X102.148 Y31.444 E.95334
G1 X102.148 Y31.932 E.02451
G1 X115.57 Y45.353 E.95334
G1 X115.57 Y45.842 E.02452
G1 X102.148 Y32.42 E.95334
G1 X102.148 Y32.908 E.02451
G1 X115.57 Y46.33 E.95334
G1 X115.57 Y46.818 E.02452
G1 X102.148 Y33.396 E.95334
G1 X102.148 Y33.884 E.02451
G1 X115.57 Y47.306 E.95334
G1 X115.57 Y47.794 E.02452
G1 X102.148 Y34.372 E.95334
G1 X102.148 Y34.86 E.02451
G1 X115.57 Y48.282 E.95334
G1 X115.57 Y48.77 E.02452
G1 X102.148 Y35.348 E.95334
G1 X102.148 Y35.837 E.02451
G1 X115.57 Y49.258 E.95334
G1 X115.57 Y49.746 E.02452
G1 X102.148 Y36.325 E.95334
G1 X102.148 Y36.813 E.02451
G1 X115.57 Y50.235 E.95334
G1 X115.57 Y50.723 E.02452
G1 X102.148 Y37.301 E.95334
G1 X102.148 Y37.789 E.02451
G1 X115.57 Y51.211 E.95334
G1 X115.57 Y51.699 E.02452
G1 X102.148 Y38.277 E.95334
G1 X102.148 Y38.765 E.02451
G1 X115.57 Y52.187 E.95334
G1 X115.57 Y52.675 E.02452
G1 X102.148 Y39.253 E.95334
G1 X102.148 Y39.741 E.02451
G1 X115.57 Y53.163 E.95334
G1 X115.57 Y53.651 E.02452
G1 X102.148 Y40.229 E.95334
G1 X102.148 Y40.718 E.02451
G1 X115.569 Y54.139 E.95334
G1 X115.569 Y54.627 E.02452
G1 X102.148 Y41.206 E.95334
G1 X102.148 Y41.694 E.02451
G1 X115.569 Y55.116 E.95334
G1 X115.569 Y55.604 E.02452
G1 X102.148 Y42.182 E.95334
G1 X102.148 Y42.67 E.02451
G1 X115.569 Y56.092 E.95334
G1 X115.569 Y56.58 E.02452
G1 X102.147 Y43.158 E.95334
G1 X102.147 Y43.646 E.02451
G1 X115.569 Y57.068 E.95335
G1 X115.569 Y57.556 E.02452
G1 X102.147 Y44.134 E.95335
G1 X102.147 Y44.622 E.02451
G1 X115.569 Y58.044 E.95335
G1 X115.569 Y58.532 E.02452
G1 X102.147 Y45.11 E.95335
G1 X102.147 Y45.598 E.02451
G1 X115.569 Y59.02 E.95335
G1 X115.569 Y59.508 E.02452
G1 X102.147 Y46.087 E.95335
G1 X102.147 Y46.575 E.02451
G1 X115.569 Y59.997 E.95335
G1 X115.569 Y60.485 E.02452
G1 X102.147 Y47.063 E.95335
G1 X102.147 Y47.551 E.02451
G1 X115.569 Y60.973 E.95335
G1 X115.569 Y61.461 E.02452
G1 X102.147 Y48.039 E.95335
G1 X102.147 Y48.527 E.02451
G1 X115.569 Y61.949 E.95335
G1 X115.569 Y62.437 E.02452
G1 X102.147 Y49.015 E.95335
G1 X102.147 Y49.503 E.02451
G1 X115.569 Y62.925 E.95335
G1 X115.569 Y63.413 E.02452
G1 X102.147 Y49.991 E.95335
G1 X102.147 Y50.479 E.02451
G1 X115.569 Y63.901 E.95335
G1 X115.569 Y64.389 E.02452
G1 X102.147 Y50.968 E.95335
G1 X102.147 Y51.456 E.02451
G1 X115.569 Y64.878 E.95335
G1 X115.569 Y65.366 E.02452
G1 X102.147 Y51.944 E.95335
G1 X102.147 Y52.432 E.02451
M73 P0 R209
G1 X115.569 Y65.854 E.95335
G1 X115.569 Y66.342 E.02452
G1 X102.147 Y52.92 E.95335
G1 X102.147 Y53.408 E.02451
G1 X115.569 Y66.83 E.95335
G1 X115.569 Y67.318 E.02452
G1 X102.147 Y53.896 E.95335
G1 X102.147 Y54.384 E.02451
G1 X115.569 Y67.806 E.95335
G1 X115.569 Y68.294 E.02452
G1 X102.147 Y54.872 E.95335
G1 X102.147 Y55.36 E.02451
G1 X115.569 Y68.782 E.95335
G1 X115.569 Y69.271 E.02452
G1 X102.147 Y55.849 E.95336
G1 X102.147 Y56.337 E.02451
G1 X115.569 Y69.759 E.95336
G1 X115.569 Y70.247 E.02452
G1 X102.147 Y56.825 E.95336
G1 X102.147 Y57.313 E.02451
G1 X115.569 Y70.735 E.95336
G1 X115.569 Y71.223 E.02452
G1 X102.146 Y57.801 E.95336
G1 X102.146 Y58.289 E.02451
G1 X115.568 Y71.711 E.95336
G1 X115.568 Y72.199 E.02452
G1 X102.146 Y58.777 E.95336
G1 X102.146 Y59.265 E.02451
G1 X115.568 Y72.687 E.95336
G1 X115.568 Y73.175 E.02452
G1 X102.146 Y59.753 E.95336
G1 X102.146 Y60.241 E.02451
G1 X115.568 Y73.663 E.95336
G1 X115.568 Y74.152 E.02452
G1 X102.146 Y60.729 E.95336
G1 X102.146 Y61.218 E.02451
G1 X115.568 Y74.64 E.95336
G1 X115.568 Y75.128 E.02452
G1 X102.146 Y61.706 E.95336
G1 X102.146 Y62.194 E.02451
G1 X115.568 Y75.616 E.95336
G1 X115.568 Y76.104 E.02452
G1 X102.146 Y62.682 E.95336
G1 X102.146 Y63.17 E.02451
G1 X115.568 Y76.592 E.95336
G1 X115.568 Y77.08 E.02452
G1 X102.146 Y63.658 E.95336
G1 X102.146 Y64.146 E.02451
G1 X115.568 Y77.568 E.95336
G1 X115.568 Y78.056 E.02452
G1 X102.146 Y64.634 E.95336
G1 X102.146 Y65.122 E.02451
G1 X115.568 Y78.544 E.95336
G1 X115.568 Y79.033 E.02452
G1 X102.146 Y65.61 E.95336
G1 X102.146 Y66.099 E.02451
G1 X115.568 Y79.521 E.95336
G1 X115.568 Y80.009 E.02452
G1 X102.146 Y66.587 E.95336
G1 X102.146 Y67.075 E.02451
G1 X115.568 Y80.497 E.95336
G1 X115.568 Y80.985 E.02452
G1 X102.146 Y67.563 E.95336
G1 X102.146 Y68.051 E.02451
G1 X115.568 Y81.473 E.95337
G1 X115.568 Y81.961 E.02452
G1 X102.146 Y68.539 E.95337
G1 X102.146 Y69.027 E.02451
G1 X115.568 Y82.449 E.95337
G1 X115.568 Y82.937 E.02452
G1 X102.146 Y69.515 E.95337
G1 X102.146 Y70.003 E.02451
G1 X115.568 Y83.425 E.95337
G1 X115.568 Y83.914 E.02452
G1 X102.146 Y70.491 E.95337
G1 X102.146 Y70.98 E.02451
G1 X115.568 Y84.402 E.95337
G1 X115.568 Y84.89 E.02452
G1 X102.146 Y71.468 E.95337
G1 X102.146 Y71.956 E.02451
G1 X115.568 Y85.378 E.95337
G1 X115.568 Y85.866 E.02452
G1 X102.145 Y72.444 E.95337
G1 X102.145 Y72.932 E.02451
G1 X115.568 Y86.354 E.95337
G1 X115.568 Y86.842 E.02452
G1 X102.145 Y73.42 E.95337
G1 X102.145 Y73.908 E.02451
M73 P1 R209
G1 X115.568 Y87.33 E.95337
G1 X115.568 Y87.818 E.02452
G1 X102.145 Y74.396 E.95337
G1 X102.145 Y74.884 E.02451
G1 X115.568 Y88.307 E.95337
G1 X115.568 Y88.795 E.02452
G1 X102.145 Y75.372 E.95337
G1 X102.145 Y75.86 E.02451
G1 X115.567 Y89.283 E.95337
G1 X115.567 Y89.771 E.02452
G1 X102.145 Y76.349 E.95337
G1 X102.145 Y76.837 E.02451
G1 X115.567 Y90.259 E.95337
G1 X115.567 Y90.747 E.02452
G1 X102.145 Y77.325 E.95337
G1 X102.145 Y77.813 E.02451
G1 X115.567 Y91.235 E.95337
G1 X115.567 Y91.723 E.02452
G1 X102.145 Y78.301 E.95337
G1 X102.145 Y78.789 E.02451
G1 X115.567 Y92.211 E.95337
G1 X115.567 Y92.699 E.02452
G1 X102.145 Y79.277 E.95337
G1 X102.145 Y79.765 E.02451
G1 X115.567 Y93.188 E.95337
G1 X115.567 Y93.676 E.02452
G1 X102.145 Y80.253 E.95338
G1 X102.145 Y80.741 E.02451
G1 X115.567 Y94.164 E.95338
G1 X115.567 Y94.652 E.02452
G1 X102.145 Y81.23 E.95338
G1 X102.145 Y81.718 E.02451
G1 X115.567 Y95.14 E.95338
G1 X115.567 Y95.628 E.02452
G1 X102.145 Y82.206 E.95338
G1 X102.145 Y82.694 E.02451
G1 X115.567 Y96.116 E.95338
G1 X115.567 Y96.604 E.02452
G1 X102.145 Y83.182 E.95338
G1 X102.145 Y83.67 E.02451
G1 X115.567 Y97.092 E.95338
G1 X115.567 Y97.58 E.02452
G1 X102.145 Y84.158 E.95338
G1 X102.145 Y84.646 E.02451
G1 X115.567 Y98.069 E.95338
G1 X115.567 Y98.557 E.02452
G1 X102.145 Y85.134 E.95338
G1 X102.145 Y85.622 E.02451
G1 X115.567 Y99.045 E.95338
G1 X115.567 Y99.533 E.02452
G1 X102.145 Y86.111 E.95338
G1 X102.145 Y86.599 E.02451
G1 X115.567 Y100.021 E.95338
G1 X115.567 Y100.509 E.02452
G1 X102.145 Y87.087 E.95338
G1 X102.144 Y87.575 E.02451
G1 X115.567 Y100.997 E.95338
G1 X115.567 Y101.485 E.02452
G1 X102.144 Y88.063 E.95338
G1 X102.144 Y88.551 E.02451
G1 X115.567 Y101.973 E.95338
G1 X115.567 Y102.461 E.02452
G1 X102.144 Y89.039 E.95338
G1 X102.144 Y89.527 E.02451
G1 X115.567 Y102.95 E.95338
G1 X115.567 Y103.438 E.02452
G1 X102.144 Y90.015 E.95338
G1 X102.144 Y90.503 E.02451
G1 X115.567 Y103.926 E.95338
G1 X115.567 Y104.414 E.02452
G1 X102.144 Y90.991 E.95338
G1 X102.144 Y91.48 E.02451
G1 X115.567 Y104.902 E.95338
G1 X115.567 Y105.39 E.02452
G1 X102.144 Y91.968 E.95339
G1 X102.144 Y92.456 E.02451
G1 X115.567 Y105.878 E.95339
G1 X115.567 Y106.366 E.02452
G1 X102.144 Y92.944 E.95339
G1 X102.144 Y93.432 E.02451
G1 X115.567 Y106.854 E.95339
G1 X115.566 Y107.343 E.02452
G1 X102.144 Y93.92 E.95339
G1 X102.144 Y94.408 E.02451
M73 P1 R208
G1 X115.566 Y107.831 E.95339
G1 X115.566 Y108.319 E.02452
G1 X102.144 Y94.896 E.95339
G1 X102.144 Y95.384 E.02451
G1 X115.566 Y108.807 E.95339
G1 X115.566 Y109.295 E.02452
G1 X102.144 Y95.872 E.95339
G1 X102.144 Y96.361 E.02451
G1 X115.566 Y109.783 E.95339
G1 X115.566 Y110.271 E.02452
G1 X102.144 Y96.849 E.95339
G1 X102.144 Y97.337 E.02451
G1 X115.566 Y110.759 E.95339
G1 X115.566 Y111.247 E.02452
G1 X102.144 Y97.825 E.95339
G1 X102.144 Y98.313 E.02451
G1 X115.566 Y111.735 E.95339
G1 X115.566 Y112.224 E.02452
G1 X102.144 Y98.801 E.95339
G1 X102.144 Y99.289 E.02451
G1 X115.566 Y112.712 E.95339
G1 X115.566 Y113.2 E.02452
G1 X102.144 Y99.777 E.95339
G1 X102.144 Y100.265 E.02451
G1 X115.566 Y113.688 E.95339
G1 X115.566 Y114.176 E.02452
G1 X102.144 Y100.753 E.95339
G1 X102.144 Y101.242 E.02451
G1 X115.566 Y114.664 E.95339
G1 X115.566 Y115.152 E.02452
G1 X102.144 Y101.73 E.95339
G1 X102.143 Y102.218 E.02451
G1 X115.566 Y115.64 E.95339
G1 X115.566 Y116.128 E.02452
G1 X102.143 Y102.706 E.95339
G1 X102.143 Y103.194 E.02451
G1 X115.566 Y116.616 E.95339
G1 X115.566 Y117.105 E.02452
G1 X102.143 Y103.682 E.95339
G1 X102.143 Y104.17 E.02451
G1 X115.566 Y117.593 E.9534
G1 X115.566 Y118.081 E.02452
G1 X102.143 Y104.658 E.9534
G1 X102.143 Y105.146 E.02451
G1 X115.566 Y118.569 E.9534
G1 X115.566 Y119.057 E.02452
G1 X102.143 Y105.634 E.9534
G1 X102.143 Y106.122 E.02451
G1 X115.566 Y119.545 E.9534
G1 X115.566 Y120.033 E.02452
G1 X102.143 Y106.611 E.9534
G1 X102.143 Y107.099 E.02451
G1 X115.566 Y120.521 E.9534
G1 X115.566 Y121.009 E.02452
G1 X102.143 Y107.587 E.9534
G1 X102.143 Y108.075 E.02451
G1 X115.566 Y121.497 E.9534
G1 X115.566 Y121.986 E.02452
G1 X102.143 Y108.563 E.9534
G1 X102.143 Y109.051 E.02451
G1 X115.566 Y122.474 E.9534
G1 X115.566 Y122.962 E.02452
G1 X102.143 Y109.539 E.9534
G1 X102.143 Y110.027 E.02451
G1 X115.566 Y123.45 E.9534
G1 X115.566 Y123.938 E.02452
G1 X102.143 Y110.515 E.9534
G1 X102.143 Y111.003 E.02451
G1 X115.566 Y124.426 E.9534
G1 X115.565 Y124.914 E.02452
G1 X102.143 Y111.492 E.9534
G1 X102.143 Y111.98 E.02451
G1 X115.565 Y125.402 E.9534
G1 X115.565 Y125.89 E.02452
G1 X102.143 Y112.468 E.9534
G1 X102.143 Y112.956 E.02451
G1 X115.565 Y126.379 E.9534
G1 X115.565 Y126.867 E.02452
G1 X102.143 Y113.444 E.9534
G1 X102.143 Y113.932 E.02451
G1 X115.565 Y127.355 E.9534
G1 X115.565 Y127.843 E.02452
G1 X102.143 Y114.42 E.9534
G1 X102.143 Y114.908 E.02451
G1 X115.565 Y128.331 E.9534
G1 X115.565 Y128.819 E.02452
G1 X102.143 Y115.396 E.9534
G1 X102.143 Y115.884 E.02451
G1 X115.565 Y129.307 E.9534
G1 X115.565 Y129.795 E.02452
G1 X102.143 Y116.373 E.95341
G1 X102.142 Y116.861 E.02451
G1 X115.565 Y130.283 E.95341
G1 X115.565 Y130.771 E.02452
G1 X102.142 Y117.349 E.95341
G1 X102.142 Y117.837 E.02451
G1 X115.565 Y131.26 E.95341
G1 X115.565 Y131.748 E.02452
G1 X102.142 Y118.325 E.95341
G1 X102.142 Y118.813 E.02451
G1 X115.565 Y132.236 E.95341
G1 X115.565 Y132.724 E.02452
G1 X102.142 Y119.301 E.95341
G1 X102.142 Y119.789 E.02451
G1 X115.565 Y133.212 E.95341
G1 X115.565 Y133.7 E.02452
G1 X102.142 Y120.277 E.95341
G1 X102.142 Y120.765 E.02451
G1 X115.565 Y134.188 E.95341
G1 X115.565 Y134.676 E.02452
G1 X102.142 Y121.253 E.95341
G1 X102.142 Y121.742 E.02451
G1 X115.565 Y135.164 E.95341
G1 X115.565 Y135.652 E.02452
G1 X102.142 Y122.23 E.95341
G1 X102.142 Y122.718 E.02451
G1 X115.565 Y136.141 E.95341
G1 X115.565 Y136.629 E.02452
G1 X102.142 Y123.206 E.95341
G1 X102.142 Y123.694 E.02451
G1 X115.565 Y137.117 E.95341
G1 X115.565 Y137.605 E.02452
G1 X102.142 Y124.182 E.95341
G1 X102.142 Y124.67 E.02451
G1 X115.565 Y138.093 E.95341
G1 X115.565 Y138.581 E.02452
G1 X102.142 Y125.158 E.95341
G1 X102.142 Y125.646 E.02451
G1 X115.565 Y139.069 E.95341
G1 X115.565 Y139.557 E.02452
G1 X102.142 Y126.134 E.95341
G1 X102.142 Y126.623 E.02451
G1 X115.565 Y140.045 E.95341
G1 X115.565 Y140.533 E.02452
G1 X102.142 Y127.111 E.95341
