; generated by PrusaSlicer 2.5.0+win64 on 2022-12-07 at 00:07:07 UTC

; 

; external perimeters extrusion width = 1.00mm
; perimeters extrusion width = 1.00mm
; infill extrusion width = 1.00mm
; solid infill extrusion width = 1.00mm
; top infill extrusion width = 1.00mm
; support material extrusion width = 1.00mm
; first layer extrusion width = 0.42mm

M73 P0 R180
M107
;TYPE:Custom
G90 ; use absolute coordinates
M83 ; extruder relative mode
M140 S60 ; set final bed temp
M104 S150 ; set temporary nozzle temp to prevent oozing during homing and auto bed leveling
G4 S10 ; allow partial nozzle warmup
G28 ; home all axisG1 Z50 F240
G1 X7.6 Y10 F3000
M104 S210 ; set final nozzle temp
M190 S60 ; wait for bed temp to stabilize
M109 S210 ; wait for nozzle temp to stabilize
G1 Z0.28 F240
G92 E0
G1 Y140 E10 F1500 ; prime the nozzle
G1 X4 F5000
G92 E0
G1 Y10 E10 F1200 ; prime the nozzle
G92 E0
G21 ; set units to millimeters
G90 ; use absolute coordinates
M83 ; use relative distances for extrusion
; Filament gcode
M107
;LAYER_CHANGE
;Z:0.35
;HEIGHT:0.35
;BEFORE_LAYER_CHANGE
G92 E0
;0.35


G1 E-1 F3600
G1 Z.35 F7800
;AFTER_LAYER_CHANGE
;0.35
G1 X81.785 Y162.818
G1 E1 F2400
;TYPE:Perimeter
;WIDTH:0.42
G1 F1800
G1 X81.787 Y17.184 E7.30878
G1 X95.708 Y17.184 E.69862
G1 X95.703 Y162.818 E7.30878
G1 X81.935 Y162.818 E.69094
G1 X81.441 Y163.163 F7800
;TYPE:External perimeter
G1 F1800
G1 X81.443 Y16.839 E7.3434
G1 X96.053 Y16.839 E.73324
G1 X96.048 Y163.163 E7.3434
G1 X81.591 Y163.163 E.72556
G1 X81.474 Y162.164 F7800
G1 E-.7 F3600
;WIPE_START
G1 F6240
G1 X81.59 Y162.643 E-.285
;WIPE_END
G1 E-.015 F3600
G1 X94.906 Y17.287 F7800
G1 E1 F2400
;TYPE:Solid infill
;WIDTH:0.420448
G1 F1800
G1 X95.449 Y17.83 E.03858
G1 X95.449 Y18.319 E.02454
G1 X94.573 Y17.443 E.06226
G1 X94.085 Y17.443 E.02454
G1 X95.449 Y18.807 E.09697
G1 X95.449 Y19.295 E.02454
G1 X93.597 Y17.443 E.13167
G1 X93.108 Y17.443 E.02454
G1 X95.449 Y19.784 E.16638
G1 X95.449 Y20.272 E.02454
G1 X92.62 Y17.443 E.20108
G1 X92.131 Y17.443 E.02454
G1 X95.449 Y20.76 E.23579
G1 X95.449 Y21.249 E.02454
G1 X91.643 Y17.443 E.2705
G1 X91.155 Y17.443 E.02454
G1 X95.449 Y21.737 E.3052
G1 X95.449 Y22.226 E.02454
G1 X90.666 Y17.443 E.33991
G1 X90.178 Y17.443 E.02454
G1 X95.449 Y22.714 E.37461
G1 X95.449 Y23.202 E.02454
G1 X89.689 Y17.443 E.40932
G1 X89.201 Y17.443 E.02454
G1 X95.449 Y23.691 E.44403
G1 X95.449 Y24.179 E.02454
G1 X88.713 Y17.443 E.47873
G1 X88.224 Y17.443 E.02454
G1 X95.449 Y24.667 E.51344
G1 X95.449 Y25.156 E.02454
G1 X87.736 Y17.443 E.54814
G1 X87.248 Y17.443 E.02454
G1 X95.449 Y25.644 E.58285
G1 X95.449 Y26.132 E.02454
G1 X86.759 Y17.443 E.61755
G1 X86.271 Y17.443 E.02454
G1 X95.449 Y26.621 E.65226
G1 X95.449 Y27.109 E.02454
G1 X85.782 Y17.443 E.68697
G1 X85.294 Y17.443 E.02454
G1 X95.449 Y27.598 E.72167
G1 X95.449 Y28.086 E.02454
G1 X84.806 Y17.443 E.75638
G1 X84.317 Y17.443 E.02454
G1 X95.449 Y28.574 E.79108
G1 X95.449 Y29.063 E.02454
G1 X83.829 Y17.443 E.82579
G1 X83.341 Y17.443 E.02454
G1 X95.449 Y29.551 E.8605
G1 X95.449 Y30.039 E.02454
G1 X82.852 Y17.443 E.8952
G1 X82.364 Y17.443 E.02454
G1 X95.449 Y30.528 E.92991
G1 X95.449 Y31.016 E.02454
G1 X82.046 Y17.613 E.95248
G1 X82.046 Y18.102 E.02454
G1 X95.449 Y31.504 E.95248
G1 X95.449 Y31.993 E.02454
M73 P0 R179
G1 X82.046 Y18.59 E.95248
G1 X82.046 Y19.078 E.02454
G1 X95.449 Y32.481 E.95248
G1 X95.449 Y32.97 E.02454
G1 X82.046 Y19.567 E.95248
G1 X82.046 Y20.055 E.02454
G1 X95.449 Y33.458 E.95248
G1 X95.449 Y33.946 E.02454
G1 X82.046 Y20.543 E.95248
G1 X82.046 Y21.032 E.02454
G1 X95.449 Y34.435 E.95248
G1 X95.449 Y34.923 E.02454
G1 X82.046 Y21.52 E.95248
G1 X82.046 Y22.009 E.02454
G1 X95.449 Y35.411 E.95248
G1 X95.449 Y35.9 E.02454
G1 X82.046 Y22.497 E.95248
G1 X82.046 Y22.985 E.02454
G1 X95.449 Y36.388 E.95248
G1 X95.449 Y36.876 E.02454
G1 X82.046 Y23.474 E.95248
G1 X82.046 Y23.962 E.02454
G1 X95.449 Y37.365 E.95248
G1 X95.449 Y37.853 E.02454
G1 X82.046 Y24.45 E.95247
G1 X82.046 Y24.939 E.02454
G1 X95.449 Y38.342 E.95247
G1 X95.449 Y38.83 E.02454
G1 X82.046 Y25.427 E.95247
G1 X82.046 Y25.916 E.02454
G1 X95.449 Y39.318 E.95247
G1 X95.449 Y39.807 E.02454
G1 X82.046 Y26.404 E.95247
G1 X82.046 Y26.892 E.02454
G1 X95.449 Y40.295 E.95247
G1 X95.449 Y40.783 E.02454
G1 X82.046 Y27.381 E.95247
G1 X82.046 Y27.869 E.02454
G1 X95.449 Y41.272 E.95247
G1 X95.449 Y41.76 E.02454
G1 X82.046 Y28.357 E.95247
G1 X82.046 Y28.846 E.02454
G1 X95.449 Y42.248 E.95247
G1 X95.449 Y42.737 E.02454
G1 X82.046 Y29.334 E.95247
G1 X82.046 Y29.823 E.02454
G1 X95.449 Y43.225 E.95247
G1 X95.449 Y43.714 E.02454
G1 X82.046 Y30.311 E.95247
G1 X82.046 Y30.799 E.02454
G1 X95.449 Y44.202 E.95247
G1 X95.448 Y44.69 E.02454
G1 X82.046 Y31.288 E.95246
G1 X82.046 Y31.776 E.02454
G1 X95.448 Y45.179 E.95246
G1 X95.448 Y45.667 E.02454
G1 X82.046 Y32.264 E.95246
G1 X82.046 Y32.753 E.02454
G1 X95.448 Y46.155 E.95246
G1 X95.448 Y46.644 E.02454
G1 X82.046 Y33.241 E.95246
G1 X82.046 Y33.73 E.02454
G1 X95.448 Y47.132 E.95246
G1 X95.448 Y47.62 E.02454
G1 X82.046 Y34.218 E.95246
G1 X82.046 Y34.706 E.02454
G1 X95.448 Y48.109 E.95246
G1 X95.448 Y48.597 E.02454
G1 X82.046 Y35.195 E.95246
G1 X82.046 Y35.683 E.02454
G1 X95.448 Y49.086 E.95246
G1 X95.448 Y49.574 E.02454
G1 X82.046 Y36.171 E.95246
G1 X82.046 Y36.66 E.02454
G1 X95.448 Y50.062 E.95246
G1 X95.448 Y50.551 E.02454
G1 X82.046 Y37.148 E.95246
G1 X82.046 Y37.637 E.02454
G1 X95.448 Y51.039 E.95246
G1 X95.448 Y51.527 E.02454
G1 X82.046 Y38.125 E.95245
G1 X82.046 Y38.613 E.02454
G1 X95.448 Y52.016 E.95245
G1 X95.448 Y52.504 E.02454
G1 X82.046 Y39.102 E.95245
G1 X82.046 Y39.59 E.02454
G1 X95.448 Y52.992 E.95245
G1 X95.448 Y53.481 E.02454
G1 X82.046 Y40.078 E.95245
G1 X82.046 Y40.567 E.02454
G1 X95.448 Y53.969 E.95245
G1 X95.448 Y54.458 E.02454
G1 X82.046 Y41.055 E.95245
G1 X82.046 Y41.544 E.02454
G1 X95.448 Y54.946 E.95245
G1 X95.448 Y55.434 E.02454
G1 X82.046 Y42.032 E.95245
G1 X82.046 Y42.52 E.02454
G1 X95.448 Y55.923 E.95245
G1 X95.448 Y56.411 E.02454
G1 X82.046 Y43.009 E.95245
G1 X82.046 Y43.497 E.02454
G1 X95.448 Y56.899 E.95245
G1 X95.448 Y57.388 E.02454
G1 X82.046 Y43.985 E.95245
G1 X82.046 Y44.474 E.02454
G1 X95.448 Y57.876 E.95245
G1 X95.448 Y58.364 E.02454
G1 X82.046 Y44.962 E.95244
G1 X82.046 Y45.451 E.02454
G1 X95.448 Y58.853 E.95244
G1 X95.448 Y59.341 E.02454
G1 X82.046 Y45.939 E.95244
G1 X82.046 Y46.427 E.02454
G1 X95.448 Y59.83 E.95244
G1 X95.448 Y60.318 E.02454
G1 X82.046 Y46.916 E.95244
G1 X82.046 Y47.404 E.02454
G1 X95.448 Y60.806 E.95244
G1 X95.448 Y61.295 E.02454
G1 X82.046 Y47.892 E.95244
G1 X82.046 Y48.381 E.02454
G1 X95.448 Y61.783 E.95244
G1 X95.448 Y62.271 E.02454
G1 X82.046 Y48.869 E.95244
G1 X82.046 Y49.358 E.02454
G1 X95.448 Y62.76 E.95244
G1 X95.448 Y63.248 E.02454
G1 X82.046 Y49.846 E.95244
G1 X82.046 Y50.334 E.02454
G1 X95.448 Y63.736 E.95244
G1 X95.448 Y64.225 E.02454
G1 X82.046 Y50.823 E.95244
G1 X82.046 Y51.311 E.02454
G1 X95.448 Y64.713 E.95244
G1 X95.448 Y65.202 E.02454
G1 X82.046 Y51.799 E.95243
G1 X82.046 Y52.288 E.02454
G1 X95.448 Y65.69 E.95243
G1 X95.448 Y66.178 E.02454
G1 X82.046 Y52.776 E.95243
G1 X82.046 Y53.264 E.02454
G1 X95.448 Y66.667 E.95243
G1 X95.448 Y67.155 E.02454
G1 X82.046 Y53.753 E.95243
G1 X82.046 Y54.241 E.02454
G1 X95.448 Y67.643 E.95243
G1 X95.448 Y68.132 E.02454
G1 X82.046 Y54.73 E.95243
G1 X82.046 Y55.218 E.02454
G1 X95.448 Y68.62 E.95243
G1 X95.448 Y69.108 E.02454
G1 X82.046 Y55.706 E.95243
G1 X82.046 Y56.195 E.02454
G1 X95.448 Y69.597 E.95243
G1 X95.448 Y70.085 E.02454
G1 X82.046 Y56.683 E.95243
G1 X82.046 Y57.171 E.02454
G1 X95.448 Y70.574 E.95243
G1 X95.448 Y71.062 E.02454
G1 X82.046 Y57.66 E.95243
G1 X82.046 Y58.148 E.02454
G1 X95.448 Y71.55 E.95243
G1 X95.448 Y72.039 E.02454
G1 X82.046 Y58.637 E.95242
G1 X82.046 Y59.125 E.02454
G1 X95.448 Y72.527 E.95242
G1 X95.448 Y73.015 E.02454
G1 X82.046 Y59.613 E.95242
G1 X82.046 Y60.102 E.02454
G1 X95.447 Y73.504 E.95242
G1 X95.447 Y73.992 E.02454
M73 P1 R179
G1 X82.045 Y60.59 E.95242
G1 X82.045 Y61.078 E.02454
M73 P1 R178
G1 X95.447 Y74.48 E.95242
G1 X95.447 Y74.969 E.02454
G1 X82.045 Y61.567 E.95242
G1 X82.045 Y62.055 E.02454
G1 X95.447 Y75.457 E.95242
G1 X95.447 Y75.946 E.02454
G1 X82.045 Y62.544 E.95242
G1 X82.045 Y63.032 E.02454
G1 X95.447 Y76.434 E.95242
G1 X95.447 Y76.922 E.02454
G1 X82.045 Y63.52 E.95242
G1 X82.045 Y64.009 E.02454
G1 X95.447 Y77.411 E.95242
G1 X95.447 Y77.899 E.02454
G1 X82.045 Y64.497 E.95242
G1 X82.045 Y64.985 E.02454
G1 X95.447 Y78.387 E.95242
G1 X95.447 Y78.876 E.02454
G1 X82.045 Y65.474 E.95241
G1 X82.045 Y65.962 E.02454
G1 X95.447 Y79.364 E.95241
G1 X95.447 Y79.852 E.02454
G1 X82.045 Y66.451 E.95241
G1 X82.045 Y66.939 E.02454
G1 X95.447 Y80.341 E.95241
G1 X95.447 Y80.829 E.02454
G1 X82.045 Y67.427 E.95241
G1 X82.045 Y67.916 E.02454
G1 X95.447 Y81.318 E.95241
G1 X95.447 Y81.806 E.02454
G1 X82.045 Y68.404 E.95241
G1 X82.045 Y68.892 E.02454
G1 X95.447 Y82.294 E.95241
G1 X95.447 Y82.783 E.02454
G1 X82.045 Y69.381 E.95241
G1 X82.045 Y69.869 E.02454
G1 X95.447 Y83.271 E.95241
G1 X95.447 Y83.759 E.02454
G1 X82.045 Y70.358 E.95241
G1 X82.045 Y70.846 E.02454
G1 X95.447 Y84.248 E.95241
G1 X95.447 Y84.736 E.02454
G1 X82.045 Y71.334 E.95241
G1 X82.045 Y71.823 E.02454
G1 X95.447 Y85.224 E.95241
G1 X95.447 Y85.713 E.02454
G1 X82.045 Y72.311 E.9524
G1 X82.045 Y72.799 E.02454
G1 X95.447 Y86.201 E.9524
G1 X95.447 Y86.69 E.02454
G1 X82.045 Y73.288 E.9524
G1 X82.045 Y73.776 E.02454
G1 X95.447 Y87.178 E.9524
G1 X95.447 Y87.666 E.02454
G1 X82.045 Y74.265 E.9524
G1 X82.045 Y74.753 E.02454
G1 X95.447 Y88.155 E.9524
G1 X95.447 Y88.643 E.02454
G1 X82.045 Y75.241 E.9524
G1 X82.045 Y75.73 E.02454
G1 X95.447 Y89.131 E.9524
G1 X95.447 Y89.62 E.02454
G1 X82.045 Y76.218 E.9524
G1 X82.045 Y76.706 E.02454
G1 X95.447 Y90.108 E.9524
G1 X95.447 Y90.596 E.02454
G1 X82.045 Y77.195 E.9524
G1 X82.045 Y77.683 E.02454
G1 X95.447 Y91.085 E.9524
G1 X95.447 Y91.573 E.02454
G1 X82.045 Y78.172 E.9524
G1 X82.045 Y78.66 E.02454
G1 X95.447 Y92.062 E.9524
G1 X95.447 Y92.55 E.02454
G1 X82.045 Y79.148 E.95239
G1 X82.045 Y79.637 E.02454
G1 X95.447 Y93.038 E.95239
G1 X95.447 Y93.527 E.02454
G1 X82.045 Y80.125 E.95239
G1 X82.045 Y80.613 E.02454
G1 X95.447 Y94.015 E.95239
G1 X95.447 Y94.503 E.02454
G1 X82.045 Y81.102 E.95239
G1 X82.045 Y81.59 E.02454
G1 X95.447 Y94.992 E.95239
G1 X95.447 Y95.48 E.02454
G1 X82.045 Y82.079 E.95239
G1 X82.045 Y82.567 E.02454
G1 X95.447 Y95.968 E.95239
G1 X95.447 Y96.457 E.02454
G1 X82.045 Y83.055 E.95239
G1 X82.045 Y83.544 E.02454
G1 X95.447 Y96.945 E.95239
G1 X95.447 Y97.434 E.02454
G1 X82.045 Y84.032 E.95239
G1 X82.045 Y84.52 E.02454
G1 X95.447 Y97.922 E.95239
G1 X95.447 Y98.41 E.02454
G1 X82.045 Y85.009 E.95239
G1 X82.045 Y85.497 E.02454
G1 X95.447 Y98.899 E.95239
G1 X95.447 Y99.387 E.02454
G1 X82.045 Y85.986 E.95238
G1 X82.045 Y86.474 E.02454
G1 X95.447 Y99.875 E.95238
G1 X95.447 Y100.364 E.02454
G1 X82.045 Y86.962 E.95238
G1 X82.045 Y87.451 E.02454
G1 X95.447 Y100.852 E.95238
G1 X95.447 Y101.34 E.02454
G1 X82.045 Y87.939 E.95238
G1 X82.045 Y88.427 E.02454
G1 X95.447 Y101.829 E.95238
G1 X95.447 Y102.317 E.02454
G1 X82.045 Y88.916 E.95238
G1 X82.045 Y89.404 E.02454
G1 X95.446 Y102.806 E.95238
G1 X95.446 Y103.294 E.02454
G1 X82.045 Y89.893 E.95238
G1 X82.045 Y90.381 E.02454
G1 X95.446 Y103.782 E.95238
G1 X95.446 Y104.271 E.02454
G1 X82.045 Y90.869 E.95238
G1 X82.045 Y91.358 E.02454
G1 X95.446 Y104.759 E.95238
G1 X95.446 Y105.247 E.02454
G1 X82.045 Y91.846 E.95238
G1 X82.045 Y92.334 E.02454
G1 X95.446 Y105.736 E.95238
G1 X95.446 Y106.224 E.02454
G1 X82.045 Y92.823 E.95237
G1 X82.045 Y93.311 E.02454
G1 X95.446 Y106.712 E.95237
G1 X95.446 Y107.201 E.02454
G1 X82.045 Y93.799 E.95237
G1 X82.045 Y94.288 E.02454
G1 X95.446 Y107.689 E.95237
G1 X95.446 Y108.178 E.02454
G1 X82.045 Y94.776 E.95237
G1 X82.045 Y95.265 E.02454
G1 X95.446 Y108.666 E.95237
G1 X95.446 Y109.154 E.02454
G1 X82.045 Y95.753 E.95237
G1 X82.045 Y96.241 E.02454
G1 X95.446 Y109.643 E.95237
G1 X95.446 Y110.131 E.02454
G1 X82.045 Y96.73 E.95237
G1 X82.045 Y97.218 E.02454
G1 X95.446 Y110.619 E.95237
G1 X95.446 Y111.108 E.02454
G1 X82.045 Y97.706 E.95237
G1 X82.045 Y98.195 E.02454
G1 X95.446 Y111.596 E.95237
G1 X95.446 Y112.084 E.02454
G1 X82.045 Y98.683 E.95237
G1 X82.045 Y99.172 E.02454
G1 X95.446 Y112.573 E.95237
G1 X95.446 Y113.061 E.02454
G1 X82.045 Y99.66 E.95236
G1 X82.045 Y100.148 E.02454
G1 X95.446 Y113.55 E.95236
G1 X95.446 Y114.038 E.02454
G1 X82.045 Y100.637 E.95236
G1 X82.045 Y101.125 E.02454
G1 X95.446 Y114.526 E.95236
G1 X95.446 Y115.015 E.02454
G1 X82.045 Y101.613 E.95236
G1 X82.045 Y102.102 E.02454
G1 X95.446 Y115.503 E.95236
G1 X95.446 Y115.991 E.02454
G1 X82.045 Y102.59 E.95236
G1 X82.045 Y103.079 E.02454
M73 P1 R177
G1 X95.446 Y116.48 E.95236
G1 X95.446 Y116.968 E.02454
G1 X82.045 Y103.567 E.95236
G1 X82.045 Y104.055 E.02454
G1 X95.446 Y117.456 E.95236
G1 X95.446 Y117.945 E.02454
G1 X82.045 Y104.544 E.95236
G1 X82.045 Y105.032 E.02454
G1 X95.446 Y118.433 E.95236
G1 X95.446 Y118.922 E.02454
G1 X82.045 Y105.52 E.95236
G1 X82.045 Y106.009 E.02454
G1 X95.446 Y119.41 E.95236
G1 X95.446 Y119.898 E.02454
G1 X82.045 Y106.497 E.95235
G1 X82.045 Y106.986 E.02454
G1 X95.446 Y120.387 E.95235
G1 X95.446 Y120.875 E.02454
G1 X82.045 Y107.474 E.95235
G1 X82.045 Y107.962 E.02454
G1 X95.446 Y121.363 E.95235
G1 X95.446 Y121.852 E.02454
G1 X82.045 Y108.451 E.95235
G1 X82.045 Y108.939 E.02454
G1 X95.446 Y122.34 E.95235
G1 X95.446 Y122.828 E.02454
G1 X82.045 Y109.427 E.95235
G1 X82.045 Y109.916 E.02454
G1 X95.446 Y123.317 E.95235
G1 X95.446 Y123.805 E.02454
G1 X82.045 Y110.404 E.95235
G1 X82.045 Y110.893 E.02454
G1 X95.446 Y124.294 E.95235
G1 X95.446 Y124.782 E.02454
G1 X82.045 Y111.381 E.95235
G1 X82.045 Y111.869 E.02454
G1 X95.446 Y125.27 E.95235
G1 X95.446 Y125.759 E.02454
G1 X82.045 Y112.358 E.95235
G1 X82.045 Y112.846 E.02454
G1 X95.446 Y126.247 E.95235
G1 X95.446 Y126.735 E.02454
G1 X82.045 Y113.334 E.95234
G1 X82.045 Y113.823 E.02454
G1 X95.446 Y127.224 E.95234
G1 X95.446 Y127.712 E.02454
G1 X82.045 Y114.311 E.95234
G1 X82.045 Y114.8 E.02454
G1 X95.446 Y128.2 E.95234
G1 X95.446 Y128.689 E.02454
G1 X82.045 Y115.288 E.95234
G1 X82.045 Y115.776 E.02454
G1 X95.446 Y129.177 E.95234
G1 X95.446 Y129.666 E.02454
G1 X82.045 Y116.265 E.95234
G1 X82.045 Y116.753 E.02454
G1 X95.446 Y130.154 E.95234
G1 X95.446 Y130.642 E.02454
G1 X82.045 Y117.241 E.95234
G1 X82.045 Y117.73 E.02454
G1 X95.446 Y131.131 E.95234
G1 X95.446 Y131.619 E.02454
G1 X82.045 Y118.218 E.95234
G1 X82.045 Y118.707 E.02454
G1 X95.445 Y132.107 E.95234
G1 X95.445 Y132.596 E.02454
G1 X82.045 Y119.195 E.95234
G1 X82.045 Y119.683 E.02454
G1 X95.445 Y133.084 E.95234
G1 X95.445 Y133.572 E.02454
G1 X82.045 Y120.172 E.95233
G1 X82.045 Y120.66 E.02454
G1 X95.445 Y134.061 E.95233
G1 X95.445 Y134.549 E.02454
G1 X82.045 Y121.148 E.95233
G1 X82.045 Y121.637 E.02454
G1 X95.445 Y135.038 E.95233
G1 X95.445 Y135.526 E.02454
G1 X82.045 Y122.125 E.95233
G1 X82.045 Y122.614 E.02454
G1 X95.445 Y136.014 E.95233
G1 X95.445 Y136.503 E.02454
G1 X82.045 Y123.102 E.95233
G1 X82.045 Y123.59 E.02454
G1 X95.445 Y136.991 E.95233
G1 X95.445 Y137.479 E.02454
G1 X82.045 Y124.079 E.95233
G1 X82.045 Y124.567 E.02454
G1 X95.445 Y137.968 E.95233
G1 X95.445 Y138.456 E.02454
G1 X82.045 Y125.055 E.95233
G1 X82.045 Y125.544 E.02454
G1 X95.445 Y138.944 E.95233
G1 X95.445 Y139.433 E.02454
G1 X82.045 Y126.032 E.95233
G1 X82.045 Y126.521 E.02454
G1 X95.445 Y139.921 E.95233
G1 X95.445 Y140.41 E.02454
G1 X82.045 Y127.009 E.95232
G1 X82.045 Y127.497 E.02454
G1 X95.445 Y140.898 E.95232
G1 X95.445 Y141.386 E.02454
G1 X82.045 Y127.986 E.95232
G1 X82.045 Y128.474 E.02454
G1 X95.445 Y141.875 E.95232
G1 X95.445 Y142.363 E.02454
G1 X82.045 Y128.962 E.95232
G1 X82.045 Y129.451 E.02454
G1 X95.445 Y142.851 E.95232
G1 X95.445 Y143.34 E.02454
G1 X82.045 Y129.939 E.95232
G1 X82.045 Y130.428 E.02454
G1 X95.445 Y143.828 E.95232
G1 X95.445 Y144.316 E.02454
G1 X82.045 Y130.916 E.95232
G1 X82.045 Y131.404 E.02454
G1 X95.445 Y144.805 E.95232
G1 X95.445 Y145.293 E.02454
G1 X82.045 Y131.893 E.95232
G1 X82.045 Y132.381 E.02454
