; generated by PrusaSlicer 2.5.0+win64 on 2022-12-07 at 00:07:19 UTC

; 

; external perimeters extrusion width = 1.00mm
; perimeters extrusion width = 1.00mm
; infill extrusion width = 1.00mm
; solid infill extrusion width = 1.00mm
; top infill extrusion width = 1.00mm
; support material extrusion width = 1.00mm
; first layer extrusion width = 0.42mm

M73 P0 R180
M107
;TYPE:Custom
G90 ; use absolute coordinates
M83 ; extruder relative mode
M140 S60 ; set final bed temp
M104 S150 ; set temporary nozzle temp to prevent oozing during homing and auto bed leveling
G4 S10 ; allow partial nozzle warmup
G28 ; home all axisG1 Z50 F240
G1 X7.6 Y10 F3000
M104 S210 ; set final nozzle temp
M190 S60 ; wait for bed temp to stabilize
M109 S210 ; wait for nozzle temp to stabilize
G1 Z0.28 F240
G92 E0
G1 Y140 E10 F1500 ; prime the nozzle
G1 X4 F5000
G92 E0
G1 Y10 E10 F1200 ; prime the nozzle
G92 E0
G21 ; set units to millimeters
G90 ; use absolute coordinates
M83 ; use relative distances for extrusion
; Filament gcode
M107
;LAYER_CHANGE
;Z:0.35
;HEIGHT:0.35
;BEFORE_LAYER_CHANGE
G92 E0
;0.35


G1 E-1 F3600
M73 P0 R179
G1 Z.35 F7800
;AFTER_LAYER_CHANGE
;0.35
G1 X81.815 Y17.182
G1 E1 F2400
;TYPE:Perimeter
;WIDTH:0.42
G1 F1800
G1 X95.505 Y17.182 E.68704
G1 X95.498 Y162.82 E7.30898
G1 X81.806 Y162.82 E.68718
G1 X81.815 Y17.332 E7.30145
G1 X81.471 Y16.837 F7800
;TYPE:External perimeter
G1 F1800
G1 X95.85 Y16.837 E.72166
G1 X95.843 Y163.165 E7.3436
G1 X81.461 Y163.165 E.7218
G1 X81.471 Y16.987 E7.33607
G1 X82.353 Y17.308 F7800
G1 E-.7 F3600
;WIPE_START
G1 F6240
G1 X81.991 Y16.982 E-.285
;WIPE_END
G1 E-.015 F3600
G1 X94.703 Y17.285 F7800
G1 E1 F2400
;TYPE:Solid infill
;WIDTH:0.421034
G1 F1800
G1 X95.247 Y17.83 E.03874
G1 X95.247 Y18.319 E.02462
G1 X94.369 Y17.441 E.06251
G1 X93.879 Y17.441 E.02462
G1 X95.247 Y18.808 E.09734
G1 X95.247 Y19.297 E.02462
G1 X93.39 Y17.441 E.13216
G1 X92.901 Y17.441 E.02462
G1 X95.247 Y19.786 E.16698
G1 X95.247 Y20.275 E.02462
G1 X92.412 Y17.441 E.20181
G1 X91.922 Y17.441 E.02462
G1 X95.247 Y20.765 E.23663
G1 X95.247 Y21.254 E.02462
G1 X91.433 Y17.441 E.27145
G1 X90.944 Y17.441 E.02462
G1 X95.247 Y21.743 E.30628
G1 X95.247 Y22.232 E.02462
G1 X90.455 Y17.441 E.3411
G1 X89.966 Y17.441 E.02462
G1 X95.246 Y22.721 E.37592
G1 X95.246 Y23.211 E.02462
G1 X89.476 Y17.441 E.41075
G1 X88.987 Y17.441 E.02462
G1 X95.246 Y23.7 E.44557
G1 X95.246 Y24.189 E.02462
G1 X88.498 Y17.441 E.48039
G1 X88.009 Y17.441 E.02462
G1 X95.246 Y24.678 E.51522
G1 X95.246 Y25.167 E.02462
G1 X87.52 Y17.441 E.55004
G1 X87.03 Y17.441 E.02462
G1 X95.246 Y25.656 E.58486
G1 X95.246 Y26.146 E.02462
G1 X86.541 Y17.441 E.61969
G1 X86.052 Y17.441 E.02462
G1 X95.246 Y26.635 E.65451
G1 X95.246 Y27.124 E.02462
G1 X85.563 Y17.441 E.68933
G1 X85.074 Y17.441 E.02462
G1 X95.246 Y27.613 E.72415
G1 X95.246 Y28.102 E.02462
G1 X84.584 Y17.441 E.75898
G1 X84.095 Y17.441 E.02462
G1 X95.246 Y28.592 E.7938
G1 X95.246 Y29.081 E.02462
G1 X83.606 Y17.441 E.82862
G1 X83.117 Y17.441 E.02462
G1 X95.246 Y29.57 E.86345
G1 X95.246 Y30.059 E.02462
G1 X82.628 Y17.441 E.89827
G1 X82.138 Y17.441 E.02462
G1 X95.246 Y30.548 E.93309
G1 X95.246 Y31.038 E.02462
G1 X82.074 Y17.866 E.93766
G1 X82.074 Y18.355 E.02462
G1 X95.246 Y31.527 E.93767
G1 X95.246 Y32.016 E.02462
G1 X82.074 Y18.844 E.93767
G1 X82.074 Y19.333 E.02462
G1 X95.246 Y32.505 E.93767
G1 X95.246 Y32.994 E.02462
G1 X82.074 Y19.822 E.93767
G1 X82.074 Y20.311 E.02462
G1 X95.246 Y33.483 E.93767
G1 X95.246 Y33.973 E.02462
G1 X82.074 Y20.801 E.93767
G1 X82.074 Y21.29 E.02462
G1 X95.246 Y34.462 E.93767
G1 X95.246 Y34.951 E.02462
G1 X82.074 Y21.779 E.93767
G1 X82.074 Y22.268 E.02462
G1 X95.246 Y35.44 E.93767
G1 X95.246 Y35.929 E.02462
G1 X82.074 Y22.757 E.93767
G1 X82.074 Y23.246 E.02462
G1 X95.246 Y36.419 E.93767
G1 X95.246 Y36.908 E.02462
G1 X82.074 Y23.736 E.93767
G1 X82.074 Y24.225 E.02462
G1 X95.246 Y37.397 E.93767
G1 X95.246 Y37.886 E.02462
G1 X82.074 Y24.714 E.93767
G1 X82.074 Y25.203 E.02462
G1 X95.246 Y38.375 E.93767
G1 X95.246 Y38.864 E.02462
G1 X82.074 Y25.692 E.93768
G1 X82.074 Y26.182 E.02462
G1 X95.246 Y39.354 E.93768
G1 X95.246 Y39.843 E.02462
G1 X82.073 Y26.671 E.93768
G1 X82.073 Y27.16 E.02462
G1 X95.246 Y40.332 E.93768
G1 X95.246 Y40.821 E.02462
G1 X82.073 Y27.649 E.93768
G1 X82.073 Y28.138 E.02462
G1 X95.246 Y41.31 E.93768
G1 X95.246 Y41.8 E.02462
G1 X82.073 Y28.627 E.93768
G1 X82.073 Y29.117 E.02462
G1 X95.246 Y42.289 E.93768
G1 X95.246 Y42.778 E.02462
G1 X82.073 Y29.606 E.93768
G1 X82.073 Y30.095 E.02462
G1 X95.245 Y43.267 E.93768
G1 X95.245 Y43.756 E.02462
G1 X82.073 Y30.584 E.93768
G1 X82.073 Y31.073 E.02462
G1 X95.245 Y44.246 E.93768
G1 X95.245 Y44.735 E.02462
G1 X82.073 Y31.562 E.93768
G1 X82.073 Y32.052 E.02462
G1 X95.245 Y45.224 E.93768
G1 X95.245 Y45.713 E.02462
G1 X82.073 Y32.541 E.93769
G1 X82.073 Y33.03 E.02462
G1 X95.245 Y46.202 E.93769
G1 X95.245 Y46.691 E.02462
G1 X82.073 Y33.519 E.93769
G1 X82.073 Y34.008 E.02462
G1 X95.245 Y47.181 E.93769
G1 X95.245 Y47.67 E.02462
G1 X82.073 Y34.498 E.93769
G1 X82.073 Y34.987 E.02462
G1 X95.245 Y48.159 E.93769
G1 X95.245 Y48.648 E.02462
G1 X82.073 Y35.476 E.93769
G1 X82.073 Y35.965 E.02462
G1 X95.245 Y49.137 E.93769
G1 X95.245 Y49.627 E.02462
M73 P0 R178
G1 X82.073 Y36.454 E.93769
G1 X82.073 Y36.943 E.02462
G1 X95.245 Y50.116 E.93769
G1 X95.245 Y50.605 E.02462
G1 X82.073 Y37.433 E.93769
G1 X82.073 Y37.922 E.02462
G1 X95.245 Y51.094 E.93769
G1 X95.245 Y51.583 E.02462
G1 X82.073 Y38.411 E.93769
G1 X82.073 Y38.9 E.02462
G1 X95.245 Y52.072 E.93769
G1 X95.245 Y52.562 E.02462
G1 X82.073 Y39.389 E.93769
G1 X82.073 Y39.878 E.02462
G1 X95.245 Y53.051 E.9377
G1 X95.245 Y53.54 E.02462
G1 X82.073 Y40.368 E.9377
G1 X82.073 Y40.857 E.02462
G1 X95.245 Y54.029 E.9377
G1 X95.245 Y54.518 E.02462
G1 X82.072 Y41.346 E.9377
G1 X82.072 Y41.835 E.02462
G1 X95.245 Y55.008 E.9377
G1 X95.245 Y55.497 E.02462
G1 X82.072 Y42.324 E.9377
G1 X82.072 Y42.813 E.02462
G1 X95.245 Y55.986 E.9377
G1 X95.245 Y56.475 E.02462
G1 X82.072 Y43.303 E.9377
G1 X82.072 Y43.792 E.02462
G1 X95.245 Y56.964 E.9377
G1 X95.245 Y57.454 E.02462
G1 X82.072 Y44.281 E.9377
G1 X82.072 Y44.77 E.02462
G1 X95.245 Y57.943 E.9377
G1 X95.245 Y58.432 E.02462
G1 X82.072 Y45.259 E.9377
G1 X82.072 Y45.749 E.02462
G1 X95.245 Y58.921 E.9377
G1 X95.245 Y59.41 E.02462
G1 X82.072 Y46.238 E.9377
G1 X82.072 Y46.727 E.02462
G1 X95.245 Y59.899 E.9377
G1 X95.245 Y60.389 E.02462
G1 X82.072 Y47.216 E.93771
G1 X82.072 Y47.705 E.02462
G1 X95.245 Y60.878 E.93771
G1 X95.245 Y61.367 E.02462
G1 X82.072 Y48.194 E.93771
G1 X82.072 Y48.684 E.02462
G1 X95.245 Y61.856 E.93771
G1 X95.245 Y62.345 E.02462
G1 X82.072 Y49.173 E.93771
G1 X82.072 Y49.662 E.02462
G1 X95.245 Y62.835 E.93771
G1 X95.244 Y63.324 E.02462
G1 X82.072 Y50.151 E.93771
G1 X82.072 Y50.64 E.02462
G1 X95.244 Y63.813 E.93771
G1 X95.244 Y64.302 E.02462
G1 X82.072 Y51.129 E.93771
G1 X82.072 Y51.619 E.02462
G1 X95.244 Y64.791 E.93771
G1 X95.244 Y65.28 E.02462
G1 X82.072 Y52.108 E.93771
G1 X82.072 Y52.597 E.02462
G1 X95.244 Y65.77 E.93771
G1 X95.244 Y66.259 E.02462
G1 X82.072 Y53.086 E.93771
G1 X82.072 Y53.575 E.02462
G1 X95.244 Y66.748 E.93771
G1 X95.244 Y67.237 E.02462
G1 X82.072 Y54.065 E.93771
G1 X82.072 Y54.554 E.02462
G1 X95.244 Y67.726 E.93772
G1 X95.244 Y68.216 E.02462
G1 X82.072 Y55.043 E.93772
G1 X82.072 Y55.532 E.02462
G1 X95.244 Y68.705 E.93772
G1 X95.244 Y69.194 E.02462
G1 X82.071 Y56.021 E.93772
G1 X82.071 Y56.51 E.02462
G1 X95.244 Y69.683 E.93772
G1 X95.244 Y70.172 E.02462
G1 X82.071 Y57 E.93772
G1 X82.071 Y57.489 E.02462
G1 X95.244 Y70.662 E.93772
G1 X95.244 Y71.151 E.02462
G1 X82.071 Y57.978 E.93772
G1 X82.071 Y58.467 E.02462
G1 X95.244 Y71.64 E.93772
G1 X95.244 Y72.129 E.02462
G1 X82.071 Y58.956 E.93772
G1 X82.071 Y59.445 E.02462
G1 X95.244 Y72.618 E.93772
G1 X95.244 Y73.107 E.02462
G1 X82.071 Y59.935 E.93772
G1 X82.071 Y60.424 E.02462
G1 X95.244 Y73.597 E.93772
G1 X95.244 Y74.086 E.02462
G1 X82.071 Y60.913 E.93772
G1 X82.071 Y61.402 E.02462
G1 X95.244 Y74.575 E.93772
G1 X95.244 Y75.064 E.02462
G1 X82.071 Y61.891 E.93773
G1 X82.071 Y62.381 E.02462
G1 X95.244 Y75.553 E.93773
G1 X95.244 Y76.043 E.02462
M73 P1 R178
G1 X82.071 Y62.87 E.93773
G1 X82.071 Y63.359 E.02462
G1 X95.244 Y76.532 E.93773
G1 X95.244 Y77.021 E.02462
G1 X82.071 Y63.848 E.93773
G1 X82.071 Y64.337 E.02462
G1 X95.244 Y77.51 E.93773
G1 X95.244 Y77.999 E.02462
G1 X82.071 Y64.826 E.93773
G1 X82.071 Y65.316 E.02462
G1 X95.244 Y78.488 E.93773
G1 X95.244 Y78.978 E.02462
G1 X82.071 Y65.805 E.93773
G1 X82.071 Y66.294 E.02462
G1 X95.244 Y79.467 E.93773
G1 X95.244 Y79.956 E.02462
G1 X82.071 Y66.783 E.93773
G1 X82.071 Y67.272 E.02462
G1 X95.244 Y80.445 E.93773
G1 X95.244 Y80.934 E.02462
G1 X82.071 Y67.761 E.93773
G1 X82.071 Y68.251 E.02462
G1 X95.244 Y81.424 E.93773
G1 X95.244 Y81.913 E.02462
G1 X82.071 Y68.74 E.93774
G1 X82.071 Y69.229 E.02462
G1 X95.244 Y82.402 E.93774
G1 X95.244 Y82.891 E.02462
G1 X82.071 Y69.718 E.93774
G1 X82.071 Y70.207 E.02462
G1 X95.244 Y83.38 E.93774
G1 X95.243 Y83.87 E.02462
G1 X82.07 Y70.697 E.93774
G1 X82.07 Y71.186 E.02462
G1 X95.243 Y84.359 E.93774
G1 X95.243 Y84.848 E.02462
G1 X82.07 Y71.675 E.93774
G1 X82.07 Y72.164 E.02462
G1 X95.243 Y85.337 E.93774
G1 X95.243 Y85.826 E.02462
G1 X82.07 Y72.653 E.93774
G1 X82.07 Y73.142 E.02462
G1 X95.243 Y86.315 E.93774
G1 X95.243 Y86.805 E.02462
G1 X82.07 Y73.632 E.93774
G1 X82.07 Y74.121 E.02462
G1 X95.243 Y87.294 E.93774
G1 X95.243 Y87.783 E.02462
G1 X82.07 Y74.61 E.93774
G1 X82.07 Y75.099 E.02462
G1 X95.243 Y88.272 E.93774
G1 X95.243 Y88.761 E.02462
G1 X82.07 Y75.588 E.93774
G1 X82.07 Y76.077 E.02462
G1 X95.243 Y89.251 E.93775
G1 X95.243 Y89.74 E.02462
G1 X82.07 Y76.567 E.93775
G1 X82.07 Y77.056 E.02462
G1 X95.243 Y90.229 E.93775
G1 X95.243 Y90.718 E.02462
G1 X82.07 Y77.545 E.93775
G1 X82.07 Y78.034 E.02462
G1 X95.243 Y91.207 E.93775
G1 X95.243 Y91.696 E.02462
G1 X82.07 Y78.523 E.93775
G1 X82.07 Y79.012 E.02462
G1 X95.243 Y92.186 E.93775
G1 X95.243 Y92.675 E.02462
M73 P1 R177
G1 X82.07 Y79.502 E.93775
G1 X82.07 Y79.991 E.02462
G1 X95.243 Y93.164 E.93775
G1 X95.243 Y93.653 E.02462
G1 X82.07 Y80.48 E.93775
G1 X82.07 Y80.969 E.02462
G1 X95.243 Y94.142 E.93775
G1 X95.243 Y94.632 E.02462
G1 X82.07 Y81.458 E.93775
G1 X82.07 Y81.948 E.02462
G1 X95.243 Y95.121 E.93775
G1 X95.243 Y95.61 E.02462
G1 X82.07 Y82.437 E.93775
G1 X82.07 Y82.926 E.02462
G1 X95.243 Y96.099 E.93775
G1 X95.243 Y96.588 E.02462
G1 X82.07 Y83.415 E.93776
G1 X82.07 Y83.904 E.02462
G1 X95.243 Y97.078 E.93776
G1 X95.243 Y97.567 E.02462
G1 X82.07 Y84.393 E.93776
G1 X82.07 Y84.883 E.02462
G1 X95.243 Y98.056 E.93776
G1 X95.243 Y98.545 E.02462
G1 X82.069 Y85.372 E.93776
G1 X82.069 Y85.861 E.02462
G1 X95.243 Y99.034 E.93776
G1 X95.243 Y99.523 E.02462
G1 X82.069 Y86.35 E.93776
G1 X82.069 Y86.839 E.02462
G1 X95.243 Y100.013 E.93776
G1 X95.243 Y100.502 E.02462
G1 X82.069 Y87.328 E.93776
G1 X82.069 Y87.818 E.02462
G1 X95.243 Y100.991 E.93776
G1 X95.243 Y101.48 E.02462
G1 X82.069 Y88.307 E.93776
G1 X82.069 Y88.796 E.02462
G1 X95.243 Y101.969 E.93776
G1 X95.243 Y102.459 E.02462
G1 X82.069 Y89.285 E.93776
G1 X82.069 Y89.774 E.02462
G1 X95.243 Y102.948 E.93776
G1 X95.243 Y103.437 E.02462
G1 X82.069 Y90.264 E.93776
G1 X82.069 Y90.753 E.02462
G1 X95.243 Y103.926 E.93777
G1 X95.242 Y104.415 E.02462
G1 X82.069 Y91.242 E.93777
G1 X82.069 Y91.731 E.02462
G1 X95.242 Y104.904 E.93777
G1 X95.242 Y105.394 E.02462
G1 X82.069 Y92.22 E.93777
G1 X82.069 Y92.709 E.02462
G1 X95.242 Y105.883 E.93777
G1 X95.242 Y106.372 E.02462
G1 X82.069 Y93.199 E.93777
G1 X82.069 Y93.688 E.02462
G1 X95.242 Y106.861 E.93777
G1 X95.242 Y107.35 E.02462
G1 X82.069 Y94.177 E.93777
G1 X82.069 Y94.666 E.02462
G1 X95.242 Y107.84 E.93777
G1 X95.242 Y108.329 E.02462
G1 X82.069 Y95.155 E.93777
G1 X82.069 Y95.644 E.02462
G1 X95.242 Y108.818 E.93777
G1 X95.242 Y109.307 E.02462
G1 X82.069 Y96.134 E.93777
G1 X82.069 Y96.623 E.02462
G1 X95.242 Y109.796 E.93777
G1 X95.242 Y110.286 E.02462
G1 X82.069 Y97.112 E.93777
G1 X82.069 Y97.601 E.02462
G1 X95.242 Y110.775 E.93777
G1 X95.242 Y111.264 E.02462
G1 X82.069 Y98.09 E.93778
G1 X82.069 Y98.58 E.02462
G1 X95.242 Y111.753 E.93778
G1 X95.242 Y112.242 E.02462
G1 X82.069 Y99.069 E.93778
G1 X82.069 Y99.558 E.02462
G1 X95.242 Y112.731 E.93778
G1 X95.242 Y113.221 E.02462
G1 X82.068 Y100.047 E.93778
G1 X82.068 Y100.536 E.02462
G1 X95.242 Y113.71 E.93778
G1 X95.242 Y114.199 E.02462
G1 X82.068 Y101.025 E.93778
G1 X82.068 Y101.515 E.02462
G1 X95.242 Y114.688 E.93778
G1 X95.242 Y115.177 E.02462
G1 X82.068 Y102.004 E.93778
G1 X82.068 Y102.493 E.02462
G1 X95.242 Y115.667 E.93778
G1 X95.242 Y116.156 E.02462
G1 X82.068 Y102.982 E.93778
G1 X82.068 Y103.471 E.02462
G1 X95.242 Y116.645 E.93778
G1 X95.242 Y117.134 E.02462
G1 X82.068 Y103.96 E.93778
G1 X82.068 Y104.45 E.02462
G1 X95.242 Y117.623 E.93778
G1 X95.242 Y118.112 E.02462
G1 X82.068 Y104.939 E.93779
G1 X82.068 Y105.428 E.02462
G1 X95.242 Y118.602 E.93779
G1 X95.242 Y119.091 E.02462
G1 X82.068 Y105.917 E.93779
G1 X82.068 Y106.406 E.02462
G1 X95.242 Y119.58 E.93779
G1 X95.242 Y120.069 E.02462
G1 X82.068 Y106.895 E.93779
G1 X82.068 Y107.385 E.02462
G1 X95.242 Y120.558 E.93779
G1 X95.242 Y121.048 E.02462
G1 X82.068 Y107.874 E.93779
G1 X82.068 Y108.363 E.02462
G1 X95.242 Y121.537 E.93779
G1 X95.242 Y122.026 E.02462
G1 X82.068 Y108.852 E.93779
G1 X82.068 Y109.341 E.02462
G1 X95.242 Y122.515 E.93779
G1 X95.242 Y123.004 E.02462
G1 X82.068 Y109.831 E.93779
G1 X82.068 Y110.32 E.02462
G1 X95.242 Y123.494 E.93779
G1 X95.242 Y123.983 E.02462
G1 X82.068 Y110.809 E.93779
G1 X82.068 Y111.298 E.02462
G1 X95.242 Y124.472 E.93779
G1 X95.241 Y124.961 E.02462
G1 X82.068 Y111.787 E.93779
G1 X82.068 Y112.276 E.02462
G1 X95.241 Y125.45 E.9378
G1 X95.241 Y125.939 E.02462
G1 X82.068 Y112.766 E.9378
G1 X82.068 Y113.255 E.02462
G1 X95.241 Y126.429 E.9378
G1 X95.241 Y126.918 E.02462
G1 X82.068 Y113.744 E.9378
G1 X82.068 Y114.233 E.02462
G1 X95.241 Y127.407 E.9378
G1 X95.241 Y127.896 E.02462
G1 X82.067 Y114.722 E.9378
G1 X82.067 Y115.211 E.02462
G1 X95.241 Y128.385 E.9378
G1 X95.241 Y128.875 E.02462
G1 X82.067 Y115.701 E.9378
G1 X82.067 Y116.19 E.02462
G1 X95.241 Y129.364 E.9378
G1 X95.241 Y129.853 E.02462
G1 X82.067 Y116.679 E.9378
G1 X82.067 Y117.168 E.02462
G1 X95.241 Y130.342 E.9378
G1 X95.241 Y130.831 E.02462
G1 X82.067 Y117.657 E.9378
G1 X82.067 Y118.147 E.02462
G1 X95.241 Y131.32 E.9378
G1 X95.241 Y131.81 E.02462
G1 X82.067 Y118.636 E.9378
G1 X82.067 Y119.125 E.02462
G1 X95.241 Y132.299 E.9378
G1 X95.241 Y132.788 E.02462
G1 X82.067 Y119.614 E.93781
G1 X82.067 Y120.103 E.02462
G1 X95.241 Y133.277 E.93781
G1 X95.241 Y133.766 E.02462
G1 X82.067 Y120.592 E.93781
G1 X82.067 Y121.082 E.02462
G1 X95.241 Y134.256 E.93781
G1 X95.241 Y134.745 E.02462
G1 X82.067 Y121.571 E.93781
G1 X82.067 Y122.06 E.02462
G1 X95.241 Y135.234 E.93781
G1 X95.241 Y135.723 E.02462
M73 P1 R176
G1 X82.067 Y122.549 E.93781
G1 X82.067 Y123.038 E.02462
G1 X95.241 Y136.212 E.93781
G1 X95.241 Y136.702 E.02462
G1 X82.067 Y123.527 E.93781
G1 X82.067 Y124.017 E.02462
G1 X95.241 Y137.191 E.93781
G1 X95.241 Y137.68 E.02462
G1 X82.067 Y124.506 E.93781
G1 X82.067 Y124.995 E.02462
G1 X95.241 Y138.169 E.93781
G1 X95.241 Y138.658 E.02462
G1 X82.067 Y125.484 E.93781
G1 X82.067 Y125.973 E.02462
G1 X95.241 Y139.147 E.93781
G1 X95.241 Y139.637 E.02462
G1 X82.067 Y126.463 E.93781
G1 X82.067 Y126.952 E.02462
G1 X95.241 Y140.126 E.93782
G1 X95.241 Y140.615 E.02462
G1 X82.067 Y127.441 E.93782
G1 X82.067 Y127.93 E.02462
G1 X95.241 Y141.104 E.93782
G1 X95.241 Y141.593 E.02462
G1 X82.067 Y128.419 E.93782
G1 X82.067 Y128.908 E.02462
G1 X95.241 Y142.083 E.93782
G1 X95.241 Y142.572 E.02462
G1 X82.066 Y129.398 E.93782
G1 X82.066 Y129.887 E.02462
G1 X95.241 Y143.061 E.93782
G1 X95.241 Y143.55 E.02462
G1 X82.066 Y130.376 E.93782
G1 X82.066 Y130.865 E.02462
G1 X95.241 Y144.039 E.93782
G1 X95.241 Y144.528 E.02462
G1 X82.066 Y131.354 E.93782
G1 X82.066 Y131.843 E.02462
G1 X95.241 Y145.018 E.93782
G1 X95.24 Y145.507 E.02462
G1 X82.066 Y132.333 E.93782
G1 X82.066 Y132.822 E.02462
G1 X95.24 Y145.996 E.93782
G1 X95.24 Y146.485 E.02462
