; generated by PrusaSlicer 2.5.0+win64 on 2022-12-07 at 00:07:43 UTC

; 

; external perimeters extrusion width = 1.00mm
; perimeters extrusion width = 1.00mm
; infill extrusion width = 1.00mm
; solid infill extrusion width = 1.00mm
; top infill extrusion width = 1.00mm
; support material extrusion width = 1.00mm
; first layer extrusion width = 0.42mm

M73 P0 R238
M107
;TYPE:Custom
G90 ; use absolute coordinates
M83 ; extruder relative mode
M140 S60 ; set final bed temp
M104 S150 ; set temporary nozzle temp to prevent oozing during homing and auto bed leveling
G4 S10 ; allow partial nozzle warmup
G28 ; home all axisG1 Z50 F240
G1 X7.6 Y10 F3000
M104 S210 ; set final nozzle temp
M190 S60 ; wait for bed temp to stabilize
M109 S210 ; wait for nozzle temp to stabilize
G1 Z0.28 F240
G92 E0
G1 Y140 E10 F1500 ; prime the nozzle
G1 X4 F5000
G92 E0
G1 Y10 E10 F1200 ; prime the nozzle
G92 E0
G21 ; set units to millimeters
G90 ; use absolute coordinates
M83 ; use relative distances for extrusion
; Filament gcode
M107
;LAYER_CHANGE
;Z:0.35
;HEIGHT:0.35
;BEFORE_LAYER_CHANGE
G92 E0
;0.35


G1 E-1 F3600
G1 Z.35 F7800
;AFTER_LAYER_CHANGE
;0.35
G1 X138.615 Y106.616
G1 E1 F2400
;TYPE:Perimeter
;WIDTH:0.42
G1 F1800
G1 X138.798 Y106.702 E.01015
G1 X139.071 Y106.679 E.01373
G1 X144.595 Y104.654 E.29529
G1 X153.753 Y104.709 E.45957
G1 X153.989 Y104.653 E.01218
G1 X154.176 Y104.494 E.01233
G1 X158.515 Y98.464 E.37282
G1 X159.689 Y96.796 E.10238
G1 X159.764 Y96.641 E.00863
G1 X161.348 Y91.122 E.28815
G1 X161.348 Y146.16 E2.76212
G1 X156.789 Y152.491 E.39154
G1 X156.575 Y152.895 E.02296
G1 X155.3 Y153.533 E.07155
G1 X155.112 Y153.693 E.01238
G1 X148.517 Y162.82 E.56511
G1 X122.239 Y162.82 E1.31878
G1 X120.919 Y159.44 E.1821
G1 X119.368 Y139.61 E.9982
G1 X117.966 Y129.571 E.50872
G1 X111.914 Y53.465 E3.83151
G1 X111.519 Y43.393 E.50584
G1 X111.075 Y40.358 E.15397
G1 X110.951 Y37.232 E.15698
G1 X107.645 Y17.18 E1.0199
G1 X128.489 Y17.18 E1.04607
G1 X132.874 Y36.954 E1.01644
G1 X138.377 Y106.235 E3.48788
G1 X138.408 Y106.374 E.00716
G1 X138.509 Y106.517 E.00879
G1 X138.798 Y106.337 F7800
;TYPE:External perimeter
G1 F1800
G1 X138.952 Y106.356 E.0078
G1 X144.535 Y104.309 E.29842
G1 X153.755 Y104.364 E.4627
G1 X153.896 Y104.292 E.00794
G1 X158.235 Y98.262 E.37282
G1 X159.407 Y96.597 E.10221
G1 X161.693 Y88.671 E.41398
G1 X161.693 Y146.271 E2.8907
G1 X157.069 Y152.692 E.39712
G1 X156.831 Y153.153 E.02603
G1 X155.392 Y153.895 E.08124
G1 X148.694 Y163.165 E.57396
G1 X122.004 Y163.165 E1.33945
G1 X120.579 Y159.518 E.19649
G1 X119.026 Y139.658 E.99972
G1 X117.623 Y129.609 E.50923
G1 X111.57 Y53.485 E3.83238
G1 X111.175 Y43.407 E.50619
G1 X110.732 Y40.39 E.15304
G1 X110.606 Y37.246 E.1579
G1 X107.239 Y16.835 E1.03817
G1 X128.766 Y16.835 E1.08036
G1 X133.216 Y36.902 E1.03154
G1 X138.722 Y106.208 E3.48914
G1 X138.791 Y106.493 F7800
G1 E-.7 F3600
;WIPE_START
G1 F6240
G1 X138.952 Y106.356 E-.15
G1 X139.183 Y106.271 E-.135
;WIPE_END
G1 E-.015 F3600
G1 X127.703 Y17.284 F7800
G1 E1 F2400
;TYPE:Solid infill
;WIDTH:0.420882
G1 F1800
G1 X128.402 Y17.982 E.04969
G1 X128.541 Y18.61 E.03238
G1 X127.37 Y17.439 E.08336
G1 X126.881 Y17.439 E.0246
G1 X128.68 Y19.239 E.12807
G1 X128.82 Y19.867 E.03238
G1 X126.392 Y17.439 E.17278
G1 X125.903 Y17.439 E.0246
G1 X128.959 Y20.495 E.21749
G1 X129.099 Y21.124 E.03238
G1 X125.414 Y17.439 E.26219
G1 X124.925 Y17.439 E.0246
G1 X129.238 Y21.752 E.3069
G1 X129.377 Y22.38 E.03238
G1 X124.436 Y17.439 E.35161
G1 X123.947 Y17.439 E.0246
G1 X129.517 Y23.009 E.39632
G1 X129.656 Y23.637 E.03238
G1 X123.458 Y17.439 E.44103
G1 X122.969 Y17.439 E.0246
G1 X129.795 Y24.265 E.48574
G1 X129.935 Y24.894 E.03238
G1 X122.48 Y17.439 E.53045
G1 X121.991 Y17.439 E.0246
G1 X130.074 Y25.522 E.57516
G1 X130.213 Y26.15 E.03238
G1 X121.502 Y17.439 E.61987
G1 X121.013 Y17.439 E.0246
G1 X130.353 Y26.779 E.66458
G1 X130.492 Y27.407 E.03238
G1 X120.524 Y17.439 E.70928
G1 X120.035 Y17.439 E.0246
G1 X130.631 Y28.035 E.75399
G1 X130.771 Y28.664 E.03238
G1 X119.546 Y17.439 E.7987
G1 X119.057 Y17.439 E.0246
G1 X130.91 Y29.292 E.84341
G1 X131.049 Y29.92 E.03238
G1 X118.568 Y17.439 E.88812
G1 X118.079 Y17.439 E.0246
G1 X131.189 Y30.549 E.93283
G1 X131.328 Y31.177 E.03238
G1 X117.59 Y17.439 E.97754
G1 X117.101 Y17.439 E.0246
G1 X131.467 Y31.805 E1.02225
G1 X131.607 Y32.434 E.03238
G1 X116.612 Y17.439 E1.06696
G1 X116.123 Y17.439 E.0246
G1 X131.746 Y33.062 E1.11167
G1 X131.885 Y33.69 E.03238
G1 X115.634 Y17.439 E1.15637
G1 X115.145 Y17.439 E.0246
G1 X132.025 Y34.319 E1.20108
G1 X132.164 Y34.947 E.03238
M73 P0 R237
G1 X114.656 Y17.439 E1.24579
G1 X114.167 Y17.439 E.0246
G1 X132.303 Y35.575 E1.2905
G1 X132.443 Y36.204 E.03238
G1 X113.678 Y17.439 E1.33521
G1 X113.189 Y17.439 E.0246
G1 X132.582 Y36.832 E1.37992
G1 X132.617 Y36.992 E.00824
G1 X132.649 Y37.388 E.01999
G1 X112.7 Y17.439 E1.41948
G1 X112.211 Y17.439 E.0246
G1 X132.691 Y37.919 E1.45727
G1 X132.733 Y38.45 E.02681
G1 X111.722 Y17.439 E1.49507
G1 X111.233 Y17.439 E.0246
G1 X132.775 Y38.982 E1.53287
G1 X132.818 Y39.513 E.02681
G1 X110.744 Y17.439 E1.57066
G1 X110.255 Y17.439 E.0246
G1 X132.86 Y40.044 E1.60846
G1 X132.902 Y40.575 E.02681
G1 X109.766 Y17.439 E1.64626
G1 X109.277 Y17.439 E.0246
G1 X132.944 Y41.106 E1.68405
G1 X132.986 Y41.637 E.02681
G1 X108.788 Y17.439 E1.72185
G1 X108.299 Y17.439 E.0246
G1 X133.029 Y42.169 E1.75965
G1 X133.071 Y42.7 E.02681
G1 X107.978 Y17.607 E1.78551
G1 X108.074 Y18.192 E.02986
G1 X133.113 Y43.231 E1.78164
G1 X133.155 Y43.762 E.02681
G1 X108.171 Y18.778 E1.77777
G1 X108.267 Y19.363 E.02986
G1 X133.197 Y44.293 E1.77389
G1 X133.24 Y44.825 E.02681
G1 X108.364 Y19.949 E1.77002
G1 X108.461 Y20.535 E.02986
G1 X133.282 Y45.356 E1.76615
G1 X133.324 Y45.887 E.02681
G1 X108.557 Y21.12 E1.76227
G1 X108.654 Y21.706 E.02986
G1 X133.366 Y46.418 E1.7584
G1 X133.408 Y46.949 E.02681
G1 X108.751 Y22.292 E1.75453
G1 X108.847 Y22.877 E.02986
G1 X133.451 Y47.481 E1.75065
G1 X133.493 Y48.012 E.02681
G1 X108.944 Y23.463 E1.74678
G1 X109.04 Y24.048 E.02986
G1 X133.535 Y48.543 E1.74291
G1 X133.577 Y49.074 E.02681
G1 X109.137 Y24.634 E1.73903
G1 X109.234 Y25.22 E.02986
G1 X133.619 Y49.605 E1.73516
G1 X133.662 Y50.137 E.02681
G1 X109.33 Y25.805 E1.73129
G1 X109.427 Y26.391 E.02986
G1 X133.704 Y50.668 E1.72741
G1 X133.746 Y51.199 E.02681
G1 X109.524 Y26.977 E1.72354
G1 X109.62 Y27.562 E.02986
G1 X133.788 Y51.73 E1.71967
G1 X133.83 Y52.261 E.02681
G1 X109.717 Y28.148 E1.71579
G1 X109.814 Y28.733 E.02986
G1 X133.873 Y52.792 E1.71192
G1 X133.915 Y53.324 E.02681
G1 X109.91 Y29.319 E1.70804
G1 X110.007 Y29.905 E.02986
G1 X133.957 Y53.855 E1.70417
G1 X133.999 Y54.386 E.02681
G1 X110.103 Y30.49 E1.7003
G1 X110.2 Y31.076 E.02986
G1 X134.041 Y54.917 E1.69642
G1 X134.083 Y55.448 E.02681
G1 X110.297 Y31.662 E1.69255
G1 X110.393 Y32.247 E.02986
G1 X134.126 Y55.98 E1.68868
G1 X134.168 Y56.511 E.02681
G1 X110.49 Y32.833 E1.6848
G1 X110.587 Y33.418 E.02986
G1 X134.21 Y57.042 E1.68093
G1 X134.252 Y57.573 E.02681
G1 X110.683 Y34.004 E1.67706
G1 X110.78 Y34.59 E.02986
G1 X134.294 Y58.104 E1.67318
G1 X134.337 Y58.636 E.02681
G1 X110.876 Y35.175 E1.66931
G1 X110.973 Y35.761 E.02986
G1 X134.379 Y59.167 E1.66544
G1 X134.421 Y59.698 E.02681
G1 X111.07 Y36.347 E1.66156
G1 X111.166 Y36.932 E.02986
G1 X134.463 Y60.229 E1.65769
G1 X134.505 Y60.76 E.02681
G1 X111.218 Y37.473 E1.657
G1 X111.239 Y37.983 E.02566
G1 X134.548 Y61.291 E1.65854
G1 X134.59 Y61.823 E.02681
G1 X111.259 Y38.492 E1.66009
G1 X111.28 Y39.002 E.02566
G1 X134.632 Y62.354 E1.66163
G1 X134.674 Y62.885 E.02681
M73 P0 R236
G1 X111.3 Y39.511 E1.66317
G1 X111.321 Y40.021 E.02566
G1 X134.716 Y63.416 E1.66472
G1 X134.759 Y63.947 E.02681
G1 X111.366 Y40.555 E1.66452
G1 X111.45 Y41.128 E.02914
G1 X134.801 Y64.479 E1.66154
G1 X134.843 Y65.01 E.02681
G1 X111.534 Y41.701 E1.65856
G1 X111.618 Y42.274 E.02914
G1 X134.885 Y65.541 E1.65558
G1 X134.927 Y66.072 E.02681
G1 X111.702 Y42.847 E1.65259
G1 X111.778 Y43.412 E.0287
G1 X134.97 Y66.603 E1.65016
G1 X135.012 Y67.135 E.02681
G1 X111.798 Y43.921 E1.65175
G1 X111.818 Y44.43 E.02563
G1 X135.054 Y67.666 E1.65333
G1 X135.096 Y68.197 E.02681
G1 X111.838 Y44.939 E1.65491
G1 X111.858 Y45.448 E.02563
G1 X135.138 Y68.728 E1.65649
G1 X135.181 Y69.259 E.02681
G1 X111.878 Y45.957 E1.65807
G1 X111.898 Y46.466 E.02563
G1 X135.223 Y69.79 E1.65965
G1 X135.265 Y70.322 E.02681
G1 X111.918 Y46.975 E1.66123
G1 X111.938 Y47.484 E.02563
G1 X135.307 Y70.853 E1.66281
G1 X135.349 Y71.384 E.02681
G1 X111.958 Y47.993 E1.66439
G1 X111.978 Y48.502 E.02563
G1 X135.392 Y71.915 E1.66597
G1 X135.434 Y72.446 E.02681
G1 X111.998 Y49.011 E1.66756
G1 X112.018 Y49.52 E.02563
G1 X135.476 Y72.978 E1.66914
G1 X135.518 Y73.509 E.02681
G1 X112.038 Y50.029 E1.67072
G1 X112.058 Y50.538 E.02563
G1 X135.56 Y74.04 E1.6723
G1 X135.602 Y74.571 E.02681
G1 X112.078 Y51.047 E1.67388
G1 X112.098 Y51.556 E.02563
G1 X135.645 Y75.102 E1.67546
G1 X135.687 Y75.634 E.02681
G1 X112.118 Y52.065 E1.67704
G1 X112.138 Y52.574 E.02563
M73 P1 R236
G1 X135.729 Y76.165 E1.67862
G1 X135.771 Y76.696 E.02681
G1 X112.158 Y53.083 E1.6802
G1 X112.184 Y53.598 E.02595
G1 X135.813 Y77.227 E1.68134
G1 X135.856 Y77.758 E.02681
G1 X112.226 Y54.129 E1.68134
G1 X112.269 Y54.66 E.02681
G1 X135.898 Y78.29 E1.68134
G1 X135.94 Y78.821 E.02681
G1 X112.311 Y55.192 E1.68133
G1 X112.353 Y55.723 E.02681
G1 X135.982 Y79.352 E1.68133
G1 X136.024 Y79.883 E.02681
G1 X112.395 Y56.254 E1.68132
G1 X112.438 Y56.785 E.02681
G1 X136.067 Y80.414 E1.68132
G1 X136.109 Y80.945 E.02681
G1 X112.48 Y57.317 E1.68132
G1 X112.522 Y57.848 E.02681
G1 X136.151 Y81.477 E1.68131
G1 X136.193 Y82.008 E.02681
G1 X112.564 Y58.379 E1.68131
G1 X112.607 Y58.91 E.02681
G1 X136.235 Y82.539 E1.68131
G1 X136.278 Y83.07 E.02681
G1 X112.649 Y59.441 E1.6813
G1 X112.691 Y59.973 E.02681
G1 X136.32 Y83.601 E1.6813
G1 X136.362 Y84.133 E.02681
G1 X112.733 Y60.504 E1.6813
G1 X112.776 Y61.035 E.02681
G1 X136.404 Y84.664 E1.68129
G1 X136.446 Y85.195 E.02681
G1 X112.818 Y61.566 E1.68129
G1 X112.86 Y62.098 E.02681
G1 X136.489 Y85.726 E1.68128
G1 X136.531 Y86.257 E.02681
G1 X112.902 Y62.629 E1.68128
G1 X112.945 Y63.16 E.02681
G1 X136.573 Y86.789 E1.68128
G1 X136.615 Y87.32 E.02681
G1 X112.987 Y63.691 E1.68127
G1 X113.029 Y64.223 E.02681
G1 X136.657 Y87.851 E1.68127
G1 X136.7 Y88.382 E.02681
G1 X113.071 Y64.754 E1.68127
G1 X113.114 Y65.285 E.02681
G1 X136.742 Y88.913 E1.68126
G1 X136.784 Y89.444 E.02681
G1 X113.156 Y65.816 E1.68126
G1 X113.198 Y66.348 E.02681
M73 P1 R235
G1 X136.826 Y89.976 E1.68126
G1 X136.868 Y90.507 E.02681
G1 X113.24 Y66.879 E1.68125
G1 X113.283 Y67.41 E.02681
G1 X136.911 Y91.038 E1.68125
G1 X136.953 Y91.569 E.02681
G1 X113.325 Y67.941 E1.68124
G1 X113.367 Y68.473 E.02681
G1 X136.995 Y92.1 E1.68124
G1 X137.037 Y92.632 E.02681
G1 X113.409 Y69.004 E1.68124
G1 X113.452 Y69.535 E.02681
G1 X137.079 Y93.163 E1.68123
G1 X137.121 Y93.694 E.02681
G1 X113.494 Y70.066 E1.68123
G1 X113.536 Y70.598 E.02681
G1 X137.164 Y94.225 E1.68123
G1 X137.206 Y94.756 E.02681
G1 X113.578 Y71.129 E1.68122
G1 X113.621 Y71.66 E.02681
G1 X137.248 Y95.288 E1.68122
G1 X137.29 Y95.819 E.02681
G1 X113.663 Y72.191 E1.68122
G1 X113.705 Y72.722 E.02681
G1 X137.332 Y96.35 E1.68121
G1 X137.375 Y96.881 E.02681
G1 X113.747 Y73.254 E1.68121
G1 X113.79 Y73.785 E.02681
G1 X137.417 Y97.412 E1.68121
G1 X137.459 Y97.943 E.02681
G1 X113.832 Y74.316 E1.6812
G1 X113.874 Y74.847 E.02681
G1 X137.501 Y98.475 E1.6812
G1 X137.543 Y99.006 E.02681
G1 X113.916 Y75.379 E1.68119
G1 X113.958 Y75.91 E.02681
G1 X137.586 Y99.537 E1.68119
G1 X137.628 Y100.068 E.02681
G1 X114.001 Y76.441 E1.68119
G1 X114.043 Y76.972 E.02681
G1 X137.67 Y100.599 E1.68118
G1 X137.712 Y101.131 E.02681
G1 X114.085 Y77.504 E1.68118
G1 X114.127 Y78.035 E.02681
G1 X137.754 Y101.662 E1.68118
G1 X137.797 Y102.193 E.02681
G1 X114.17 Y78.566 E1.68117
G1 X114.212 Y79.097 E.02681
G1 X137.839 Y102.724 E1.68117
G1 X137.881 Y103.255 E.02681
G1 X114.254 Y79.629 E1.68117
G1 X114.296 Y80.16 E.02681
G1 X137.923 Y103.787 E1.68116
G1 X137.965 Y104.318 E.02681
G1 X114.339 Y80.691 E1.68116
G1 X114.381 Y81.222 E.02681
G1 X138.008 Y104.849 E1.68115
G1 X138.05 Y105.38 E.02681
G1 X114.423 Y81.754 E1.68115
G1 X114.465 Y82.285 E.02681
G1 X138.261 Y106.08 E1.69318
G1 E-.7 F3600
;WIPE_START
G1 F6240
G1 X137.893 Y105.713 E-.285
;WIPE_END
G1 E-.015 F3600
G1 X160.908 Y93.031 F7800
G1 E1 F2400
G1 F1800
G1 X161.09 Y93.213 E.01294
G1 X161.09 Y93.702 E.0246
G1 X160.924 Y93.536 E.01177
G1 X160.815 Y93.916 E.01989
G1 X161.09 Y94.191 E.01953
G1 X161.09 Y94.679 E.0246
G1 X160.706 Y94.296 E.0273
G1 X160.597 Y94.676 E.01989
G1 X161.09 Y95.168 E.03506
G1 X161.09 Y95.657 E.0246
G1 X160.488 Y95.056 E.04282
G1 X160.379 Y95.436 E.01989
G1 X161.09 Y96.146 E.05058
G1 X161.09 Y96.635 E.0246
G1 X160.27 Y95.815 E.05835
G1 X160.161 Y96.195 E.01989
G1 X161.09 Y97.124 E.06611
G1 X161.09 Y97.613 E.0246
G1 X160.052 Y96.575 E.07387
G1 X160.01 Y96.719 E.00752
G1 X159.912 Y96.925 E.01147
G1 X161.09 Y98.102 E.08381
G1 X161.09 Y98.591 E.0246
G1 X159.712 Y97.213 E.09806
G1 X159.51 Y97.5 E.01766
G1 X161.09 Y99.08 E.11243
G1 X161.09 Y99.569 E.0246
G1 X159.308 Y97.787 E.12681
G1 X159.105 Y98.074 E.01766
G1 X161.09 Y100.058 E.14119
G1 X161.09 Y100.547 E.0246
G1 X158.903 Y98.361 E.15557
G1 X158.701 Y98.648 E.01765
G1 X161.09 Y101.036 E.16997
G1 X161.09 Y101.525 E.0246
G1 X158.496 Y98.932 E.18453
G1 X158.292 Y99.216 E.01763
G1 X161.09 Y102.014 E.19909
G1 X161.09 Y102.503 E.0246
G1 X158.087 Y99.501 E.21365
G1 X157.883 Y99.785 E.01763
G1 X161.09 Y102.992 E.22821
G1 X161.09 Y103.481 E.0246
G1 X157.678 Y100.07 E.24277
G1 X157.473 Y100.354 E.01763
G1 X161.09 Y103.97 E.25733
G1 X161.09 Y104.459 E.0246
G1 X157.269 Y100.638 E.27189
G1 X157.064 Y100.923 E.01763
G1 X161.09 Y104.948 E.28645
G1 X161.09 Y105.437 E.0246
G1 X156.859 Y101.207 E.30101
G1 X156.655 Y101.491 E.01763
G1 X161.09 Y105.926 E.31557
G1 X161.09 Y106.415 E.0246
G1 X156.45 Y101.776 E.33013
G1 X156.245 Y102.06 E.01763
G1 X161.09 Y106.904 E.34469
G1 X161.09 Y107.393 E.0246
G1 X156.041 Y102.344 E.35926
G1 X155.836 Y102.629 E.01763
G1 X161.09 Y107.882 E.37382
G1 X161.09 Y108.371 E.0246
G1 X155.632 Y102.913 E.38838
G1 X155.427 Y103.198 E.01763
G1 X161.09 Y108.86 E.40294
G1 X161.09 Y109.349 E.0246
G1 X155.222 Y103.482 E.4175
G1 X155.018 Y103.766 E.01763
G1 X161.09 Y109.838 E.43206
G1 X161.09 Y110.327 E.0246
G1 X154.813 Y104.051 E.44662
G1 X154.608 Y104.335 E.01763
G1 X161.09 Y110.816 E.46118
G1 X161.09 Y111.305 E.0246
G1 X154.404 Y104.619 E.47574
G1 X154.205 Y104.825 E.0144
G1 X154.149 Y104.854 E.00316
G1 X161.09 Y111.794 E.49385
G1 X161.09 Y112.283 E.0246
G1 X153.772 Y104.965 E.52072
G1 X153.282 Y104.965 E.02464
G1 X161.09 Y112.772 E.55556
G1 X161.09 Y113.261 E.0246
G1 X152.79 Y104.962 E.59056
G1 X152.298 Y104.959 E.02475
G1 X161.09 Y113.75 E.62556
G1 X161.09 Y114.239 E.0246
G1 X151.806 Y104.956 E.66057
G1 X151.314 Y104.953 E.02475
G1 X161.09 Y114.728 E.69557
G1 X161.09 Y115.217 E.0246
G1 X150.822 Y104.95 E.73057
G1 X150.331 Y104.947 E.02475
G1 X161.09 Y115.706 E.76557
G1 X161.09 Y116.195 E.0246
G1 X149.839 Y104.944 E.80057
G1 X149.347 Y104.941 E.02475
G1 X161.09 Y116.684 E.83557
G1 X161.09 Y117.173 E.0246
G1 X148.855 Y104.938 E.87058
G1 X148.363 Y104.935 E.02475
G1 X161.09 Y117.662 E.90558
G1 X161.09 Y118.151 E.0246
G1 X147.871 Y104.932 E.94058
G1 X147.379 Y104.93 E.02475
G1 X161.09 Y118.64 E.97558
G1 X161.09 Y119.129 E.0246
G1 X146.887 Y104.927 E1.01058
G1 X146.395 Y104.924 E.02475
G1 X161.09 Y119.618 E1.04558
G1 X161.09 Y120.107 E.0246
G1 X145.903 Y104.921 E1.08059
G1 X145.411 Y104.918 E.02475
G1 X161.09 Y120.596 E1.11559
G1 X161.09 Y121.085 E.0246
G1 X144.92 Y104.915 E1.15059
G1 X144.641 Y104.913 E.01404
G1 X144.486 Y104.97 E.0083
G1 X161.09 Y121.574 E1.18147
G1 X161.09 Y122.063 E.0246
G1 X144.128 Y105.101 E1.20694
G1 X143.77 Y105.232 E.01918
G1 X161.09 Y122.552 E1.23241
G1 X161.09 Y123.041 E.0246
G1 X143.412 Y105.363 E1.25788
G1 X143.054 Y105.494 E.01918
M73 P1 R234
G1 X161.09 Y123.53 E1.28335
G1 X161.09 Y124.019 E.0246
G1 X142.696 Y105.625 E1.30882
G1 X142.338 Y105.756 E.01918
G1 X161.09 Y124.508 E1.33429
