; generated by PrusaSlicer 2.5.0+win64 on 2022-12-07 at 00:07:30 UTC

; 

; external perimeters extrusion width = 1.00mm
; perimeters extrusion width = 1.00mm
; infill extrusion width = 1.00mm
; solid infill extrusion width = 1.00mm
; top infill extrusion width = 1.00mm
; support material extrusion width = 1.00mm
; first layer extrusion width = 0.42mm

M73 P0 R303
M107
;TYPE:Custom
G90 ; use absolute coordinates
M83 ; extruder relative mode
M140 S60 ; set final bed temp
M104 S150 ; set temporary nozzle temp to prevent oozing during homing and auto bed leveling
G4 S10 ; allow partial nozzle warmup
G28 ; home all axisG1 Z50 F240
G1 X7.6 Y10 F3000
M104 S210 ; set final nozzle temp
M190 S60 ; wait for bed temp to stabilize
M109 S210 ; wait for nozzle temp to stabilize
G1 Z0.28 F240
G92 E0
G1 Y140 E10 F1500 ; prime the nozzle
G1 X4 F5000
G92 E0
G1 Y10 E10 F1200 ; prime the nozzle
G92 E0
G21 ; set units to millimeters
G90 ; use absolute coordinates
M83 ; use relative distances for extrusion
; Filament gcode
M107
;LAYER_CHANGE
;Z:0.35
;HEIGHT:0.35
;BEFORE_LAYER_CHANGE
G92 E0
;0.35


G1 E-1 F3600
M73 P0 R302
G1 Z.35 F7800
;AFTER_LAYER_CHANGE
;0.35
G1 X123.84 Y21.99
G1 E1 F2400
;TYPE:Support material
;WIDTH:0.42
G1 F1800
G1 X86.833 Y21.99 E1.85722
G1 X86.833 Y12.124 E.49509
G1 X123.84 Y12.124 E1.85722
G1 X123.84 Y21.938 E.4925
G1 X123.409 Y21.834 F7800
G1 F1800
G1 X123.409 Y12.435 E.47173
G1 X123.025 Y12.435 E.01923
G1 X123.025 Y21.679 E.46394
G1 X122.642 Y21.679 E.01923
G1 X122.642 Y12.435 E.46394
G1 X122.259 Y12.435 E.01923
G1 X122.259 Y21.679 E.46394
G1 X121.876 Y21.679 E.01923
G1 X121.876 Y12.435 E.46394
G1 X121.493 Y12.435 E.01923
G1 X121.493 Y21.679 E.46394
G1 X121.109 Y21.679 E.01923
G1 X121.109 Y12.435 E.46394
G1 X120.726 Y12.435 E.01923
G1 X120.726 Y21.679 E.46394
G1 X120.343 Y21.679 E.01923
G1 X120.343 Y12.435 E.46394
G1 X119.96 Y12.435 E.01923
G1 X119.96 Y21.679 E.46394
G1 X119.577 Y21.679 E.01923
G1 X119.577 Y12.435 E.46394
G1 X119.193 Y12.435 E.01923
G1 X119.193 Y21.679 E.46394
G1 X118.81 Y21.679 E.01923
G1 X118.81 Y12.435 E.46394
G1 X118.427 Y12.435 E.01923
G1 X118.427 Y21.679 E.46394
G1 X118.044 Y21.679 E.01923
G1 X118.044 Y12.435 E.46394
G1 X117.661 Y12.435 E.01923
G1 X117.661 Y21.679 E.46394
G1 X117.277 Y21.679 E.01923
G1 X117.277 Y12.435 E.46394
G1 X116.894 Y12.435 E.01923
G1 X116.894 Y21.679 E.46394
G1 X116.511 Y21.679 E.01923
G1 X116.511 Y12.435 E.46394
G1 X116.128 Y12.435 E.01923
G1 X116.128 Y21.679 E.46394
G1 X115.744 Y21.679 E.01923
G1 X115.744 Y12.435 E.46394
G1 X115.361 Y12.435 E.01923
G1 X115.361 Y21.679 E.46394
G1 X114.978 Y21.679 E.01923
G1 X114.978 Y12.435 E.46394
G1 X114.595 Y12.435 E.01923
G1 X114.595 Y21.679 E.46394
G1 X114.212 Y21.679 E.01923
G1 X114.212 Y12.435 E.46394
G1 X113.828 Y12.435 E.01923
G1 X113.828 Y21.679 E.46394
G1 X113.445 Y21.679 E.01923
G1 X113.445 Y12.435 E.46394
G1 X113.062 Y12.435 E.01923
G1 X113.062 Y21.679 E.46394
G1 X112.679 Y21.679 E.01923
G1 X112.679 Y12.435 E.46394
G1 X112.296 Y12.435 E.01923
G1 X112.296 Y21.679 E.46394
G1 X111.912 Y21.679 E.01923
G1 X111.912 Y12.435 E.46394
G1 X111.529 Y12.435 E.01923
G1 X111.529 Y21.679 E.46394
G1 X111.146 Y21.679 E.01923
G1 X111.146 Y12.435 E.46394
G1 X110.763 Y12.435 E.01923
G1 X110.763 Y21.679 E.46394
G1 X110.38 Y21.679 E.01923
G1 X110.38 Y12.435 E.46394
G1 X109.996 Y12.435 E.01923
G1 X109.996 Y21.679 E.46394
G1 X109.613 Y21.679 E.01923
G1 X109.613 Y12.435 E.46394
G1 X109.23 Y12.435 E.01923
G1 X109.23 Y21.679 E.46394
G1 X108.847 Y21.679 E.01923
G1 X108.847 Y12.435 E.46394
G1 X108.463 Y12.435 E.01923
G1 X108.463 Y21.679 E.46394
G1 X108.08 Y21.679 E.01923
G1 X108.08 Y12.435 E.46394
G1 X107.697 Y12.435 E.01923
G1 X107.697 Y21.679 E.46394
G1 X107.314 Y21.679 E.01923
G1 X107.314 Y12.435 E.46394
G1 X106.931 Y12.435 E.01923
G1 X106.931 Y21.679 E.46394
G1 X106.547 Y21.679 E.01923
G1 X106.547 Y12.435 E.46394
G1 X106.164 Y12.435 E.01923
G1 X106.164 Y21.679 E.46394
G1 X105.781 Y21.679 E.01923
G1 X105.781 Y12.435 E.46394
G1 X105.398 Y12.435 E.01923
G1 X105.398 Y21.679 E.46394
G1 X105.015 Y21.679 E.01923
G1 X105.015 Y12.435 E.46394
G1 X104.631 Y12.435 E.01923
G1 X104.631 Y21.679 E.46394
G1 X104.248 Y21.679 E.01923
G1 X104.248 Y12.435 E.46394
G1 X103.865 Y12.435 E.01923
G1 X103.865 Y21.679 E.46394
G1 X103.482 Y21.679 E.01923
G1 X103.482 Y12.435 E.46394
G1 X103.099 Y12.435 E.01923
G1 X103.099 Y21.679 E.46394
G1 X102.715 Y21.679 E.01923
G1 X102.715 Y12.435 E.46394
G1 X102.332 Y12.435 E.01923
G1 X102.332 Y21.679 E.46394
G1 X101.949 Y21.679 E.01923
G1 X101.949 Y12.435 E.46394
G1 X101.566 Y12.435 E.01923
G1 X101.566 Y21.679 E.46394
G1 X101.183 Y21.679 E.01923
G1 X101.183 Y12.435 E.46394
G1 X100.799 Y12.435 E.01923
G1 X100.799 Y21.679 E.46394
G1 X100.416 Y21.679 E.01923
G1 X100.416 Y12.435 E.46394
G1 X100.033 Y12.435 E.01923
G1 X100.033 Y21.679 E.46394
G1 X99.65 Y21.679 E.01923
G1 X99.65 Y12.435 E.46394
G1 X99.266 Y12.435 E.01923
G1 X99.266 Y21.679 E.46394
G1 X98.883 Y21.679 E.01923
G1 X98.883 Y12.435 E.46394
G1 X98.5 Y12.435 E.01923
G1 X98.5 Y21.679 E.46394
G1 X98.117 Y21.679 E.01923
G1 X98.117 Y12.435 E.46394
G1 X97.734 Y12.435 E.01923
G1 X97.734 Y21.679 E.46394
G1 X97.35 Y21.679 E.01923
G1 X97.35 Y12.435 E.46394
G1 X96.967 Y12.435 E.01923
G1 X96.967 Y21.679 E.46394
G1 X96.584 Y21.679 E.01923
G1 X96.584 Y12.435 E.46394
G1 X96.201 Y12.435 E.01923
G1 X96.201 Y21.679 E.46394
G1 X95.818 Y21.679 E.01923
G1 X95.818 Y12.435 E.46394
G1 X95.434 Y12.435 E.01923
G1 X95.434 Y21.679 E.46394
G1 X95.051 Y21.679 E.01923
G1 X95.051 Y12.435 E.46394
G1 X94.668 Y12.435 E.01923
G1 X94.668 Y21.679 E.46394
G1 X94.285 Y21.679 E.01923
G1 X94.285 Y12.435 E.46394
G1 X93.902 Y12.435 E.01923
G1 X93.902 Y21.679 E.46394
G1 X93.518 Y21.679 E.01923
G1 X93.518 Y12.435 E.46394
G1 X93.135 Y12.435 E.01923
G1 X93.135 Y21.679 E.46394
G1 X92.752 Y21.679 E.01923
G1 X92.752 Y12.435 E.46394
G1 X92.369 Y12.435 E.01923
G1 X92.369 Y21.679 E.46394
G1 X91.985 Y21.679 E.01923
G1 X91.985 Y12.435 E.46394
G1 X91.602 Y12.435 E.01923
G1 X91.602 Y21.679 E.46394
G1 X91.219 Y21.679 E.01923
G1 X91.219 Y12.435 E.46394
G1 X90.836 Y12.435 E.01923
G1 X90.836 Y21.679 E.46394
G1 X90.453 Y21.679 E.01923
G1 X90.453 Y12.435 E.46394
G1 X90.069 Y12.435 E.01923
G1 X90.069 Y21.679 E.46394
G1 X89.686 Y21.679 E.01923
G1 X89.686 Y12.435 E.46394
G1 X89.303 Y12.435 E.01923
G1 X89.303 Y21.679 E.46394
G1 X88.92 Y21.679 E.01923
G1 X88.92 Y12.435 E.46394
G1 X88.537 Y12.435 E.01923
G1 X88.537 Y21.679 E.46394
G1 X88.153 Y21.679 E.01923
G1 X88.153 Y12.435 E.46394
G1 X87.77 Y12.435 E.01923
G1 X87.77 Y21.679 E.46394
G1 X87.387 Y21.679 E.01923
G1 X87.387 Y12.28 E.47173
G1 E-.7 F3600
;WIPE_START
G1 F6240
G1 X87.387 Y12.8 E-.285
;WIPE_END
G1 E-.015 F3600
G1 X63.508 Y119.875 F7800
G1 E1 F2400
;TYPE:Perimeter
;WIDTH:0.42
G1 F1800
G1 X63.631 Y119.976 E.00796
G1 X63.871 Y120.043 E.0125
G1 X152.631 Y122.485 E4.45622
G1 X152.631 Y151.23 E1.44257
G1 X34.062 Y147.904 E5.95283
G1 X35.019 Y129.996 E.90002
G1 X35.132 Y117.252 E.63959
G1 X36.741 Y86.147 E1.56314
G1 X38.571 Y71.881 E.72178
G1 X47.146 Y20.843 E2.59732
G1 X49.326 Y17.182 E.21383
G1 X68.889 Y17.182 E.98179
G1 X59.184 Y33.468 E.95145
G1 X59.118 Y33.647 E.00957
G1 X52.385 Y73.692 E2.03787
G1 X50.968 Y84.616 E.55281
G1 X50.964 Y84.68 E.00323
G1 X51.013 Y84.735 E.00371
G1 X50.799 Y86.377 E.0831
G1 X49.711 Y107.596 E1.06628
G1 X49.458 Y109.542 E.09848
G1 X49.048 Y117.613 E.40557
G1 X49.109 Y117.884 E.01392
M73 P0 R301
G1 X49.298 Y118.083 E.01379
G1 X49.544 Y118.156 E.01288
G1 X63.38 Y118.705 E.69489
G1 X63.368 Y119.518 E.04085
G1 X63.422 Y119.754 E.01211
G1 X63.753 Y119.637 F7800
;TYPE:External perimeter
G1 F1800
G1 X63.88 Y119.698 E.00707
G1 X152.976 Y122.15 E4.47305
G1 X152.976 Y151.585 E1.47721
G1 X33.699 Y148.239 E5.98838
G1 X34.674 Y129.993 E.917
G1 X34.787 Y117.242 E.63996
G1 X36.397 Y86.116 E1.56417
G1 X38.23 Y71.831 E.72278
G1 X46.816 Y20.722 E2.6009
G1 X49.13 Y16.837 E.22691
G1 X69.496 Y16.837 E1.02209
G1 X59.458 Y33.705 E.98505
G1 X52.725 Y73.749 E2.03787
G1 X51.31 Y84.66 E.55216
G1 X51.36 Y84.74 E.00471
G1 X51.143 Y86.395 E.08378
G1 X50.054 Y107.627 E1.06696
G1 X49.802 Y109.56 E.0978
G1 X49.392 Y117.63 E.40555
G1 X49.431 Y117.748 E.00622
G1 X49.558 Y117.811 E.00711
G1 X63.729 Y118.373 E.71177
G1 X63.713 Y119.494 E.05626
G1 X63.779 Y119.776 F7800
G1 E-.7 F3600
;WIPE_START
G1 F6240
G1 X63.88 Y119.698 E-.14461
G1 X64.136 Y119.705 E-.14039
;WIPE_END
G1 E-.015 F3600
G1 X68.022 Y17.286 F7800
G1 E1 F2400
;TYPE:Solid infill
;WIDTH:0.420581
G1 F1800
G1 X68.338 Y17.602 E.02248
G1 X68.155 Y17.908 E.01792
G1 X67.688 Y17.441 E.03321
G1 X67.2 Y17.441 E.02456
G1 X67.973 Y18.214 E.05498
G1 X67.79 Y18.52 E.01791
G1 X66.711 Y17.441 E.07674
G1 X66.222 Y17.441 E.02456
G1 X67.608 Y18.827 E.09851
G1 X67.426 Y19.133 E.01792
G1 X65.734 Y17.441 E.12027
G1 X65.245 Y17.441 E.02456
G1 X67.243 Y19.439 E.14203
G1 X67.061 Y19.745 E.01792
G1 X64.757 Y17.441 E.1638
G1 X64.268 Y17.441 E.02456
G1 X66.878 Y20.051 E.18556
G1 X66.696 Y20.357 E.01791
G1 X63.78 Y17.441 E.20733
G1 X63.291 Y17.441 E.02456
G1 X66.513 Y20.663 E.22909
G1 X66.331 Y20.969 E.01792
G1 X62.802 Y17.441 E.25086
G1 X62.314 Y17.441 E.02456
G1 X66.149 Y21.276 E.27262
G1 X65.966 Y21.582 E.01792
G1 X61.825 Y17.441 E.29439
G1 X61.337 Y17.441 E.02456
G1 X65.784 Y21.888 E.31615
G1 X65.601 Y22.194 E.01792
G1 X60.848 Y17.441 E.33791
G1 X60.36 Y17.441 E.02456
G1 X65.419 Y22.5 E.35968
G1 X65.236 Y22.806 E.01792
G1 X59.871 Y17.441 E.38144
G1 X59.383 Y17.441 E.02456
G1 X65.054 Y23.112 E.40321
G1 X64.872 Y23.419 E.01792
G1 X58.894 Y17.441 E.42497
G1 X58.405 Y17.441 E.02456
G1 X64.689 Y23.725 E.44674
G1 X64.507 Y24.031 E.01792
G1 X57.917 Y17.441 E.4685
G1 X57.428 Y17.441 E.02456
G1 X64.324 Y24.337 E.49027
G1 X64.142 Y24.643 E.01792
G1 X56.94 Y17.441 E.51203
G1 X56.451 Y17.441 E.02456
G1 X63.959 Y24.949 E.53379
G1 X63.777 Y25.255 E.01792
G1 X55.963 Y17.441 E.55556
G1 X55.474 Y17.441 E.02456
G1 X63.595 Y25.562 E.57732
G1 X63.412 Y25.868 E.01792
G1 X54.985 Y17.441 E.59909
G1 X54.497 Y17.441 E.02456
G1 X63.23 Y26.174 E.62085
G1 X63.047 Y26.48 E.01792
G1 X54.008 Y17.441 E.64262
G1 X53.52 Y17.441 E.02456
G1 X62.865 Y26.786 E.66438
G1 X62.682 Y27.092 E.01791
G1 X53.031 Y17.441 E.68615
G1 X52.543 Y17.441 E.02456
G1 X62.5 Y27.398 E.70791
G1 X62.318 Y27.705 E.01792
G1 X52.054 Y17.441 E.72967
G1 X51.565 Y17.441 E.02456
G1 X62.135 Y28.011 E.75144
G1 X61.953 Y28.317 E.01792
G1 X51.077 Y17.441 E.7732
G1 X50.588 Y17.441 E.02456
G1 X61.77 Y28.623 E.79497
G1 X61.588 Y28.929 E.01791
G1 X50.1 Y17.441 E.81673
G1 X49.611 Y17.441 E.02456
G1 X61.405 Y29.235 E.8385
G1 X61.223 Y29.541 E.01792
G1 X49.342 Y17.66 E.84465
G1 X49.16 Y17.967 E.01792
G1 X61.041 Y29.848 E.84465
G1 X60.858 Y30.154 E.01792
G1 X48.977 Y18.273 E.84464
G1 X48.795 Y18.579 E.01792
G1 X60.676 Y30.46 E.84464
G1 X60.493 Y30.766 E.01792
G1 X48.613 Y18.885 E.84464
G1 X48.43 Y19.191 E.01792
G1 X60.311 Y31.072 E.84463
G1 X60.128 Y31.378 E.01792
G1 X48.248 Y19.498 E.84463
G1 X48.066 Y19.804 E.01792
G1 X59.946 Y31.684 E.84463
G1 X59.764 Y31.991 E.01792
G1 X47.883 Y20.11 E.84462
G1 X47.701 Y20.416 E.01792
G1 X59.581 Y32.297 E.84462
G1 X59.399 Y32.603 E.01792
G1 X47.518 Y20.722 E.84461
G1 X47.393 Y20.934 E.01235
G1 X47.371 Y21.063 E.00662
G1 X59.216 Y32.909 E.84213
G1 X59.034 Y33.215 E.01792
G1 X47.301 Y21.482 E.83416
G1 X47.23 Y21.9 E.02132
G1 X58.881 Y33.551 E.82831
G1 X58.803 Y33.962 E.021
G1 X47.16 Y22.318 E.82775
G1 X47.09 Y22.737 E.02132
G1 X58.733 Y34.38 E.82775
G1 X58.663 Y34.798 E.02132
G1 X47.019 Y23.155 E.82774
G1 X46.949 Y23.573 E.02132
G1 X58.592 Y35.216 E.82774
G1 X58.522 Y35.634 E.02132
G1 X46.879 Y23.991 E.82774
G1 X46.809 Y24.41 E.02132
G1 X58.452 Y36.053 E.82773
G1 X58.381 Y36.471 E.02132
G1 X46.738 Y24.828 E.82773
G1 X46.668 Y25.246 E.02132
G1 X58.311 Y36.889 E.82773
G1 X58.241 Y37.307 E.02132
G1 X46.598 Y25.665 E.82772
G1 X46.528 Y26.083 E.02132
G1 X58.17 Y37.726 E.82772
G1 X58.1 Y38.144 E.02132
G1 X46.457 Y26.501 E.82772
G1 X46.387 Y26.92 E.02132
G1 X58.03 Y38.562 E.82771
G1 X57.959 Y38.98 E.02132
G1 X46.317 Y27.338 E.82771
G1 X46.246 Y27.756 E.02132
G1 X57.889 Y39.399 E.82771
G1 X57.819 Y39.817 E.02132
G1 X46.176 Y28.174 E.8277
G1 X46.106 Y28.593 E.02132
G1 X57.748 Y40.235 E.8277
G1 X57.678 Y40.653 E.02132
G1 X46.036 Y29.011 E.8277
G1 X45.965 Y29.429 E.02132
G1 X57.608 Y41.072 E.82769
G1 X57.537 Y41.49 E.02132
G1 X45.895 Y29.848 E.82769
G1 X45.825 Y30.266 E.02132
G1 X57.467 Y41.908 E.82769
G1 X57.397 Y42.326 E.02132
G1 X45.755 Y30.684 E.82768
G1 X45.684 Y31.102 E.02132
G1 X57.326 Y42.745 E.82768
G1 X57.256 Y43.163 E.02132
G1 X45.614 Y31.521 E.82768
G1 X45.544 Y31.939 E.02132
G1 X57.186 Y43.581 E.82767
G1 X57.115 Y43.999 E.02132
G1 X45.473 Y32.357 E.82767
G1 X45.403 Y32.776 E.02132
G1 X57.045 Y44.418 E.82767
G1 X56.975 Y44.836 E.02132
G1 X45.333 Y33.194 E.82766
G1 X45.263 Y33.612 E.02132
G1 X56.904 Y45.254 E.82766
G1 X56.834 Y45.672 E.02132
G1 X45.192 Y34.031 E.82766
G1 X45.122 Y34.449 E.02132
G1 X56.764 Y46.091 E.82765
G1 X56.694 Y46.509 E.02132
G1 X45.052 Y34.867 E.82765
G1 X44.981 Y35.285 E.02132
G1 X56.623 Y46.927 E.82765
G1 X56.553 Y47.345 E.02132
M73 P0 R300
G1 X44.911 Y35.704 E.82764
G1 X44.841 Y36.122 E.02132
G1 X56.483 Y47.764 E.82764
G1 X56.412 Y48.182 E.02132
G1 X44.771 Y36.54 E.82763
G1 X44.7 Y36.959 E.02132
G1 X56.342 Y48.6 E.82763
G1 X56.272 Y49.018 E.02132
G1 X44.63 Y37.377 E.82763
G1 X44.56 Y37.795 E.02132
G1 X56.201 Y49.437 E.82762
G1 X56.131 Y49.855 E.02132
G1 X44.49 Y38.213 E.82762
G1 X44.419 Y38.632 E.02132
G1 X56.061 Y50.273 E.82762
G1 X55.99 Y50.691 E.02132
G1 X44.349 Y39.05 E.82761
G1 X44.279 Y39.468 E.02132
G1 X55.92 Y51.11 E.82761
G1 X55.85 Y51.528 E.02132
G1 X44.208 Y39.887 E.82761
G1 X44.138 Y40.305 E.02132
G1 X55.779 Y51.946 E.8276
G1 X55.709 Y52.364 E.02132
G1 X44.068 Y40.723 E.8276
G1 X43.998 Y41.142 E.02132
G1 X55.639 Y52.783 E.8276
G1 X55.568 Y53.201 E.02132
G1 X43.927 Y41.56 E.82759
G1 X43.857 Y41.978 E.02132
G1 X55.498 Y53.619 E.82759
G1 X55.428 Y54.037 E.02132
G1 X43.787 Y42.396 E.82759
G1 X43.717 Y42.815 E.02132
G1 X55.357 Y54.456 E.82758
G1 X55.287 Y54.874 E.02132
G1 X43.646 Y43.233 E.82758
G1 X43.576 Y43.651 E.02132
G1 X55.217 Y55.292 E.82758
G1 X55.146 Y55.71 E.02132
G1 X43.506 Y44.07 E.82757
G1 X43.435 Y44.488 E.02132
G1 X55.076 Y56.129 E.82757
G1 X55.006 Y56.547 E.02132
G1 X43.365 Y44.906 E.82757
G1 X43.295 Y45.324 E.02132
G1 X54.935 Y56.965 E.82756
G1 X54.865 Y57.383 E.02132
G1 X43.225 Y45.743 E.82756
G1 X43.154 Y46.161 E.02132
G1 X54.795 Y57.802 E.82756
G1 X54.724 Y58.22 E.02132
G1 X43.084 Y46.579 E.82755
G1 X43.014 Y46.998 E.02132
G1 X54.654 Y58.638 E.82755
G1 X54.584 Y59.056 E.02132
G1 X42.944 Y47.416 E.82755
G1 X42.873 Y47.834 E.02132
G1 X54.514 Y59.474 E.82754
G1 X54.443 Y59.893 E.02132
G1 X42.803 Y48.253 E.82754
G1 X42.733 Y48.671 E.02132
G1 X54.373 Y60.311 E.82753
G1 X54.303 Y60.729 E.02132
G1 X42.662 Y49.089 E.82753
G1 X42.592 Y49.507 E.02132
G1 X54.232 Y61.147 E.82753
G1 X54.162 Y61.566 E.02132
G1 X42.522 Y49.926 E.82752
G1 X42.452 Y50.344 E.02132
G1 X54.092 Y61.984 E.82752
G1 X54.021 Y62.402 E.02132
G1 X42.381 Y50.762 E.82752
G1 X42.311 Y51.181 E.02132
G1 X53.951 Y62.82 E.82751
G1 X53.881 Y63.239 E.02132
G1 X42.241 Y51.599 E.82751
G1 X42.171 Y52.017 E.02132
G1 X53.81 Y63.657 E.82751
G1 X53.74 Y64.075 E.02132
G1 X42.1 Y52.435 E.8275
G1 X42.03 Y52.854 E.02132
G1 X53.67 Y64.493 E.8275
G1 X53.599 Y64.912 E.02132
G1 X41.96 Y53.272 E.8275
G1 X41.889 Y53.69 E.02132
G1 X53.529 Y65.33 E.82749
G1 X53.459 Y65.748 E.02132
G1 X41.819 Y54.109 E.82749
G1 X41.749 Y54.527 E.02132
G1 X53.388 Y66.166 E.82749
G1 X53.318 Y66.585 E.02132
G1 X41.679 Y54.945 E.82748
G1 X41.608 Y55.364 E.02132
G1 X53.248 Y67.003 E.82748
G1 X53.177 Y67.421 E.02132
G1 X41.538 Y55.782 E.82748
G1 X41.468 Y56.2 E.02132
G1 X53.107 Y67.839 E.82747
G1 X53.037 Y68.258 E.02132
G1 X41.398 Y56.618 E.82747
G1 X41.327 Y57.037 E.02132
G1 X52.966 Y68.676 E.82747
G1 X52.896 Y69.094 E.02132
G1 X41.257 Y57.455 E.82746
G1 X41.187 Y57.873 E.02132
G1 X52.826 Y69.512 E.82746
G1 X52.755 Y69.931 E.02132
G1 X41.116 Y58.292 E.82746
G1 X41.046 Y58.71 E.02132
G1 X52.685 Y70.349 E.82745
