; generated by PrusaSlicer 2.5.0+win64 on 2022-12-07 at 00:18:43 UTC

; 

; external perimeters extrusion width = 1.00mm
; perimeters extrusion width = 1.00mm
; infill extrusion width = 1.00mm
; solid infill extrusion width = 1.00mm
; top infill extrusion width = 1.00mm
; support material extrusion width = 1.00mm
; first layer extrusion width = 0.42mm

M73 P0 R881
M107
;TYPE:Custom
G90 ; use absolute coordinates
M83 ; extruder relative mode
M140 S60 ; set final bed temp
M104 S150 ; set temporary nozzle temp to prevent oozing during homing and auto bed leveling
G4 S10 ; allow partial nozzle warmup
G28 ; home all axisG1 Z50 F240
G1 X7.6 Y10 F3000
M104 S210 ; set final nozzle temp
M190 S60 ; wait for bed temp to stabilize
M109 S210 ; wait for nozzle temp to stabilize
G1 Z0.28 F240
G92 E0
G1 Y140 E10 F1500 ; prime the nozzle
G1 X4 F5000
G92 E0
G1 Y10 E10 F1200 ; prime the nozzle
G92 E0
G21 ; set units to millimeters
G90 ; use absolute coordinates
M83 ; use relative distances for extrusion
; Filament gcode
M107
;LAYER_CHANGE
;Z:0.35
;HEIGHT:0.35
;BEFORE_LAYER_CHANGE
G92 E0
;0.35


G1 E-1 F3600
G1 Z.35 F7800
;AFTER_LAYER_CHANGE
;0.35
G1 X109.307 Y14.704
G1 E1 F2400
;TYPE:Support material
;WIDTH:0.42
G1 F1800
G1 X106.307 Y14.704 E.15056
G1 X106.307 Y25.382 E.53589
G1 X100.022 Y25.382 E.31544
G1 X100.022 Y154.618 E6.4858
G1 X106.307 Y154.618 E.31544
G1 X106.307 Y165.296 E.53589
G1 X109.307 Y165.296 E.15056
G1 X109.307 Y167.876 E.12947
G1 X8.732 Y167.876 E5.04747
G1 X8.732 Y12.124 E7.81652
G1 X109.307 Y12.124 E5.04747
G1 X109.307 Y14.652 E.12687
G1 E-.7 F3600
;WIPE_START
G1 F6240
G1 X109.307 Y14.132 E-.285
;WIPE_END
G1 E-.015 F3600
G1 X79.665 Y25.382 F7800
G1 E1 F2400
G1 F1800
G1 X79.665 Y137.654 E5.63447
G1 X83.058 Y137.654 E.17027
G1 X83.058 Y154.618 E.85133
G1 X86.764 Y154.618 E.18597
G1 X86.764 Y25.382 E6.4858
G1 X79.717 Y25.382 E.35364
M73 P0 R880
G1 X59.309 Y25.382 F7800
G1 F1800
G1 X59.309 Y76.586 E2.56969
G1 X62.702 Y76.586 E.17027
G1 X62.702 Y154.618 E3.91611
G1 X69.8 Y154.618 E.35623
G1 X69.8 Y130.556 E1.20756
G1 X66.408 Y130.556 E.17027
G1 X66.408 Y25.382 E5.27824
G1 X59.361 Y25.382 E.35364
G1 X25.382 Y25.382 F7800
G1 F1800
G1 X25.382 Y59.622 E1.71836
G1 X28.775 Y59.622 E.17027
G1 X28.775 Y127.476 E3.40531
G1 X32.168 Y127.476 E.17027
G1 X32.168 Y154.618 E1.36213
G1 X49.444 Y154.618 E.86703
G1 X49.444 Y79.665 E3.76155
G1 X46.051 Y79.665 E.17027
G1 X46.051 Y25.382 E2.72425
G1 X25.434 Y25.382 E1.0347
G1 E-.7 F3600
;WIPE_START
G1 F6240
G1 X25.954 Y25.382 E-.285
;WIPE_END
G1 E-.015 F3600
G1 X108.777 Y167.72 F7800
G1 E1 F2400
G1 F1800
G1 X108.777 Y165.606 E.1061
G1 X108.394 Y165.606 E.01923
G1 X108.394 Y167.565 E.09831
G1 X108.011 Y167.565 E.01923
G1 X108.011 Y165.606 E.09831
G1 X107.628 Y165.606 E.01923
G1 X107.628 Y167.565 E.09831
G1 X107.244 Y167.565 E.01923
G1 X107.244 Y165.606 E.09831
G1 X106.861 Y165.606 E.01923
G1 X106.861 Y167.565 E.09831
G1 X106.478 Y167.565 E.01923
G1 X106.478 Y165.606 E.09831
G1 X106.095 Y165.606 E.01923
G1 X106.095 Y167.565 E.09831
G1 X105.712 Y167.565 E.01923
G1 X105.712 Y154.928 E.6342
G1 X105.328 Y154.928 E.01923
G1 X105.328 Y167.565 E.6342
G1 X104.945 Y167.565 E.01923
G1 X104.945 Y154.928 E.6342
G1 X104.562 Y154.928 E.01923
G1 X104.562 Y167.565 E.6342
G1 X104.179 Y167.565 E.01923
G1 X104.179 Y154.928 E.6342
G1 X103.796 Y154.928 E.01923
G1 X103.796 Y167.565 E.6342
G1 X103.412 Y167.565 E.01923
G1 X103.412 Y154.928 E.6342
G1 X103.029 Y154.928 E.01923
G1 X103.029 Y167.565 E.6342
G1 X102.646 Y167.565 E.01923
G1 X102.646 Y154.928 E.6342
G1 X102.263 Y154.928 E.01923
G1 X102.263 Y167.565 E.6342
G1 X101.88 Y167.565 E.01923
G1 X101.88 Y154.928 E.6342
G1 X101.496 Y154.928 E.01923
G1 X101.496 Y167.565 E.6342
G1 X101.113 Y167.565 E.01923
G1 X101.113 Y154.928 E.6342
G1 X100.73 Y154.928 E.01923
G1 X100.73 Y167.565 E.6342
G1 X100.347 Y167.565 E.01923
G1 X100.347 Y154.928 E.6342
G1 X99.963 Y154.928 E.01923
G1 X99.963 Y167.565 E.6342
G1 X99.58 Y167.565 E.01923
G1 X99.58 Y12.435 E7.78536
G1 X99.963 Y12.435 E.01923
G1 X99.963 Y25.072 E.6342
G1 X100.347 Y25.072 E.01923
G1 X100.347 Y12.435 E.6342
G1 X100.73 Y12.435 E.01923
G1 X100.73 Y25.072 E.6342
G1 X101.113 Y25.072 E.01923
G1 X101.113 Y12.435 E.6342
G1 X101.496 Y12.435 E.01923
G1 X101.496 Y25.072 E.6342
G1 X101.88 Y25.072 E.01923
G1 X101.88 Y12.435 E.6342
G1 X102.263 Y12.435 E.01923
G1 X102.263 Y25.072 E.6342
G1 X102.646 Y25.072 E.01923
G1 X102.646 Y12.435 E.6342
G1 X103.029 Y12.435 E.01923
G1 X103.029 Y25.072 E.6342
G1 X103.412 Y25.072 E.01923
G1 X103.412 Y12.435 E.6342
G1 X103.796 Y12.435 E.01923
G1 X103.796 Y25.072 E.6342
G1 X104.179 Y25.072 E.01923
G1 X104.179 Y12.435 E.6342
G1 X104.562 Y12.435 E.01923
G1 X104.562 Y25.072 E.6342
G1 X104.945 Y25.072 E.01923
G1 X104.945 Y12.435 E.6342
G1 X105.328 Y12.435 E.01923
G1 X105.328 Y25.072 E.6342
G1 X105.712 Y25.072 E.01923
G1 X105.712 Y12.435 E.6342
G1 X106.095 Y12.435 E.01923
G1 X106.095 Y14.394 E.09831
G1 X106.478 Y14.394 E.01923
G1 X106.478 Y12.435 E.09831
G1 X106.861 Y12.435 E.01923
G1 X106.861 Y14.394 E.09831
G1 X107.244 Y14.394 E.01923
G1 X107.244 Y12.435 E.09831
G1 X107.628 Y12.435 E.01923
G1 X107.628 Y14.394 E.09831
G1 X108.011 Y14.394 E.01923
G1 X108.011 Y12.435 E.09831
G1 X108.394 Y12.435 E.01923
G1 X108.394 Y14.394 E.09831
G1 X108.777 Y14.394 E.01923
G1 X108.777 Y12.28 E.1061
G1 E-.7 F3600
;WIPE_START
G1 F6240
G1 X108.777 Y12.8 E-.285
;WIPE_END
G1 E-.015 F3600
G1 X99.197 Y167.72 F7800
G1 E1 F2400
G1 F1800
G1 X99.197 Y12.435 E7.79315
G1 X98.814 Y12.435 E.01923
G1 X98.814 Y167.565 E7.78536
G1 X98.431 Y167.565 E.01923
M73 P0 R879
G1 X98.431 Y12.435 E7.78536
G1 X98.047 Y12.435 E.01923
G1 X98.047 Y167.565 E7.78536
G1 X97.664 Y167.565 E.01923
G1 X97.664 Y12.435 E7.78536
G1 X97.281 Y12.435 E.01923
G1 X97.281 Y167.565 E7.78536
G1 X96.898 Y167.565 E.01923
G1 X96.898 Y12.435 E7.78536
G1 X96.515 Y12.435 E.01923
G1 X96.515 Y167.565 E7.78536
G1 X96.131 Y167.565 E.01923
G1 X96.131 Y12.435 E7.78536
G1 X95.748 Y12.435 E.01923
G1 X95.748 Y167.565 E7.78536
G1 X95.365 Y167.565 E.01923
G1 X95.365 Y12.435 E7.78536
G1 X94.982 Y12.435 E.01923
G1 X94.982 Y167.565 E7.78536
G1 X94.599 Y167.565 E.01923
G1 X94.599 Y12.435 E7.78536
G1 X94.215 Y12.435 E.01923
G1 X94.215 Y167.565 E7.78536
G1 X93.832 Y167.565 E.01923
M73 P0 R878
G1 X93.832 Y12.435 E7.78536
G1 X93.449 Y12.435 E.01923
G1 X93.449 Y167.565 E7.78536
G1 X93.066 Y167.565 E.01923
G1 X93.066 Y12.435 E7.78536
G1 X92.682 Y12.435 E.01923
G1 X92.682 Y167.565 E7.78536
G1 X92.299 Y167.565 E.01923
G1 X92.299 Y12.435 E7.78536
G1 X91.916 Y12.435 E.01923
G1 X91.916 Y167.565 E7.78536
G1 X91.533 Y167.565 E.01923
G1 X91.533 Y12.435 E7.78536
G1 X91.15 Y12.435 E.01923
G1 X91.15 Y167.565 E7.78536
G1 X90.766 Y167.565 E.01923
G1 X90.766 Y12.435 E7.78536
G1 X90.383 Y12.435 E.01923
G1 X90.383 Y167.565 E7.78536
G1 X90 Y167.565 E.01923
G1 X90 Y12.435 E7.78536
G1 X89.617 Y12.435 E.01923
M73 P0 R877
G1 X89.617 Y167.565 E7.78536
G1 X89.234 Y167.565 E.01923
G1 X89.234 Y12.435 E7.78536
G1 X88.85 Y12.435 E.01923
G1 X88.85 Y167.565 E7.78536
G1 X88.467 Y167.565 E.01923
G1 X88.467 Y12.435 E7.78536
G1 X88.084 Y12.435 E.01923
G1 X88.084 Y167.565 E7.78536
G1 X87.701 Y167.565 E.01923
G1 X87.701 Y12.435 E7.78536
G1 X87.318 Y12.435 E.01923
G1 X87.318 Y167.565 E7.78536
G1 X86.934 Y167.565 E.01923
G1 X86.934 Y12.435 E7.78536
G1 X86.551 Y12.435 E.01923
G1 X86.551 Y25.072 E.6342
G1 X86.168 Y25.072 E.01923
G1 X86.168 Y12.435 E.6342
G1 X85.785 Y12.435 E.01923
G1 X85.785 Y25.072 E.6342
G1 X85.401 Y25.072 E.01923
G1 X85.401 Y12.435 E.6342
G1 X85.018 Y12.435 E.01923
G1 X85.018 Y25.072 E.6342
G1 X84.635 Y25.072 E.01923
G1 X84.635 Y12.435 E.6342
G1 X84.252 Y12.435 E.01923
G1 X84.252 Y25.072 E.6342
G1 X83.869 Y25.072 E.01923
G1 X83.869 Y12.435 E.6342
G1 X83.485 Y12.435 E.01923
G1 X83.485 Y25.072 E.6342
G1 X83.102 Y25.072 E.01923
G1 X83.102 Y12.435 E.6342
G1 X82.719 Y12.435 E.01923
G1 X82.719 Y25.072 E.6342
G1 X82.336 Y25.072 E.01923
G1 X82.336 Y12.435 E.6342
G1 X81.953 Y12.435 E.01923
G1 X81.953 Y25.072 E.6342
G1 X81.569 Y25.072 E.01923
G1 X81.569 Y12.435 E.6342
G1 X81.186 Y12.435 E.01923
G1 X81.186 Y25.072 E.6342
G1 X80.803 Y25.072 E.01923
G1 X80.803 Y12.435 E.6342
G1 X80.42 Y12.435 E.01923
G1 X80.42 Y25.072 E.6342
G1 X80.037 Y25.072 E.01923
G1 X80.037 Y12.435 E.6342
G1 X79.653 Y12.435 E.01923
G1 X79.653 Y25.072 E.6342
G1 X79.355 Y25.072 E.01497
G1 X79.355 Y137.965 E5.66563
G1 X79.653 Y137.965 E.01497
G1 X79.653 Y167.565 E1.48553
G1 X80.037 Y167.565 E.01923
G1 X80.037 Y137.965 E1.48553
G1 X80.42 Y137.965 E.01923
G1 X80.42 Y167.565 E1.48553
G1 X80.803 Y167.565 E.01923
G1 X80.803 Y137.965 E1.48553
G1 X81.186 Y137.965 E.01923
G1 X81.186 Y167.565 E1.48553
G1 X81.569 Y167.565 E.01923
M73 P0 R876
G1 X81.569 Y137.965 E1.48553
G1 X81.953 Y137.965 E.01923
G1 X81.953 Y167.565 E1.48553
G1 X82.336 Y167.565 E.01923
G1 X82.336 Y137.965 E1.48553
G1 X82.719 Y137.965 E.01923
G1 X82.719 Y167.565 E1.48553
G1 X83.102 Y167.565 E.01923
G1 X83.102 Y154.928 E.6342
G1 X83.485 Y154.928 E.01923
G1 X83.485 Y167.565 E.6342
G1 X83.869 Y167.565 E.01923
G1 X83.869 Y154.928 E.6342
G1 X84.252 Y154.928 E.01923
G1 X84.252 Y167.565 E.6342
G1 X84.635 Y167.565 E.01923
G1 X84.635 Y154.928 E.6342
G1 X85.018 Y154.928 E.01923
G1 X85.018 Y167.565 E.6342
G1 X85.401 Y167.565 E.01923
G1 X85.401 Y154.928 E.6342
G1 X85.785 Y154.928 E.01923
G1 X85.785 Y167.565 E.6342
G1 X86.168 Y167.565 E.01923
G1 X86.168 Y154.928 E.6342
G1 X86.551 Y154.928 E.01923
G1 X86.551 Y167.72 E.64199
G1 X79.27 Y167.72 F7800
G1 F1800
G1 X79.27 Y12.435 E7.79315
G1 X78.887 Y12.435 E.01923
G1 X78.887 Y167.565 E7.78536
G1 X78.504 Y167.565 E.01923
G1 X78.504 Y12.435 E7.78536
G1 X78.12 Y12.435 E.01923
G1 X78.12 Y167.565 E7.78536
G1 X77.737 Y167.565 E.01923
G1 X77.737 Y12.435 E7.78536
G1 X77.354 Y12.435 E.01923
G1 X77.354 Y167.565 E7.78536
G1 X76.971 Y167.565 E.01923
G1 X76.971 Y12.435 E7.78536
G1 X76.588 Y12.435 E.01923
G1 X76.588 Y167.565 E7.78536
G1 X76.204 Y167.565 E.01923
G1 X76.204 Y12.435 E7.78536
G1 X75.821 Y12.435 E.01923
G1 X75.821 Y167.565 E7.78536
G1 X75.438 Y167.565 E.01923
M73 P0 R875
G1 X75.438 Y12.435 E7.78536
G1 X75.055 Y12.435 E.01923
G1 X75.055 Y167.565 E7.78536
G1 X74.672 Y167.565 E.01923
G1 X74.672 Y12.435 E7.78536
G1 X74.288 Y12.435 E.01923
G1 X74.288 Y167.565 E7.78536
G1 X73.905 Y167.565 E.01923
G1 X73.905 Y12.435 E7.78536
G1 X73.522 Y12.435 E.01923
G1 X73.522 Y167.565 E7.78536
G1 X73.139 Y167.565 E.01923
G1 X73.139 Y12.435 E7.78536
G1 X72.756 Y12.435 E.01923
G1 X72.756 Y167.565 E7.78536
G1 X72.372 Y167.565 E.01923
G1 X72.372 Y12.435 E7.78536
G1 X71.989 Y12.435 E.01923
G1 X71.989 Y167.565 E7.78536
G1 X71.606 Y167.565 E.01923
G1 X71.606 Y12.435 E7.78536
G1 X71.223 Y12.435 E.01923
G1 X71.223 Y167.565 E7.78536
G1 X70.839 Y167.565 E.01923
M73 P0 R874
G1 X70.84 Y12.435 E7.78536
G1 X70.456 Y12.435 E.01923
G1 X70.456 Y167.565 E7.78536
G1 X70.073 Y167.565 E.01923
G1 X70.073 Y12.435 E7.78536
G1 X69.69 Y12.435 E.01923
G1 X69.69 Y130.246 E5.91244
G1 X69.307 Y130.246 E.01923
G1 X69.307 Y12.435 E5.91244
G1 X68.923 Y12.435 E.01923
G1 X68.923 Y130.246 E5.91244
G1 X68.54 Y130.246 E.01923
G1 X68.54 Y12.435 E5.91244
G1 X68.157 Y12.435 E.01923
G1 X68.157 Y130.246 E5.91244
G1 X67.774 Y130.246 E.01923
G1 X67.774 Y12.435 E5.91244
G1 X67.391 Y12.435 E.01923
G1 X67.391 Y130.246 E5.91244
G1 X67.007 Y130.246 E.01923
G1 X67.007 Y12.435 E5.91244
G1 X66.624 Y12.435 E.01923
G1 X66.624 Y25.072 E.6342
G1 X66.241 Y25.072 E.01923
G1 X66.241 Y12.435 E.6342
G1 X65.858 Y12.435 E.01923
G1 X65.858 Y25.072 E.6342
G1 X65.475 Y25.072 E.01923
G1 X65.475 Y12.435 E.6342
G1 X65.091 Y12.435 E.01923
G1 X65.091 Y25.072 E.6342
G1 X64.708 Y25.072 E.01923
G1 X64.708 Y12.435 E.6342
G1 X64.325 Y12.435 E.01923
G1 X64.325 Y25.072 E.6342
G1 X63.942 Y25.072 E.01923
G1 X63.942 Y12.435 E.6342
G1 X63.559 Y12.435 E.01923
G1 X63.559 Y25.072 E.6342
G1 X63.175 Y25.072 E.01923
G1 X63.175 Y12.435 E.6342
G1 X62.792 Y12.435 E.01923
G1 X62.792 Y25.072 E.6342
G1 X62.409 Y25.072 E.01923
G1 X62.409 Y12.435 E.6342
G1 X62.026 Y12.435 E.01923
G1 X62.026 Y25.072 E.6342
G1 X61.642 Y25.072 E.01923
G1 X61.642 Y12.435 E.6342
G1 X61.259 Y12.435 E.01923
G1 X61.259 Y25.072 E.6342
G1 X60.876 Y25.072 E.01923
M73 P0 R873
G1 X60.876 Y12.435 E.6342
G1 X60.493 Y12.435 E.01923
G1 X60.493 Y25.072 E.6342
G1 X60.11 Y25.072 E.01923
G1 X60.11 Y12.435 E.6342
G1 X59.726 Y12.435 E.01923
G1 X59.726 Y25.072 E.6342
G1 X59.343 Y25.072 E.01923
G1 X59.343 Y12.435 E.6342
G1 X58.96 Y12.435 E.01923
G1 X58.96 Y167.565 E7.78536
G1 X58.577 Y167.565 E.01923
G1 X58.577 Y12.435 E7.78536
G1 X58.194 Y12.435 E.01923
G1 X58.194 Y167.565 E7.78536
G1 X57.81 Y167.565 E.01923
G1 X57.81 Y12.435 E7.78536
G1 X57.427 Y12.435 E.01923
G1 X57.427 Y167.565 E7.78536
G1 X57.044 Y167.565 E.01923
G1 X57.044 Y12.435 E7.78536
G1 X56.661 Y12.435 E.01923
G1 X56.661 Y167.565 E7.78536
G1 X56.278 Y167.565 E.01923
G1 X56.278 Y12.435 E7.78536
G1 X55.894 Y12.435 E.01923
G1 X55.894 Y167.565 E7.78536
G1 X55.511 Y167.565 E.01923
G1 X55.511 Y12.435 E7.78536
G1 X55.128 Y12.435 E.01923
G1 X55.128 Y167.565 E7.78536
G1 X54.745 Y167.565 E.01923
M73 P0 R872
G1 X54.745 Y12.435 E7.78536
G1 X54.361 Y12.435 E.01923
G1 X54.361 Y167.565 E7.78536
G1 X53.978 Y167.565 E.01923
M73 P1 R872
G1 X53.978 Y12.435 E7.78536
G1 X53.595 Y12.435 E.01923
G1 X53.595 Y167.565 E7.78536
G1 X53.212 Y167.565 E.01923
G1 X53.212 Y12.435 E7.78536
G1 X52.829 Y12.435 E.01923
G1 X52.829 Y167.565 E7.78536
G1 X52.445 Y167.565 E.01923
G1 X52.445 Y12.435 E7.78536
G1 X52.062 Y12.435 E.01923
G1 X52.062 Y167.565 E7.78536
G1 X51.679 Y167.565 E.01923
G1 X51.679 Y12.435 E7.78536
G1 X51.296 Y12.435 E.01923
G1 X51.296 Y167.565 E7.78536
G1 X50.913 Y167.565 E.01923
G1 X50.913 Y12.435 E7.78536
G1 X50.529 Y12.435 E.01923
G1 X50.529 Y167.565 E7.78536
G1 X50.146 Y167.565 E.01923
M73 P1 R871
G1 X50.146 Y12.435 E7.78536
G1 X49.763 Y12.435 E.01923
G1 X49.763 Y167.565 E7.78536
G1 X49.38 Y167.565 E.01923
G1 X49.38 Y154.928 E.6342
G1 X48.997 Y154.928 E.01923
G1 X48.997 Y167.565 E.6342
G1 X48.613 Y167.565 E.01923
G1 X48.613 Y154.928 E.6342
G1 X48.23 Y154.928 E.01923
G1 X48.23 Y167.565 E.6342
G1 X47.847 Y167.565 E.01923
G1 X47.847 Y154.928 E.6342
G1 X47.464 Y154.928 E.01923
G1 X47.464 Y167.565 E.6342
G1 X47.08 Y167.565 E.01923
G1 X47.08 Y154.928 E.6342
G1 X46.697 Y154.928 E.01923
G1 X46.697 Y167.565 E.6342
G1 X46.314 Y167.565 E.01923
G1 X46.314 Y154.928 E.6342
G1 X45.931 Y154.928 E.01923
G1 X45.931 Y167.565 E.6342
G1 X45.548 Y167.565 E.01923
G1 X45.548 Y154.928 E.6342
G1 X45.164 Y154.928 E.01923
G1 X45.164 Y167.565 E.6342
G1 X44.781 Y167.565 E.01923
G1 X44.781 Y154.928 E.6342
G1 X44.398 Y154.928 E.01923
G1 X44.398 Y167.565 E.6342
G1 X44.015 Y167.565 E.01923
G1 X44.015 Y154.928 E.6342
G1 X43.632 Y154.928 E.01923
G1 X43.632 Y167.565 E.6342
G1 X43.248 Y167.565 E.01923
G1 X43.248 Y154.928 E.6342
G1 X42.865 Y154.928 E.01923
G1 X42.865 Y167.565 E.6342
G1 X42.482 Y167.565 E.01923
G1 X42.482 Y154.928 E.6342
G1 X42.099 Y154.928 E.01923
G1 X42.099 Y167.565 E.6342
G1 X41.716 Y167.565 E.01923
G1 X41.716 Y154.928 E.6342
G1 X41.332 Y154.928 E.01923
G1 X41.332 Y167.565 E.6342
G1 X40.949 Y167.565 E.01923
G1 X40.949 Y154.928 E.6342
G1 X40.566 Y154.928 E.01923
G1 X40.566 Y167.565 E.6342
G1 X40.183 Y167.565 E.01923
G1 X40.183 Y154.928 E.6342
G1 X39.799 Y154.928 E.01923
G1 X39.799 Y167.565 E.6342
G1 X39.416 Y167.565 E.01923
G1 X39.416 Y154.928 E.6342
G1 X39.033 Y154.928 E.01923
G1 X39.033 Y167.565 E.6342
G1 X38.65 Y167.565 E.01923
G1 X38.65 Y154.928 E.6342
G1 X38.267 Y154.928 E.01923
G1 X38.267 Y167.565 E.6342
G1 X37.883 Y167.565 E.01923
G1 X37.883 Y154.928 E.6342
G1 X37.5 Y154.928 E.01923
G1 X37.5 Y167.565 E.6342
G1 X37.117 Y167.565 E.01923
G1 X37.117 Y154.928 E.6342
G1 X36.734 Y154.928 E.01923
G1 X36.734 Y167.565 E.6342
G1 X36.351 Y167.565 E.01923
G1 X36.351 Y154.928 E.6342
G1 X35.967 Y154.928 E.01923
G1 X35.967 Y167.565 E.6342
G1 X35.584 Y167.565 E.01923
G1 X35.584 Y154.928 E.6342
G1 X35.201 Y154.928 E.01923
G1 X35.201 Y167.565 E.6342
G1 X34.818 Y167.565 E.01923
G1 X34.818 Y154.928 E.6342
G1 X34.435 Y154.928 E.01923
G1 X34.435 Y167.565 E.6342
G1 X34.051 Y167.565 E.01923
