; generated by PrusaSlicer 2.5.0+win64 on 2022-12-07 at 00:18:44 UTC

; 

; external perimeters extrusion width = 1.00mm
; perimeters extrusion width = 1.00mm
; infill extrusion width = 1.00mm
; solid infill extrusion width = 1.00mm
; top infill extrusion width = 1.00mm
; support material extrusion width = 1.00mm
; first layer extrusion width = 0.42mm

M73 P0 R717
M107
;TYPE:Custom
G90 ; use absolute coordinates
M83 ; extruder relative mode
M140 S60 ; set final bed temp
M104 S150 ; set temporary nozzle temp to prevent oozing during homing and auto bed leveling
G4 S10 ; allow partial nozzle warmup
G28 ; home all axisG1 Z50 F240
G1 X7.6 Y10 F3000
M104 S210 ; set final nozzle temp
M190 S60 ; wait for bed temp to stabilize
M109 S210 ; wait for nozzle temp to stabilize
G1 Z0.28 F240
G92 E0
G1 Y140 E10 F1500 ; prime the nozzle
G1 X4 F5000
G92 E0
G1 Y10 E10 F1200 ; prime the nozzle
G92 E0
G21 ; set units to millimeters
G90 ; use absolute coordinates
M83 ; use relative distances for extrusion
; Filament gcode
M107
;LAYER_CHANGE
;Z:0.35
;HEIGHT:0.35
;BEFORE_LAYER_CHANGE
G92 E0
;0.35


G1 E-1 F3600
G1 Z.35 F7800
;AFTER_LAYER_CHANGE
;0.35
G1 X12.782 Y14.959
G1 E1 F2400
;TYPE:Support material interface
;WIDTH:1
G1 F1800
G1 X12.782 Y25.539 E1.42387
G1 X13.674 Y25.539 E.12014
G1 X13.674 Y15.361 E1.36981
G1 X14.567 Y15.361 E.12014
G1 X14.567 Y25.539 E1.36981
G1 X15.361 Y25.539 E.10682
G1 X15.361 Y39.11 E1.82641
G1 X15.46 Y39.11 E.01332
G1 X15.46 Y15.361 E3.19621
G1 X16.352 Y15.361 E.12014
G1 X16.352 Y39.11 E3.19621
G1 X17.245 Y39.11 E.12014
G1 X17.245 Y15.361 E3.19621
G1 X18.138 Y15.361 E.12014
G1 X18.138 Y39.11 E3.19621
G1 X18.753 Y39.11 E.08285
G1 X18.753 Y56.073 E2.28301
G1 X19.03 Y56.073 E.03729
G1 X19.03 Y15.361 E5.47922
G1 X19.923 Y15.361 E.12014
G1 X19.923 Y56.073 E5.47922
G1 X20.816 Y56.073 E.12014
G1 X20.816 Y15.361 E5.47922
G1 X21.709 Y15.361 E.12014
G1 X21.709 Y56.475 E5.53328
G1 E-.7 F3600
;WIPE_START
G1 F6240
G1 X21.709 Y55.955 E-.285
;WIPE_END
G1 E-.015 F3600
G1 X11.312 Y26.195 F7800
G1 E1 F2400
;TYPE:Support material
;WIDTH:0.42
G1 F1800
G1 X14.704 Y26.195 E.17027
G1 X14.704 Y39.766 E.68106
G1 X18.097 Y39.766 E.17027
G1 X18.097 Y56.729 E.85133
G1 X21.49 Y56.729 E.17027
G1 X21.49 Y73.693 E.85133
G1 X21.99 Y73.693 E.02509
M73 P0 R716
G1 X21.99 Y154.618 E4.06128
G1 X38.453 Y154.618 E.82624
G1 X38.453 Y155.118 E.02509
G1 X41.846 Y155.118 E.17027
G1 X41.846 Y165.296 E.5108
G1 X44.846 Y165.296 E.15056
G1 X44.846 Y167.876 E.12947
G1 X8.732 Y167.876 E1.81242
G1 X8.732 Y23.195 E7.26092
G1 X11.312 Y23.195 E.12947
G1 X11.312 Y26.143 E.14796
G1 E-.7 F3600
;WIPE_START
G1 F6240
G1 X11.312 Y25.623 E-.285
;WIPE_END
G1 E-.015 F3600
G1 X44.398 Y167.72 F7800
G1 E1 F2400
G1 F1800
G1 X44.398 Y165.606 E.1061
G1 X44.015 Y165.606 E.01923
G1 X44.015 Y167.565 E.09831
G1 X43.632 Y167.565 E.01923
G1 X43.632 Y165.606 E.09831
G1 X43.248 Y165.606 E.01923
G1 X43.248 Y167.565 E.09831
G1 X42.865 Y167.565 E.01923
G1 X42.865 Y165.606 E.09831
G1 X42.482 Y165.606 E.01923
G1 X42.482 Y167.565 E.09831
G1 X42.099 Y167.565 E.01923
G1 X42.099 Y165.606 E.09831
G1 X41.716 Y165.606 E.01923
G1 X41.716 Y167.565 E.09831
G1 X41.332 Y167.565 E.01923
G1 X41.332 Y155.428 E.60911
G1 X40.949 Y155.428 E.01923
G1 X40.949 Y167.565 E.60911
G1 X40.566 Y167.565 E.01923
G1 X40.566 Y155.428 E.60911
G1 X40.183 Y155.428 E.01923
G1 X40.183 Y167.565 E.60911
G1 X39.8 Y167.565 E.01923
G1 X39.8 Y155.428 E.60911
G1 X39.416 Y155.428 E.01923
G1 X39.416 Y167.565 E.60911
G1 X39.033 Y167.565 E.01923
G1 X39.033 Y155.428 E.60911
G1 X38.65 Y155.428 E.01923
G1 X38.65 Y167.565 E.60911
G1 X38.267 Y167.565 E.01923
G1 X38.267 Y155.428 E.60911
G1 X38.143 Y155.428 E.00622
G1 X38.143 Y154.928 E.02509
G1 X37.883 Y154.928 E.01301
G1 X37.883 Y167.565 E.6342
G1 X37.5 Y167.565 E.01923
G1 X37.5 Y154.928 E.6342
G1 X37.117 Y154.928 E.01923
G1 X37.117 Y167.565 E.6342
G1 X36.734 Y167.565 E.01923
G1 X36.734 Y154.928 E.6342
G1 X36.351 Y154.928 E.01923
G1 X36.351 Y167.565 E.6342
G1 X35.967 Y167.565 E.01923
G1 X35.967 Y154.928 E.6342
G1 X35.584 Y154.928 E.01923
G1 X35.584 Y167.565 E.6342
G1 X35.201 Y167.565 E.01923
G1 X35.201 Y154.928 E.6342
G1 X34.818 Y154.928 E.01923
G1 X34.818 Y167.565 E.6342
G1 X34.435 Y167.565 E.01923
G1 X34.435 Y154.928 E.6342
G1 X34.051 Y154.928 E.01923
G1 X34.051 Y167.565 E.6342
G1 X33.668 Y167.565 E.01923
G1 X33.668 Y154.928 E.6342
G1 X33.285 Y154.928 E.01923
G1 X33.285 Y167.565 E.6342
G1 X32.902 Y167.565 E.01923
G1 X32.902 Y154.928 E.6342
G1 X32.519 Y154.928 E.01923
G1 X32.519 Y167.565 E.6342
G1 X32.135 Y167.565 E.01923
G1 X32.135 Y154.928 E.6342
G1 X31.752 Y154.928 E.01923
G1 X31.752 Y167.565 E.6342
G1 X31.369 Y167.565 E.01923
G1 X31.369 Y154.928 E.6342
G1 X30.986 Y154.928 E.01923
G1 X30.986 Y167.565 E.6342
G1 X30.602 Y167.565 E.01923
G1 X30.602 Y154.928 E.6342
G1 X30.219 Y154.928 E.01923
G1 X30.219 Y167.565 E.6342
G1 X29.836 Y167.565 E.01923
G1 X29.836 Y154.928 E.6342
G1 X29.453 Y154.928 E.01923
G1 X29.453 Y167.565 E.6342
G1 X29.07 Y167.565 E.01923
G1 X29.07 Y154.928 E.6342
G1 X28.686 Y154.928 E.01923
G1 X28.686 Y167.565 E.6342
G1 X28.303 Y167.565 E.01923
G1 X28.303 Y154.928 E.6342
G1 X27.92 Y154.928 E.01923
G1 X27.92 Y167.565 E.6342
G1 X27.537 Y167.565 E.01923
G1 X27.537 Y154.928 E.6342
G1 X27.154 Y154.928 E.01923
G1 X27.154 Y167.565 E.6342
G1 X26.77 Y167.565 E.01923
G1 X26.77 Y154.928 E.6342
G1 X26.387 Y154.928 E.01923
G1 X26.387 Y167.565 E.6342
G1 X26.004 Y167.565 E.01923
G1 X26.004 Y154.928 E.6342
G1 X25.621 Y154.928 E.01923
G1 X25.621 Y167.565 E.6342
G1 X25.238 Y167.565 E.01923
G1 X25.238 Y154.928 E.6342
G1 X24.854 Y154.928 E.01923
G1 X24.854 Y167.565 E.6342
G1 X24.471 Y167.565 E.01923
G1 X24.471 Y154.928 E.6342
G1 X24.088 Y154.928 E.01923
G1 X24.088 Y167.565 E.6342
G1 X23.705 Y167.565 E.01923
G1 X23.705 Y154.928 E.6342
G1 X23.321 Y154.928 E.01923
G1 X23.321 Y167.565 E.6342
G1 X22.938 Y167.565 E.01923
G1 X22.938 Y154.928 E.6342
G1 X22.555 Y154.928 E.01923
G1 X22.555 Y167.565 E.6342
G1 X22.172 Y167.565 E.01923
G1 X22.172 Y154.928 E.6342
G1 X21.789 Y154.928 E.01923
G1 X21.789 Y167.565 E.6342
G1 X21.405 Y167.565 E.01923
G1 X21.405 Y74.003 E4.69549
G1 X21.179 Y74.003 E.01135
G1 X21.179 Y57.04 E.85133
G1 X21.022 Y57.04 E.00788
G1 X21.022 Y167.565 E5.54682
G1 X20.639 Y167.565 E.01923
G1 X20.639 Y57.04 E5.54682
G1 X20.256 Y57.04 E.01923
G1 X20.256 Y167.565 E5.54682
G1 X19.873 Y167.565 E.01923
G1 X19.873 Y57.04 E5.54682
G1 X19.489 Y57.04 E.01923
G1 X19.489 Y167.565 E5.54682
G1 X19.106 Y167.565 E.01923
M73 P0 R715
G1 X19.106 Y57.04 E5.54682
G1 X18.723 Y57.04 E.01923
G1 X18.723 Y167.565 E5.54682
G1 X18.34 Y167.565 E.01923
G1 X18.34 Y57.04 E5.54682
G1 X17.957 Y57.04 E.01923
G1 X17.957 Y167.565 E5.54682
G1 X17.573 Y167.565 E.01923
G1 X17.573 Y40.076 E6.39814
G1 X17.19 Y40.076 E.01923
G1 X17.19 Y167.565 E6.39814
G1 X16.807 Y167.565 E.01923
G1 X16.807 Y40.076 E6.39814
G1 X16.424 Y40.076 E.01923
G1 X16.424 Y167.565 E6.39814
G1 X16.041 Y167.565 E.01923
G1 X16.041 Y40.076 E6.39814
G1 X15.657 Y40.076 E.01923
G1 X15.657 Y167.565 E6.39814
G1 X15.274 Y167.565 E.01923
G1 X15.274 Y40.076 E6.39814
G1 X14.891 Y40.076 E.01923
G1 X14.891 Y167.565 E6.39814
G1 X14.508 Y167.565 E.01923
G1 X14.508 Y40.076 E6.39814
G1 X14.394 Y40.076 E.00572
G1 X14.394 Y26.506 E.68106
G1 X14.124 Y26.506 E.01352
G1 X14.124 Y167.565 E7.07921
G1 X13.741 Y167.565 E.01923
M73 P0 R714
G1 X13.741 Y26.506 E7.07921
G1 X13.358 Y26.506 E.01923
G1 X13.358 Y167.565 E7.07921
G1 X12.975 Y167.565 E.01923
G1 X12.975 Y26.506 E7.07921
G1 X12.592 Y26.506 E.01923
G1 X12.592 Y167.565 E7.07921
G1 X12.208 Y167.565 E.01923
G1 X12.208 Y26.506 E7.07921
G1 X11.825 Y26.506 E.01923
G1 X11.825 Y167.565 E7.07921
G1 X11.442 Y167.565 E.01923
G1 X11.442 Y26.506 E7.07921
G1 X11.059 Y26.506 E.01923
G1 X11.059 Y167.565 E7.07921
G1 X10.676 Y167.565 E.01923
G1 X10.676 Y23.506 E7.22977
G1 X10.292 Y23.506 E.01923
G1 X10.292 Y167.565 E7.22977
G1 X9.909 Y167.565 E.01923
G1 X9.909 Y23.506 E7.22977
G1 X9.526 Y23.506 E.01923
G1 X9.526 Y167.565 E7.22977
G1 X9.143 Y167.565 E.01923
G1 X9.143 Y23.35 E7.23755
G1 E-.7 F3600
;WIPE_START
M73 P0 R713
G1 F6240
G1 X9.143 Y23.87 E-.285
;WIPE_END
G1 E-.015 F3600
G1 X53.846 Y59.867 F7800
G1 E1 F2400
;TYPE:Support material interface
;WIDTH:1
G1 F1800
G1 X53.846 Y25.539 E4.62008
G1 X54.738 Y25.539 E.12014
G1 X54.738 Y59.466 E4.56602
G1 X55.631 Y59.466 E.12014
G1 X55.631 Y25.539 E4.56602
G1 X56.073 Y25.539 E.05948
G1 X56.073 Y39.109 E1.82641
G1 X56.524 Y39.109 E.06066
G1 X56.524 Y76.429 E5.02262
G1 X57.416 Y76.429 E.12014
G1 X57.416 Y39.109 E5.02262
G1 X58.309 Y39.109 E.12014
G1 X58.309 Y76.429 E5.02262
G1 X59.202 Y76.429 E.12014
G1 X59.202 Y39.109 E5.02262
G1 X59.466 Y39.109 E.03551
G1 X59.466 Y56.073 E2.28301
G1 X60.095 Y56.073 E.08463
G1 X60.095 Y90 E4.56602
G1 X60.987 Y90 E.12014
G1 X60.987 Y56.073 E4.56602
G1 X61.88 Y56.073 E.12014
G1 X61.88 Y90 E4.56602
G1 X62.773 Y90 E.12014
G1 X62.773 Y56.073 E4.56602
G1 X62.858 Y56.073 E.01155
G1 X62.858 Y73.036 E2.28301
G1 X63.665 Y73.036 E.1086
G1 X63.665 Y106.963 E4.56602
G1 X64.558 Y106.963 E.12014
G1 X64.558 Y73.036 E4.56602
G1 X65.451 Y73.036 E.12014
G1 X65.451 Y106.963 E4.56602
G1 X66.251 Y106.963 E.10772
G1 X66.251 Y123.927 E2.28301
G1 X66.343 Y123.927 E.01243
G1 X66.343 Y90 E4.56602
G1 X67.236 Y90 E.12014
G1 X67.236 Y123.927 E4.56602
G1 X68.129 Y123.927 E.12014
G1 X68.129 Y90 E4.56602
G1 X69.022 Y90 E.12014
G1 X69.022 Y123.927 E4.56602
G1 X69.644 Y123.927 E.08375
G1 X69.644 Y140.89 E2.28301
G1 X69.914 Y140.89 E.0364
G1 X69.914 Y103.571 E5.02262
G1 X70.807 Y103.571 E.12014
G1 X70.807 Y140.89 E5.02262
G1 X71.7 Y140.89 E.12014
G1 X71.7 Y103.571 E5.02262
G1 X72.592 Y103.571 E.12014
G1 X72.592 Y141.292 E5.07668
G1 E-.7 F3600
;WIPE_START
G1 F6240
G1 X72.592 Y140.772 E-.285
;WIPE_END
G1 E-.015 F3600
G1 X105.622 Y141.292 F7800
G1 E1 F2400
G1 F1800
G1 X105.622 Y137.396 E.52435
G1 X104.73 Y133.139 E.58539
G1 X104.73 Y140.89 E1.04322
G1 X103.837 Y140.89 E.12014
G1 X103.837 Y126.925 E1.87958
G1 E-.7 F3600
;WIPE_START
G1 F6240
G1 X103.837 Y127.445 E-.285
;WIPE_END
G1 E-.015 F3600
G1 X102.051 Y124.329 F7800
G1 E1 F2400
G1 F1800
G1 X102.051 Y120.368 E.53307
G1 X101.159 Y116.111 E.58539
G1 X101.159 Y123.927 E1.05193
G1 X100.266 Y123.927 E.12014
G1 X100.266 Y109.896 E1.88829
G1 E-.7 F3600
;WIPE_START
G1 F6240
G1 X100.266 Y110.416 E-.285
;WIPE_END
G1 E-.015 F3600
G1 X98.481 Y107.365 F7800
G1 E1 F2400
G1 F1800
G1 X98.481 Y103.34 E.54178
G1 X97.588 Y99.083 E.58539
G1 X97.588 Y107.365 E1.11471
G1 E-.7 F3600
;WIPE_START
G1 F6240
G1 X97.588 Y106.845 E-.285
;WIPE_END
G1 E-.015 F3600
G1 X95.803 Y93.794 F7800
G1 E1 F2400
G1 F1800
G1 X95.803 Y90.568 E.43417
G1 X94.91 Y86.311 E.58539
G1 X94.91 Y93.393 E.95303
G1 X94.017 Y93.393 E.12014
G1 X94.017 Y80.097 E1.78939
G1 E-.7 F3600
;WIPE_START
G1 F6240
G1 X94.017 Y80.617 E-.285
;WIPE_END
G1 E-.015 F3600
G1 X92.232 Y76.831 F7800
G1 E1 F2400
G1 F1800
G1 X92.232 Y73.54 E.44288
G1 X91.339 Y69.283 E.58539
G1 X91.339 Y76.429 E.96175
G1 X90.446 Y76.429 E.12014
G1 X90.446 Y63.069 E1.7981
G1 E-.7 F3600
;WIPE_START
G1 F6240
G1 X90.446 Y63.589 E-.285
;WIPE_END
G1 E-.015 F3600
G1 X88.661 Y59.867 F7800
G1 E1 F2400
G1 F1800
G1 X88.661 Y56.512 E.4516
G1 X87.768 Y52.255 E.58539
G1 X87.768 Y59.466 E.97046
G1 X86.876 Y59.466 E.12014
G1 X86.876 Y46.04 E1.80682
G1 E-.7 F3600
;WIPE_START
G1 F6240
G1 X86.876 Y46.56 E-.285
;WIPE_END
G1 E-.015 F3600
G1 X85.09 Y42.904 F7800
G1 E1 F2400
G1 F1800
G1 X85.09 Y39.484 E.46031
G1 X84.197 Y35.227 E.58539
G1 X84.197 Y42.502 E.97918
G1 X83.305 Y42.502 E.12014
G1 X83.305 Y29.012 E1.81553
G1 X82.412 Y29.333 F7800
G1 F1800
G1 X82.412 Y26.712 E.35269
G1 X81.519 Y22.455 E.58539
G1 X81.519 Y28.931 E.87156
G1 X80.627 Y28.931 E.12014
G1 X80.627 Y15.361 E1.82641
G1 X79.734 Y15.361 E.12014
G1 X79.734 Y22.146 E.91321
G1 X78.841 Y22.146 E.12014
G1 X78.841 Y15.361 E.91321
G1 X77.949 Y15.361 E.12014
G1 X77.949 Y22.146 E.91321
G1 X77.056 Y22.146 E.12014
G1 X77.056 Y15.361 E.91321
G1 X76.163 Y15.361 E.12014
G1 X76.163 Y22.146 E.91321
G1 X75.27 Y22.146 E.12014
G1 X75.27 Y15.361 E.91321
G1 X74.378 Y15.361 E.12014
G1 X74.378 Y22.146 E.91321
G1 X73.485 Y22.146 E.12014
G1 X73.485 Y15.361 E.91321
G1 X72.592 Y15.361 E.12014
G1 X72.592 Y22.146 E.91321
G1 X71.7 Y22.146 E.12014
G1 X71.7 Y15.361 E.91321
G1 X70.807 Y15.361 E.12014
G1 X70.807 Y22.146 E.91321
G1 X69.914 Y22.146 E.12014
G1 X69.914 Y15.361 E.91321
G1 X69.022 Y15.361 E.12014
G1 X69.022 Y22.146 E.91321
G1 X68.129 Y22.146 E.12014
G1 X68.129 Y15.361 E.91321
G1 X67.236 Y15.361 E.12014
G1 X67.236 Y22.146 E.91321
G1 X66.343 Y22.146 E.12014
G1 X66.343 Y15.361 E.91321
G1 X65.451 Y15.361 E.12014
G1 X65.451 Y22.146 E.91321
G1 X64.558 Y22.146 E.12014
G1 X64.558 Y15.361 E.91321
G1 X63.665 Y15.361 E.12014
G1 X63.665 Y22.146 E.91321
G1 X62.773 Y22.146 E.12014
G1 X62.773 Y15.361 E.91321
G1 X61.88 Y15.361 E.12014
G1 X61.88 Y22.146 E.91321
G1 X60.987 Y22.146 E.12014
G1 X60.987 Y15.361 E.91321
G1 X60.095 Y15.361 E.12014
G1 X60.095 Y22.146 E.91321
G1 X59.202 Y22.146 E.12014
G1 X59.202 Y15.361 E.91321
G1 X58.309 Y15.361 E.12014
G1 X58.309 Y22.146 E.91321
G1 X57.416 Y22.146 E.12014
G1 X57.416 Y15.361 E.91321
G1 X56.524 Y15.361 E.12014
G1 X56.524 Y22.146 E.91321
G1 X55.631 Y22.146 E.12014
G1 X55.631 Y15.361 E.91321
G1 X54.738 Y15.361 E.12014
G1 X54.738 Y22.146 E.91321
G1 X53.846 Y22.146 E.12014
G1 X53.846 Y15.361 E.91321
G1 X52.953 Y15.361 E.12014
G1 X52.953 Y59.466 E5.93582
G1 X52.68 Y59.466 E.03669
G1 X52.68 Y42.502 E2.28301
G1 X52.06 Y42.502 E.08345
G1 X52.06 Y15.361 E3.65281
G1 X51.168 Y15.361 E.12014
G1 X51.168 Y42.502 E3.65281
G1 X50.275 Y42.502 E.12014
G1 X50.275 Y15.361 E3.65281
G1 X49.382 Y15.361 E.12014
G1 X49.382 Y42.502 E3.65281
G1 X49.288 Y42.502 E.01273
M73 P0 R712
G1 X49.288 Y25.539 E2.28301
G1 X48.489 Y25.539 E.10742
G1 X48.489 Y15.361 E1.36981
G1 X47.597 Y15.361 E.12014
G1 X47.597 Y25.539 E1.36981
G1 X46.704 Y25.539 E.12014
G1 X46.704 Y15.361 E1.36981
G1 X45.811 Y15.361 E.12014
G1 X45.811 Y22.146 E.91321
G1 X44.919 Y22.146 E.12014
G1 X44.919 Y15.361 E.91321
G1 X44.026 Y15.361 E.12014
G1 X44.026 Y22.146 E.91321
G1 X43.133 Y22.146 E.12014
G1 X43.133 Y15.361 E.91321
G1 X42.241 Y15.361 E.12014
G1 X42.241 Y22.146 E.91321
G1 X41.348 Y22.146 E.12014
G1 X41.348 Y15.361 E.91321
G1 X40.455 Y15.361 E.12014
G1 X40.455 Y22.146 E.91321
G1 X39.563 Y22.146 E.12014
G1 X39.563 Y15.361 E.91321
G1 X38.67 Y15.361 E.12014
G1 X38.67 Y22.146 E.91321
G1 X37.777 Y22.146 E.12014
G1 X37.777 Y15.361 E.91321
G1 X36.884 Y15.361 E.12014
G1 X36.884 Y22.146 E.91321
G1 X35.992 Y22.146 E.12014
G1 X35.992 Y15.361 E.91321
G1 X35.099 Y15.361 E.12014
G1 X35.099 Y22.146 E.91321
G1 X34.206 Y22.146 E.12014
G1 X34.206 Y15.361 E.91321
G1 X33.314 Y15.361 E.12014
G1 X33.314 Y22.146 E.91321
G1 X32.421 Y22.146 E.12014
G1 X32.421 Y15.361 E.91321
G1 X31.528 Y15.361 E.12014
G1 X31.528 Y22.146 E.91321
G1 X30.636 Y22.146 E.12014
G1 X30.636 Y15.361 E.91321
G1 X29.743 Y15.361 E.12014
G1 X29.743 Y22.146 E.91321
G1 X28.85 Y22.146 E.12014
G1 X28.85 Y15.361 E.91321
G1 X27.957 Y15.361 E.12014
G1 X27.957 Y22.146 E.91321
G1 X27.065 Y22.146 E.12014
G1 X27.065 Y15.361 E.91321
G1 X26.172 Y15.361 E.12014
G1 X26.172 Y22.146 E.91321
G1 X25.279 Y22.146 E.12014
G1 X25.279 Y15.361 E.91321
G1 X24.387 Y15.361 E.12014
G1 X24.387 Y22.146 E.91321
G1 X23.494 Y22.146 E.12014
G1 X23.494 Y15.361 E.91321
G1 X22.601 Y15.361 E.12014
G1 X22.601 Y22.146 E.91321
G1 X22.146 Y22.146 E.06126
G1 X22.146 Y39.109 E2.283
G1 X22.601 Y39.109 E.06126
G1 X22.601 Y73.036 E4.56602
G1 X23.494 Y73.036 E.12014
G1 X23.494 Y39.109 E4.56602
G1 X24.387 Y39.109 E.12014
G1 X24.387 Y73.036 E4.56602
G1 X25.279 Y73.036 E.12014
G1 X25.279 Y39.109 E4.56602
G1 X25.539 Y39.109 E.03492
G1 X25.539 Y56.073 E2.28301
G1 X26.172 Y56.073 E.08522
G1 X26.172 Y90 E4.56602
G1 X27.065 Y90 E.12014
G1 X27.065 Y56.073 E4.56602
G1 X27.957 Y56.073 E.12014
G1 X27.957 Y90 E4.56602
G1 X28.85 Y90 E.12014
G1 X28.85 Y56.073 E4.56602
G1 X28.931 Y56.073 E.01095
G1 X28.931 Y69.644 E1.82641
G1 X29.743 Y69.644 E.10919
G1 X29.743 Y106.963 E5.02262
G1 X30.636 Y106.963 E.12014
G1 X30.636 Y69.644 E5.02262
G1 X31.528 Y69.644 E.12014
