; generated by PrusaSlicer 2.5.0+win64 on 2022-12-07 at 00:18:39 UTC

; 

; external perimeters extrusion width = 1.00mm
; perimeters extrusion width = 1.00mm
; infill extrusion width = 1.00mm
; solid infill extrusion width = 1.00mm
; top infill extrusion width = 1.00mm
; support material extrusion width = 1.00mm
; first layer extrusion width = 0.42mm

M73 P0 R586
M107
;TYPE:Custom
G90 ; use absolute coordinates
M83 ; extruder relative mode
M140 S60 ; set final bed temp
M104 S150 ; set temporary nozzle temp to prevent oozing during homing and auto bed leveling
G4 S10 ; allow partial nozzle warmup
G28 ; home all axisG1 Z50 F240
G1 X7.6 Y10 F3000
M104 S210 ; set final nozzle temp
M190 S60 ; wait for bed temp to stabilize
M109 S210 ; wait for nozzle temp to stabilize
G1 Z0.28 F240
G92 E0
G1 Y140 E10 F1500 ; prime the nozzle
G1 X4 F5000
G92 E0
M73 P0 R585
G1 Y10 E10 F1200 ; prime the nozzle
G92 E0
G21 ; set units to millimeters
G90 ; use absolute coordinates
M83 ; use relative distances for extrusion
; Filament gcode
M107
;LAYER_CHANGE
;Z:0.35
;HEIGHT:0.35
;BEFORE_LAYER_CHANGE
G92 E0
;0.35


G1 E-1 F3600
G1 Z.35 F7800
;AFTER_LAYER_CHANGE
;0.35
G1 X24.49 Y14.704
G1 E1 F2400
;TYPE:Support material
;WIDTH:0.42
G1 F1800
G1 X21.49 Y14.704 E.15056
G1 X21.49 Y21.49 E.34053
G1 X18.097 Y21.49 E.17027
G1 X18.097 Y56.729 E1.76855
G1 X21.49 Y56.729 E.17027
G1 X21.49 Y73.693 E.85133
G1 X21.99 Y73.693 E.02509
G1 X21.99 Y154.618 E4.06128
G1 X38.453 Y154.618 E.82624
G1 X38.453 Y155.118 E.02509
G1 X41.846 Y155.118 E.17027
G1 X41.846 Y165.296 E.5108
G1 X44.846 Y165.296 E.15056
G1 X44.846 Y167.876 E.12947
G1 X8.732 Y167.876 E1.81242
G1 X8.732 Y12.124 E7.81652
G1 X24.49 Y12.124 E.79082
G1 X24.49 Y14.652 E.12687
G1 E-.7 F3600
;WIPE_START
G1 F6240
G1 X24.49 Y14.132 E-.285
;WIPE_END
G1 E-.015 F3600
G1 X44.398 Y167.72 F7800
G1 E1 F2400
G1 F1800
G1 X44.398 Y165.606 E.1061
G1 X44.015 Y165.606 E.01923
G1 X44.015 Y167.565 E.09831
G1 X43.632 Y167.565 E.01923
G1 X43.632 Y165.606 E.09831
G1 X43.248 Y165.606 E.01923
G1 X43.248 Y167.565 E.09831
G1 X42.865 Y167.565 E.01923
G1 X42.865 Y165.606 E.09831
G1 X42.482 Y165.606 E.01923
G1 X42.482 Y167.565 E.09831
G1 X42.099 Y167.565 E.01923
G1 X42.099 Y165.606 E.09831
G1 X41.716 Y165.606 E.01923
G1 X41.716 Y167.565 E.09831
G1 X41.332 Y167.565 E.01923
G1 X41.332 Y155.428 E.60911
G1 X40.949 Y155.428 E.01923
G1 X40.949 Y167.565 E.60911
G1 X40.566 Y167.565 E.01923
G1 X40.566 Y155.428 E.60911
G1 X40.183 Y155.428 E.01923
G1 X40.183 Y167.565 E.60911
G1 X39.8 Y167.565 E.01923
G1 X39.8 Y155.428 E.60911
G1 X39.416 Y155.428 E.01923
G1 X39.416 Y167.565 E.60911
G1 X39.033 Y167.565 E.01923
G1 X39.033 Y155.428 E.60911
G1 X38.65 Y155.428 E.01923
G1 X38.65 Y167.565 E.60911
G1 X38.267 Y167.565 E.01923
G1 X38.267 Y155.428 E.60911
G1 X38.143 Y155.428 E.00622
G1 X38.143 Y154.928 E.02509
G1 X37.883 Y154.928 E.01301
G1 X37.883 Y167.565 E.6342
G1 X37.5 Y167.565 E.01923
G1 X37.5 Y154.928 E.6342
G1 X37.117 Y154.928 E.01923
G1 X37.117 Y167.565 E.6342
G1 X36.734 Y167.565 E.01923
G1 X36.734 Y154.928 E.6342
G1 X36.351 Y154.928 E.01923
G1 X36.351 Y167.565 E.6342
G1 X35.967 Y167.565 E.01923
G1 X35.967 Y154.928 E.6342
G1 X35.584 Y154.928 E.01923
G1 X35.584 Y167.565 E.6342
G1 X35.201 Y167.565 E.01923
G1 X35.201 Y154.928 E.6342
G1 X34.818 Y154.928 E.01923
G1 X34.818 Y167.565 E.6342
G1 X34.435 Y167.565 E.01923
G1 X34.435 Y154.928 E.6342
G1 X34.051 Y154.928 E.01923
G1 X34.051 Y167.565 E.6342
G1 X33.668 Y167.565 E.01923
G1 X33.668 Y154.928 E.6342
G1 X33.285 Y154.928 E.01923
G1 X33.285 Y167.565 E.6342
G1 X32.902 Y167.565 E.01923
G1 X32.902 Y154.928 E.6342
G1 X32.519 Y154.928 E.01923
G1 X32.519 Y167.565 E.6342
G1 X32.135 Y167.565 E.01923
G1 X32.135 Y154.928 E.6342
G1 X31.752 Y154.928 E.01923
G1 X31.752 Y167.565 E.6342
G1 X31.369 Y167.565 E.01923
G1 X31.369 Y154.928 E.6342
G1 X30.986 Y154.928 E.01923
G1 X30.986 Y167.565 E.6342
G1 X30.602 Y167.565 E.01923
G1 X30.602 Y154.928 E.6342
G1 X30.219 Y154.928 E.01923
G1 X30.219 Y167.565 E.6342
G1 X29.836 Y167.565 E.01923
G1 X29.836 Y154.928 E.6342
G1 X29.453 Y154.928 E.01923
G1 X29.453 Y167.565 E.6342
G1 X29.07 Y167.565 E.01923
G1 X29.07 Y154.928 E.6342
G1 X28.686 Y154.928 E.01923
G1 X28.686 Y167.565 E.6342
G1 X28.303 Y167.565 E.01923
G1 X28.303 Y154.928 E.6342
G1 X27.92 Y154.928 E.01923
G1 X27.92 Y167.565 E.6342
G1 X27.537 Y167.565 E.01923
G1 X27.537 Y154.928 E.6342
G1 X27.154 Y154.928 E.01923
G1 X27.154 Y167.565 E.6342
G1 X26.77 Y167.565 E.01923
G1 X26.77 Y154.928 E.6342
G1 X26.387 Y154.928 E.01923
G1 X26.387 Y167.565 E.6342
G1 X26.004 Y167.565 E.01923
G1 X26.004 Y154.928 E.6342
G1 X25.621 Y154.928 E.01923
G1 X25.621 Y167.565 E.6342
G1 X25.238 Y167.565 E.01923
G1 X25.238 Y154.928 E.6342
G1 X24.854 Y154.928 E.01923
G1 X24.854 Y167.565 E.6342
G1 X24.471 Y167.565 E.01923
G1 X24.471 Y154.928 E.6342
G1 X24.088 Y154.928 E.01923
G1 X24.088 Y167.565 E.6342
G1 X23.705 Y167.565 E.01923
G1 X23.705 Y154.928 E.6342
G1 X23.321 Y154.928 E.01923
G1 X23.321 Y167.565 E.6342
G1 X22.938 Y167.565 E.01923
G1 X22.938 Y154.928 E.6342
G1 X22.555 Y154.928 E.01923
G1 X22.555 Y167.565 E.6342
G1 X22.172 Y167.565 E.01923
G1 X22.172 Y154.928 E.6342
G1 X21.789 Y154.928 E.01923
G1 X21.789 Y167.565 E.6342
G1 X21.405 Y167.565 E.01923
G1 X21.405 Y74.003 E4.69549
G1 X21.179 Y74.003 E.01135
G1 X21.179 Y57.04 E.85133
G1 X21.022 Y57.04 E.00788
G1 X21.022 Y167.565 E5.54682
G1 X20.639 Y167.565 E.01923
G1 X20.639 Y57.04 E5.54682
G1 X20.256 Y57.04 E.01923
M73 P0 R584
G1 X20.256 Y167.565 E5.54682
G1 X19.873 Y167.565 E.01923
G1 X19.873 Y57.04 E5.54682
G1 X19.489 Y57.04 E.01923
G1 X19.489 Y167.565 E5.54682
G1 X19.106 Y167.565 E.01923
G1 X19.106 Y57.04 E5.54682
G1 X18.723 Y57.04 E.01923
G1 X18.723 Y167.565 E5.54682
G1 X18.34 Y167.565 E.01923
G1 X18.34 Y57.04 E5.54682
G1 X17.957 Y57.04 E.01923
G1 X17.957 Y167.565 E5.54682
G1 X17.573 Y167.565 E.01923
G1 X17.573 Y12.435 E7.78536
G1 X17.957 Y12.435 E.01923
G1 X17.957 Y21.179 E.43885
G1 X18.34 Y21.179 E.01923
G1 X18.34 Y12.435 E.43885
G1 X18.723 Y12.435 E.01923
G1 X18.723 Y21.179 E.43885
G1 X19.106 Y21.179 E.01923
G1 X19.106 Y12.435 E.43885
G1 X19.489 Y12.435 E.01923
G1 X19.489 Y21.179 E.43885
G1 X19.873 Y21.179 E.01923
G1 X19.873 Y12.435 E.43885
G1 X20.256 Y12.435 E.01923
G1 X20.256 Y21.179 E.43885
G1 X20.639 Y21.179 E.01923
G1 X20.639 Y12.435 E.43885
G1 X21.022 Y12.435 E.01923
G1 X21.022 Y21.179 E.43885
G1 X21.179 Y21.179 E.00788
G1 X21.179 Y14.394 E.34053
G1 X21.405 Y14.394 E.01136
G1 X21.405 Y12.435 E.09831
G1 X21.789 Y12.435 E.01923
G1 X21.789 Y14.394 E.09831
G1 X22.172 Y14.394 E.01923
G1 X22.172 Y12.435 E.09831
G1 X22.555 Y12.435 E.01923
G1 X22.555 Y14.394 E.09831
G1 X22.938 Y14.394 E.01923
G1 X22.938 Y12.435 E.09831
G1 X23.321 Y12.435 E.01923
G1 X23.321 Y14.394 E.09831
G1 X23.705 Y14.394 E.01923
G1 X23.705 Y12.435 E.09831
G1 X24.088 Y12.435 E.01923
G1 X24.088 Y14.549 E.1061
G1 E-.7 F3600
;WIPE_START
G1 F6240
G1 X24.088 Y14.029 E-.285
;WIPE_END
G1 E-.015 F3600
G1 X17.19 Y167.72 F7800
G1 E1 F2400
G1 F1800
G1 X17.19 Y12.435 E7.79315
G1 X16.807 Y12.435 E.01923
G1 X16.807 Y167.565 E7.78536
G1 X16.424 Y167.565 E.01923
G1 X16.424 Y12.435 E7.78536
G1 X16.041 Y12.435 E.01923
G1 X16.04 Y167.565 E7.78536
G1 X15.657 Y167.565 E.01923
M73 P0 R583
G1 X15.657 Y12.435 E7.78536
G1 X15.274 Y12.435 E.01923
G1 X15.274 Y167.565 E7.78536
G1 X14.891 Y167.565 E.01923
G1 X14.891 Y12.435 E7.78536
G1 X14.508 Y12.435 E.01923
G1 X14.508 Y167.565 E7.78536
G1 X14.124 Y167.565 E.01923
G1 X14.124 Y12.435 E7.78536
G1 X13.741 Y12.435 E.01923
G1 X13.741 Y167.565 E7.78536
G1 X13.358 Y167.565 E.01923
G1 X13.358 Y12.435 E7.78536
G1 X12.975 Y12.435 E.01923
G1 X12.975 Y167.565 E7.78536
G1 X12.592 Y167.565 E.01923
G1 X12.592 Y12.435 E7.78536
G1 X12.208 Y12.435 E.01923
G1 X12.208 Y167.565 E7.78536
G1 X11.825 Y167.565 E.01923
G1 X11.825 Y12.435 E7.78536
G1 X11.442 Y12.435 E.01923
G1 X11.442 Y167.565 E7.78536
G1 X11.059 Y167.565 E.01923
M73 P0 R582
G1 X11.059 Y12.435 E7.78536
G1 X10.676 Y12.435 E.01923
G1 X10.676 Y167.565 E7.78536
G1 X10.292 Y167.565 E.01923
G1 X10.292 Y12.435 E7.78536
G1 X9.909 Y12.435 E.01923
G1 X9.909 Y167.565 E7.78536
G1 X9.526 Y167.565 E.01923
G1 X9.526 Y12.435 E7.78536
G1 X9.143 Y12.435 E.01923
G1 X9.143 Y167.72 E7.79315
G1 E-.7 F3600
;WIPE_START
G1 F6240
G1 X9.143 Y167.2 E-.285
;WIPE_END
G1 E-.015 F3600
G1 X72.592 Y141.292 F7800
G1 E1 F2400
;TYPE:Support material interface
;WIDTH:1
G1 F1800
G1 X72.592 Y106.963 E4.62008
G1 X71.7 Y106.963 E.12014
G1 X71.7 Y140.891 E4.56602
G1 X70.807 Y140.891 E.12014
G1 X70.807 Y106.963 E4.56602
G1 X69.914 Y106.963 E.12014
G1 X69.914 Y140.891 E4.56602
G1 X69.644 Y140.891 E.0364
G1 X69.644 Y123.927 E2.28301
G1 X69.022 Y123.927 E.08375
G1 X69.022 Y90 E4.56602
G1 X68.129 Y90 E.12014
G1 X68.129 Y123.927 E4.56602
G1 X67.236 Y123.927 E.12014
G1 X67.236 Y90 E4.56602
G1 X66.343 Y90 E.12014
G1 X66.343 Y123.927 E4.56602
G1 X66.251 Y123.927 E.01243
G1 X66.251 Y106.964 E2.28301
G1 X65.451 Y106.964 E.10772
G1 X65.451 Y73.036 E4.56602
G1 X64.558 Y73.036 E.12014
G1 X64.558 Y106.964 E4.56602
G1 X63.665 Y106.964 E.12014
G1 X63.665 Y73.036 E4.56602
G1 X62.858 Y73.036 E.1086
G1 X62.858 Y56.073 E2.28301
G1 X62.773 Y56.073 E.01155
G1 X62.773 Y90 E4.56602
G1 X61.88 Y90 E.12014
G1 X61.88 Y56.073 E4.56602
G1 X60.987 Y56.073 E.12014
G1 X60.987 Y90 E4.56602
G1 X60.095 Y90 E.12014
G1 X60.095 Y56.073 E4.56602
G1 X59.466 Y56.073 E.08463
G1 X59.466 Y42.502 E1.82641
G1 X59.202 Y42.502 E.03551
G1 X59.202 Y76.429 E4.56602
G1 X58.309 Y76.429 E.12014
G1 X58.309 Y42.502 E4.56602
G1 X57.416 Y42.502 E.12014
G1 X57.416 Y76.429 E4.56602
G1 X56.524 Y76.429 E.12014
G1 X56.524 Y42.502 E4.56602
G1 X56.073 Y42.502 E.06066
M73 P0 R581
G1 X56.073 Y25.539 E2.28301
G1 X55.631 Y25.539 E.05948
G1 X55.631 Y59.466 E4.56602
G1 X54.738 Y59.466 E.12014
G1 X54.738 Y25.539 E4.56602
G1 X53.846 Y25.539 E.12014
G1 X53.846 Y59.867 E4.62008
G1 E-.7 F3600
;WIPE_START
G1 F6240
G1 X53.846 Y59.347 E-.285
;WIPE_END
G1 E-.015 F3600
G1 X83.305 Y46.297 F7800
G1 E1 F2400
G1 F1800
G1 X83.305 Y31.787 E1.95276
G1 X84.197 Y36.048 E.58594
G1 X84.197 Y45.895 E1.3252
G1 X85.09 Y45.895 E.12014
G1 X85.09 Y40.31 E.7517
G1 X85.983 Y44.571 E.58594
G1 X85.983 Y46.297 E.23227
G1 X86.876 Y46.873 F7800
G1 F1800
G1 X86.876 Y59.466 E1.69479
G1 X87.768 Y59.466 E.12014
G1 X87.768 Y53.093 E.85763
G1 X88.661 Y57.355 E.58594
G1 X88.661 Y59.867 E.3382
G1 E-.7 F3600
;WIPE_START
G1 F6240
G1 X88.661 Y59.347 E-.285
;WIPE_END
G1 E-.015 F3600
G1 X90.446 Y63.918 F7800
G1 E1 F2400
G1 F1800
G1 X90.446 Y76.429 E1.68383
G1 X91.339 Y76.429 E.12014
G1 X91.339 Y70.138 E.84666
G1 X92.232 Y74.4 E.58594
G1 X92.232 Y76.831 E.32723
G1 E-.7 F3600
;WIPE_START
G1 F6240
G1 X92.232 Y76.311 E-.285
;WIPE_END
G1 E-.015 F3600
G1 X94.017 Y80.963 F7800
G1 E1 F2400
G1 F1800
G1 X94.017 Y93.393 E1.67286
G1 X94.91 Y93.393 E.12014
G1 X94.91 Y87.183 E.83569
G1 X95.803 Y91.445 E.58594
G1 X95.803 Y93.794 E.31626
G1 E-.7 F3600
;WIPE_START
G1 F6240
G1 X95.803 Y93.274 E-.285
;WIPE_END
G1 E-.015 F3600
G1 X97.588 Y107.365 F7800
G1 E1 F2400
G1 F1800
G1 X97.588 Y99.967 E.99568
G1 X98.481 Y104.228 E.58594
G1 X98.481 Y107.365 E.42218
G1 E-.7 F3600
;WIPE_START
G1 F6240
G1 X98.481 Y106.845 E-.285
;WIPE_END
G1 E-.015 F3600
G1 X100.266 Y110.792 F7800
G1 E1 F2400
G1 F1800
G1 X100.266 Y123.927 E1.7678
G1 X101.159 Y123.927 E.12014
G1 X101.159 Y117.012 E.93063
G1 X102.051 Y121.273 E.58594
G1 X102.051 Y124.329 E.4112
G1 E-.7 F3600
;WIPE_START
G1 F6240
G1 X102.051 Y123.809 E-.285
;WIPE_END
G1 E-.015 F3600
G1 X103.837 Y127.837 F7800
G1 E1 F2400
G1 F1800
G1 X103.837 Y140.891 E1.75683
G1 X104.73 Y140.891 E.12014
G1 X104.73 Y134.057 E.91967
G1 X105.622 Y138.318 E.58594
G1 X105.622 Y141.292 E.40024
G1 E-.7 F3600
;WIPE_START
G1 F6240
G1 X105.622 Y140.772 E-.285
;WIPE_END
G1 E-.015 F3600
G1 X147.579 Y165.041 F7800
G1 E1 F2400
G1 F1800
G1 X147.579 Y164.322 E.09683
G1 X146.686 Y164.322 E.12014
G1 X146.686 Y164.639 E.04276
G1 X145.794 Y164.639 E.12014
G1 X145.794 Y164.322 E.04276
G1 X144.901 Y164.322 E.12014
G1 X144.901 Y164.639 E.04276
G1 X144.008 Y164.639 E.12014
G1 X144.008 Y164.322 E.04276
G1 X143.116 Y164.322 E.12014
G1 X143.116 Y164.639 E.04276
G1 X142.223 Y164.639 E.12014
G1 X142.223 Y164.322 E.04276
G1 X141.33 Y164.322 E.12014
G1 X141.33 Y164.639 E.04276
G1 X140.437 Y164.639 E.12014
G1 X140.437 Y164.322 E.04276
G1 X139.545 Y164.322 E.12014
G1 X139.545 Y164.639 E.04276
G1 X138.652 Y164.639 E.12014
G1 X138.652 Y164.322 E.04276
G1 X137.759 Y164.322 E.12014
G1 X137.759 Y164.639 E.04276
G1 X136.867 Y164.639 E.12014
G1 X136.867 Y164.322 E.04276
G1 X135.974 Y164.322 E.12014
G1 X135.974 Y164.639 E.04276
G1 X135.081 Y164.639 E.12014
G1 X135.081 Y164.322 E.04276
G1 X134.189 Y164.322 E.12014
G1 X134.189 Y164.639 E.04276
G1 X133.296 Y164.639 E.12014
G1 X133.296 Y164.322 E.04276
G1 X132.403 Y164.322 E.12014
G1 X132.403 Y164.639 E.04276
G1 X131.51 Y164.639 E.12014
G1 X131.51 Y164.322 E.04276
G1 X130.618 Y164.322 E.12014
G1 X130.618 Y164.639 E.04276
G1 X129.725 Y164.639 E.12014
G1 X129.725 Y164.322 E.04276
G1 X128.832 Y164.322 E.12014
G1 X128.832 Y164.639 E.04276
G1 X127.94 Y164.639 E.12014
G1 X127.94 Y164.322 E.04276
G1 X127.047 Y164.322 E.12014
G1 X127.047 Y164.639 E.04276
G1 X126.154 Y164.639 E.12014
G1 X126.154 Y164.322 E.04276
G1 X125.262 Y164.322 E.12014
G1 X125.262 Y164.639 E.04276
G1 X124.369 Y164.639 E.12014
G1 X124.369 Y164.322 E.04276
G1 X123.476 Y164.322 E.12014
G1 X123.476 Y164.639 E.04276
G1 X122.583 Y164.639 E.12014
G1 X122.583 Y164.322 E.04276
G1 X121.691 Y164.322 E.12014
G1 X121.691 Y164.639 E.04276
G1 X120.798 Y164.639 E.12014
G1 X120.798 Y164.322 E.04276
G1 X119.905 Y164.322 E.12014
G1 X119.905 Y164.639 E.04276
G1 X119.013 Y164.639 E.12014
G1 X119.013 Y164.322 E.04276
G1 X118.12 Y164.322 E.12014
G1 X118.12 Y164.639 E.04276
G1 X117.227 Y164.639 E.12014
G1 X117.227 Y164.322 E.04276
G1 X116.335 Y164.322 E.12014
G1 X116.335 Y164.639 E.04276
G1 X115.442 Y164.639 E.12014
G1 X115.442 Y164.322 E.04276
G1 X114.549 Y164.322 E.12014
G1 X114.549 Y164.639 E.04276
G1 X113.656 Y164.639 E.12014
G1 X113.656 Y164.322 E.04276
G1 X112.764 Y164.322 E.12014
G1 X112.764 Y164.639 E.04276
G1 X111.871 Y164.639 E.12014
G1 X111.871 Y164.322 E.04276
G1 X111.731 Y164.322 E.01884
G1 X110.978 Y163.71 E.1305
G1 X110.978 Y164.639 E.12504
G1 X110.086 Y164.639 E.12014
G1 X110.086 Y159.625 E.67492
G1 X109.193 Y155.363 E.58594
G1 X109.193 Y164.639 E1.24841
G1 X108.3 Y164.639 E.12014
G1 X108.3 Y151.102 E1.8219
G1 X107.408 Y146.841 E.58594
G1 X107.408 Y164.639 E2.3954
G1 X106.515 Y164.639 E.12014
G1 X106.515 Y157.854 E.91321
G1 X105.622 Y157.854 E.12014
G1 X105.622 Y164.639 E.91321
G1 X104.73 Y164.639 E.12014
G1 X104.73 Y157.854 E.91321
G1 X103.837 Y157.854 E.12014
G1 X103.837 Y164.639 E.91321
G1 X102.944 Y164.639 E.12014
G1 X102.944 Y157.854 E.91321
G1 X102.051 Y157.854 E.12014
G1 X102.051 Y164.639 E.91321
G1 X101.159 Y164.639 E.12014
G1 X101.159 Y157.854 E.91321
G1 X100.266 Y157.854 E.12014
G1 X100.266 Y164.639 E.91321
G1 X99.373 Y164.639 E.12014
G1 X99.373 Y157.854 E.91321
G1 X98.481 Y157.854 E.12014
G1 X98.481 Y164.639 E.91321
G1 X97.588 Y164.639 E.12014
G1 X97.588 Y157.854 E.91321
G1 X96.695 Y157.854 E.12014
G1 X96.695 Y164.639 E.91321
G1 X95.803 Y164.639 E.12014
G1 X95.803 Y157.854 E.91321
G1 X94.91 Y157.854 E.12014
G1 X94.91 Y164.639 E.91321
G1 X94.017 Y164.639 E.12014
G1 X94.017 Y157.854 E.91321
G1 X93.124 Y157.854 E.12014
G1 X93.124 Y164.639 E.91321
G1 X92.232 Y164.639 E.12014
G1 X92.232 Y157.854 E.91321
G1 X91.339 Y157.854 E.12014
G1 X91.339 Y164.639 E.91321
G1 X90.446 Y164.639 E.12014
G1 X90.446 Y157.854 E.91321
G1 X89.554 Y157.854 E.12014
G1 X89.554 Y164.639 E.91321
G1 X88.661 Y164.639 E.12014
G1 X88.661 Y157.854 E.91321
G1 X87.768 Y157.854 E.12014
G1 X87.768 Y164.639 E.91321
G1 X86.876 Y164.639 E.12014
G1 X86.876 Y157.854 E.91321
G1 X85.983 Y157.854 E.12014
G1 X85.983 Y164.639 E.91321
G1 X85.09 Y164.639 E.12014
G1 X85.09 Y157.854 E.91321
G1 X84.197 Y157.854 E.12014
G1 X84.197 Y164.639 E.91321
G1 X83.305 Y164.639 E.12014
G1 X83.305 Y157.854 E.91321
G1 X83.215 Y157.854 E.01212
G1 X83.215 Y154.461 E.4566
G1 X82.412 Y154.461 E.10802
