; generated by PrusaSlicer 2.5.0+win64 on 2022-12-07 at 00:19:00 UTC

; 

; external perimeters extrusion width = 1.00mm
; perimeters extrusion width = 1.00mm
; infill extrusion width = 1.00mm
; solid infill extrusion width = 1.00mm
; top infill extrusion width = 1.00mm
; support material extrusion width = 1.00mm
; first layer extrusion width = 0.42mm

M73 P0 R11
M107
;TYPE:Custom
G90 ; use absolute coordinates
M83 ; extruder relative mode
M140 S60 ; set final bed temp
M104 S150 ; set temporary nozzle temp to prevent oozing during homing and auto bed leveling
G4 S10 ; allow partial nozzle warmup
G28 ; home all axisG1 Z50 F240
G1 X7.6 Y10 F3000
M104 S210 ; set final nozzle temp
M190 S60 ; wait for bed temp to stabilize
M109 S210 ; wait for nozzle temp to stabilize
G1 Z0.28 F240
G92 E0
G1 Y140 E10 F1500 ; prime the nozzle
G1 X4 F5000
G92 E0
G1 Y10 E10 F1200 ; prime the nozzle
G92 E0
G21 ; set units to millimeters
G90 ; use absolute coordinates
M83 ; use relative distances for extrusion
; Filament gcode
M107
;LAYER_CHANGE
;Z:0.35
;HEIGHT:0.35
;BEFORE_LAYER_CHANGE
G92 E0
;0.35


G1 E-1 F3600
M73 P1 R11
G1 Z.35 F7800
;AFTER_LAYER_CHANGE
;0.35
G1 X71.256 Y110.036
G1 E1 F2400
;TYPE:Perimeter
;WIDTH:0.42
G1 F1800
G1 X71.256 Y71.659 E1.92599
G1 X107.197 Y110.036 E2.63874
M73 P2 R11
G1 X71.406 Y110.036 E1.79621
G1 X70.911 Y110.381 F7800
;TYPE:External perimeter
G1 F1800
G1 X70.911 Y70.786 E1.98711
G1 X107.992 Y110.381 E2.72246
G1 X71.061 Y110.381 E1.85344
M73 P3 R11
G1 X71.777 Y110.881 F7800
M73 P3 R10
G1 E-.7 F3600
;WIPE_START
G1 F6240
G1 X71.059 Y109.861 E-.285
;WIPE_END
G1 E-.015 F3600
G1 X81.773 Y83.041 F7800
G1 E1 F2400
;TYPE:Solid infill
;WIDTH:0.420259
G1 F1800
G1 X71.514 Y72.782 E.72864
G1 X71.514 Y73.27 E.02451
G1 X85.625 Y87.381 E1.00222
G1 X92.826 Y95.07 E.52912
G1 X71.514 Y73.758 E1.51372
G1 X71.514 Y74.246 E.02451
G1 X100.028 Y102.76 E2.02523
G1 X106.6 Y109.778 E.48289
G1 X106.558 Y109.778 E.00214
M73 P4 R10
G1 X71.514 Y74.734 E2.48901
G1 X71.514 Y75.223 E.02451
G1 X106.069 Y109.778 E2.45434
G1 X105.581 Y109.778 E.02451
G1 X71.514 Y75.711 E2.41967
G1 X71.514 Y76.199 E.02451
G1 X105.093 Y109.778 E2.385
G1 X104.605 Y109.778 E.02451
M73 P5 R10
G1 X71.514 Y76.687 E2.35034
G1 X71.514 Y77.175 E.02451
G1 X104.117 Y109.778 E2.31567
G1 X103.629 Y109.778 E.02451
G1 X71.514 Y77.663 E2.281
G1 X71.514 Y78.151 E.02451
G1 X103.141 Y109.778 E2.24633
G1 X102.653 Y109.778 E.02451
G1 X71.514 Y78.639 E2.21166
G1 X71.514 Y79.127 E.02451
M73 P6 R10
G1 X102.165 Y109.778 E2.17699
G1 X101.676 Y109.778 E.02451
G1 X71.514 Y79.616 E2.14232
G1 X71.514 Y80.104 E.02451
G1 X101.188 Y109.778 E2.10765
G1 X100.7 Y109.778 E.02451
G1 X71.514 Y80.592 E2.07298
G1 X71.514 Y81.08 E.02451
M73 P7 R10
G1 X100.212 Y109.778 E2.03831
G1 X99.724 Y109.778 E.02451
G1 X71.514 Y81.568 E2.00364
G1 X71.514 Y82.056 E.02451
G1 X99.236 Y109.778 E1.96898
G1 X98.748 Y109.778 E.02451
G1 X71.514 Y82.544 E1.93431
G1 X71.514 Y83.032 E.02451
G1 X98.26 Y109.778 E1.89964
G1 X97.772 Y109.778 E.02451
M73 P8 R10
G1 X71.514 Y83.52 E1.86497
G1 X71.514 Y84.009 E.02451
G1 X97.283 Y109.778 E1.8303
G1 X96.795 Y109.778 E.02451
G1 X71.514 Y84.497 E1.79563
G1 X71.514 Y84.985 E.02451
G1 X96.307 Y109.778 E1.76096
G1 X95.819 Y109.778 E.02451
G1 X71.514 Y85.473 E1.72629
G1 X71.514 Y85.961 E.02451
G1 X95.331 Y109.778 E1.69162
G1 X94.843 Y109.778 E.02451
M73 P9 R10
G1 X71.514 Y86.449 E1.65695
G1 X71.514 Y86.937 E.02451
G1 X94.355 Y109.778 E1.62228
G1 X93.867 Y109.778 E.02451
G1 X71.514 Y87.425 E1.58761
G1 X71.514 Y87.914 E.02451
G1 X93.378 Y109.778 E1.55295
G1 X92.89 Y109.778 E.02451
G1 X71.514 Y88.402 E1.51828
G1 X71.514 Y88.89 E.02451
G1 X92.402 Y109.778 E1.48361
G1 X91.914 Y109.778 E.02451
M73 P10 R10
G1 X71.514 Y89.378 E1.44894
G1 X71.514 Y89.866 E.02451
G1 X91.426 Y109.778 E1.41427
G1 X90.938 Y109.778 E.02451
G1 X71.514 Y90.354 E1.3796
G1 X71.514 Y90.842 E.02451
G1 X90.45 Y109.778 E1.34493
G1 X89.962 Y109.778 E.02451
G1 X71.514 Y91.33 E1.31026
G1 X71.514 Y91.818 E.02451
G1 X89.474 Y109.778 E1.27559
G1 X88.985 Y109.778 E.02451
G1 X71.514 Y92.307 E1.24092
G1 X71.514 Y92.795 E.02451
M73 P11 R10
G1 X88.497 Y109.778 E1.20625
G1 X88.009 Y109.778 E.02451
G1 X71.514 Y93.283 E1.17159
G1 X71.514 Y93.771 E.02451
G1 X87.521 Y109.778 E1.13692
G1 X87.033 Y109.778 E.02451
G1 X71.514 Y94.259 E1.10225
G1 X71.514 Y94.747 E.02451
G1 X86.545 Y109.778 E1.06758
G1 X86.057 Y109.778 E.02451
G1 X71.514 Y95.235 E1.03291
G1 X71.514 Y95.723 E.02451
G1 X85.569 Y109.778 E.99824
G1 X85.081 Y109.778 E.02451
G1 X71.514 Y96.211 E.96357
G1 X71.514 Y96.7 E.02451
M73 P12 R9
G1 X84.592 Y109.778 E.9289
G1 X84.104 Y109.778 E.02451
G1 X71.514 Y97.188 E.89423
G1 X71.514 Y97.676 E.02451
G1 X83.616 Y109.778 E.85956
G1 X83.128 Y109.778 E.02451
G1 X71.514 Y98.164 E.82489
G1 X71.514 Y98.652 E.02451
G1 X82.64 Y109.778 E.79022
G1 X82.152 Y109.778 E.02451
G1 X71.514 Y99.14 E.75556
G1 X71.514 Y99.628 E.02451
G1 X81.664 Y109.778 E.72089
G1 X81.176 Y109.778 E.02451
G1 X71.514 Y100.116 E.68622
G1 X71.514 Y100.604 E.02451
G1 X80.688 Y109.778 E.65155
G1 X80.199 Y109.778 E.02451
G1 X71.514 Y101.093 E.61688
G1 X71.514 Y101.581 E.02451
G1 X79.711 Y109.778 E.58221
G1 X79.223 Y109.778 E.02451
G1 X71.514 Y102.069 E.54754
G1 X71.514 Y102.557 E.02451
G1 X78.735 Y109.778 E.51287
G1 X78.247 Y109.778 E.02451
M73 P13 R9
G1 X71.514 Y103.045 E.4782
G1 X71.514 Y103.533 E.02451
G1 X77.759 Y109.778 E.44353
G1 X77.271 Y109.778 E.02451
G1 X71.514 Y104.021 E.40886
G1 X71.514 Y104.509 E.02451
G1 X76.783 Y109.778 E.3742
G1 X76.295 Y109.778 E.02451
G1 X71.514 Y104.997 E.33953
G1 X71.514 Y105.486 E.02451
G1 X75.806 Y109.778 E.30486
G1 X75.318 Y109.778 E.02451
G1 X71.514 Y105.974 E.27019
G1 X71.514 Y106.462 E.02451
G1 X74.83 Y109.778 E.23552
G1 X74.342 Y109.778 E.02451
G1 X71.514 Y106.95 E.20085
G1 X71.514 Y107.438 E.02451
G1 X73.854 Y109.778 E.16618
G1 X73.366 Y109.778 E.02451
G1 X71.514 Y107.926 E.13151
G1 X71.514 Y108.414 E.02451
G1 X72.878 Y109.778 E.09684
G1 X72.39 Y109.778 E.02451
G1 X71.514 Y108.902 E.06217
G1 X71.514 Y109.39 E.02451
G1 X72.057 Y109.933 E.03853
M106 S255
;LAYER_CHANGE
;Z:0.85
;HEIGHT:0.5
;BEFORE_LAYER_CHANGE
G92 E0
;0.85


G1 E-.7 F3600
;WIPE_START
G1 F6240
G1 X71.689 Y109.565 E-.285
;WIPE_END
G1 E-.015 F3600
G1 Z.85 F7800
;AFTER_LAYER_CHANGE
;0.85
M104 S205 ; set temperature
G1 X72.093 Y109.199
G1 E1 F2400
;TYPE:Perimeter
;WIDTH:1
G1 F2016.357
G1 X72.093 Y74.523 E6.43474
G1 X104.568 Y109.199 E8.816
G1 X72.243 Y109.199 E5.99844
G1 X71.201 Y110.091 F7800
;TYPE:External perimeter
M73 P14 R9
G1 F1800
G1 X71.201 Y72.264 E7.01963
G1 X106.627 Y110.091 E9.61734
G1 X71.351 Y110.091 E6.5462
G1 X72.067 Y110.591 F7800
G1 E-.7 F3600
;WIPE_START
G1 F6240
G1 X71.349 Y109.571 E-.285
;WIPE_END
G1 E-.015 F3600
G1 X103.088 Y108.01 F7800
G1 E1 F2400
;TYPE:Solid infill
;WIDTH:1.01717
G1 F1200
G1 X102.569 Y108.529 E.13877
G1 X101.282 Y108.529 E.24337
G1 X102.181 Y107.63 E.24048
G1 X101.559 Y106.966 E.17218
G1 X99.996 Y108.529 E.41821
G1 X98.709 Y108.529 E.24337
G1 X100.937 Y106.301 E.59595
G1 X100.315 Y105.637 E.17218
G1 X97.422 Y108.529 E.77368
G1 X96.135 Y108.529 E.24337
G1 X99.692 Y104.972 E.95141
G1 X99.07 Y104.308 E.17218
M73 P15 R9
G1 X94.849 Y108.529 E1.12914
G1 X93.562 Y108.529 E.24337
G1 X98.448 Y103.643 E1.30687
G1 X97.826 Y102.979 E.17218
G1 X92.275 Y108.529 E1.4846
G1 X90.988 Y108.529 E.24337
G1 X97.203 Y102.314 E1.66234
G1 X96.581 Y101.65 E.17218
G1 X89.702 Y108.529 E1.84007
G1 X88.415 Y108.529 E.24337
G1 X95.959 Y100.985 E2.0178
G1 X95.336 Y100.321 E.17218
G1 X87.128 Y108.529 E2.19553
G1 X85.842 Y108.529 E.24337
G1 X94.714 Y99.656 E2.37326
G1 X94.092 Y98.992 E.17218
G1 X84.555 Y108.529 E2.551
G1 X83.268 Y108.529 E.24337
G1 X93.47 Y98.328 E2.72873
G1 X92.847 Y97.663 E.17218
G1 X81.981 Y108.529 E2.90646
G1 X80.695 Y108.529 E.24337
G1 X92.225 Y96.999 E3.08419
M73 P16 R9
G1 X91.603 Y96.334 E.17218
G1 X79.408 Y108.529 E3.26192
G1 X78.121 Y108.529 E.24337
G1 X90.98 Y95.67 E3.43965
G1 X90.358 Y95.005 E.17218
G1 X76.834 Y108.529 E3.61739
G1 X75.548 Y108.529 E.24337
G1 X89.736 Y94.341 E3.79512
G1 X89.114 Y93.676 E.17218
G1 X74.261 Y108.529 E3.97285
G1 X72.974 Y108.529 E.24337
G1 X88.491 Y93.012 E4.15058
G1 X87.869 Y92.347 E.17218
M73 P17 R9
G1 X72.763 Y107.453 E4.04061
G1 X72.763 Y106.167 E.24337
G1 X87.247 Y91.683 E3.87416
G1 X86.624 Y91.018 E.17218
G1 X72.763 Y104.88 E3.70771
G1 X72.763 Y103.593 E.24337
G1 X86.002 Y90.354 E3.54126
G1 X85.38 Y89.69 E.17218
G1 X72.763 Y102.306 E3.37481
G1 X72.763 Y101.02 E.24337
G1 X84.758 Y89.025 E3.20836
G1 X84.135 Y88.361 E.17218
G1 X72.763 Y99.733 E3.04191
G1 X72.763 Y98.446 E.24337
M73 P18 R9
G1 X83.513 Y87.696 E2.87546
G1 X82.891 Y87.032 E.17218
G1 X72.763 Y97.159 E2.70901
G1 X72.763 Y95.873 E.24337
G1 X82.268 Y86.367 E2.54256
G1 X81.646 Y85.703 E.17218
G1 X72.763 Y94.586 E2.37611
G1 X72.763 Y93.299 E.24337
G1 X81.024 Y85.038 E2.20966
G1 X80.402 Y84.374 E.17218
G1 X72.763 Y92.013 E2.04321
G1 X72.763 Y90.726 E.24337
G1 X79.779 Y83.709 E1.87676
G1 X79.157 Y83.045 E.17218
G1 X72.763 Y89.439 E1.71031
G1 X72.763 Y88.152 E.24337
G1 X78.535 Y82.38 E1.54386
G1 X77.912 Y81.716 E.17218
G1 X72.763 Y86.866 E1.37741
G1 X72.763 Y85.579 E.24337
M73 P19 R9
G1 X77.29 Y81.052 E1.21096
G1 X76.668 Y80.387 E.17218
G1 X72.763 Y84.292 E1.04451
G1 X72.763 Y83.005 E.24337
G1 X76.046 Y79.723 E.87806
G1 X75.423 Y79.058 E.17218
G1 X72.763 Y81.719 E.71161
G1 X72.763 Y80.432 E.24337
G1 X74.801 Y78.394 E.54516
G1 X74.179 Y77.729 E.17218
G1 X72.763 Y79.145 E.37871
G1 X72.763 Y77.858 E.24337
G1 X73.556 Y77.065 E.21226
G1 X72.934 Y76.4 E.17218
G1 X72.361 Y76.973 E.15326
;LAYER_CHANGE
;Z:1.35
;HEIGHT:0.5
;BEFORE_LAYER_CHANGE
G92 E0
;1.35


G1 E-.7 F3600
;WIPE_START
G1 F6240
G1 X72.729 Y76.606 E-.285
;WIPE_END
G1 E-.015 F3600
G1 Z1.35 F7800
;AFTER_LAYER_CHANGE
;1.35
G1 X72.093 Y109.199
G1 E1 F2400
;TYPE:Perimeter
;WIDTH:1
G1 F2016.357
G1 X72.093 Y75.398 E6.27236
G1 X103.748 Y109.199 E8.59353
G1 X72.243 Y109.199 E5.84636
G1 X71.201 Y110.091 F7800
;TYPE:External perimeter
G1 F1800
G1 X71.201 Y73.139 E6.85726
G1 X105.807 Y110.091 E9.39487
M73 P20 R9
G1 X71.351 Y110.091 E6.39413
G1 X72.067 Y110.591 F7800
G1 E-.7 F3600
;WIPE_START
G1 F6240
G1 X71.349 Y109.571 E-.285
;WIPE_END
G1 E-.015 F3600
G1 X99.453 Y105.004 F7800
G1 E1 F2400
;TYPE:Solid infill
;WIDTH:1.00512
G1 F1200
G1 X72.763 Y78.314 E7.04456
G1 X72.763 Y79.584 E.23697
M73 P20 R8
G1 X101.708 Y108.529 E7.63993
G1 X100.439 Y108.529 E.23697
M73 P21 R8
G1 X72.763 Y80.853 E7.3048
G1 X72.763 Y82.123 E.23697
G1 X99.169 Y108.529 E6.96967
G1 X97.899 Y108.529 E.23697
G1 X72.763 Y83.393 E6.63454
G1 X72.763 Y84.662 E.23697
M73 P22 R8
G1 X96.63 Y108.529 E6.29941
G1 X95.36 Y108.529 E.23697
G1 X72.763 Y85.932 E5.96428
G1 X72.763 Y87.202 E.23697
G1 X94.09 Y108.529 E5.62915
G1 X92.82 Y108.529 E.23697
G1 X72.763 Y88.472 E5.29402
G1 X72.763 Y89.741 E.23697
M73 P23 R8
G1 X91.551 Y108.529 E4.95889
G1 X90.281 Y108.529 E.23697
G1 X72.763 Y91.011 E4.62376
G1 X72.763 Y92.281 E.23697
G1 X89.011 Y108.529 E4.28863
G1 X87.742 Y108.529 E.23697
G1 X72.763 Y93.55 E3.9535
G1 X72.763 Y94.82 E.23697
G1 X86.472 Y108.529 E3.61837
G1 X85.202 Y108.529 E.23697
G1 X72.763 Y96.09 E3.28324
G1 X72.763 Y97.36 E.23697
M73 P24 R8
G1 X83.932 Y108.529 E2.94811
G1 X82.663 Y108.529 E.23697
G1 X72.763 Y98.629 E2.61298
G1 X72.763 Y99.899 E.23697
G1 X81.393 Y108.529 E2.27785
G1 X80.123 Y108.529 E.23697
G1 X72.763 Y101.169 E1.94272
G1 X72.763 Y102.438 E.23697
G1 X78.854 Y108.529 E1.60759
G1 X77.584 Y108.529 E.23697
G1 X72.763 Y103.708 E1.27246
G1 X72.763 Y104.978 E.23697
G1 X76.314 Y108.529 E.93733
G1 X75.044 Y108.529 E.23697
G1 X72.763 Y106.248 E.6022
G1 X72.763 Y107.517 E.23697
G1 X74.176 Y108.931 E.3731
;LAYER_CHANGE
;Z:1.85
;HEIGHT:0.5
;BEFORE_LAYER_CHANGE
G92 E0
;1.85


G1 E-.7 F3600
;WIPE_START
G1 F6240
G1 X73.809 Y108.563 E-.285
;WIPE_END
G1 E-.015 F3600
G1 Z1.85 F7800
;AFTER_LAYER_CHANGE
;1.85
G1 X72.093 Y109.199
G1 E1 F2400
;TYPE:Perimeter
;WIDTH:1
G1 F1422
G1 X72.093 Y76.273 E6.10999
G1 X102.929 Y109.199 E8.37106
M73 P25 R8
G1 X72.243 Y109.199 E5.69429
G1 X71.201 Y110.091 F7800
;TYPE:External perimeter
G1 F1422
G1 X71.201 Y74.014 E6.69488
G1 X104.988 Y110.091 E9.1724
G1 X71.351 Y110.091 E6.24205
M73 P26 R8
G1 X72.067 Y110.591 F7800
G1 E-.7 F3600
;WIPE_START
G1 F6240
G1 X71.349 Y109.571 E-.285
;WIPE_END
G1 E-.015 F3600
G1 X79.223 Y89.516 F7800
G1 E1 F2400
;TYPE:Internal infill
;WIDTH:0.842699
;HEIGHT:1
G1 F1422
G1 X82.885 Y93.425 E1.24201
G1 X75.033 Y93.425 E1.82058
G1 X72.763 Y91.155 E.74458
G1 X72.763 Y107.239 E3.72969
G1 X75.033 Y104.969 E.74458
G1 X86.577 Y104.969 E2.67669
G1 X90.137 Y108.529 E1.16759
G1 X95.493 Y108.529 E1.24201
G1 E-.7 F3600
;WIPE_START
G1 F6240
G1 X94.973 Y108.529 E-.285
;WIPE_END
G1 E-.015 F3600
G1 X101.461 Y108.023 F7800
G1 E1 F2400
;TYPE:Solid infill
;WIDTH:1.0054
;HEIGHT:0.5
G1 F1200
G1 X100.955 Y108.529 E.13357
G1 X99.685 Y108.529 E.23712
G1 X100.563 Y107.651 E.2317
G1 X99.948 Y106.996 E.16776
G1 X98.415 Y108.529 E.40486
G1 X98.253 Y108.529 E.03027
G1 X97.717 Y107.957 E.14634
G1 X99.334 Y106.34 E.42697
G1 X98.72 Y105.684 E.16776
G1 X97.103 Y107.301 E.42697
G1 X96.488 Y106.645 E.16776
G1 X98.106 Y105.028 E.42697
G1 X97.491 Y104.372 E.16776
G1 X95.874 Y105.989 E.42697
G1 X95.26 Y105.333 E.16776
G1 X96.877 Y103.716 E.42697
G1 X96.263 Y103.06 E.16776
G1 X94.646 Y104.678 E.42697
M73 P27 R8
G1 X94.032 Y104.022 E.16776
G1 X95.649 Y102.405 E.42697
G1 X95.034 Y101.749 E.16776
G1 X93.417 Y103.366 E.42697
G1 X92.803 Y102.71 E.16776
G1 X94.42 Y101.093 E.42697
G1 X93.806 Y100.437 E.16776
G1 X92.189 Y102.054 E.42697
G1 X91.575 Y101.398 E.16776
G1 X93.192 Y99.781 E.42697
G1 X92.578 Y99.125 E.16776
G1 X90.96 Y100.742 E.42697
G1 X90.346 Y100.086 E.16776
G1 X91.963 Y98.469 E.42697
G1 X91.349 Y97.813 E.16776
G1 X89.732 Y99.431 E.42697
G1 X89.118 Y98.775 E.16776
G1 X90.735 Y97.158 E.42697
G1 X90.121 Y96.502 E.16776
G1 X88.503 Y98.119 E.42697
G1 X87.889 Y97.463 E.16776
G1 X89.506 Y95.846 E.42697
G1 X88.892 Y95.19 E.16776
G1 X87.275 Y96.807 E.42697
G1 X86.661 Y96.151 E.16776
G1 X88.278 Y94.534 E.42697
G1 X87.664 Y93.878 E.16776
G1 X86.047 Y95.495 E.42697
G1 X85.432 Y94.84 E.16776
G1 X87.049 Y93.222 E.42697
G1 X86.435 Y92.567 E.16776
G1 X84.818 Y94.184 E.42697
G1 X84.204 Y93.528 E.16776
G1 X85.821 Y91.911 E.42697
G1 X85.207 Y91.255 E.16776
G1 X83.59 Y92.872 E.42697
G1 X82.975 Y92.216 E.16776
G1 X84.593 Y90.599 E.42697
G1 X83.978 Y89.943 E.16776
G1 X82.361 Y91.56 E.42697
G1 X81.747 Y90.904 E.16776
G1 X83.364 Y89.287 E.42697
G1 X82.75 Y88.631 E.16776
G1 X81.133 Y90.248 E.42697
G1 X80.518 Y89.593 E.16776
G1 X82.136 Y87.975 E.42697
G1 X81.521 Y87.32 E.16776
G1 X79.904 Y88.937 E.42697
G1 X79.29 Y88.281 E.16776
G1 X80.907 Y86.664 E.42696
G1 X80.293 Y86.008 E.16776
G1 X78.676 Y87.625 E.42697
G1 X78.062 Y86.969 E.16776
G1 X79.679 Y85.352 E.42696
G1 X79.064 Y84.696 E.16776
G1 X77.447 Y86.313 E.42697
G1 X76.833 Y85.657 E.16776
G1 X78.45 Y84.04 E.42696
G1 X77.836 Y83.384 E.16776
G1 X76.219 Y85.002 E.42696
G1 X75.605 Y84.346 E.16776
G1 X77.222 Y82.729 E.42696
G1 X76.608 Y82.073 E.16776
G1 X74.99 Y83.69 E.42696
G1 X74.376 Y83.034 E.16776
G1 X75.993 Y81.417 E.42696
G1 X75.379 Y80.761 E.16776
G1 X73.762 Y82.378 E.42696
G1 X73.148 Y81.722 E.16776
G1 X74.765 Y80.105 E.42696
G1 X74.151 Y79.449 E.16776
G1 X72.763 Y80.837 E.36637
G1 X72.763 Y79.567 E.23712
G1 X73.536 Y78.793 E.2042
G1 X72.922 Y78.137 E.16776
G1 X72.361 Y78.698 E.14809
;LAYER_CHANGE
;Z:2.35
;HEIGHT:0.5
;BEFORE_LAYER_CHANGE
G92 E0
;2.35


G1 E-.7 F3600
;WIPE_START
G1 F6240
G1 X72.729 Y78.331 E-.285
;WIPE_END
G1 E-.015 F3600
G1 Z2.35 F7800
;AFTER_LAYER_CHANGE
;2.35
G1 X72.093 Y109.199
M73 P28 R8
G1 E1 F2400
;TYPE:Perimeter
;WIDTH:1
G1 F1293
G1 X72.093 Y77.148 E5.94762
G1 X102.109 Y109.199 E8.1486
G1 X72.243 Y109.199 E5.54222
G1 X71.201 Y110.091 F7800
;TYPE:External perimeter
G1 F1293
G1 X71.201 Y74.889 E6.53251
G1 X104.168 Y110.091 E8.94994
M73 P29 R8
G1 X71.351 Y110.091 E6.08998
G1 X72.067 Y110.591 F7800
M73 P29 R7
G1 E-.7 F3600
;WIPE_START
G1 F6240
G1 X71.349 Y109.571 E-.285
;WIPE_END
G1 E-.015 F3600
G1 X83.269 Y94.711 F7800
G1 E1 F2400
;TYPE:Internal infill
;WIDTH:0.842699
