; generated by PrusaSlicer 2.5.0+win64 on 2022-12-07 at 00:19:21 UTC

; 

; external perimeters extrusion width = 1.00mm
; perimeters extrusion width = 1.00mm
; infill extrusion width = 1.00mm
; solid infill extrusion width = 1.00mm
; top infill extrusion width = 1.00mm
; support material extrusion width = 1.00mm
; first layer extrusion width = 0.42mm

M73 P0 R146
M107
;TYPE:Custom
G90 ; use absolute coordinates
M83 ; extruder relative mode
M140 S60 ; set final bed temp
M104 S150 ; set temporary nozzle temp to prevent oozing during homing and auto bed leveling
G4 S10 ; allow partial nozzle warmup
G28 ; home all axisG1 Z50 F240
G1 X7.6 Y10 F3000
M104 S210 ; set final nozzle temp
M190 S60 ; wait for bed temp to stabilize
M109 S210 ; wait for nozzle temp to stabilize
G1 Z0.28 F240
G92 E0
G1 Y140 E10 F1500 ; prime the nozzle
G1 X4 F5000
G92 E0
G1 Y10 E10 F1200 ; prime the nozzle
G92 E0
G21 ; set units to millimeters
G90 ; use absolute coordinates
M83 ; use relative distances for extrusion
; Filament gcode
M107
;LAYER_CHANGE
;Z:0.35
;HEIGHT:0.35
;BEFORE_LAYER_CHANGE
G92 E0
;0.35


G1 E-1 F3600
G1 Z.35 F7800
;AFTER_LAYER_CHANGE
;0.35
G1 X151.15 Y65.849
G1 E1 F2400
;TYPE:Support material interface
;WIDTH:1
G1 F1800
G1 X151.15 Y69.644 E.51067
G1 X152.043 Y69.644 E.12014
G1 X152.043 Y66.251 E.45661
G1 X152.935 Y66.251 E.12014
G1 X152.935 Y69.644 E.45661
G1 X153.828 Y69.644 E.12014
G1 X153.828 Y66.251 E.45661
G1 X154.721 Y66.251 E.12014
G1 X154.721 Y69.644 E.45661
G1 X155.613 Y69.644 E.12014
G1 X155.613 Y66.251 E.45661
G1 X156.506 Y66.251 E.12014
G1 X156.506 Y70.045 E.51067
G1 E-.7 F3600
;WIPE_START
G1 F6240
G1 X156.506 Y69.525 E-.285
;WIPE_END
G1 E-.015 F3600
G1 X160.97 Y70.045 F7800
G1 E1 F2400
G1 F1800
G1 X160.97 Y69.05 E.13393
G1 X160.077 Y68.997 E.12035
G1 X160.077 Y69.644 E.08699
G1 X159.184 Y69.644 E.12014
G1 X159.184 Y68.944 E.09411
G1 X158.291 Y68.891 E.12035
G1 X158.291 Y69.644 E.10123
G1 X157.399 Y69.644 E.12014
G1 X157.399 Y66.251 E.45661
G1 X158.291 Y66.251 E.12014
G1 X158.291 Y66.996 E.10034
G1 X159.184 Y66.996 E.12014
G1 X159.184 Y66.251 E.10034
G1 X160.077 Y66.251 E.12014
G1 X160.077 Y66.996 E.10034
G1 X160.97 Y66.996 E.12014
G1 X160.97 Y65.849 E.1544
G1 E-.7 F3600
;WIPE_START
G1 F6240
G1 X160.97 Y66.369 E-.285
;WIPE_END
G1 E-.015 F3600
G1 X153.412 Y65.594 F7800
G1 E1 F2400
;TYPE:Support material
;WIDTH:0.42
G1 F1800
G1 X150.412 Y65.594 E.15056
G1 X150.412 Y70.3 E.23616
G1 X153.412 Y70.3 E.15056
G1 X153.412 Y72.88 E.12947
G1 X8.732 Y72.88 E7.26092
G1 X8.732 Y63.015 E.49509
M73 P0 R145
G1 X153.412 Y63.015 E7.26092
G1 X153.412 Y65.543 E.12687
G1 E-.7 F3600
;WIPE_START
G1 F6240
G1 X153.412 Y65.023 E-.285
;WIPE_END
G1 E-.015 F3600
G1 X152.846 Y72.725 F7800
G1 E1 F2400
G1 F1800
G1 X152.846 Y70.61 E.1061
G1 X152.463 Y70.61 E.01923
G1 X152.463 Y72.569 E.09831
G1 X152.08 Y72.569 E.01923
G1 X152.08 Y70.61 E.09831
G1 X151.697 Y70.61 E.01923
G1 X151.697 Y72.569 E.09831
G1 X151.314 Y72.569 E.01923
G1 X151.314 Y70.61 E.09831
G1 X150.93 Y70.61 E.01923
G1 X150.93 Y72.569 E.09831
G1 X150.547 Y72.569 E.01923
G1 X150.547 Y70.455 E.1061
G1 E-.7 F3600
;WIPE_START
G1 F6240
G1 X150.547 Y70.975 E-.285
;WIPE_END
G1 E-.015 F3600
G1 X152.846 Y65.439 F7800
G1 E1 F2400
G1 F1800
G1 X152.846 Y63.325 E.1061
G1 X152.463 Y63.325 E.01923
G1 X152.463 Y65.284 E.09831
G1 X152.08 Y65.284 E.01923
G1 X152.08 Y63.325 E.09831
G1 X151.697 Y63.325 E.01923
G1 X151.697 Y65.284 E.09831
G1 X151.314 Y65.284 E.01923
G1 X151.314 Y63.325 E.09831
G1 X150.93 Y63.325 E.01923
G1 X150.93 Y65.284 E.09831
G1 X150.547 Y65.284 E.01923
G1 X150.547 Y63.325 E.09831
G1 X150.164 Y63.325 E.01923
G1 X150.164 Y72.569 E.46394
G1 X149.781 Y72.569 E.01923
G1 X149.781 Y63.325 E.46394
G1 X149.398 Y63.325 E.01923
G1 X149.398 Y72.569 E.46394
G1 X149.014 Y72.569 E.01923
G1 X149.014 Y63.325 E.46394
G1 X148.631 Y63.325 E.01923
G1 X148.631 Y72.569 E.46394
G1 X148.248 Y72.569 E.01923
G1 X148.248 Y63.325 E.46394
G1 X147.865 Y63.325 E.01923
G1 X147.865 Y72.569 E.46394
G1 X147.482 Y72.569 E.01923
G1 X147.482 Y63.325 E.46394
G1 X147.098 Y63.325 E.01923
G1 X147.098 Y72.569 E.46394
G1 X146.715 Y72.569 E.01923
G1 X146.715 Y63.325 E.46394
G1 X146.332 Y63.325 E.01923
G1 X146.332 Y72.569 E.46394
G1 X145.949 Y72.569 E.01923
G1 X145.949 Y63.325 E.46394
G1 X145.565 Y63.325 E.01923
G1 X145.565 Y72.569 E.46394
G1 X145.182 Y72.569 E.01923
G1 X145.182 Y63.325 E.46394
G1 X144.799 Y63.325 E.01923
G1 X144.799 Y72.569 E.46394
G1 X144.416 Y72.569 E.01923
G1 X144.416 Y63.325 E.46394
G1 X144.033 Y63.325 E.01923
G1 X144.033 Y72.569 E.46394
G1 X143.649 Y72.569 E.01923
G1 X143.649 Y63.325 E.46394
G1 X143.266 Y63.325 E.01923
G1 X143.266 Y72.569 E.46394
G1 X142.883 Y72.569 E.01923
G1 X142.883 Y63.325 E.46394
G1 X142.5 Y63.325 E.01923
G1 X142.5 Y72.569 E.46394
G1 X142.117 Y72.569 E.01923
G1 X142.117 Y63.325 E.46394
G1 X141.733 Y63.325 E.01923
G1 X141.733 Y72.569 E.46394
G1 X141.35 Y72.569 E.01923
G1 X141.35 Y63.325 E.46394
G1 X140.967 Y63.325 E.01923
G1 X140.967 Y72.569 E.46394
G1 X140.584 Y72.569 E.01923
G1 X140.584 Y63.325 E.46394
G1 X140.201 Y63.325 E.01923
G1 X140.201 Y72.569 E.46394
G1 X139.817 Y72.569 E.01923
G1 X139.817 Y63.325 E.46394
G1 X139.434 Y63.325 E.01923
G1 X139.434 Y72.569 E.46394
G1 X139.051 Y72.569 E.01923
G1 X139.051 Y63.325 E.46394
G1 X138.668 Y63.325 E.01923
G1 X138.668 Y72.569 E.46394
G1 X138.285 Y72.569 E.01923
G1 X138.285 Y63.325 E.46394
G1 X137.901 Y63.325 E.01923
G1 X137.901 Y72.569 E.46394
G1 X137.518 Y72.569 E.01923
G1 X137.518 Y63.325 E.46394
G1 X137.135 Y63.325 E.01923
G1 X137.135 Y72.569 E.46394
G1 X136.752 Y72.569 E.01923
G1 X136.752 Y63.325 E.46394
G1 X136.368 Y63.325 E.01923
G1 X136.368 Y72.569 E.46394
G1 X135.985 Y72.569 E.01923
G1 X135.985 Y63.325 E.46394
G1 X135.602 Y63.325 E.01923
G1 X135.602 Y72.569 E.46394
G1 X135.219 Y72.569 E.01923
G1 X135.219 Y63.325 E.46394
G1 X134.836 Y63.325 E.01923
G1 X134.836 Y72.569 E.46394
G1 X134.452 Y72.569 E.01923
G1 X134.452 Y63.325 E.46394
G1 X134.069 Y63.325 E.01923
G1 X134.069 Y72.569 E.46394
G1 X133.686 Y72.569 E.01923
G1 X133.686 Y63.325 E.46394
G1 X133.303 Y63.325 E.01923
G1 X133.303 Y72.569 E.46394
G1 X132.92 Y72.569 E.01923
G1 X132.92 Y63.325 E.46394
G1 X132.536 Y63.325 E.01923
G1 X132.536 Y72.569 E.46394
G1 X132.153 Y72.569 E.01923
G1 X132.153 Y63.325 E.46394
G1 X131.77 Y63.325 E.01923
G1 X131.77 Y72.569 E.46394
G1 X131.387 Y72.569 E.01923
G1 X131.387 Y63.325 E.46394
G1 X131.004 Y63.325 E.01923
G1 X131.004 Y72.569 E.46394
G1 X130.62 Y72.569 E.01923
G1 X130.62 Y63.325 E.46394
G1 X130.237 Y63.325 E.01923
G1 X130.237 Y72.569 E.46394
G1 X129.854 Y72.569 E.01923
G1 X129.854 Y63.325 E.46394
G1 X129.471 Y63.325 E.01923
G1 X129.471 Y72.569 E.46394
G1 X129.087 Y72.569 E.01923
G1 X129.087 Y63.325 E.46394
G1 X128.704 Y63.325 E.01923
G1 X128.704 Y72.569 E.46394
G1 X128.321 Y72.569 E.01923
G1 X128.321 Y63.325 E.46394
G1 X127.938 Y63.325 E.01923
G1 X127.938 Y72.569 E.46394
G1 X127.555 Y72.569 E.01923
G1 X127.555 Y63.325 E.46394
G1 X127.171 Y63.325 E.01923
G1 X127.171 Y72.569 E.46394
G1 X126.788 Y72.569 E.01923
G1 X126.788 Y63.325 E.46394
G1 X126.405 Y63.325 E.01923
G1 X126.405 Y72.569 E.46394
G1 X126.022 Y72.569 E.01923
G1 X126.022 Y63.325 E.46394
G1 X125.639 Y63.325 E.01923
G1 X125.639 Y72.569 E.46394
G1 X125.255 Y72.569 E.01923
G1 X125.255 Y63.325 E.46394
G1 X124.872 Y63.325 E.01923
G1 X124.872 Y72.569 E.46394
G1 X124.489 Y72.569 E.01923
G1 X124.489 Y63.325 E.46394
G1 X124.106 Y63.325 E.01923
G1 X124.106 Y72.569 E.46394
G1 X123.723 Y72.569 E.01923
G1 X123.723 Y63.325 E.46394
G1 X123.339 Y63.325 E.01923
G1 X123.339 Y72.569 E.46394
G1 X122.956 Y72.569 E.01923
G1 X122.956 Y63.325 E.46394
G1 X122.573 Y63.325 E.01923
G1 X122.573 Y72.569 E.46394
G1 X122.19 Y72.569 E.01923
G1 X122.19 Y63.325 E.46394
G1 X121.806 Y63.325 E.01923
G1 X121.806 Y72.569 E.46394
G1 X121.423 Y72.569 E.01923
G1 X121.423 Y63.325 E.46394
G1 X121.04 Y63.325 E.01923
G1 X121.04 Y72.569 E.46394
G1 X120.657 Y72.569 E.01923
G1 X120.657 Y63.325 E.46394
G1 X120.274 Y63.325 E.01923
G1 X120.274 Y72.569 E.46394
G1 X119.89 Y72.569 E.01923
G1 X119.89 Y63.325 E.46394
G1 X119.507 Y63.325 E.01923
G1 X119.507 Y72.569 E.46394
G1 X119.124 Y72.569 E.01923
G1 X119.124 Y63.325 E.46394
G1 X118.741 Y63.325 E.01923
G1 X118.741 Y72.569 E.46394
G1 X118.358 Y72.569 E.01923
G1 X118.358 Y63.325 E.46394
G1 X117.974 Y63.325 E.01923
G1 X117.974 Y72.569 E.46394
G1 X117.591 Y72.569 E.01923
G1 X117.591 Y63.325 E.46394
G1 X117.208 Y63.325 E.01923
G1 X117.208 Y72.569 E.46394
G1 X116.825 Y72.569 E.01923
G1 X116.825 Y63.325 E.46394
G1 X116.442 Y63.325 E.01923
G1 X116.442 Y72.569 E.46394
G1 X116.058 Y72.569 E.01923
G1 X116.058 Y63.325 E.46394
G1 X115.675 Y63.325 E.01923
G1 X115.675 Y72.569 E.46394
G1 X115.292 Y72.569 E.01923
G1 X115.292 Y63.325 E.46394
G1 X114.909 Y63.325 E.01923
G1 X114.909 Y72.569 E.46394
G1 X114.525 Y72.569 E.01923
G1 X114.525 Y63.325 E.46394
G1 X114.142 Y63.325 E.01923
G1 X114.142 Y72.569 E.46394
G1 X113.759 Y72.569 E.01923
G1 X113.759 Y63.325 E.46394
G1 X113.376 Y63.325 E.01923
G1 X113.376 Y72.569 E.46394
G1 X112.993 Y72.569 E.01923
G1 X112.993 Y63.325 E.46394
G1 X112.609 Y63.325 E.01923
G1 X112.609 Y72.569 E.46394
G1 X112.226 Y72.569 E.01923
G1 X112.226 Y63.325 E.46394
G1 X111.843 Y63.325 E.01923
G1 X111.843 Y72.569 E.46394
G1 X111.46 Y72.569 E.01923
G1 X111.46 Y63.325 E.46394
G1 X111.077 Y63.325 E.01923
G1 X111.077 Y72.569 E.46394
G1 X110.693 Y72.569 E.01923
G1 X110.693 Y63.325 E.46394
G1 X110.31 Y63.325 E.01923
G1 X110.31 Y72.569 E.46394
G1 X109.927 Y72.569 E.01923
G1 X109.927 Y63.325 E.46394
G1 X109.544 Y63.325 E.01923
G1 X109.544 Y72.569 E.46394
G1 X109.161 Y72.569 E.01923
G1 X109.161 Y63.325 E.46394
G1 X108.777 Y63.325 E.01923
G1 X108.777 Y72.569 E.46394
G1 X108.394 Y72.569 E.01923
G1 X108.394 Y63.325 E.46394
G1 X108.011 Y63.325 E.01923
G1 X108.011 Y72.569 E.46394
G1 X107.628 Y72.569 E.01923
G1 X107.628 Y63.325 E.46394
G1 X107.244 Y63.325 E.01923
G1 X107.244 Y72.569 E.46394
G1 X106.861 Y72.569 E.01923
G1 X106.861 Y63.325 E.46394
G1 X106.478 Y63.325 E.01923
G1 X106.478 Y72.569 E.46394
G1 X106.095 Y72.569 E.01923
G1 X106.095 Y63.325 E.46394
G1 X105.712 Y63.325 E.01923
G1 X105.712 Y72.569 E.46394
G1 X105.328 Y72.569 E.01923
G1 X105.328 Y63.325 E.46394
G1 X104.945 Y63.325 E.01923
G1 X104.945 Y72.569 E.46394
G1 X104.562 Y72.569 E.01923
G1 X104.562 Y63.325 E.46394
G1 X104.179 Y63.325 E.01923
G1 X104.179 Y72.569 E.46394
G1 X103.796 Y72.569 E.01923
G1 X103.796 Y63.325 E.46394
G1 X103.412 Y63.325 E.01923
G1 X103.412 Y72.569 E.46394
G1 X103.029 Y72.569 E.01923
G1 X103.029 Y63.325 E.46394
G1 X102.646 Y63.325 E.01923
G1 X102.646 Y72.569 E.46394
G1 X102.263 Y72.569 E.01923
G1 X102.263 Y63.325 E.46394
G1 X101.88 Y63.325 E.01923
G1 X101.88 Y72.569 E.46394
G1 X101.496 Y72.569 E.01923
G1 X101.496 Y63.325 E.46394
G1 X101.113 Y63.325 E.01923
G1 X101.113 Y72.569 E.46394
G1 X100.73 Y72.569 E.01923
G1 X100.73 Y63.325 E.46394
G1 X100.347 Y63.325 E.01923
G1 X100.347 Y72.569 E.46394
G1 X99.964 Y72.569 E.01923
G1 X99.964 Y63.325 E.46394
G1 X99.58 Y63.325 E.01923
G1 X99.58 Y72.569 E.46394
G1 X99.197 Y72.569 E.01923
G1 X99.197 Y63.325 E.46394
G1 X98.814 Y63.325 E.01923
G1 X98.814 Y72.569 E.46394
G1 X98.431 Y72.569 E.01923
G1 X98.431 Y63.325 E.46394
G1 X98.047 Y63.325 E.01923
G1 X98.047 Y72.569 E.46394
G1 X97.664 Y72.569 E.01923
M73 P0 R144
G1 X97.664 Y63.325 E.46394
G1 X97.281 Y63.325 E.01923
G1 X97.281 Y72.569 E.46394
G1 X96.898 Y72.569 E.01923
G1 X96.898 Y63.325 E.46394
G1 X96.515 Y63.325 E.01923
G1 X96.515 Y72.569 E.46394
G1 X96.131 Y72.569 E.01923
G1 X96.131 Y63.325 E.46394
G1 X95.748 Y63.325 E.01923
G1 X95.748 Y72.569 E.46394
G1 X95.365 Y72.569 E.01923
G1 X95.365 Y63.325 E.46394
G1 X94.982 Y63.325 E.01923
G1 X94.982 Y72.569 E.46394
G1 X94.599 Y72.569 E.01923
G1 X94.599 Y63.325 E.46394
G1 X94.215 Y63.325 E.01923
G1 X94.215 Y72.569 E.46394
G1 X93.832 Y72.569 E.01923
G1 X93.832 Y63.325 E.46394
G1 X93.449 Y63.325 E.01923
G1 X93.449 Y72.569 E.46394
G1 X93.066 Y72.569 E.01923
G1 X93.066 Y63.325 E.46394
G1 X92.683 Y63.325 E.01923
G1 X92.683 Y72.569 E.46394
G1 X92.299 Y72.569 E.01923
G1 X92.299 Y63.325 E.46394
G1 X91.916 Y63.325 E.01923
G1 X91.916 Y72.569 E.46394
G1 X91.533 Y72.569 E.01923
G1 X91.533 Y63.325 E.46394
G1 X91.15 Y63.325 E.01923
G1 X91.15 Y72.569 E.46394
G1 X90.766 Y72.569 E.01923
M73 P1 R144
G1 X90.766 Y63.325 E.46394
G1 X90.383 Y63.325 E.01923
G1 X90.383 Y72.569 E.46394
G1 X90 Y72.569 E.01923
G1 X90 Y63.325 E.46394
G1 X89.617 Y63.325 E.01923
G1 X89.617 Y72.569 E.46394
G1 X89.234 Y72.569 E.01923
G1 X89.234 Y63.325 E.46394
G1 X88.85 Y63.325 E.01923
G1 X88.85 Y72.569 E.46394
G1 X88.467 Y72.569 E.01923
G1 X88.467 Y63.325 E.46394
G1 X88.084 Y63.325 E.01923
G1 X88.084 Y72.569 E.46394
G1 X87.701 Y72.569 E.01923
G1 X87.701 Y63.325 E.46394
G1 X87.318 Y63.325 E.01923
G1 X87.318 Y72.569 E.46394
G1 X86.934 Y72.569 E.01923
G1 X86.934 Y63.325 E.46394
G1 X86.551 Y63.325 E.01923
G1 X86.551 Y72.569 E.46394
G1 X86.168 Y72.569 E.01923
G1 X86.168 Y63.325 E.46394
G1 X85.785 Y63.325 E.01923
G1 X85.785 Y72.569 E.46394
G1 X85.402 Y72.569 E.01923
G1 X85.402 Y63.325 E.46394
G1 X85.018 Y63.325 E.01923
G1 X85.018 Y72.569 E.46394
G1 X84.635 Y72.569 E.01923
G1 X84.635 Y63.325 E.46394
G1 X84.252 Y63.325 E.01923
G1 X84.252 Y72.569 E.46394
G1 X83.869 Y72.569 E.01923
G1 X83.869 Y63.325 E.46394
G1 X83.485 Y63.325 E.01923
G1 X83.485 Y72.569 E.46394
G1 X83.102 Y72.569 E.01923
G1 X83.102 Y63.325 E.46394
G1 X82.719 Y63.325 E.01923
G1 X82.719 Y72.569 E.46394
G1 X82.336 Y72.569 E.01923
G1 X82.336 Y63.325 E.46394
G1 X81.953 Y63.325 E.01923
G1 X81.953 Y72.569 E.46394
G1 X81.569 Y72.569 E.01923
G1 X81.569 Y63.325 E.46394
G1 X81.186 Y63.325 E.01923
G1 X81.186 Y72.569 E.46394
G1 X80.803 Y72.569 E.01923
G1 X80.803 Y63.325 E.46394
G1 X80.42 Y63.325 E.01923
G1 X80.42 Y72.569 E.46394
G1 X80.037 Y72.569 E.01923
G1 X80.037 Y63.325 E.46394
G1 X79.653 Y63.325 E.01923
G1 X79.653 Y72.569 E.46394
G1 X79.27 Y72.569 E.01923
G1 X79.27 Y63.325 E.46394
G1 X78.887 Y63.325 E.01923
G1 X78.887 Y72.569 E.46394
G1 X78.504 Y72.569 E.01923
G1 X78.504 Y63.325 E.46394
G1 X78.121 Y63.325 E.01923
G1 X78.121 Y72.569 E.46394
G1 X77.737 Y72.569 E.01923
G1 X77.737 Y63.325 E.46394
G1 X77.354 Y63.325 E.01923
G1 X77.354 Y72.569 E.46394
G1 X76.971 Y72.569 E.01923
G1 X76.971 Y63.325 E.46394
G1 X76.588 Y63.325 E.01923
G1 X76.588 Y72.569 E.46394
G1 X76.204 Y72.569 E.01923
G1 X76.204 Y63.325 E.46394
G1 X75.821 Y63.325 E.01923
G1 X75.821 Y72.569 E.46394
G1 X75.438 Y72.569 E.01923
G1 X75.438 Y63.325 E.46394
G1 X75.055 Y63.325 E.01923
G1 X75.055 Y72.569 E.46394
G1 X74.672 Y72.569 E.01923
G1 X74.672 Y63.325 E.46394
G1 X74.288 Y63.325 E.01923
G1 X74.288 Y72.569 E.46394
G1 X73.905 Y72.569 E.01923
G1 X73.905 Y63.325 E.46394
G1 X73.522 Y63.325 E.01923
G1 X73.522 Y72.569 E.46394
G1 X73.139 Y72.569 E.01923
G1 X73.139 Y63.325 E.46394
G1 X72.756 Y63.325 E.01923
G1 X72.756 Y72.569 E.46394
G1 X72.372 Y72.569 E.01923
G1 X72.372 Y63.325 E.46394
G1 X71.989 Y63.325 E.01923
G1 X71.989 Y72.569 E.46394
G1 X71.606 Y72.569 E.01923
G1 X71.606 Y63.325 E.46394
G1 X71.223 Y63.325 E.01923
G1 X71.223 Y72.569 E.46394
G1 X70.84 Y72.569 E.01923
G1 X70.84 Y63.325 E.46394
G1 X70.456 Y63.325 E.01923
G1 X70.456 Y72.569 E.46394
G1 X70.073 Y72.569 E.01923
G1 X70.073 Y63.325 E.46394
G1 X69.69 Y63.325 E.01923
G1 X69.69 Y72.569 E.46394
G1 X69.307 Y72.569 E.01923
G1 X69.307 Y63.325 E.46394
G1 X68.923 Y63.325 E.01923
G1 X68.923 Y72.569 E.46394
G1 X68.54 Y72.569 E.01923
G1 X68.54 Y63.325 E.46394
G1 X68.157 Y63.325 E.01923
G1 X68.157 Y72.569 E.46394
G1 X67.774 Y72.569 E.01923
G1 X67.774 Y63.325 E.46394
G1 X67.391 Y63.325 E.01923
G1 X67.391 Y72.569 E.46394
G1 X67.007 Y72.569 E.01923
G1 X67.007 Y63.325 E.46394
G1 X66.624 Y63.325 E.01923
G1 X66.624 Y72.569 E.46394
G1 X66.241 Y72.569 E.01923
G1 X66.241 Y63.325 E.46394
G1 X65.858 Y63.325 E.01923
G1 X65.858 Y72.569 E.46394
G1 X65.475 Y72.569 E.01923
G1 X65.475 Y63.325 E.46394
G1 X65.091 Y63.325 E.01923
G1 X65.091 Y72.569 E.46394
G1 X64.708 Y72.569 E.01923
G1 X64.708 Y63.325 E.46394
G1 X64.325 Y63.325 E.01923
G1 X64.325 Y72.569 E.46394
G1 X63.942 Y72.569 E.01923
