; generated by PrusaSlicer 2.5.0+win64 on 2022-12-07 at 00:19:18 UTC

; 

; external perimeters extrusion width = 1.00mm
; perimeters extrusion width = 1.00mm
; infill extrusion width = 1.00mm
; solid infill extrusion width = 1.00mm
; top infill extrusion width = 1.00mm
; support material extrusion width = 1.00mm
; first layer extrusion width = 0.42mm

M73 P0 R52
M107
;TYPE:Custom
G90 ; use absolute coordinates
M83 ; extruder relative mode
M140 S60 ; set final bed temp
M104 S150 ; set temporary nozzle temp to prevent oozing during homing and auto bed leveling
G4 S10 ; allow partial nozzle warmup
G28 ; home all axisG1 Z50 F240
G1 X7.6 Y10 F3000
M104 S210 ; set final nozzle temp
M190 S60 ; wait for bed temp to stabilize
M109 S210 ; wait for nozzle temp to stabilize
G1 Z0.28 F240
G92 E0
G1 Y140 E10 F1500 ; prime the nozzle
G1 X4 F5000
G92 E0
G1 Y10 E10 F1200 ; prime the nozzle
G92 E0
G21 ; set units to millimeters
G90 ; use absolute coordinates
M83 ; use relative distances for extrusion
; Filament gcode
M107
;LAYER_CHANGE
;Z:0.35
;HEIGHT:0.35
;BEFORE_LAYER_CHANGE
G92 E0
;0.35


G1 E-1 F3600
G1 Z.35 F7800
;AFTER_LAYER_CHANGE
;0.35
G1 X158.292 Y76.002
G1 E1 F2400
;TYPE:Support material interface
;WIDTH:1
G1 F1800
G1 X158.292 Y79.796 E.51067
G1 X159.184 Y79.796 E.12014
G1 X159.184 Y76.404 E.45661
G1 X160.077 Y76.404 E.12014
G1 X160.077 Y79.796 E.45661
G1 X160.97 Y79.796 E.12014
G1 X160.97 Y76.404 E.45661
G1 X161.862 Y76.404 E.12014
G1 X161.862 Y80.198 E.51067
G1 E-.7 F3600
;WIPE_START
G1 F6240
G1 X161.862 Y79.678 E-.285
;WIPE_END
G1 E-.015 F3600
G1 X164.54 Y80.198 F7800
G1 E1 F2400
G1 F1800
G1 X164.54 Y78.6 E.21506
G1 X163.648 Y78.497 E.12094
G1 X163.648 Y79.796 E.17487
G1 X162.755 Y79.796 E.12014
G1 X162.755 Y76.404 E.45661
G1 X163.648 Y76.404 E.12014
G1 X163.648 Y76.596 E.02591
G1 X164.54 Y76.596 E.12014
G1 X164.54 Y76.002 E.07997
G1 E-.7 F3600
;WIPE_START
G1 F6240
G1 X164.54 Y76.522 E-.285
;WIPE_END
G1 E-.015 F3600
G1 X160.198 Y75.747 F7800
G1 E1 F2400
;TYPE:Support material
;WIDTH:0.42
G1 F1800
G1 X157.198 Y75.747 E.15056
G1 X157.198 Y80.453 E.23616
G1 X160.198 Y80.453 E.15056
G1 X160.198 Y83.032 E.12947
G1 X8.732 Y83.032 E7.60145
G1 X8.732 Y73.167 E.49509
G1 X160.198 Y73.167 E7.60145
G1 X160.198 Y75.695 E.12687
G1 E-.7 F3600
;WIPE_START
G1 F6240
G1 X160.198 Y75.175 E-.285
;WIPE_END
G1 E-.015 F3600
G1 X159.744 Y82.877 F7800
G1 E1 F2400
G1 F1800
G1 X159.744 Y80.763 E.1061
G1 X159.361 Y80.763 E.01923
G1 X159.361 Y82.722 E.09831
G1 X158.978 Y82.722 E.01923
G1 X158.978 Y80.763 E.09831
G1 X158.595 Y80.763 E.01923
G1 X158.595 Y82.722 E.09831
G1 X158.212 Y82.722 E.01923
G1 X158.212 Y80.763 E.09831
G1 X157.828 Y80.763 E.01923
G1 X157.828 Y82.722 E.09831
G1 X157.445 Y82.722 E.01923
G1 X157.445 Y80.763 E.09831
G1 X157.062 Y80.763 E.01923
G1 X157.062 Y82.722 E.09831
G1 X156.679 Y82.722 E.01923
G1 X156.679 Y73.478 E.46394
G1 X157.062 Y73.478 E.01923
G1 X157.062 Y75.437 E.09831
G1 X157.445 Y75.437 E.01923
G1 X157.445 Y73.478 E.09831
G1 X157.828 Y73.478 E.01923
G1 X157.828 Y75.437 E.09831
G1 X158.212 Y75.437 E.01923
G1 X158.212 Y73.478 E.09831
G1 X158.595 Y73.478 E.01923
G1 X158.595 Y75.437 E.09831
G1 X158.978 Y75.437 E.01923
G1 X158.978 Y73.478 E.09831
G1 X159.361 Y73.478 E.01923
G1 X159.361 Y75.437 E.09831
G1 X159.744 Y75.437 E.01923
G1 X159.744 Y73.322 E.1061
G1 E-.7 F3600
;WIPE_START
G1 F6240
G1 X159.744 Y73.842 E-.285
;WIPE_END
G1 E-.015 F3600
G1 X156.295 Y82.877 F7800
G1 E1 F2400
G1 F1800
G1 X156.295 Y73.478 E.47173
G1 X155.912 Y73.478 E.01923
G1 X155.912 Y82.722 E.46394
G1 X155.529 Y82.722 E.01923
G1 X155.529 Y73.478 E.46394
G1 X155.146 Y73.478 E.01923
M73 P1 R52
G1 X155.146 Y82.722 E.46394
G1 X154.763 Y82.722 E.01923
G1 X154.763 Y73.478 E.46394
G1 X154.379 Y73.478 E.01923
G1 X154.379 Y82.722 E.46394
G1 X153.996 Y82.722 E.01923
G1 X153.996 Y73.478 E.46394
G1 X153.613 Y73.478 E.01923
G1 X153.613 Y82.722 E.46394
G1 X153.23 Y82.722 E.01923
G1 X153.23 Y73.478 E.46394
G1 X152.847 Y73.478 E.01923
G1 X152.847 Y82.722 E.46394
G1 X152.463 Y82.722 E.01923
G1 X152.463 Y73.478 E.46394
G1 X152.08 Y73.478 E.01923
G1 X152.08 Y82.722 E.46394
G1 X151.697 Y82.722 E.01923
G1 X151.697 Y73.478 E.46394
G1 X151.314 Y73.478 E.01923
G1 X151.314 Y82.722 E.46394
G1 X150.931 Y82.722 E.01923
G1 X150.931 Y73.478 E.46394
G1 X150.547 Y73.478 E.01923
G1 X150.547 Y82.722 E.46394
G1 X150.164 Y82.722 E.01923
G1 X150.164 Y73.478 E.46394
G1 X149.781 Y73.478 E.01923
M73 P1 R51
G1 X149.781 Y82.722 E.46394
G1 X149.398 Y82.722 E.01923
G1 X149.398 Y73.478 E.46394
G1 X149.014 Y73.478 E.01923
G1 X149.014 Y82.722 E.46394
G1 X148.631 Y82.722 E.01923
G1 X148.631 Y73.478 E.46394
G1 X148.248 Y73.478 E.01923
G1 X148.248 Y82.722 E.46394
G1 X147.865 Y82.722 E.01923
G1 X147.865 Y73.478 E.46394
G1 X147.482 Y73.478 E.01923
G1 X147.482 Y82.722 E.46394
G1 X147.098 Y82.722 E.01923
G1 X147.098 Y73.478 E.46394
G1 X146.715 Y73.478 E.01923
G1 X146.715 Y82.722 E.46394
G1 X146.332 Y82.722 E.01923
G1 X146.332 Y73.478 E.46394
G1 X145.949 Y73.478 E.01923
G1 X145.949 Y82.722 E.46394
G1 X145.566 Y82.722 E.01923
G1 X145.566 Y73.478 E.46394
G1 X145.182 Y73.478 E.01923
G1 X145.182 Y82.722 E.46394
G1 X144.799 Y82.722 E.01923
G1 X144.799 Y73.478 E.46394
G1 X144.416 Y73.478 E.01923
G1 X144.416 Y82.722 E.46394
G1 X144.033 Y82.722 E.01923
G1 X144.033 Y73.478 E.46394
G1 X143.65 Y73.478 E.01923
G1 X143.65 Y82.722 E.46394
G1 X143.266 Y82.722 E.01923
G1 X143.266 Y73.478 E.46394
G1 X142.883 Y73.478 E.01923
G1 X142.883 Y82.722 E.46394
G1 X142.5 Y82.722 E.01923
G1 X142.5 Y73.478 E.46394
G1 X142.117 Y73.478 E.01923
G1 X142.117 Y82.722 E.46394
G1 X141.734 Y82.722 E.01923
G1 X141.734 Y73.478 E.46394
G1 X141.35 Y73.478 E.01923
G1 X141.35 Y82.722 E.46394
G1 X140.967 Y82.722 E.01923
G1 X140.967 Y73.478 E.46394
G1 X140.584 Y73.478 E.01923
G1 X140.584 Y82.722 E.46394
G1 X140.201 Y82.722 E.01923
G1 X140.201 Y73.478 E.46394
G1 X139.817 Y73.478 E.01923
G1 X139.817 Y82.722 E.46394
G1 X139.434 Y82.722 E.01923
G1 X139.434 Y73.478 E.46394
G1 X139.051 Y73.478 E.01923
G1 X139.051 Y82.722 E.46394
G1 X138.668 Y82.722 E.01923
G1 X138.668 Y73.478 E.46394
G1 X138.285 Y73.478 E.01923
G1 X138.285 Y82.722 E.46394
G1 X137.901 Y82.722 E.01923
G1 X137.901 Y73.478 E.46394
G1 X137.518 Y73.478 E.01923
G1 X137.518 Y82.722 E.46394
G1 X137.135 Y82.722 E.01923
G1 X137.135 Y73.478 E.46394
G1 X136.752 Y73.478 E.01923
G1 X136.752 Y82.722 E.46394
G1 X136.369 Y82.722 E.01923
G1 X136.369 Y73.478 E.46394
G1 X135.985 Y73.478 E.01923
G1 X135.985 Y82.722 E.46394
G1 X135.602 Y82.722 E.01923
G1 X135.602 Y73.478 E.46394
G1 X135.219 Y73.478 E.01923
G1 X135.219 Y82.722 E.46394
G1 X134.836 Y82.722 E.01923
G1 X134.836 Y73.478 E.46394
G1 X134.453 Y73.478 E.01923
G1 X134.453 Y82.722 E.46394
G1 X134.069 Y82.722 E.01923
G1 X134.069 Y73.478 E.46394
G1 X133.686 Y73.478 E.01923
G1 X133.686 Y82.722 E.46394
G1 X133.303 Y82.722 E.01923
G1 X133.303 Y73.478 E.46394
G1 X132.92 Y73.478 E.01923
G1 X132.92 Y82.722 E.46394
G1 X132.536 Y82.722 E.01923
G1 X132.536 Y73.478 E.46394
G1 X132.153 Y73.478 E.01923
G1 X132.153 Y82.722 E.46394
G1 X131.77 Y82.722 E.01923
G1 X131.77 Y73.478 E.46394
G1 X131.387 Y73.478 E.01923
G1 X131.387 Y82.722 E.46394
G1 X131.004 Y82.722 E.01923
G1 X131.004 Y73.478 E.46394
G1 X130.62 Y73.478 E.01923
G1 X130.62 Y82.722 E.46394
G1 X130.237 Y82.722 E.01923
G1 X130.237 Y73.478 E.46394
G1 X129.854 Y73.478 E.01923
G1 X129.854 Y82.722 E.46394
G1 X129.471 Y82.722 E.01923
G1 X129.471 Y73.478 E.46394
G1 X129.088 Y73.478 E.01923
G1 X129.088 Y82.722 E.46394
G1 X128.704 Y82.722 E.01923
G1 X128.704 Y73.478 E.46394
G1 X128.321 Y73.478 E.01923
G1 X128.321 Y82.722 E.46394
G1 X127.938 Y82.722 E.01923
G1 X127.938 Y73.478 E.46394
G1 X127.555 Y73.478 E.01923
G1 X127.555 Y82.722 E.46394
G1 X127.172 Y82.722 E.01923
G1 X127.172 Y73.478 E.46394
G1 X126.788 Y73.478 E.01923
G1 X126.788 Y82.722 E.46394
G1 X126.405 Y82.722 E.01923
G1 X126.405 Y73.478 E.46394
G1 X126.022 Y73.478 E.01923
G1 X126.022 Y82.722 E.46394
G1 X125.639 Y82.722 E.01923
G1 X125.639 Y73.478 E.46394
G1 X125.255 Y73.478 E.01923
G1 X125.255 Y82.722 E.46394
G1 X124.872 Y82.722 E.01923
G1 X124.872 Y73.478 E.46394
G1 X124.489 Y73.478 E.01923
G1 X124.489 Y82.722 E.46394
G1 X124.106 Y82.722 E.01923
G1 X124.106 Y73.478 E.46394
G1 X123.723 Y73.478 E.01923
G1 X123.723 Y82.722 E.46394
G1 X123.339 Y82.722 E.01923
G1 X123.339 Y73.478 E.46394
G1 X122.956 Y73.478 E.01923
G1 X122.956 Y82.722 E.46394
G1 X122.573 Y82.722 E.01923
M73 P2 R51
G1 X122.573 Y73.478 E.46394
G1 X122.19 Y73.478 E.01923
G1 X122.19 Y82.722 E.46394
G1 X121.807 Y82.722 E.01923
G1 X121.807 Y73.478 E.46394
G1 X121.423 Y73.478 E.01923
G1 X121.423 Y82.722 E.46394
G1 X121.04 Y82.722 E.01923
G1 X121.04 Y73.478 E.46394
G1 X120.657 Y73.478 E.01923
G1 X120.657 Y82.722 E.46394
G1 X120.274 Y82.722 E.01923
G1 X120.274 Y73.478 E.46394
G1 X119.891 Y73.478 E.01923
G1 X119.891 Y82.722 E.46394
G1 X119.507 Y82.722 E.01923
G1 X119.507 Y73.478 E.46394
G1 X119.124 Y73.478 E.01923
G1 X119.124 Y82.722 E.46394
G1 X118.741 Y82.722 E.01923
G1 X118.741 Y73.478 E.46394
G1 X118.358 Y73.478 E.01923
G1 X118.358 Y82.722 E.46394
G1 X117.974 Y82.722 E.01923
G1 X117.974 Y73.478 E.46394
G1 X117.591 Y73.478 E.01923
G1 X117.591 Y82.722 E.46394
G1 X117.208 Y82.722 E.01923
G1 X117.208 Y73.478 E.46394
G1 X116.825 Y73.478 E.01923
G1 X116.825 Y82.722 E.46394
G1 X116.442 Y82.722 E.01923
G1 X116.442 Y73.478 E.46394
G1 X116.058 Y73.478 E.01923
G1 X116.058 Y82.722 E.46394
G1 X115.675 Y82.722 E.01923
G1 X115.675 Y73.478 E.46394
G1 X115.292 Y73.478 E.01923
G1 X115.292 Y82.722 E.46394
G1 X114.909 Y82.722 E.01923
G1 X114.909 Y73.478 E.46394
G1 X114.526 Y73.478 E.01923
G1 X114.526 Y82.722 E.46394
G1 X114.142 Y82.722 E.01923
G1 X114.142 Y73.478 E.46394
G1 X113.759 Y73.478 E.01923
G1 X113.759 Y82.722 E.46394
G1 X113.376 Y82.722 E.01923
G1 X113.376 Y73.478 E.46394
G1 X112.993 Y73.478 E.01923
G1 X112.993 Y82.722 E.46394
G1 X112.61 Y82.722 E.01923
G1 X112.61 Y73.478 E.46394
G1 X112.226 Y73.478 E.01923
G1 X112.226 Y82.722 E.46394
G1 X111.843 Y82.722 E.01923
G1 X111.843 Y73.478 E.46394
G1 X111.46 Y73.478 E.01923
G1 X111.46 Y82.722 E.46394
G1 X111.077 Y82.722 E.01923
G1 X111.077 Y73.478 E.46394
G1 X110.693 Y73.478 E.01923
G1 X110.693 Y82.722 E.46394
G1 X110.31 Y82.722 E.01923
G1 X110.31 Y73.478 E.46394
G1 X109.927 Y73.478 E.01923
G1 X109.927 Y82.722 E.46394
G1 X109.544 Y82.722 E.01923
G1 X109.544 Y73.478 E.46394
G1 X109.161 Y73.478 E.01923
G1 X109.161 Y82.722 E.46394
G1 X108.777 Y82.722 E.01923
G1 X108.777 Y73.478 E.46394
G1 X108.394 Y73.478 E.01923
G1 X108.394 Y82.722 E.46394
G1 X108.011 Y82.722 E.01923
G1 X108.011 Y73.478 E.46394
G1 X107.628 Y73.478 E.01923
G1 X107.628 Y82.722 E.46394
G1 X107.245 Y82.722 E.01923
G1 X107.245 Y73.478 E.46394
G1 X106.861 Y73.478 E.01923
G1 X106.861 Y82.722 E.46394
G1 X106.478 Y82.722 E.01923
G1 X106.478 Y73.478 E.46394
G1 X106.095 Y73.478 E.01923
G1 X106.095 Y82.722 E.46394
G1 X105.712 Y82.722 E.01923
G1 X105.712 Y73.478 E.46394
G1 X105.329 Y73.478 E.01923
G1 X105.329 Y82.722 E.46394
G1 X104.945 Y82.722 E.01923
G1 X104.945 Y73.478 E.46394
G1 X104.562 Y73.478 E.01923
G1 X104.562 Y82.722 E.46394
G1 X104.179 Y82.722 E.01923
G1 X104.179 Y73.478 E.46394
G1 X103.796 Y73.478 E.01923
G1 X103.796 Y82.722 E.46394
G1 X103.413 Y82.722 E.01923
G1 X103.413 Y73.478 E.46394
G1 X103.029 Y73.478 E.01923
G1 X103.029 Y82.722 E.46394
G1 X102.646 Y82.722 E.01923
G1 X102.646 Y73.478 E.46394
G1 X102.263 Y73.478 E.01923
G1 X102.263 Y82.722 E.46394
G1 X101.88 Y82.722 E.01923
G1 X101.88 Y73.478 E.46394
G1 X101.496 Y73.478 E.01923
G1 X101.496 Y82.722 E.46394
G1 X101.113 Y82.722 E.01923
G1 X101.113 Y73.478 E.46394
G1 X100.73 Y73.478 E.01923
G1 X100.73 Y82.722 E.46394
G1 X100.347 Y82.722 E.01923
G1 X100.347 Y73.478 E.46394
G1 X99.964 Y73.478 E.01923
G1 X99.964 Y82.722 E.46394
G1 X99.58 Y82.722 E.01923
G1 X99.58 Y73.478 E.46394
G1 X99.197 Y73.478 E.01923
G1 X99.197 Y82.722 E.46394
G1 X98.814 Y82.722 E.01923
G1 X98.814 Y73.478 E.46394
G1 X98.431 Y73.478 E.01923
G1 X98.431 Y82.722 E.46394
G1 X98.048 Y82.722 E.01923
G1 X98.048 Y73.478 E.46394
G1 X97.664 Y73.478 E.01923
G1 X97.664 Y82.722 E.46394
G1 X97.281 Y82.722 E.01923
G1 X97.281 Y73.478 E.46394
G1 X96.898 Y73.478 E.01923
G1 X96.898 Y82.722 E.46394
G1 X96.515 Y82.722 E.01923
G1 X96.515 Y73.478 E.46394
G1 X96.132 Y73.478 E.01923
G1 X96.132 Y82.722 E.46394
G1 X95.748 Y82.722 E.01923
G1 X95.748 Y73.478 E.46394
G1 X95.365 Y73.478 E.01923
G1 X95.365 Y82.722 E.46394
G1 X94.982 Y82.722 E.01923
G1 X94.982 Y73.478 E.46394
G1 X94.599 Y73.478 E.01923
G1 X94.599 Y82.722 E.46394
G1 X94.215 Y82.722 E.01923
G1 X94.215 Y73.478 E.46394
G1 X93.832 Y73.478 E.01923
G1 X93.832 Y82.722 E.46394
G1 X93.449 Y82.722 E.01923
G1 X93.449 Y73.478 E.46394
G1 X93.066 Y73.478 E.01923
G1 X93.066 Y82.722 E.46394
G1 X92.683 Y82.722 E.01923
G1 X92.683 Y73.478 E.46394
G1 X92.299 Y73.478 E.01923
G1 X92.299 Y82.722 E.46394
G1 X91.916 Y82.722 E.01923
G1 X91.916 Y73.478 E.46394
G1 X91.533 Y73.478 E.01923
G1 X91.533 Y82.722 E.46394
G1 X91.15 Y82.722 E.01923
G1 X91.15 Y73.478 E.46394
G1 X90.767 Y73.478 E.01923
G1 X90.767 Y82.722 E.46394
G1 X90.383 Y82.722 E.01923
G1 X90.383 Y73.478 E.46394
G1 X90 Y73.478 E.01923
M73 P3 R51
G1 X90 Y82.722 E.46394
G1 X89.617 Y82.722 E.01923
G1 X89.617 Y73.478 E.46394
G1 X89.234 Y73.478 E.01923
G1 X89.234 Y82.722 E.46394
G1 X88.851 Y82.722 E.01923
G1 X88.851 Y73.478 E.46394
G1 X88.467 Y73.478 E.01923
G1 X88.467 Y82.722 E.46394
G1 X88.084 Y82.722 E.01923
M73 P3 R50
G1 X88.084 Y73.478 E.46394
G1 X87.701 Y73.478 E.01923
G1 X87.701 Y82.722 E.46394
G1 X87.318 Y82.722 E.01923
G1 X87.318 Y73.478 E.46394
G1 X86.934 Y73.478 E.01923
G1 X86.934 Y82.722 E.46394
G1 X86.551 Y82.722 E.01923
G1 X86.551 Y73.478 E.46394
G1 X86.168 Y73.478 E.01923
G1 X86.168 Y82.722 E.46394
G1 X85.785 Y82.722 E.01923
G1 X85.785 Y73.478 E.46394
G1 X85.402 Y73.478 E.01923
G1 X85.402 Y82.722 E.46394
G1 X85.018 Y82.722 E.01923
G1 X85.018 Y73.478 E.46394
G1 X84.635 Y73.478 E.01923
G1 X84.635 Y82.722 E.46394
G1 X84.252 Y82.722 E.01923
G1 X84.252 Y73.478 E.46394
G1 X83.869 Y73.478 E.01923
G1 X83.869 Y82.722 E.46394
G1 X83.486 Y82.722 E.01923
G1 X83.486 Y73.478 E.46394
G1 X83.102 Y73.478 E.01923
G1 X83.102 Y82.722 E.46394
G1 X82.719 Y82.722 E.01923
G1 X82.719 Y73.478 E.46394
G1 X82.336 Y73.478 E.01923
G1 X82.336 Y82.722 E.46394
G1 X81.953 Y82.722 E.01923
G1 X81.953 Y73.478 E.46394
G1 X81.57 Y73.478 E.01923
G1 X81.57 Y82.722 E.46394
G1 X81.186 Y82.722 E.01923
G1 X81.186 Y73.478 E.46394
G1 X80.803 Y73.478 E.01923
G1 X80.803 Y82.722 E.46394
G1 X80.42 Y82.722 E.01923
G1 X80.42 Y73.478 E.46394
G1 X80.037 Y73.478 E.01923
G1 X80.037 Y82.722 E.46394
G1 X79.653 Y82.722 E.01923
G1 X79.653 Y73.478 E.46394
G1 X79.27 Y73.478 E.01923
G1 X79.27 Y82.722 E.46394
G1 X78.887 Y82.722 E.01923
G1 X78.887 Y73.478 E.46394
G1 X78.504 Y73.478 E.01923
G1 X78.504 Y82.722 E.46394
G1 X78.121 Y82.722 E.01923
G1 X78.121 Y73.478 E.46394
G1 X77.737 Y73.478 E.01923
G1 X77.737 Y82.722 E.46394
G1 X77.354 Y82.722 E.01923
G1 X77.354 Y73.478 E.46394
G1 X76.971 Y73.478 E.01923
G1 X76.971 Y82.722 E.46394
G1 X76.588 Y82.722 E.01923
G1 X76.588 Y73.478 E.46394
G1 X76.205 Y73.478 E.01923
G1 X76.205 Y82.722 E.46394
G1 X75.821 Y82.722 E.01923
G1 X75.821 Y73.478 E.46394
G1 X75.438 Y73.478 E.01923
G1 X75.438 Y82.722 E.46394
G1 X75.055 Y82.722 E.01923
G1 X75.055 Y73.478 E.46394
G1 X74.672 Y73.478 E.01923
G1 X74.672 Y82.722 E.46394
G1 X74.289 Y82.722 E.01923
G1 X74.289 Y73.478 E.46394
G1 X73.905 Y73.478 E.01923
G1 X73.905 Y82.722 E.46394
G1 X73.522 Y82.722 E.01923
G1 X73.522 Y73.478 E.46394
G1 X73.139 Y73.478 E.01923
G1 X73.139 Y82.722 E.46394
G1 X72.756 Y82.722 E.01923
G1 X72.756 Y73.478 E.46394
G1 X72.372 Y73.478 E.01923
G1 X72.372 Y82.722 E.46394
G1 X71.989 Y82.722 E.01923
G1 X71.989 Y73.478 E.46394
G1 X71.606 Y73.478 E.01923
G1 X71.606 Y82.722 E.46394
G1 X71.223 Y82.722 E.01923
G1 X71.223 Y73.478 E.46394
G1 X70.84 Y73.478 E.01923
G1 X70.84 Y82.722 E.46394
G1 X70.456 Y82.722 E.01923
G1 X70.456 Y73.478 E.46394
G1 X70.073 Y73.478 E.01923
G1 X70.073 Y82.722 E.46394
G1 X69.69 Y82.722 E.01923
G1 X69.69 Y73.478 E.46394
G1 X69.307 Y73.478 E.01923
