; generated by PrusaSlicer 2.5.0+win64 on 2022-12-07 at 00:19:29 UTC

; 

; external perimeters extrusion width = 1.00mm
; perimeters extrusion width = 1.00mm
; infill extrusion width = 1.00mm
; solid infill extrusion width = 1.00mm
; top infill extrusion width = 1.00mm
; support material extrusion width = 1.00mm
; first layer extrusion width = 0.42mm

M73 P0 R502
M107
;TYPE:Custom
G90 ; use absolute coordinates
M83 ; extruder relative mode
M140 S60 ; set final bed temp
M104 S150 ; set temporary nozzle temp to prevent oozing during homing and auto bed leveling
G4 S10 ; allow partial nozzle warmup
G28 ; home all axisG1 Z50 F240
G1 X7.6 Y10 F3000
M104 S210 ; set final nozzle temp
M190 S60 ; wait for bed temp to stabilize
M109 S210 ; wait for nozzle temp to stabilize
G1 Z0.28 F240
G92 E0
G1 Y140 E10 F1500 ; prime the nozzle
G1 X4 F5000
G92 E0
G1 Y10 E10 F1200 ; prime the nozzle
G92 E0
G21 ; set units to millimeters
G90 ; use absolute coordinates
M83 ; use relative distances for extrusion
; Filament gcode
M107
;LAYER_CHANGE
;Z:0.35
;HEIGHT:0.35
;BEFORE_LAYER_CHANGE
G92 E0
;0.35


G1 E-1 F3600
G1 Z.35 F7800
;AFTER_LAYER_CHANGE
;0.35
G1 X171.268 Y167.876
G1 E1 F2400
;TYPE:Support material
;WIDTH:0.42
G1 F1800
G1 X8.732 Y167.876 E8.15705
G1 X8.732 Y137.654 E1.51669
G1 X106.807 Y137.654 E4.922
G1 X106.807 Y141.047 E.17027
G1 X133.949 Y141.047 E1.36213
G1 X133.949 Y154.618 E.68106
G1 X158.01 Y154.618 E1.20756
G1 X158.01 Y124.083 E1.53239
G1 X161.403 Y124.083 E.17027
G1 X161.403 Y117.298 E.34053
G1 X171.268 Y117.298 E.49509
G1 X171.268 Y167.824 E2.53569
G1 X170.857 Y167.72 F7800
G1 F1800
G1 X170.857 Y117.608 E2.51492
G1 X170.474 Y117.608 E.01923
G1 X170.474 Y167.565 E2.50713
G1 X170.091 Y167.565 E.01923
M73 P0 R501
G1 X170.091 Y117.608 E2.50713
G1 X169.708 Y117.608 E.01923
G1 X169.708 Y167.565 E2.50713
G1 X169.325 Y167.565 E.01923
G1 X169.325 Y117.608 E2.50713
G1 X168.941 Y117.608 E.01923
G1 X168.941 Y167.565 E2.50713
G1 X168.558 Y167.565 E.01923
G1 X168.558 Y117.608 E2.50713
G1 X168.175 Y117.608 E.01923
G1 X168.175 Y167.565 E2.50713
G1 X167.792 Y167.565 E.01923
G1 X167.792 Y117.608 E2.50713
G1 X167.408 Y117.608 E.01923
G1 X167.408 Y167.565 E2.50713
G1 X167.025 Y167.565 E.01923
G1 X167.025 Y117.608 E2.50713
G1 X166.642 Y117.608 E.01923
G1 X166.642 Y167.565 E2.50713
G1 X166.259 Y167.565 E.01923
G1 X166.259 Y117.608 E2.50713
G1 X165.876 Y117.608 E.01923
G1 X165.876 Y167.565 E2.50713
G1 X165.492 Y167.565 E.01923
G1 X165.492 Y117.608 E2.50713
G1 X165.109 Y117.608 E.01923
G1 X165.109 Y167.565 E2.50713
G1 X164.726 Y167.565 E.01923
G1 X164.726 Y117.608 E2.50713
G1 X164.343 Y117.608 E.01923
G1 X164.343 Y167.565 E2.50713
G1 X163.96 Y167.565 E.01923
G1 X163.96 Y117.608 E2.50713
G1 X163.576 Y117.608 E.01923
G1 X163.576 Y167.565 E2.50713
G1 X163.193 Y167.565 E.01923
G1 X163.193 Y117.608 E2.50713
G1 X162.81 Y117.608 E.01923
G1 X162.81 Y167.565 E2.50713
G1 X162.427 Y167.565 E.01923
G1 X162.427 Y117.608 E2.50713
G1 X162.044 Y117.608 E.01923
G1 X162.044 Y167.565 E2.50713
G1 X161.66 Y167.565 E.01923
G1 X161.66 Y124.394 E2.1666
G1 X161.277 Y124.394 E.01923
G1 X161.277 Y167.565 E2.1666
G1 X160.894 Y167.565 E.01923
G1 X160.894 Y124.394 E2.1666
G1 X160.511 Y124.394 E.01923
G1 X160.511 Y167.565 E2.1666
G1 X160.127 Y167.565 E.01923
G1 X160.127 Y124.394 E2.1666
G1 X159.744 Y124.394 E.01923
G1 X159.744 Y167.565 E2.1666
G1 X159.361 Y167.565 E.01923
G1 X159.361 Y124.394 E2.1666
G1 X158.978 Y124.394 E.01923
G1 X158.978 Y167.565 E2.1666
G1 X158.595 Y167.565 E.01923
G1 X158.595 Y124.394 E2.1666
G1 X158.321 Y124.394 E.01374
G1 X158.321 Y154.928 E1.53239
G1 X158.211 Y154.928 E.00549
G1 X158.211 Y167.565 E.6342
G1 X157.828 Y167.565 E.01923
G1 X157.828 Y154.928 E.6342
G1 X157.445 Y154.928 E.01923
G1 X157.445 Y167.565 E.6342
G1 X157.062 Y167.565 E.01923
G1 X157.062 Y154.928 E.6342
G1 X156.679 Y154.928 E.01923
G1 X156.679 Y167.565 E.6342
G1 X156.295 Y167.565 E.01923
G1 X156.295 Y154.928 E.6342
G1 X155.912 Y154.928 E.01923
G1 X155.912 Y167.565 E.6342
G1 X155.529 Y167.565 E.01923
G1 X155.529 Y154.928 E.6342
G1 X155.146 Y154.928 E.01923
G1 X155.146 Y167.565 E.6342
G1 X154.763 Y167.565 E.01923
G1 X154.763 Y154.928 E.6342
G1 X154.379 Y154.928 E.01923
G1 X154.379 Y167.565 E.6342
G1 X153.996 Y167.565 E.01923
G1 X153.996 Y154.928 E.6342
G1 X153.613 Y154.928 E.01923
G1 X153.613 Y167.565 E.6342
G1 X153.23 Y167.565 E.01923
M73 P0 R500
G1 X153.23 Y154.928 E.6342
G1 X152.846 Y154.928 E.01923
G1 X152.846 Y167.565 E.6342
G1 X152.463 Y167.565 E.01923
G1 X152.463 Y154.928 E.6342
G1 X152.08 Y154.928 E.01923
G1 X152.08 Y167.565 E.6342
G1 X151.697 Y167.565 E.01923
G1 X151.697 Y154.928 E.6342
G1 X151.314 Y154.928 E.01923
G1 X151.314 Y167.565 E.6342
G1 X150.93 Y167.565 E.01923
G1 X150.93 Y154.928 E.6342
G1 X150.547 Y154.928 E.01923
G1 X150.547 Y167.565 E.6342
G1 X150.164 Y167.565 E.01923
G1 X150.164 Y154.928 E.6342
G1 X149.781 Y154.928 E.01923
G1 X149.781 Y167.565 E.6342
G1 X149.398 Y167.565 E.01923
G1 X149.398 Y154.928 E.6342
G1 X149.014 Y154.928 E.01923
G1 X149.014 Y167.565 E.6342
G1 X148.631 Y167.565 E.01923
G1 X148.631 Y154.928 E.6342
G1 X148.248 Y154.928 E.01923
G1 X148.248 Y167.565 E.6342
G1 X147.865 Y167.565 E.01923
G1 X147.865 Y154.928 E.6342
G1 X147.482 Y154.928 E.01923
G1 X147.482 Y167.565 E.6342
G1 X147.098 Y167.565 E.01923
G1 X147.098 Y154.928 E.6342
G1 X146.715 Y154.928 E.01923
G1 X146.715 Y167.565 E.6342
G1 X146.332 Y167.565 E.01923
G1 X146.332 Y154.928 E.6342
G1 X145.949 Y154.928 E.01923
G1 X145.949 Y167.565 E.6342
G1 X145.565 Y167.565 E.01923
G1 X145.565 Y154.928 E.6342
G1 X145.182 Y154.928 E.01923
G1 X145.182 Y167.565 E.6342
G1 X144.799 Y167.565 E.01923
G1 X144.799 Y154.928 E.6342
G1 X144.416 Y154.928 E.01923
G1 X144.416 Y167.565 E.6342
G1 X144.033 Y167.565 E.01923
G1 X144.033 Y154.928 E.6342
G1 X143.649 Y154.928 E.01923
G1 X143.649 Y167.565 E.6342
G1 X143.266 Y167.565 E.01923
G1 X143.266 Y154.928 E.6342
G1 X142.883 Y154.928 E.01923
G1 X142.883 Y167.565 E.6342
G1 X142.5 Y167.565 E.01923
G1 X142.5 Y154.928 E.6342
G1 X142.117 Y154.928 E.01923
G1 X142.117 Y167.565 E.6342
G1 X141.733 Y167.565 E.01923
G1 X141.733 Y154.928 E.6342
G1 X141.35 Y154.928 E.01923
G1 X141.35 Y167.565 E.6342
G1 X140.967 Y167.565 E.01923
G1 X140.967 Y154.928 E.6342
G1 X140.584 Y154.928 E.01923
G1 X140.584 Y167.565 E.6342
G1 X140.201 Y167.565 E.01923
G1 X140.201 Y154.928 E.6342
G1 X139.817 Y154.928 E.01923
G1 X139.817 Y167.565 E.6342
G1 X139.434 Y167.565 E.01923
G1 X139.434 Y154.928 E.6342
G1 X139.051 Y154.928 E.01923
G1 X139.051 Y167.565 E.6342
G1 X138.668 Y167.565 E.01923
G1 X138.668 Y154.928 E.6342
G1 X138.284 Y154.928 E.01923
G1 X138.284 Y167.565 E.6342
G1 X137.901 Y167.565 E.01923
G1 X137.901 Y154.928 E.6342
G1 X137.518 Y154.928 E.01923
G1 X137.518 Y167.565 E.6342
G1 X137.135 Y167.565 E.01923
G1 X137.135 Y154.928 E.6342
G1 X136.752 Y154.928 E.01923
G1 X136.752 Y167.565 E.6342
G1 X136.368 Y167.565 E.01923
G1 X136.368 Y154.928 E.6342
G1 X135.985 Y154.928 E.01923
G1 X135.985 Y167.565 E.6342
G1 X135.602 Y167.565 E.01923
G1 X135.602 Y154.928 E.6342
G1 X135.219 Y154.928 E.01923
G1 X135.219 Y167.565 E.6342
G1 X134.836 Y167.565 E.01923
G1 X134.836 Y154.928 E.6342
G1 X134.452 Y154.928 E.01923
G1 X134.452 Y167.565 E.6342
G1 X134.069 Y167.565 E.01923
G1 X134.069 Y154.928 E.6342
G1 X133.686 Y154.928 E.01923
G1 X133.686 Y167.565 E.6342
G1 X133.303 Y167.565 E.01923
G1 X133.303 Y141.357 E1.31527
G1 X132.92 Y141.357 E.01923
G1 X132.92 Y167.565 E1.31527
G1 X132.536 Y167.565 E.01923
G1 X132.536 Y141.357 E1.31527
G1 X132.153 Y141.357 E.01923
G1 X132.153 Y167.565 E1.31527
G1 X131.77 Y167.565 E.01923
G1 X131.77 Y141.357 E1.31527
G1 X131.387 Y141.357 E.01923
G1 X131.387 Y167.565 E1.31527
G1 X131.004 Y167.565 E.01923
G1 X131.004 Y141.357 E1.31527
G1 X130.62 Y141.357 E.01923
G1 X130.62 Y167.565 E1.31527
G1 X130.237 Y167.565 E.01923
G1 X130.237 Y141.357 E1.31527
G1 X129.854 Y141.357 E.01923
G1 X129.854 Y167.565 E1.31527
G1 X129.471 Y167.565 E.01923
G1 X129.471 Y141.357 E1.31527
G1 X129.087 Y141.357 E.01923
G1 X129.087 Y167.565 E1.31527
G1 X128.704 Y167.565 E.01923
G1 X128.704 Y141.357 E1.31527
G1 X128.321 Y141.357 E.01923
G1 X128.321 Y167.565 E1.31527
G1 X127.938 Y167.565 E.01923
G1 X127.938 Y141.357 E1.31527
G1 X127.555 Y141.357 E.01923
G1 X127.555 Y167.565 E1.31527
G1 X127.171 Y167.565 E.01923
G1 X127.171 Y141.357 E1.31527
G1 X126.788 Y141.357 E.01923
G1 X126.788 Y167.565 E1.31527
G1 X126.405 Y167.565 E.01923
G1 X126.405 Y141.357 E1.31527
G1 X126.022 Y141.357 E.01923
G1 X126.022 Y167.565 E1.31527
G1 X125.639 Y167.565 E.01923
G1 X125.639 Y141.357 E1.31527
G1 X125.255 Y141.357 E.01923
G1 X125.255 Y167.565 E1.31527
G1 X124.872 Y167.565 E.01923
G1 X124.872 Y141.357 E1.31527
G1 X124.489 Y141.357 E.01923
G1 X124.489 Y167.565 E1.31527
G1 X124.106 Y167.565 E.01923
G1 X124.106 Y141.357 E1.31527
G1 X123.723 Y141.357 E.01923
G1 X123.723 Y167.565 E1.31527
G1 X123.339 Y167.565 E.01923
G1 X123.339 Y141.357 E1.31527
G1 X122.956 Y141.357 E.01923
G1 X122.956 Y167.565 E1.31527
G1 X122.573 Y167.565 E.01923
G1 X122.573 Y141.357 E1.31527
G1 X122.19 Y141.357 E.01923
G1 X122.19 Y167.565 E1.31527
G1 X121.806 Y167.565 E.01923
G1 X121.806 Y141.357 E1.31527
G1 X121.423 Y141.357 E.01923
G1 X121.423 Y167.565 E1.31527
G1 X121.04 Y167.565 E.01923
G1 X121.04 Y141.357 E1.31527
G1 X120.657 Y141.357 E.01923
G1 X120.657 Y167.565 E1.31527
G1 X120.274 Y167.565 E.01923
G1 X120.274 Y141.357 E1.31527
G1 X119.89 Y141.357 E.01923
G1 X119.89 Y167.565 E1.31527
G1 X119.507 Y167.565 E.01923
G1 X119.507 Y141.357 E1.31527
G1 X119.124 Y141.357 E.01923
M73 P0 R499
G1 X119.124 Y167.565 E1.31527
G1 X118.741 Y167.565 E.01923
G1 X118.741 Y141.357 E1.31527
G1 X118.358 Y141.357 E.01923
G1 X118.358 Y167.565 E1.31527
G1 X117.974 Y167.565 E.01923
G1 X117.974 Y141.357 E1.31527
G1 X117.591 Y141.357 E.01923
G1 X117.591 Y167.565 E1.31527
G1 X117.208 Y167.565 E.01923
G1 X117.208 Y141.357 E1.31527
G1 X116.825 Y141.357 E.01923
G1 X116.825 Y167.565 E1.31527
G1 X116.442 Y167.565 E.01923
G1 X116.442 Y141.357 E1.31527
G1 X116.058 Y141.357 E.01923
G1 X116.058 Y167.565 E1.31527
G1 X115.675 Y167.565 E.01923
G1 X115.675 Y141.357 E1.31527
G1 X115.292 Y141.357 E.01923
G1 X115.292 Y167.565 E1.31527
G1 X114.909 Y167.565 E.01923
G1 X114.909 Y141.357 E1.31527
G1 X114.525 Y141.357 E.01923
G1 X114.525 Y167.565 E1.31527
G1 X114.142 Y167.565 E.01923
G1 X114.142 Y141.357 E1.31527
G1 X113.759 Y141.357 E.01923
G1 X113.759 Y167.565 E1.31527
G1 X113.376 Y167.565 E.01923
G1 X113.376 Y141.357 E1.31527
G1 X112.993 Y141.357 E.01923
G1 X112.993 Y167.565 E1.31527
G1 X112.609 Y167.565 E.01923
G1 X112.609 Y141.357 E1.31527
G1 X112.226 Y141.357 E.01923
G1 X112.226 Y167.565 E1.31527
G1 X111.843 Y167.565 E.01923
G1 X111.843 Y141.357 E1.31527
G1 X111.46 Y141.357 E.01923
G1 X111.46 Y167.565 E1.31527
G1 X111.077 Y167.565 E.01923
G1 X111.077 Y141.357 E1.31527
G1 X110.693 Y141.357 E.01923
G1 X110.693 Y167.565 E1.31527
G1 X110.31 Y167.565 E.01923
G1 X110.31 Y141.357 E1.31527
G1 X109.927 Y141.357 E.01923
G1 X109.927 Y167.565 E1.31527
G1 X109.544 Y167.565 E.01923
G1 X109.544 Y141.357 E1.31527
G1 X109.161 Y141.357 E.01923
G1 X109.161 Y167.565 E1.31527
G1 X108.777 Y167.565 E.01923
G1 X108.777 Y141.357 E1.31527
G1 X108.394 Y141.357 E.01923
G1 X108.394 Y167.565 E1.31527
G1 X108.011 Y167.565 E.01923
G1 X108.011 Y141.357 E1.31527
G1 X107.628 Y141.357 E.01923
G1 X107.628 Y167.565 E1.31527
G1 X107.244 Y167.565 E.01923
G1 X107.244 Y141.357 E1.31527
G1 X106.861 Y141.357 E.01923
G1 X106.861 Y167.565 E1.31527
G1 X106.478 Y167.565 E.01923
G1 X106.478 Y137.965 E1.48553
G1 X106.095 Y137.965 E.01923
G1 X106.095 Y167.565 E1.48553
G1 X105.712 Y167.565 E.01923
G1 X105.712 Y137.965 E1.48553
G1 X105.328 Y137.965 E.01923
G1 X105.328 Y167.565 E1.48553
G1 X104.945 Y167.565 E.01923
G1 X104.945 Y137.965 E1.48553
G1 X104.562 Y137.965 E.01923
G1 X104.562 Y167.565 E1.48553
G1 X104.179 Y167.565 E.01923
G1 X104.179 Y137.965 E1.48553
G1 X103.796 Y137.965 E.01923
G1 X103.796 Y167.565 E1.48553
G1 X103.412 Y167.565 E.01923
G1 X103.412 Y137.965 E1.48553
G1 X103.029 Y137.965 E.01923
G1 X103.029 Y167.565 E1.48553
G1 X102.646 Y167.565 E.01923
G1 X102.646 Y137.965 E1.48553
G1 X102.263 Y137.965 E.01923
G1 X102.263 Y167.565 E1.48553
G1 X101.88 Y167.565 E.01923
G1 X101.88 Y137.965 E1.48553
G1 X101.496 Y137.965 E.01923
G1 X101.496 Y167.565 E1.48553
G1 X101.113 Y167.565 E.01923
G1 X101.113 Y137.965 E1.48553
G1 X100.73 Y137.965 E.01923
G1 X100.73 Y167.565 E1.48553
G1 X100.347 Y167.565 E.01923
G1 X100.347 Y137.965 E1.48553
G1 X99.964 Y137.965 E.01923
G1 X99.963 Y167.565 E1.48553
G1 X99.58 Y167.565 E.01923
G1 X99.58 Y137.965 E1.48553
G1 X99.197 Y137.965 E.01923
G1 X99.197 Y167.565 E1.48553
G1 X98.814 Y167.565 E.01923
G1 X98.814 Y137.965 E1.48553
G1 X98.431 Y137.965 E.01923
G1 X98.431 Y167.565 E1.48553
G1 X98.047 Y167.565 E.01923
G1 X98.047 Y137.965 E1.48553
G1 X97.664 Y137.965 E.01923
G1 X97.664 Y167.565 E1.48553
G1 X97.281 Y167.565 E.01923
G1 X97.281 Y137.965 E1.48553
G1 X96.898 Y137.965 E.01923
G1 X96.898 Y167.565 E1.48553
G1 X96.515 Y167.565 E.01923
G1 X96.515 Y137.965 E1.48553
G1 X96.131 Y137.965 E.01923
G1 X96.131 Y167.565 E1.48553
G1 X95.748 Y167.565 E.01923
M73 P0 R498
G1 X95.748 Y137.965 E1.48553
G1 X95.365 Y137.965 E.01923
G1 X95.365 Y167.565 E1.48553
G1 X94.982 Y167.565 E.01923
G1 X94.982 Y137.965 E1.48553
G1 X94.599 Y137.965 E.01923
G1 X94.599 Y167.565 E1.48553
G1 X94.215 Y167.565 E.01923
G1 X94.215 Y137.965 E1.48553
G1 X93.832 Y137.965 E.01923
G1 X93.832 Y167.565 E1.48553
G1 X93.449 Y167.565 E.01923
G1 X93.449 Y137.965 E1.48553
G1 X93.066 Y137.965 E.01923
G1 X93.066 Y167.565 E1.48553
G1 X92.683 Y167.565 E.01923
G1 X92.683 Y137.965 E1.48553
G1 X92.299 Y137.965 E.01923
G1 X92.299 Y167.565 E1.48553
G1 X91.916 Y167.565 E.01923
G1 X91.916 Y137.965 E1.48553
G1 X91.533 Y137.965 E.01923
G1 X91.533 Y167.565 E1.48553
G1 X91.15 Y167.565 E.01923
G1 X91.15 Y137.965 E1.48553
G1 X90.766 Y137.965 E.01923
G1 X90.766 Y167.565 E1.48553
G1 X90.383 Y167.565 E.01923
G1 X90.383 Y137.965 E1.48553
G1 X90 Y137.965 E.01923
G1 X90 Y167.565 E1.48553
G1 X89.617 Y167.565 E.01923
G1 X89.617 Y137.965 E1.48553
G1 X89.234 Y137.965 E.01923
G1 X89.234 Y167.565 E1.48553
G1 X88.85 Y167.565 E.01923
G1 X88.85 Y137.965 E1.48553
G1 X88.467 Y137.965 E.01923
G1 X88.467 Y167.565 E1.48553
G1 X88.084 Y167.565 E.01923
G1 X88.084 Y137.965 E1.48553
G1 X87.701 Y137.965 E.01923
G1 X87.701 Y167.565 E1.48553
G1 X87.318 Y167.565 E.01923
G1 X87.318 Y137.965 E1.48553
G1 X86.934 Y137.965 E.01923
G1 X86.934 Y167.565 E1.48553
G1 X86.551 Y167.565 E.01923
G1 X86.551 Y137.965 E1.48553
G1 X86.168 Y137.965 E.01923
G1 X86.168 Y167.565 E1.48553
G1 X85.785 Y167.565 E.01923
G1 X85.785 Y137.965 E1.48553
G1 X85.402 Y137.965 E.01923
G1 X85.402 Y167.565 E1.48553
G1 X85.018 Y167.565 E.01923
G1 X85.018 Y137.965 E1.48553
G1 X84.635 Y137.965 E.01923
G1 X84.635 Y167.565 E1.48553
G1 X84.252 Y167.565 E.01923
G1 X84.252 Y137.965 E1.48553
G1 X83.869 Y137.965 E.01923
G1 X83.869 Y167.565 E1.48553
G1 X83.485 Y167.565 E.01923
G1 X83.485 Y137.965 E1.48553
G1 X83.102 Y137.965 E.01923
G1 X83.102 Y167.565 E1.48553
G1 X82.719 Y167.565 E.01923
G1 X82.719 Y137.965 E1.48553
G1 X82.336 Y137.965 E.01923
G1 X82.336 Y167.565 E1.48553
G1 X81.953 Y167.565 E.01923
G1 X81.953 Y137.965 E1.48553
G1 X81.569 Y137.965 E.01923
G1 X81.569 Y167.565 E1.48553
G1 X81.186 Y167.565 E.01923
G1 X81.186 Y137.965 E1.48553
G1 X80.803 Y137.965 E.01923
G1 X80.803 Y167.565 E1.48553
G1 X80.42 Y167.565 E.01923
G1 X80.42 Y137.965 E1.48553
G1 X80.037 Y137.965 E.01923
G1 X80.037 Y167.565 E1.48553
G1 X79.653 Y167.565 E.01923
G1 X79.653 Y137.965 E1.48553
G1 X79.27 Y137.965 E.01923
G1 X79.27 Y167.565 E1.48553
G1 X78.887 Y167.565 E.01923
G1 X78.887 Y137.965 E1.48553
G1 X78.504 Y137.965 E.01923
G1 X78.504 Y167.565 E1.48553
G1 X78.121 Y167.565 E.01923
G1 X78.121 Y137.965 E1.48553
G1 X77.737 Y137.965 E.01923
G1 X77.737 Y167.565 E1.48553
G1 X77.354 Y167.565 E.01923
G1 X77.354 Y137.965 E1.48553
G1 X76.971 Y137.965 E.01923
G1 X76.971 Y167.565 E1.48553
G1 X76.588 Y167.565 E.01923
G1 X76.588 Y137.965 E1.48553
G1 X76.204 Y137.965 E.01923
G1 X76.204 Y167.565 E1.48553
