; generated by PrusaSlicer 2.5.0+win64 on 2022-12-07 at 00:19:24 UTC

; 

; external perimeters extrusion width = 1.00mm
; perimeters extrusion width = 1.00mm
; infill extrusion width = 1.00mm
; solid infill extrusion width = 1.00mm
; top infill extrusion width = 1.00mm
; support material extrusion width = 1.00mm
; first layer extrusion width = 0.42mm

M73 P0 R10
M107
;TYPE:Custom
G90 ; use absolute coordinates
M83 ; extruder relative mode
M140 S60 ; set final bed temp
M104 S150 ; set temporary nozzle temp to prevent oozing during homing and auto bed leveling
G4 S10 ; allow partial nozzle warmup
G28 ; home all axisG1 Z50 F240
G1 X7.6 Y10 F3000
M104 S210 ; set final nozzle temp
M190 S60 ; wait for bed temp to stabilize
M109 S210 ; wait for nozzle temp to stabilize
G1 Z0.28 F240
G92 E0
G1 Y140 E10 F1500 ; prime the nozzle
G1 X4 F5000
G92 E0
M73 P0 R9
G1 Y10 E10 F1200 ; prime the nozzle
G92 E0
G21 ; set units to millimeters
G90 ; use absolute coordinates
M83 ; use relative distances for extrusion
; Filament gcode
M107
;LAYER_CHANGE
;Z:0.35
;HEIGHT:0.35
;BEFORE_LAYER_CHANGE
G92 E0
;0.35


G1 E-1 F3600
M73 P2 R9
G1 Z.35 F7800
;AFTER_LAYER_CHANGE
;0.35
G1 X165.475 Y89.528
G1 E1 F2400
;TYPE:Perimeter
;WIDTH:0.42
G1 F1800
G1 X165.406 Y93.039 E.17626
G1 X14.525 Y93.039 E7.57206
G1 X14.525 Y87.077 E.29919
M73 P3 R9
G1 X162.398 Y89.599 E7.42222
G1 X165.325 Y89.531 E.14689
M73 P4 R9
G1 X165.82 Y89.175 F7800
;TYPE:External perimeter
G1 F1800
G1 X165.744 Y93.384 E.21129
G1 X14.181 Y93.384 E7.60632
G1 X14.181 Y86.727 E.33411
G1 X162.404 Y89.254 E7.43982
G1 X165.67 Y89.178 E.16391
M73 P5 R9
G1 X165.305 Y90.032 F7800
G1 X165.359 Y90.318
;TYPE:Solid infill
;WIDTH:0.421067
G1 F1800
G1 X164.841 Y89.801 E.03681
G1 X164.363 Y89.812 E.02408
G1 X165.197 Y90.645 E.05933
G1 X165.187 Y91.125 E.02414
G1 X163.885 Y89.823 E.09267
G1 X163.407 Y89.834 E.02408
G1 X165.177 Y91.604 E.12601
G1 X165.167 Y92.083 E.02414
G1 X162.929 Y89.845 E.15935
G1 X162.45 Y89.856 E.02408
G1 X165.157 Y92.563 E.1927
G1 X165.152 Y92.78 E.01096
G1 X164.885 Y92.78 E.01344
G1 X161.955 Y89.85 E.20864
G1 X161.457 Y89.841 E.02506
M73 P6 R9
G1 X164.396 Y92.78 E.20925
G1 X163.907 Y92.78 E.02463
G1 X160.959 Y89.833 E.20985
G1 X160.462 Y89.824 E.02506
G1 X163.418 Y92.78 E.21046
G1 X162.928 Y92.78 E.02463
G1 X159.964 Y89.816 E.21106
G1 X159.466 Y89.807 E.02506
G1 X162.439 Y92.78 E.21167
G1 X161.95 Y92.78 E.02463
G1 X158.968 Y89.799 E.21227
G1 X158.471 Y89.79 E.02506
G1 X161.461 Y92.78 E.21287
G1 X160.971 Y92.78 E.02463
G1 X157.973 Y89.782 E.21348
G1 X157.475 Y89.773 E.02506
G1 X160.482 Y92.78 E.21408
G1 X159.993 Y92.78 E.02463
G1 X156.977 Y89.765 E.21469
G1 X156.48 Y89.756 E.02506
G1 X159.504 Y92.78 E.21529
G1 X159.014 Y92.78 E.02463
G1 X155.982 Y89.748 E.21589
G1 X155.484 Y89.739 E.02506
G1 X158.525 Y92.78 E.2165
G1 X158.036 Y92.78 E.02463
G1 X154.986 Y89.731 E.2171
G1 X154.489 Y89.722 E.02506
G1 X157.547 Y92.78 E.21771
G1 X157.057 Y92.78 E.02463
G1 X153.991 Y89.714 E.21831
G1 X153.493 Y89.705 E.02506
G1 X156.568 Y92.78 E.21892
G1 X156.079 Y92.78 E.02463
G1 X152.995 Y89.697 E.21952
G1 X152.498 Y89.688 E.02506
G1 X155.59 Y92.78 E.22012
G1 X155.1 Y92.78 E.02463
G1 X152 Y89.68 E.22073
G1 X151.502 Y89.672 E.02506
G1 X154.611 Y92.78 E.22133
G1 X154.122 Y92.78 E.02463
G1 X151.004 Y89.663 E.22194
G1 X150.507 Y89.655 E.02506
G1 X153.633 Y92.78 E.22254
G1 X153.143 Y92.78 E.02463
G1 X150.009 Y89.646 E.22314
G1 X149.511 Y89.638 E.02506
G1 X152.654 Y92.78 E.22375
G1 X152.165 Y92.78 E.02463
G1 X149.013 Y89.629 E.22435
G1 X148.516 Y89.621 E.02506
G1 X151.676 Y92.78 E.22496
G1 X151.186 Y92.78 E.02463
G1 X148.018 Y89.612 E.22556
G1 X147.52 Y89.604 E.02506
G1 X150.697 Y92.78 E.22617
G1 X150.208 Y92.78 E.02463
M73 P7 R9
G1 X147.023 Y89.595 E.22677
G1 X146.525 Y89.587 E.02506
G1 X149.719 Y92.78 E.22737
G1 X149.229 Y92.78 E.02463
G1 X146.027 Y89.578 E.22798
G1 X145.529 Y89.57 E.02506
G1 X148.74 Y92.78 E.22858
G1 X148.251 Y92.78 E.02463
G1 X145.032 Y89.561 E.22919
G1 X144.534 Y89.553 E.02506
G1 X147.762 Y92.78 E.22979
G1 X147.272 Y92.78 E.02463
G1 X144.036 Y89.544 E.23039
G1 X143.538 Y89.536 E.02506
G1 X146.783 Y92.78 E.231
G1 X146.294 Y92.78 E.02463
G1 X143.041 Y89.527 E.2316
G1 X142.543 Y89.519 E.02506
G1 X145.804 Y92.78 E.23221
G1 X145.315 Y92.78 E.02463
G1 X142.045 Y89.51 E.23281
G1 X141.547 Y89.502 E.02506
G1 X144.826 Y92.78 E.23342
G1 X144.337 Y92.78 E.02463
G1 X141.05 Y89.493 E.23402
G1 X140.552 Y89.485 E.02506
G1 X143.847 Y92.78 E.23462
G1 X143.358 Y92.78 E.02463
G1 X140.054 Y89.476 E.23523
G1 X139.556 Y89.468 E.02506
G1 X142.869 Y92.78 E.23583
G1 X142.38 Y92.78 E.02463
G1 X139.059 Y89.459 E.23644
G1 X138.561 Y89.451 E.02506
G1 X141.89 Y92.78 E.23704
G1 X141.401 Y92.78 E.02463
G1 X138.063 Y89.442 E.23764
G1 X137.565 Y89.434 E.02506
G1 X140.912 Y92.78 E.23825
G1 X140.423 Y92.78 E.02463
G1 X137.068 Y89.425 E.23885
G1 X136.57 Y89.417 E.02506
G1 X139.933 Y92.78 E.23946
G1 X139.444 Y92.78 E.02463
G1 X136.072 Y89.408 E.24006
G1 X135.574 Y89.4 E.02506
G1 X138.955 Y92.78 E.24067
G1 X138.466 Y92.78 E.02463
G1 X135.077 Y89.391 E.24127
G1 X134.579 Y89.383 E.02506
G1 X137.976 Y92.78 E.24187
G1 X137.487 Y92.78 E.02463
G1 X134.081 Y89.375 E.24248
G1 X133.583 Y89.366 E.02506
G1 X136.998 Y92.78 E.24308
G1 X136.509 Y92.78 E.02463
M73 P8 R9
G1 X133.086 Y89.358 E.24369
G1 X132.588 Y89.349 E.02506
G1 X136.019 Y92.78 E.24429
G1 X135.53 Y92.78 E.02463
G1 X132.09 Y89.341 E.24489
G1 X131.593 Y89.332 E.02506
G1 X135.041 Y92.78 E.2455
G1 X134.552 Y92.78 E.02463
G1 X131.095 Y89.324 E.2461
G1 X130.597 Y89.315 E.02506
G1 X134.062 Y92.78 E.24671
G1 X133.573 Y92.78 E.02463
G1 X130.099 Y89.307 E.24731
G1 X129.602 Y89.298 E.02506
G1 X133.084 Y92.78 E.24792
G1 X132.595 Y92.78 E.02463
G1 X129.104 Y89.29 E.24852
G1 X128.606 Y89.281 E.02506
G1 X132.105 Y92.78 E.24912
G1 X131.616 Y92.78 E.02463
G1 X128.108 Y89.273 E.24973
G1 X127.611 Y89.264 E.02506
G1 X131.127 Y92.78 E.25033
G1 X130.638 Y92.78 E.02463
G1 X127.113 Y89.256 E.25094
G1 X126.615 Y89.247 E.02506
G1 X130.148 Y92.78 E.25154
G1 X129.659 Y92.78 E.02463
G1 X126.117 Y89.239 E.25214
G1 X125.62 Y89.23 E.02506
G1 X129.17 Y92.78 E.25275
G1 X128.681 Y92.78 E.02463
G1 X125.122 Y89.222 E.25335
G1 X124.624 Y89.213 E.02506
G1 X128.191 Y92.78 E.25396
G1 X127.702 Y92.78 E.02463
G1 X124.126 Y89.205 E.25456
G1 X123.629 Y89.196 E.02506
G1 X127.213 Y92.78 E.25517
G1 X126.724 Y92.78 E.02463
G1 X123.131 Y89.188 E.25577
G1 X122.633 Y89.179 E.02506
G1 X126.234 Y92.78 E.25637
G1 X125.745 Y92.78 E.02463
G1 X122.135 Y89.171 E.25698
G1 X121.638 Y89.162 E.02506
G1 X125.256 Y92.78 E.25758
G1 X124.766 Y92.78 E.02463
G1 X121.14 Y89.154 E.25819
G1 X120.642 Y89.145 E.02506
G1 X124.277 Y92.78 E.25879
G1 X123.788 Y92.78 E.02463
M73 P9 R9
G1 X120.144 Y89.137 E.25939
G1 X119.647 Y89.128 E.02506
G1 X123.299 Y92.78 E.26
G1 X122.809 Y92.78 E.02463
G1 X119.149 Y89.12 E.2606
G1 X118.651 Y89.111 E.02506
G1 X122.32 Y92.78 E.26121
G1 X121.831 Y92.78 E.02463
G1 X118.153 Y89.103 E.26181
G1 X117.656 Y89.094 E.02506
G1 X121.342 Y92.78 E.26242
G1 X120.852 Y92.78 E.02463
G1 X117.158 Y89.086 E.26302
G1 X116.66 Y89.077 E.02506
G1 X120.363 Y92.78 E.26362
G1 X119.874 Y92.78 E.02463
G1 X116.163 Y89.069 E.26423
G1 X115.665 Y89.061 E.02506
G1 X119.385 Y92.78 E.26483
G1 X118.895 Y92.78 E.02463
G1 X115.167 Y89.052 E.26544
G1 X114.669 Y89.044 E.02506
G1 X118.406 Y92.78 E.26604
G1 X117.917 Y92.78 E.02463
G1 X114.172 Y89.035 E.26664
G1 X113.674 Y89.027 E.02506
G1 X117.428 Y92.78 E.26725
G1 X116.938 Y92.78 E.02463
G1 X113.176 Y89.018 E.26785
G1 X112.678 Y89.01 E.02506
G1 X116.449 Y92.78 E.26846
G1 X115.96 Y92.78 E.02463
G1 X112.181 Y89.001 E.26906
G1 X111.683 Y88.993 E.02506
G1 X115.471 Y92.78 E.26967
G1 X114.981 Y92.78 E.02463
G1 X111.185 Y88.984 E.27027
G1 X110.687 Y88.976 E.02506
G1 X114.492 Y92.78 E.27087
G1 X114.003 Y92.78 E.02463
G1 X110.19 Y88.967 E.27148
G1 X109.692 Y88.959 E.02506
G1 X113.514 Y92.78 E.27208
G1 X113.024 Y92.78 E.02463
G1 X109.194 Y88.95 E.27269
G1 X108.696 Y88.942 E.02506
G1 X112.535 Y92.78 E.27329
G1 X112.046 Y92.78 E.02463
G1 X108.199 Y88.933 E.27389
G1 X107.701 Y88.925 E.02506
M73 P10 R9
G1 X111.557 Y92.78 E.2745
G1 X111.067 Y92.78 E.02463
G1 X107.203 Y88.916 E.2751
G1 X106.705 Y88.908 E.02506
G1 X110.578 Y92.78 E.27571
G1 X110.089 Y92.78 E.02463
G1 X106.208 Y88.899 E.27631
G1 X105.71 Y88.891 E.02506
G1 X109.6 Y92.78 E.27692
G1 X109.11 Y92.78 E.02463
G1 X105.212 Y88.882 E.27752
G1 X104.714 Y88.874 E.02506
G1 X108.621 Y92.78 E.27812
G1 X108.132 Y92.78 E.02463
G1 X104.217 Y88.865 E.27873
G1 X103.719 Y88.857 E.02506
G1 X107.643 Y92.78 E.27933
G1 X107.153 Y92.78 E.02463
G1 X103.221 Y88.848 E.27994
G1 X102.723 Y88.84 E.02506
G1 X106.664 Y92.78 E.28054
G1 X106.175 Y92.78 E.02463
G1 X102.226 Y88.831 E.28114
G1 X101.728 Y88.823 E.02506
M73 P10 R8
G1 X105.686 Y92.78 E.28175
G1 X105.196 Y92.78 E.02463
G1 X101.23 Y88.814 E.28235
G1 X100.733 Y88.806 E.02506
G1 X104.707 Y92.78 E.28296
G1 X104.218 Y92.78 E.02463
G1 X100.235 Y88.797 E.28356
G1 X99.737 Y88.789 E.02506
G1 X103.729 Y92.78 E.28417
G1 X103.239 Y92.78 E.02463
G1 X99.239 Y88.78 E.28477
G1 X98.742 Y88.772 E.02506
G1 X102.75 Y92.78 E.28537
G1 X102.261 Y92.78 E.02463
G1 X98.244 Y88.763 E.28598
G1 X97.746 Y88.755 E.02506
G1 X101.771 Y92.78 E.28658
G1 X101.282 Y92.78 E.02463
G1 X97.248 Y88.747 E.28719
G1 X96.751 Y88.738 E.02506
G1 X100.793 Y92.78 E.28779
G1 X100.304 Y92.78 E.02463
G1 X96.253 Y88.73 E.28839
G1 X95.755 Y88.721 E.02506
M73 P11 R8
G1 X99.814 Y92.78 E.289
G1 X99.325 Y92.78 E.02463
G1 X95.257 Y88.713 E.2896
G1 X94.76 Y88.704 E.02506
G1 X98.836 Y92.78 E.29021
G1 X98.347 Y92.78 E.02463
G1 X94.262 Y88.696 E.29081
G1 X93.764 Y88.687 E.02506
G1 X97.857 Y92.78 E.29142
G1 X97.368 Y92.78 E.02463
G1 X93.266 Y88.679 E.29202
G1 X92.769 Y88.67 E.02506
G1 X96.879 Y92.78 E.29262
G1 X96.39 Y92.78 E.02463
G1 X92.271 Y88.662 E.29323
G1 X91.773 Y88.653 E.02506
G1 X95.9 Y92.78 E.29383
G1 X95.411 Y92.78 E.02463
G1 X91.275 Y88.645 E.29444
G1 X90.778 Y88.636 E.02506
G1 X94.922 Y92.78 E.29504
G1 X94.433 Y92.78 E.02463
G1 X90.28 Y88.628 E.29564
G1 X89.782 Y88.619 E.02506
G1 X93.943 Y92.78 E.29625
G1 X93.454 Y92.78 E.02463
G1 X89.284 Y88.611 E.29685
G1 X88.787 Y88.602 E.02506
G1 X92.965 Y92.78 E.29746
G1 X92.476 Y92.78 E.02463
G1 X88.289 Y88.594 E.29806
G1 X87.791 Y88.585 E.02506
G1 X91.986 Y92.78 E.29867
G1 X91.497 Y92.78 E.02463
G1 X87.293 Y88.577 E.29927
G1 X86.796 Y88.568 E.02506
G1 X91.008 Y92.78 E.29987
G1 X90.519 Y92.78 E.02463
G1 X86.298 Y88.56 E.30048
G1 X85.8 Y88.551 E.02506
G1 X90.029 Y92.78 E.30108
G1 X89.54 Y92.78 E.02463
G1 X85.303 Y88.543 E.30169
G1 X84.805 Y88.534 E.02506
G1 X89.051 Y92.78 E.30229
G1 X88.562 Y92.78 E.02463
G1 X84.307 Y88.526 E.30289
G1 X83.809 Y88.517 E.02506
M73 P12 R8
G1 X88.072 Y92.78 E.3035
G1 X87.583 Y92.78 E.02463
G1 X83.312 Y88.509 E.3041
G1 X82.814 Y88.5 E.02506
G1 X87.094 Y92.78 E.30471
G1 X86.605 Y92.78 E.02463
G1 X82.316 Y88.492 E.30531
G1 X81.818 Y88.483 E.02506
G1 X86.115 Y92.78 E.30592
G1 X85.626 Y92.78 E.02463
G1 X81.321 Y88.475 E.30652
G1 X80.823 Y88.466 E.02506
G1 X85.137 Y92.78 E.30712
G1 X84.648 Y92.78 E.02463
G1 X80.325 Y88.458 E.30773
G1 X79.827 Y88.449 E.02506
G1 X84.158 Y92.78 E.30833
G1 X83.669 Y92.78 E.02463
G1 X79.33 Y88.441 E.30894
G1 X78.832 Y88.433 E.02506
G1 X83.18 Y92.78 E.30954
G1 X82.691 Y92.78 E.02463
G1 X78.334 Y88.424 E.31014
G1 X77.836 Y88.416 E.02506
G1 X82.201 Y92.78 E.31075
G1 X81.712 Y92.78 E.02463
G1 X77.339 Y88.407 E.31135
G1 X76.841 Y88.399 E.02506
G1 X81.223 Y92.78 E.31196
G1 X80.733 Y92.78 E.02463
G1 X76.343 Y88.39 E.31256
G1 X75.845 Y88.382 E.02506
G1 X80.244 Y92.78 E.31317
G1 X79.755 Y92.78 E.02463
G1 X75.348 Y88.373 E.31377
G1 X74.85 Y88.365 E.02506
G1 X79.266 Y92.78 E.31437
G1 X78.776 Y92.78 E.02463
G1 X74.352 Y88.356 E.31498
G1 X73.854 Y88.348 E.02506
G1 X78.287 Y92.78 E.31558
G1 X77.798 Y92.78 E.02463
G1 X73.357 Y88.339 E.31619
G1 X72.859 Y88.331 E.02506
M73 P13 R8
G1 X77.309 Y92.78 E.31679
G1 X76.819 Y92.78 E.02463
G1 X72.361 Y88.322 E.31739
G1 X71.863 Y88.314 E.02506
G1 X76.33 Y92.78 E.318
G1 X75.841 Y92.78 E.02463
G1 X71.366 Y88.305 E.3186
G1 X70.868 Y88.297 E.02506
G1 X75.352 Y92.78 E.31921
G1 X74.862 Y92.78 E.02463
G1 X70.37 Y88.288 E.31981
G1 X69.873 Y88.28 E.02506
G1 X74.373 Y92.78 E.32042
G1 X73.884 Y92.78 E.02463
G1 X69.375 Y88.271 E.32102
G1 X68.877 Y88.263 E.02506
G1 X73.395 Y92.78 E.32162
G1 X72.905 Y92.78 E.02463
G1 X68.379 Y88.254 E.32223
G1 X67.882 Y88.246 E.02506
G1 X72.416 Y92.78 E.32283
G1 X71.927 Y92.78 E.02463
G1 X67.384 Y88.237 E.32344
G1 X66.886 Y88.229 E.02506
G1 X71.438 Y92.78 E.32404
G1 X70.948 Y92.78 E.02463
G1 X66.388 Y88.22 E.32464
G1 X65.891 Y88.212 E.02506
G1 X70.459 Y92.78 E.32525
G1 X69.97 Y92.78 E.02463
G1 X65.393 Y88.203 E.32585
G1 X64.895 Y88.195 E.02506
G1 X69.481 Y92.78 E.32646
G1 X68.991 Y92.78 E.02463
G1 X64.397 Y88.186 E.32706
G1 X63.9 Y88.178 E.02506
G1 X68.502 Y92.78 E.32767
G1 X68.013 Y92.78 E.02463
G1 X63.402 Y88.169 E.32827
G1 X62.904 Y88.161 E.02506
G1 X67.524 Y92.78 E.32887
G1 X67.034 Y92.78 E.02463
G1 X62.406 Y88.152 E.32948
G1 X61.909 Y88.144 E.02506
M73 P14 R8
G1 X66.545 Y92.78 E.33008
G1 X66.056 Y92.78 E.02463
G1 X61.411 Y88.136 E.33069
G1 X60.913 Y88.127 E.02506
G1 X65.567 Y92.78 E.33129
G1 X65.077 Y92.78 E.02463
G1 X60.415 Y88.119 E.33189
G1 X59.918 Y88.11 E.02506
G1 X64.588 Y92.78 E.3325
G1 X64.099 Y92.78 E.02463
G1 X59.42 Y88.102 E.3331
G1 X58.922 Y88.093 E.02506
G1 X63.61 Y92.78 E.33371
G1 X63.12 Y92.78 E.02463
G1 X58.424 Y88.085 E.33431
G1 X57.927 Y88.076 E.02506
G1 X62.631 Y92.78 E.33492
G1 X62.142 Y92.78 E.02463
G1 X57.429 Y88.068 E.33552
G1 X56.931 Y88.059 E.02506
G1 X61.653 Y92.78 E.33612
G1 X61.163 Y92.78 E.02463
G1 X56.433 Y88.051 E.33673
G1 X55.936 Y88.042 E.02506
G1 X60.674 Y92.78 E.33733
G1 X60.185 Y92.78 E.02463
G1 X55.438 Y88.034 E.33794
G1 X54.94 Y88.025 E.02506
G1 X59.695 Y92.78 E.33854
G1 X59.206 Y92.78 E.02463
G1 X54.443 Y88.017 E.33914
G1 X53.945 Y88.008 E.02506
G1 X58.717 Y92.78 E.33975
G1 X58.228 Y92.78 E.02463
G1 X53.447 Y88 E.34035
G1 X52.949 Y87.991 E.02506
G1 X57.738 Y92.78 E.34096
G1 X57.249 Y92.78 E.02463
G1 X52.452 Y87.983 E.34156
G1 X51.954 Y87.974 E.02506
G1 X56.76 Y92.78 E.34217
G1 X56.271 Y92.78 E.02463
M73 P15 R8
G1 X51.456 Y87.966 E.34277
G1 X50.958 Y87.957 E.02506
G1 X55.781 Y92.78 E.34337
G1 X55.292 Y92.78 E.02463
G1 X50.461 Y87.949 E.34398
G1 X49.963 Y87.94 E.02506
G1 X54.803 Y92.78 E.34458
G1 X54.314 Y92.78 E.02463
G1 X49.465 Y87.932 E.34519
G1 X48.967 Y87.923 E.02506
G1 X53.824 Y92.78 E.34579
G1 X53.335 Y92.78 E.02463
G1 X48.47 Y87.915 E.34639
G1 X47.972 Y87.906 E.02506
G1 X52.846 Y92.78 E.347
G1 X52.357 Y92.78 E.02463
G1 X47.474 Y87.898 E.3476
G1 X46.976 Y87.889 E.02506
G1 X51.867 Y92.78 E.34821
G1 X51.378 Y92.78 E.02463
G1 X46.479 Y87.881 E.34881
G1 X45.981 Y87.872 E.02506
G1 X50.889 Y92.78 E.34942
G1 X50.4 Y92.78 E.02463
G1 X45.483 Y87.864 E.35002
G1 X44.985 Y87.855 E.02506
G1 X49.91 Y92.78 E.35062
G1 X49.421 Y92.78 E.02463
G1 X44.488 Y87.847 E.35123
G1 X43.99 Y87.838 E.02506
G1 X48.932 Y92.78 E.35183
G1 X48.443 Y92.78 E.02463
G1 X43.492 Y87.83 E.35244
G1 X42.994 Y87.822 E.02506
G1 X47.953 Y92.78 E.35304
G1 X47.464 Y92.78 E.02463
G1 X42.497 Y87.813 E.35364
G1 X41.999 Y87.805 E.02506
G1 X46.975 Y92.78 E.35425
G1 X46.486 Y92.78 E.02463
G1 X41.501 Y87.796 E.35485
G1 X41.003 Y87.788 E.02506
M73 P16 R8
G1 X45.996 Y92.78 E.35546
G1 X45.507 Y92.78 E.02463
G1 X40.506 Y87.779 E.35606
G1 X40.008 Y87.771 E.02506
G1 X45.018 Y92.78 E.35667
G1 X44.529 Y92.78 E.02463
G1 X39.51 Y87.762 E.35727
G1 X39.013 Y87.754 E.02506
G1 X44.039 Y92.78 E.35787
G1 X43.55 Y92.78 E.02463
G1 X38.515 Y87.745 E.35848
G1 X38.017 Y87.737 E.02506
G1 X43.061 Y92.78 E.35908
G1 X42.572 Y92.78 E.02463
G1 X37.519 Y87.728 E.35969
G1 X37.022 Y87.72 E.02506
G1 X42.082 Y92.78 E.36029
G1 X41.593 Y92.78 E.02463
G1 X36.524 Y87.711 E.36089
G1 X36.026 Y87.703 E.02506
G1 X41.104 Y92.78 E.3615
G1 X40.615 Y92.78 E.02463
G1 X35.528 Y87.694 E.3621
G1 X35.031 Y87.686 E.02506
G1 X40.125 Y92.78 E.36271
G1 X39.636 Y92.78 E.02463
G1 X34.533 Y87.677 E.36331
G1 X34.035 Y87.669 E.02506
G1 X39.147 Y92.78 E.36392
G1 X38.657 Y92.78 E.02463
