; generated by PrusaSlicer 2.5.0+win64 on 2022-12-07 at 00:19:26 UTC

; 

; external perimeters extrusion width = 1.00mm
; perimeters extrusion width = 1.00mm
; infill extrusion width = 1.00mm
; solid infill extrusion width = 1.00mm
; top infill extrusion width = 1.00mm
; support material extrusion width = 1.00mm
; first layer extrusion width = 0.42mm

M73 P0 R560
M107
;TYPE:Custom
G90 ; use absolute coordinates
M83 ; extruder relative mode
M140 S60 ; set final bed temp
M104 S150 ; set temporary nozzle temp to prevent oozing during homing and auto bed leveling
G4 S10 ; allow partial nozzle warmup
G28 ; home all axisG1 Z50 F240
G1 X7.6 Y10 F3000
M104 S210 ; set final nozzle temp
M190 S60 ; wait for bed temp to stabilize
M109 S210 ; wait for nozzle temp to stabilize
G1 Z0.28 F240
G92 E0
G1 Y140 E10 F1500 ; prime the nozzle
G1 X4 F5000
G92 E0
M73 P0 R559
G1 Y10 E10 F1200 ; prime the nozzle
G92 E0
G21 ; set units to millimeters
G90 ; use absolute coordinates
M83 ; use relative distances for extrusion
; Filament gcode
M107
;LAYER_CHANGE
;Z:0.35
;HEIGHT:0.35
;BEFORE_LAYER_CHANGE
G92 E0
;0.35


G1 E-1 F3600
G1 Z.35 F7800
;AFTER_LAYER_CHANGE
;0.35
G1 X171.268 Y21.99
G1 E1 F2400
;TYPE:Support material
;WIDTH:0.42
G1 F1800
G1 X120.194 Y21.99 E2.56322
G1 X83.209 Y21.361 E1.85641
G1 X81.601 Y21.231 E.08094
G1 X78.69 Y21.173 E.14611
G1 X70.299 Y20.448 E.4227
G1 X62.136 Y20.299 E.40975
G1 X13.724 Y15.951 E2.43937
G1 X13.262 Y16.373 E.03141
G1 X13.262 Y21.99 E.28186
G1 X8.732 Y21.99 E.22736
G1 X8.732 Y12.124 E.49509
G1 X171.268 Y12.124 E8.15705
G1 X171.268 Y21.938 E.4925
G1 X170.857 Y21.834 F7800
G1 F1800
G1 X170.857 Y12.435 E.47173
G1 X170.474 Y12.435 E.01923
G1 X170.474 Y21.679 E.46394
G1 X170.091 Y21.679 E.01923
G1 X170.091 Y12.435 E.46394
G1 X169.708 Y12.435 E.01923
G1 X169.708 Y21.679 E.46394
G1 X169.324 Y21.679 E.01923
G1 X169.324 Y12.435 E.46394
G1 X168.941 Y12.435 E.01923
G1 X168.941 Y21.679 E.46394
G1 X168.558 Y21.679 E.01923
G1 X168.558 Y12.435 E.46394
G1 X168.175 Y12.435 E.01923
G1 X168.175 Y21.679 E.46394
G1 X167.792 Y21.679 E.01923
G1 X167.792 Y12.435 E.46394
G1 X167.408 Y12.435 E.01923
G1 X167.408 Y21.679 E.46394
G1 X167.025 Y21.679 E.01923
G1 X167.025 Y12.435 E.46394
G1 X166.642 Y12.435 E.01923
G1 X166.642 Y21.679 E.46394
G1 X166.259 Y21.679 E.01923
G1 X166.259 Y12.435 E.46394
G1 X165.876 Y12.435 E.01923
G1 X165.876 Y21.679 E.46394
G1 X165.492 Y21.679 E.01923
G1 X165.492 Y12.435 E.46394
G1 X165.109 Y12.435 E.01923
G1 X165.109 Y21.679 E.46394
G1 X164.726 Y21.679 E.01923
G1 X164.726 Y12.435 E.46394
G1 X164.343 Y12.435 E.01923
G1 X164.343 Y21.679 E.46394
G1 X163.96 Y21.679 E.01923
G1 X163.96 Y12.435 E.46394
G1 X163.576 Y12.435 E.01923
G1 X163.576 Y21.679 E.46394
G1 X163.193 Y21.679 E.01923
G1 X163.193 Y12.435 E.46394
G1 X162.81 Y12.435 E.01923
G1 X162.81 Y21.679 E.46394
G1 X162.427 Y21.679 E.01923
G1 X162.427 Y12.435 E.46394
G1 X162.043 Y12.435 E.01923
G1 X162.043 Y21.679 E.46394
G1 X161.66 Y21.679 E.01923
G1 X161.66 Y12.435 E.46394
G1 X161.277 Y12.435 E.01923
G1 X161.277 Y21.679 E.46394
G1 X160.894 Y21.679 E.01923
G1 X160.894 Y12.435 E.46394
G1 X160.511 Y12.435 E.01923
G1 X160.511 Y21.679 E.46394
G1 X160.127 Y21.679 E.01923
G1 X160.127 Y12.435 E.46394
G1 X159.744 Y12.435 E.01923
G1 X159.744 Y21.679 E.46394
G1 X159.361 Y21.679 E.01923
G1 X159.361 Y12.435 E.46394
G1 X158.978 Y12.435 E.01923
G1 X158.978 Y21.679 E.46394
G1 X158.595 Y21.679 E.01923
G1 X158.595 Y12.435 E.46394
G1 X158.211 Y12.435 E.01923
G1 X158.211 Y21.679 E.46394
G1 X157.828 Y21.679 E.01923
G1 X157.828 Y12.435 E.46394
G1 X157.445 Y12.435 E.01923
G1 X157.445 Y21.679 E.46394
G1 X157.062 Y21.679 E.01923
G1 X157.062 Y12.435 E.46394
G1 X156.679 Y12.435 E.01923
G1 X156.679 Y21.679 E.46394
G1 X156.295 Y21.679 E.01923
G1 X156.295 Y12.435 E.46394
G1 X155.912 Y12.435 E.01923
G1 X155.912 Y21.679 E.46394
G1 X155.529 Y21.679 E.01923
G1 X155.529 Y12.435 E.46394
G1 X155.146 Y12.435 E.01923
G1 X155.146 Y21.679 E.46394
G1 X154.763 Y21.679 E.01923
G1 X154.763 Y12.435 E.46394
G1 X154.379 Y12.435 E.01923
G1 X154.379 Y21.679 E.46394
G1 X153.996 Y21.679 E.01923
G1 X153.996 Y12.435 E.46394
G1 X153.613 Y12.435 E.01923
G1 X153.613 Y21.679 E.46394
G1 X153.23 Y21.679 E.01923
G1 X153.23 Y12.435 E.46394
G1 X152.846 Y12.435 E.01923
G1 X152.846 Y21.679 E.46394
G1 X152.463 Y21.679 E.01923
G1 X152.463 Y12.435 E.46394
G1 X152.08 Y12.435 E.01923
G1 X152.08 Y21.679 E.46394
G1 X151.697 Y21.679 E.01923
G1 X151.697 Y12.435 E.46394
G1 X151.314 Y12.435 E.01923
G1 X151.314 Y21.679 E.46394
G1 X150.93 Y21.679 E.01923
G1 X150.93 Y12.435 E.46394
G1 X150.547 Y12.435 E.01923
G1 X150.547 Y21.679 E.46394
G1 X150.164 Y21.679 E.01923
G1 X150.164 Y12.435 E.46394
G1 X149.781 Y12.435 E.01923
G1 X149.781 Y21.679 E.46394
G1 X149.398 Y21.679 E.01923
G1 X149.398 Y12.435 E.46394
G1 X149.014 Y12.435 E.01923
G1 X149.014 Y21.679 E.46394
G1 X148.631 Y21.679 E.01923
G1 X148.631 Y12.435 E.46394
G1 X148.248 Y12.435 E.01923
G1 X148.248 Y21.679 E.46394
G1 X147.865 Y21.679 E.01923
G1 X147.865 Y12.435 E.46394
G1 X147.482 Y12.435 E.01923
G1 X147.482 Y21.679 E.46394
G1 X147.098 Y21.679 E.01923
G1 X147.098 Y12.435 E.46394
G1 X146.715 Y12.435 E.01923
G1 X146.715 Y21.679 E.46394
G1 X146.332 Y21.679 E.01923
G1 X146.332 Y12.435 E.46394
G1 X145.949 Y12.435 E.01923
G1 X145.949 Y21.679 E.46394
G1 X145.565 Y21.679 E.01923
G1 X145.565 Y12.435 E.46394
G1 X145.182 Y12.435 E.01923
G1 X145.182 Y21.679 E.46394
G1 X144.799 Y21.679 E.01923
G1 X144.799 Y12.435 E.46394
G1 X144.416 Y12.435 E.01923
G1 X144.416 Y21.679 E.46394
G1 X144.033 Y21.679 E.01923
G1 X144.033 Y12.435 E.46394
G1 X143.649 Y12.435 E.01923
G1 X143.649 Y21.679 E.46394
G1 X143.266 Y21.679 E.01923
G1 X143.266 Y12.435 E.46394
G1 X142.883 Y12.435 E.01923
G1 X142.883 Y21.679 E.46394
G1 X142.5 Y21.679 E.01923
G1 X142.5 Y12.435 E.46394
G1 X142.117 Y12.435 E.01923
G1 X142.117 Y21.679 E.46394
G1 X141.733 Y21.679 E.01923
G1 X141.733 Y12.435 E.46394
G1 X141.35 Y12.435 E.01923
G1 X141.35 Y21.679 E.46394
G1 X140.967 Y21.679 E.01923
G1 X140.967 Y12.435 E.46394
G1 X140.584 Y12.435 E.01923
G1 X140.584 Y21.679 E.46394
G1 X140.201 Y21.679 E.01923
G1 X140.201 Y12.435 E.46394
G1 X139.817 Y12.435 E.01923
G1 X139.817 Y21.679 E.46394
G1 X139.434 Y21.679 E.01923
G1 X139.434 Y12.435 E.46394
G1 X139.051 Y12.435 E.01923
G1 X139.051 Y21.679 E.46394
G1 X138.668 Y21.679 E.01923
G1 X138.668 Y12.435 E.46394
G1 X138.284 Y12.435 E.01923
G1 X138.284 Y21.679 E.46394
G1 X137.901 Y21.679 E.01923
G1 X137.901 Y12.435 E.46394
G1 X137.518 Y12.435 E.01923
G1 X137.518 Y21.679 E.46394
G1 X137.135 Y21.679 E.01923
G1 X137.135 Y12.435 E.46394
G1 X136.752 Y12.435 E.01923
G1 X136.752 Y21.679 E.46394
G1 X136.368 Y21.679 E.01923
G1 X136.368 Y12.435 E.46394
G1 X135.985 Y12.435 E.01923
G1 X135.985 Y21.679 E.46394
G1 X135.602 Y21.679 E.01923
G1 X135.602 Y12.435 E.46394
G1 X135.219 Y12.435 E.01923
G1 X135.219 Y21.679 E.46394
G1 X134.836 Y21.679 E.01923
G1 X134.836 Y12.435 E.46394
G1 X134.452 Y12.435 E.01923
G1 X134.452 Y21.679 E.46394
G1 X134.069 Y21.679 E.01923
G1 X134.069 Y12.435 E.46394
G1 X133.686 Y12.435 E.01923
G1 X133.686 Y21.679 E.46394
G1 X133.303 Y21.679 E.01923
G1 X133.303 Y12.435 E.46394
G1 X132.92 Y12.435 E.01923
G1 X132.92 Y21.679 E.46394
G1 X132.536 Y21.679 E.01923
G1 X132.536 Y12.435 E.46394
G1 X132.153 Y12.435 E.01923
G1 X132.153 Y21.679 E.46394
G1 X131.77 Y21.679 E.01923
G1 X131.77 Y12.435 E.46394
G1 X131.387 Y12.435 E.01923
G1 X131.387 Y21.679 E.46394
G1 X131.003 Y21.679 E.01923
M73 P0 R558
G1 X131.003 Y12.435 E.46394
G1 X130.62 Y12.435 E.01923
G1 X130.62 Y21.679 E.46394
G1 X130.237 Y21.679 E.01923
G1 X130.237 Y12.435 E.46394
G1 X129.854 Y12.435 E.01923
G1 X129.854 Y21.679 E.46394
G1 X129.471 Y21.679 E.01923
G1 X129.471 Y12.435 E.46394
G1 X129.087 Y12.435 E.01923
G1 X129.087 Y21.679 E.46394
G1 X128.704 Y21.679 E.01923
G1 X128.704 Y12.435 E.46394
G1 X128.321 Y12.435 E.01923
G1 X128.321 Y21.679 E.46394
G1 X127.938 Y21.679 E.01923
G1 X127.938 Y12.435 E.46394
G1 X127.555 Y12.435 E.01923
G1 X127.555 Y21.679 E.46394
G1 X127.171 Y21.679 E.01923
G1 X127.171 Y12.435 E.46394
G1 X126.788 Y12.435 E.01923
G1 X126.788 Y21.679 E.46394
G1 X126.405 Y21.679 E.01923
G1 X126.405 Y12.435 E.46394
G1 X126.022 Y12.435 E.01923
G1 X126.022 Y21.679 E.46394
G1 X125.639 Y21.679 E.01923
G1 X125.639 Y12.435 E.46394
G1 X125.255 Y12.435 E.01923
G1 X125.255 Y21.679 E.46394
G1 X124.872 Y21.679 E.01923
G1 X124.872 Y12.435 E.46394
G1 X124.489 Y12.435 E.01923
G1 X124.489 Y21.679 E.46394
G1 X124.106 Y21.679 E.01923
G1 X124.106 Y12.435 E.46394
G1 X123.722 Y12.435 E.01923
G1 X123.722 Y21.679 E.46394
G1 X123.339 Y21.679 E.01923
G1 X123.339 Y12.435 E.46394
G1 X122.956 Y12.435 E.01923
G1 X122.956 Y21.679 E.46394
G1 X122.573 Y21.679 E.01923
G1 X122.573 Y12.435 E.46394
G1 X122.19 Y12.435 E.01923
G1 X122.19 Y21.679 E.46394
G1 X121.806 Y21.679 E.01923
G1 X121.806 Y12.435 E.46394
G1 X121.423 Y12.435 E.01923
G1 X121.423 Y21.679 E.46394
G1 X121.04 Y21.679 E.01923
G1 X121.04 Y12.435 E.46394
G1 X120.657 Y12.435 E.01923
G1 X120.657 Y21.679 E.46394
G1 X120.274 Y21.679 E.01923
G1 X120.274 Y12.435 E.46394
G1 X119.89 Y12.435 E.01923
G1 X119.89 Y21.674 E.46368
G1 X119.507 Y21.668 E.01923
G1 X119.507 Y12.435 E.46335
G1 X119.124 Y12.435 E.01923
G1 X119.124 Y21.661 E.46303
G1 X118.741 Y21.655 E.01923
G1 X118.741 Y12.435 E.4627
G1 X118.358 Y12.435 E.01923
G1 X118.358 Y21.648 E.46238
G1 X117.974 Y21.642 E.01923
G1 X117.974 Y12.435 E.46205
G1 X117.591 Y12.435 E.01923
G1 X117.591 Y21.635 E.46173
G1 X117.208 Y21.629 E.01923
G1 X117.208 Y12.435 E.4614
G1 X116.825 Y12.435 E.01923
G1 X116.825 Y21.622 E.46108
G1 X116.442 Y21.616 E.01923
G1 X116.442 Y12.435 E.46075
G1 X116.058 Y12.435 E.01923
G1 X116.058 Y21.609 E.46042
G1 X115.675 Y21.603 E.01923
G1 X115.675 Y12.435 E.4601
G1 X115.292 Y12.435 E.01923
G1 X115.292 Y21.596 E.45977
G1 X114.909 Y21.59 E.01923
G1 X114.909 Y12.435 E.45944
G1 X114.525 Y12.435 E.01923
G1 X114.525 Y21.583 E.45912
G1 X114.142 Y21.577 E.01923
G1 X114.142 Y12.435 E.45879
G1 X113.759 Y12.435 E.01923
G1 X113.759 Y21.57 E.45846
G1 X113.376 Y21.564 E.01923
G1 X113.376 Y12.435 E.45814
G1 X112.993 Y12.435 E.01923
G1 X112.993 Y21.557 E.45781
G1 X112.609 Y21.551 E.01923
G1 X112.609 Y12.435 E.45748
G1 X112.226 Y12.435 E.01923
G1 X112.226 Y21.544 E.45716
G1 X111.843 Y21.538 E.01923
G1 X111.843 Y12.435 E.45683
G1 X111.46 Y12.435 E.01923
G1 X111.46 Y21.531 E.4565
G1 X111.077 Y21.525 E.01923
G1 X111.077 Y12.435 E.45618
G1 X110.693 Y12.435 E.01923
G1 X110.693 Y21.518 E.45585
G1 X110.31 Y21.511 E.01923
G1 X110.31 Y12.435 E.45552
G1 X109.927 Y12.435 E.01923
G1 X109.927 Y21.505 E.4552
G1 X109.544 Y21.498 E.01923
G1 X109.544 Y12.435 E.45487
G1 X109.161 Y12.435 E.01923
G1 X109.161 Y21.492 E.45454
G1 X108.777 Y21.485 E.01923
G1 X108.777 Y12.435 E.45422
G1 X108.394 Y12.435 E.01923
G1 X108.394 Y21.479 E.45389
G1 X108.011 Y21.472 E.01923
G1 X108.011 Y12.435 E.45356
G1 X107.628 Y12.435 E.01923
G1 X107.628 Y21.466 E.45324
G1 X107.244 Y21.459 E.01923
G1 X107.244 Y12.435 E.45291
G1 X106.861 Y12.435 E.01923
G1 X106.861 Y21.453 E.45259
G1 X106.478 Y21.446 E.01923
G1 X106.478 Y12.435 E.45226
G1 X106.095 Y12.435 E.01923
G1 X106.095 Y21.44 E.45193
G1 X105.712 Y21.433 E.01923
G1 X105.712 Y12.435 E.45161
G1 X105.328 Y12.435 E.01923
G1 X105.328 Y21.427 E.45128
G1 X104.945 Y21.42 E.01923
G1 X104.945 Y12.435 E.45095
G1 X104.562 Y12.435 E.01923
G1 X104.562 Y21.414 E.45063
G1 X104.179 Y21.407 E.01923
G1 X104.179 Y12.435 E.4503
G1 X103.796 Y12.435 E.01923
G1 X103.796 Y21.401 E.44997
G1 X103.412 Y21.394 E.01923
G1 X103.412 Y12.435 E.44965
G1 X103.029 Y12.435 E.01923
G1 X103.029 Y21.388 E.44932
G1 X102.646 Y21.381 E.01923
G1 X102.646 Y12.435 E.44899
G1 X102.263 Y12.435 E.01923
G1 X102.263 Y21.375 E.44867
G1 X101.88 Y21.368 E.01923
G1 X101.88 Y12.435 E.44834
G1 X101.496 Y12.435 E.01923
G1 X101.496 Y21.362 E.44801
G1 X101.113 Y21.355 E.01923
G1 X101.113 Y12.435 E.44769
G1 X100.73 Y12.435 E.01923
G1 X100.73 Y21.349 E.44736
G1 X100.347 Y21.342 E.01923
G1 X100.347 Y12.435 E.44703
G1 X99.963 Y12.435 E.01923
G1 X99.963 Y21.336 E.44671
G1 X99.58 Y21.329 E.01923
G1 X99.58 Y12.435 E.44638
G1 X99.197 Y12.435 E.01923
G1 X99.197 Y21.323 E.44605
G1 X98.814 Y21.316 E.01923
G1 X98.814 Y12.435 E.44573
G1 X98.431 Y12.435 E.01923
G1 X98.431 Y21.31 E.4454
G1 X98.047 Y21.303 E.01923
G1 X98.047 Y12.435 E.44507
G1 X97.664 Y12.435 E.01923
G1 X97.664 Y21.297 E.44475
G1 X97.281 Y21.29 E.01923
G1 X97.281 Y12.435 E.44442
G1 X96.898 Y12.435 E.01923
G1 X96.898 Y21.284 E.44409
G1 X96.515 Y21.277 E.01923
G1 X96.515 Y12.435 E.44376
G1 X96.131 Y12.435 E.01923
G1 X96.131 Y21.271 E.44344
G1 X95.748 Y21.264 E.01923
G1 X95.748 Y12.435 E.44311
G1 X95.365 Y12.435 E.01923
G1 X95.365 Y21.258 E.44278
G1 X94.982 Y21.251 E.01923
G1 X94.982 Y12.435 E.44246
G1 X94.599 Y12.435 E.01923
G1 X94.599 Y21.245 E.44213
G1 X94.215 Y21.238 E.01923
G1 X94.215 Y12.435 E.4418
G1 X93.832 Y12.435 E.01923
G1 X93.832 Y21.232 E.44147
G1 X93.449 Y21.225 E.01923
G1 X93.449 Y12.435 E.44115
G1 X93.066 Y12.435 E.01923
G1 X93.066 Y21.218 E.44082
G1 X92.682 Y21.212 E.01923
G1 X92.682 Y12.435 E.44049
G1 X92.299 Y12.435 E.01923
G1 X92.299 Y21.205 E.44016
G1 X91.916 Y21.199 E.01923
G1 X91.916 Y12.435 E.43984
G1 X91.533 Y12.435 E.01923
G1 X91.533 Y21.192 E.43951
G1 X91.15 Y21.186 E.01923
G1 X91.15 Y12.435 E.43918
G1 X90.766 Y12.435 E.01923
G1 X90.766 Y21.179 E.43886
G1 X90.383 Y21.173 E.01923
G1 X90.383 Y12.435 E.43853
G1 X90 Y12.435 E.01923
G1 X90 Y21.166 E.4382
G1 X89.617 Y21.16 E.01923
G1 X89.617 Y12.435 E.43787
G1 X89.234 Y12.435 E.01923
G1 X89.234 Y21.153 E.43755
G1 X88.85 Y21.147 E.01923
G1 X88.85 Y12.435 E.43722
G1 X88.467 Y12.435 E.01923
G1 X88.467 Y21.14 E.43689
G1 X88.084 Y21.134 E.01923
G1 X88.084 Y12.435 E.43656
G1 X87.701 Y12.435 E.01923
G1 X87.701 Y21.127 E.43624
G1 X87.318 Y21.121 E.01923
G1 X87.318 Y12.435 E.43591
G1 X86.934 Y12.435 E.01923
G1 X86.934 Y21.114 E.43558
G1 X86.551 Y21.108 E.01923
G1 X86.551 Y12.435 E.43526
G1 X86.168 Y12.435 E.01923
G1 X86.168 Y21.101 E.43493
G1 X85.785 Y21.095 E.01923
G1 X85.785 Y12.435 E.4346
G1 X85.401 Y12.435 E.01923
G1 X85.401 Y21.088 E.43427
G1 X85.018 Y21.082 E.01923
G1 X85.018 Y12.435 E.43395
G1 X84.635 Y12.435 E.01923
G1 X84.635 Y21.075 E.43362
G1 X84.252 Y21.068 E.01923
G1 X84.252 Y12.435 E.43329
G1 X83.869 Y12.435 E.01923
G1 X83.869 Y21.062 E.43296
G1 X83.485 Y21.055 E.01923
G1 X83.485 Y12.435 E.43264
G1 X83.102 Y12.435 E.01923
G1 X83.102 Y21.041 E.43192
G1 X82.719 Y21.01 E.0193
G1 X82.719 Y12.435 E.43036
G1 X82.336 Y12.435 E.01923
G1 X82.336 Y20.979 E.42879
G1 X81.953 Y20.948 E.0193
G1 X81.953 Y12.435 E.42723
G1 X81.569 Y12.435 E.01923
G1 X81.569 Y20.92 E.42584
G1 X81.186 Y20.912 E.01924
G1 X81.186 Y12.435 E.42546
G1 X80.803 Y12.435 E.01923
G1 X80.803 Y20.905 E.42508
G1 X80.42 Y20.897 E.01924
G1 X80.42 Y12.435 E.4247
G1 X80.037 Y12.435 E.01923
G1 X80.037 Y20.89 E.42432
G1 X79.653 Y20.882 E.01924
G1 X79.653 Y12.435 E.42394
G1 X79.27 Y12.435 E.01923
G1 X79.27 Y20.874 E.42356
G1 X78.887 Y20.867 E.01924
G1 X78.887 Y12.435 E.42317
G1 X78.504 Y12.435 E.01923
G1 X78.504 Y20.846 E.42213
G1 X78.121 Y20.813 E.0193
G1 X78.121 Y12.435 E.42048
G1 X77.737 Y12.435 E.01923
G1 X77.737 Y20.781 E.41884
G1 X77.354 Y20.748 E.0193
G1 X77.354 Y12.435 E.4172
G1 X76.971 Y12.435 E.01923
G1 X76.971 Y20.715 E.41556
G1 X76.588 Y20.682 E.0193
G1 X76.588 Y12.435 E.41392
G1 X76.204 Y12.435 E.01923
G1 X76.204 Y20.65 E.41227
G1 X75.821 Y20.617 E.0193
G1 X75.821 Y12.435 E.41063
G1 X75.438 Y12.435 E.01923
G1 X75.438 Y20.584 E.40899
G1 X75.055 Y20.552 E.0193
G1 X75.055 Y12.435 E.40735
G1 X74.672 Y12.435 E.01923
G1 X74.672 Y20.519 E.40571
G1 X74.288 Y20.486 E.0193
G1 X74.288 Y12.435 E.40407
G1 X73.905 Y12.435 E.01923
G1 X73.905 Y20.454 E.40244
G1 X73.522 Y20.421 E.0193
G1 X73.522 Y12.435 E.40081
G1 X73.139 Y12.435 E.01923
G1 X73.139 Y20.387 E.3991
G1 X72.756 Y20.353 E.01931
G1 X72.756 Y12.435 E.3974
G1 X72.372 Y12.435 E.01923
G1 X72.372 Y20.319 E.39569
G1 X71.989 Y20.285 E.01931
G1 X71.989 Y12.435 E.39399
G1 X71.606 Y12.435 E.01923
G1 X71.606 Y20.251 E.39228
G1 X71.223 Y20.217 E.01931
G1 X71.223 Y12.435 E.39058
