; generated by PrusaSlicer 2.5.0+win64 on 2022-12-07 at 00:30:55 UTC

; 

; external perimeters extrusion width = 1.00mm
; perimeters extrusion width = 1.00mm
; infill extrusion width = 1.00mm
; solid infill extrusion width = 1.00mm
; top infill extrusion width = 1.00mm
; support material extrusion width = 1.00mm
; first layer extrusion width = 0.42mm

M73 P0 R456
M107
;TYPE:Custom
G90 ; use absolute coordinates
M83 ; extruder relative mode
M140 S60 ; set final bed temp
M104 S150 ; set temporary nozzle temp to prevent oozing during homing and auto bed leveling
G4 S10 ; allow partial nozzle warmup
G28 ; home all axisG1 Z50 F240
G1 X7.6 Y10 F3000
M104 S210 ; set final nozzle temp
M190 S60 ; wait for bed temp to stabilize
M109 S210 ; wait for nozzle temp to stabilize
G1 Z0.28 F240
G92 E0
G1 Y140 E10 F1500 ; prime the nozzle
G1 X4 F5000
G92 E0
M73 P0 R455
G1 Y10 E10 F1200 ; prime the nozzle
G92 E0
G21 ; set units to millimeters
G90 ; use absolute coordinates
M83 ; use relative distances for extrusion
; Filament gcode
M107
;LAYER_CHANGE
;Z:0.35
;HEIGHT:0.35
;BEFORE_LAYER_CHANGE
G92 E0
;0.35


G1 E-1 F3600
G1 Z.35 F7800
;AFTER_LAYER_CHANGE
;0.35
G1 X12.782 Y8.173
G1 E1 F2400
;TYPE:Support material interface
;WIDTH:1
G1 F1800
G1 X12.782 Y18.753 E1.42387
G1 X13.674 Y18.753 E.12014
G1 X13.674 Y11.656 E.95515
G1 X13.93 Y11.898 E.04729
G1 X14.567 Y11.862 E.08591
G1 X14.567 Y18.753 E.92745
G1 X15.46 Y18.753 E.12014
G1 X15.46 Y11.812 E.93416
G1 X16.352 Y11.762 E.12033
G1 X16.352 Y18.753 E.94088
G1 X17.245 Y18.753 E.12014
G1 X17.245 Y11.712 E.94759
G1 X18.138 Y11.663 E.12033
G1 X18.138 Y18.753 E.9543
G1 X18.753 Y18.753 E.08286
G1 X18.753 Y15.361 E.4566
G1 X19.03 Y15.361 E.03729
G1 X19.03 Y11.613 E.50441
G1 X19.923 Y11.563 E.12033
G1 X19.923 Y15.361 E.51113
G1 X20.816 Y15.361 E.12014
G1 X20.816 Y11.513 E.51784
G1 X21.708 Y11.463 E.12033
G1 X21.708 Y15.361 E.52455
G1 X22.601 Y15.361 E.12014
G1 X22.601 Y11.413 E.53127
G1 X23.494 Y11.363 E.12033
G1 X23.494 Y15.361 E.53798
G1 X24.387 Y15.361 E.12014
G1 X24.387 Y11.313 E.54469
G1 X25.279 Y11.264 E.12033
G1 X25.279 Y15.361 E.5514
G1 X26.172 Y15.361 E.12014
G1 X26.172 Y11.214 E.55812
G1 X27.065 Y11.164 E.12033
G1 X27.065 Y15.361 E.56483
G1 X27.957 Y15.361 E.12014
G1 X27.957 Y11.114 E.57154
G1 X28.85 Y11.064 E.12033
G1 X28.85 Y15.361 E.57826
G1 X29.743 Y15.361 E.12014
G1 X29.743 Y11.014 E.58497
G1 X30.635 Y10.964 E.12033
G1 X30.635 Y15.361 E.59168
G1 X31.528 Y15.361 E.12014
G1 X31.528 Y10.914 E.5984
G1 X32.421 Y10.864 E.12033
G1 X32.421 Y15.361 E.60511
G1 X33.314 Y15.361 E.12014
G1 X33.314 Y10.815 E.61182
G1 X34.206 Y10.765 E.12033
G1 X34.206 Y15.361 E.61854
G1 X35.099 Y15.361 E.12014
G1 X35.099 Y10.715 E.62525
G1 X35.992 Y10.665 E.12033
G1 X35.992 Y15.361 E.63196
G1 X36.884 Y15.361 E.12014
G1 X36.884 Y10.615 E.63867
G1 X37.777 Y10.565 E.12033
G1 X37.777 Y15.361 E.64539
G1 X38.67 Y15.361 E.12014
G1 X38.67 Y10.515 E.6521
G1 X39.562 Y10.465 E.12033
G1 X39.562 Y15.361 E.65881
G1 X40.455 Y15.361 E.12014
G1 X40.455 Y10.416 E.66553
G1 X41.348 Y10.366 E.12033
G1 X41.348 Y15.361 E.67224
G1 X42.241 Y15.361 E.12014
G1 X42.241 Y10.316 E.67895
G1 X43.133 Y10.266 E.12033
G1 X43.133 Y15.361 E.68567
G1 X44.026 Y15.361 E.12014
G1 X44.026 Y10.216 E.69238
G1 X44.919 Y10.166 E.12033
G1 X44.919 Y15.361 E.69909
G1 X45.811 Y15.361 E.12014
G1 X45.811 Y10.116 E.70581
G1 X46.704 Y10.066 E.12033
G1 X46.704 Y15.361 E.71252
G1 X47.597 Y15.361 E.12014
G1 X47.597 Y10.017 E.71923
G1 X48.489 Y9.967 E.12033
G1 X48.489 Y15.361 E.72595
G1 X49.382 Y15.361 E.12014
G1 X49.382 Y9.917 E.73266
G1 X50.275 Y9.867 E.12033
G1 X50.275 Y15.361 E.73937
G1 X51.168 Y15.361 E.12014
G1 X51.168 Y9.817 E.74608
G1 X52.06 Y9.767 E.12033
G1 X52.06 Y15.361 E.7528
G1 X52.953 Y15.361 E.12014
G1 X52.953 Y9.717 E.75951
G1 X53.846 Y9.667 E.12033
G1 X53.846 Y15.361 E.76622
G1 X54.738 Y15.361 E.12014
G1 X54.738 Y9.617 E.77294
G1 X55.631 Y9.568 E.12033
G1 X55.631 Y15.361 E.77965
G1 X56.524 Y15.361 E.12014
G1 X56.524 Y9.412 E.80058
G1 X56.946 Y9.308 E.05853
G1 X57.416 Y9.288 E.06336
G1 X57.416 Y15.361 E.81722
G1 X58.309 Y15.361 E.12014
G1 X58.309 Y9.251 E.82226
G1 X59.202 Y9.214 E.12025
G1 X59.202 Y15.361 E.82729
G1 X60.095 Y15.361 E.12014
G1 X60.095 Y9.176 E.83232
G1 X60.987 Y9.139 E.12025
G1 X60.987 Y15.361 E.83735
G1 X61.88 Y15.361 E.12014
G1 X61.88 Y9.101 E.84239
G1 X62.773 Y9.064 E.12025
G1 X62.773 Y15.361 E.84742
G1 X63.665 Y15.361 E.12014
G1 X63.665 Y9.027 E.85245
G1 X64.558 Y8.989 E.12025
G1 X64.558 Y15.361 E.85748
G1 X65.451 Y15.361 E.12014
G1 X65.451 Y8.952 E.86251
G1 X66.343 Y8.914 E.12025
G1 X66.343 Y15.361 E.86755
G1 X67.236 Y15.361 E.12014
G1 X67.236 Y8.877 E.87258
G1 X68.129 Y8.84 E.12025
G1 X68.129 Y15.361 E.87761
G1 X69.022 Y15.361 E.12014
G1 X69.022 Y8.802 E.88264
G1 X69.914 Y8.765 E.12025
G1 X69.914 Y15.361 E.88768
G1 X70.807 Y15.361 E.12014
G1 X70.807 Y8.728 E.89271
G1 X71.7 Y8.69 E.12025
G1 X71.7 Y15.361 E.89774
G1 X72.592 Y15.361 E.12014
G1 X72.592 Y8.653 E.90277
G1 X73.485 Y8.615 E.12025
G1 X73.485 Y15.361 E.9078
G1 X74.378 Y15.361 E.12014
G1 X74.378 Y8.578 E.91284
G1 X74.711 Y8.517 E.04562
G1 X75.27 Y8.279 E.08181
G1 X75.27 Y15.762 E1.00716
G1 E-.7 F3600
;WIPE_START
G1 F6240
G1 X75.27 Y15.242 E-.285
;WIPE_END
G1 E-.015 F3600
G1 X75.27 Y5.618 F7800
G1 E1 F2400
G1 F1800
G1 X75.27 Y5.183 E.0586
G1 X76.163 Y5.183 E.12014
G1 X76.163 Y15.361 E1.36981
G1 X77.056 Y15.361 E.12014
G1 X77.056 Y5.183 E1.36981
G1 X77.949 Y5.183 E.12014
G1 X77.949 Y15.361 E1.36981
G1 X78.841 Y15.361 E.12014
G1 X78.841 Y5.183 E1.36981
G1 X79.734 Y5.183 E.12014
G1 X79.734 Y15.361 E1.36981
G1 X79.822 Y15.361 E.01184
G1 X79.822 Y11.968 E.4566
G1 X80.627 Y11.968 E.1083
G1 X80.627 Y5.183 E.91321
G1 X81.519 Y5.183 E.12014
G1 X81.519 Y11.968 E.91321
G1 X82.412 Y11.968 E.12014
G1 X82.412 Y5.183 E.91321
G1 X83.305 Y5.183 E.12014
G1 X83.305 Y11.968 E.91321
G1 X84.197 Y11.968 E.12014
G1 X84.197 Y5.183 E.91321
G1 X85.09 Y5.183 E.12014
G1 X85.09 Y11.968 E.91321
G1 X85.983 Y11.968 E.12014
G1 X85.983 Y5.183 E.91321
G1 X86.876 Y5.183 E.12014
G1 X86.876 Y11.968 E.91321
G1 X87.768 Y11.968 E.12014
G1 X87.768 Y5.183 E.91321
G1 X88.661 Y5.183 E.12014
G1 X88.661 Y11.968 E.91321
G1 X89.554 Y11.968 E.12014
G1 X89.554 Y5.183 E.91321
G1 X90.446 Y5.183 E.12014
G1 X90.446 Y11.968 E.91321
G1 X91.339 Y11.968 E.12014
G1 X91.339 Y5.183 E.91321
G1 X92.232 Y5.183 E.12014
G1 X92.232 Y11.968 E.91321
G1 X93.124 Y11.968 E.12014
G1 X93.124 Y5.183 E.91321
G1 X94.017 Y5.183 E.12014
G1 X94.017 Y11.968 E.91321
G1 X94.91 Y11.968 E.12014
G1 X94.91 Y5.183 E.91321
G1 X95.803 Y5.183 E.12014
G1 X95.803 Y11.968 E.91321
G1 X96.695 Y11.968 E.12014
G1 X96.695 Y5.183 E.91321
G1 X97.588 Y5.183 E.12014
G1 X97.588 Y11.968 E.91321
G1 X98.481 Y11.968 E.12014
G1 X98.481 Y5.183 E.91321
G1 X99.373 Y5.183 E.12014
G1 X99.373 Y11.968 E.91321
G1 X100.266 Y11.968 E.12014
G1 X100.266 Y5.183 E.91321
G1 X101.159 Y5.183 E.12014
G1 X101.159 Y11.968 E.91321
G1 X102.051 Y11.968 E.12014
G1 X102.051 Y5.183 E.91321
G1 X102.944 Y5.183 E.12014
G1 X102.944 Y11.968 E.91321
G1 X103.837 Y11.968 E.12014
G1 X103.837 Y5.183 E.91321
G1 X104.73 Y5.183 E.12014
G1 X104.73 Y11.968 E.91321
G1 X105.622 Y11.968 E.12014
G1 X105.622 Y5.183 E.91321
G1 X106.515 Y5.183 E.12014
G1 X106.515 Y11.968 E.91321
G1 X107.408 Y11.968 E.12014
G1 X107.408 Y5.183 E.91321
G1 X108.3 Y5.183 E.12014
G1 X108.3 Y11.968 E.91321
G1 X109.193 Y11.968 E.12014
G1 X109.193 Y5.183 E.91321
G1 X110.086 Y5.183 E.12014
G1 X110.086 Y11.968 E.91321
G1 X110.978 Y11.968 E.12014
G1 X110.978 Y5.183 E.91321
G1 X111.871 Y5.183 E.12014
G1 X111.871 Y11.968 E.91321
G1 X112.764 Y11.968 E.12014
G1 X112.764 Y5.183 E.91321
G1 X113.656 Y5.183 E.12014
G1 X113.656 Y11.968 E.91321
G1 X114.549 Y11.968 E.12014
G1 X114.549 Y5.183 E.91321
G1 X115.442 Y5.183 E.12014
G1 X115.442 Y11.968 E.91321
G1 X116.335 Y11.968 E.12014
G1 X116.335 Y5.183 E.91321
G1 X117.227 Y5.183 E.12014
G1 X117.227 Y11.968 E.91321
G1 X118.12 Y11.968 E.12014
G1 X118.12 Y5.183 E.91321
G1 X119.013 Y5.183 E.12014
G1 X119.013 Y11.968 E.91321
G1 X119.905 Y11.968 E.12014
G1 X119.905 Y5.183 E.91321
G1 X120.798 Y5.183 E.12014
G1 X120.798 Y11.968 E.91321
G1 X121.691 Y11.968 E.12014
G1 X121.691 Y5.183 E.91321
G1 X122.583 Y5.183 E.12014
G1 X122.583 Y11.968 E.91321
G1 X123.476 Y11.968 E.12014
G1 X123.476 Y5.183 E.91321
G1 X124.369 Y5.183 E.12014
G1 X124.369 Y11.968 E.91321
G1 X125.262 Y11.968 E.12014
G1 X125.262 Y5.183 E.91321
G1 X126.154 Y5.183 E.12014
G1 X126.154 Y11.968 E.91321
G1 X127.047 Y11.968 E.12014
G1 X127.047 Y5.183 E.91321
G1 X127.94 Y5.183 E.12014
G1 X127.94 Y11.968 E.91321
G1 X128.832 Y11.968 E.12014
G1 X128.832 Y5.183 E.91321
G1 X129.725 Y5.183 E.12014
G1 X129.725 Y11.968 E.91321
G1 X130.618 Y11.968 E.12014
G1 X130.618 Y5.183 E.91321
G1 X131.51 Y5.183 E.12014
G1 X131.51 Y11.968 E.91321
G1 X132.403 Y11.968 E.12014
G1 X132.403 Y5.183 E.91321
G1 X133.296 Y5.183 E.12014
G1 X133.296 Y11.968 E.91321
G1 X134.189 Y11.968 E.12014
G1 X134.189 Y5.183 E.91321
G1 X135.081 Y5.183 E.12014
G1 X135.081 Y11.968 E.91321
G1 X135.974 Y11.968 E.12014
G1 X135.974 Y5.183 E.91321
G1 X136.867 Y5.183 E.12014
G1 X136.867 Y11.968 E.91321
G1 X137.759 Y11.968 E.12014
G1 X137.759 Y5.183 E.91321
G1 X138.652 Y5.183 E.12014
G1 X138.652 Y11.968 E.91321
G1 X139.545 Y11.968 E.12014
G1 X139.545 Y5.183 E.91321
G1 X140.437 Y5.183 E.12014
G1 X140.437 Y11.968 E.91321
G1 X140.891 Y11.968 E.06097
G1 X140.891 Y8.575 E.4566
G1 X141.33 Y8.575 E.05917
G1 X141.33 Y5.183 E.45661
G1 X142.223 Y5.183 E.12014
G1 X142.223 Y8.575 E.45661
G1 X143.116 Y8.575 E.12014
G1 X143.116 Y5.183 E.45661
G1 X144.008 Y5.183 E.12014
G1 X144.008 Y8.575 E.45661
G1 X144.901 Y8.575 E.12014
G1 X144.901 Y5.183 E.45661
G1 X145.794 Y5.183 E.12014
G1 X145.794 Y8.575 E.45661
G1 X146.686 Y8.575 E.12014
G1 X146.686 Y5.183 E.45661
G1 X147.579 Y5.183 E.12014
G1 X147.579 Y8.575 E.45661
G1 X148.472 Y8.575 E.12014
G1 X148.472 Y5.183 E.45661
G1 X149.364 Y5.183 E.12014
G1 X149.364 Y8.575 E.45661
G1 X150.257 Y8.575 E.12014
G1 X150.257 Y5.183 E.45661
G1 X151.15 Y5.183 E.12014
G1 X151.15 Y8.575 E.45661
G1 X152.043 Y8.575 E.12014
G1 X152.043 Y5.183 E.45661
G1 X152.935 Y5.183 E.12014
G1 X152.935 Y8.575 E.45661
G1 X153.828 Y8.575 E.12014
G1 X153.828 Y5.183 E.45661
G1 X154.721 Y5.183 E.12014
G1 X154.721 Y8.575 E.45661
G1 X155.613 Y8.575 E.12014
G1 X155.613 Y5.183 E.45661
G1 X156.506 Y5.183 E.12014
G1 X156.506 Y8.575 E.45661
G1 X157.399 Y8.575 E.12014
G1 X157.399 Y5.183 E.45661
G1 X158.291 Y5.183 E.12014
G1 X158.291 Y8.575 E.45661
G1 X159.184 Y8.575 E.12014
G1 X159.184 Y5.183 E.45661
G1 X160.077 Y5.183 E.12014
G1 X160.077 Y8.575 E.45661
G1 X160.97 Y8.575 E.12014
G1 X160.97 Y5.183 E.45661
G1 X161.862 Y5.183 E.12014
G1 X161.862 Y8.575 E.45661
M73 P0 R454
G1 X162.755 Y8.575 E.12014
G1 X162.755 Y5.183 E.45661
G1 X163.648 Y5.183 E.12014
G1 X163.648 Y8.575 E.45661
G1 X164.54 Y8.575 E.12014
G1 X164.54 Y5.183 E.45661
G1 X165.433 Y5.183 E.12014
G1 X165.433 Y8.575 E.45661
G1 X166.326 Y8.575 E.12014
G1 X166.326 Y5.183 E.45661
G1 X167.218 Y5.183 E.12014
G1 X167.218 Y8.977 E.51067
G1 E-.7 F3600
;WIPE_START
G1 F6240
G1 X167.218 Y8.457 E-.285
;WIPE_END
G1 E-.015 F3600
G1 X171.268 Y32.168 F7800
G1 E1 F2400
;TYPE:Support material
;WIDTH:0.42
G1 F1800
G1 X8.732 Y32.168 E8.15705
G1 X8.732 Y16.41 E.79082
G1 X11.311 Y16.41 E.12947
G1 X11.311 Y19.41 E.15056
G1 X19.41 Y19.41 E.40642
G1 X19.41 Y16.017 E.17027
G1 X80.478 Y16.017 E3.06478
G1 X80.478 Y12.624 E.17027
G1 X141.547 Y12.624 E3.06478
G1 X141.547 Y9.232 E.17027
G1 X168.689 Y9.232 E1.36213
G1 X168.689 Y6.232 E.15056
G1 X171.268 Y6.232 E.12947
G1 X171.268 Y32.116 E1.29902
G1 X170.857 Y32.012 F7800
G1 F1800
G1 X170.857 Y6.542 E1.27825
G1 X170.474 Y6.542 E.01923
G1 X170.474 Y31.857 E1.27047
G1 X170.091 Y31.857 E.01923
G1 X170.091 Y6.542 E1.27047
G1 X169.708 Y6.542 E.01923
G1 X169.708 Y31.857 E1.27047
G1 X169.324 Y31.857 E.01923
G1 X169.324 Y6.542 E1.27047
G1 X168.999 Y6.542 E.01634
G1 X168.999 Y9.542 E.15056
G1 X168.941 Y9.542 E.00289
G1 X168.941 Y31.857 E1.11991
G1 X168.558 Y31.857 E.01923
G1 X168.558 Y9.542 E1.11991
G1 X168.175 Y9.542 E.01923
G1 X168.175 Y31.857 E1.11991
G1 X167.792 Y31.857 E.01923
G1 X167.792 Y9.542 E1.11991
G1 X167.408 Y9.542 E.01923
G1 X167.408 Y31.857 E1.11991
G1 X167.025 Y31.857 E.01923
G1 X167.025 Y9.542 E1.11991
G1 X166.642 Y9.542 E.01923
G1 X166.642 Y31.857 E1.11991
G1 X166.259 Y31.857 E.01923
G1 X166.259 Y9.542 E1.11991
G1 X165.876 Y9.542 E.01923
G1 X165.876 Y31.857 E1.11991
G1 X165.492 Y31.857 E.01923
G1 X165.492 Y9.542 E1.11991
G1 X165.109 Y9.542 E.01923
G1 X165.109 Y31.857 E1.11991
G1 X164.726 Y31.857 E.01923
G1 X164.726 Y9.542 E1.11991
G1 X164.343 Y9.542 E.01923
G1 X164.343 Y31.857 E1.11991
G1 X163.96 Y31.857 E.01923
G1 X163.96 Y9.542 E1.11991
G1 X163.576 Y9.542 E.01923
G1 X163.576 Y31.857 E1.11991
G1 X163.193 Y31.857 E.01923
G1 X163.193 Y9.542 E1.11991
G1 X162.81 Y9.542 E.01923
G1 X162.81 Y31.857 E1.11991
G1 X162.427 Y31.857 E.01923
G1 X162.427 Y9.542 E1.11991
G1 X162.043 Y9.542 E.01923
G1 X162.043 Y31.857 E1.11991
G1 X161.66 Y31.857 E.01923
G1 X161.66 Y9.542 E1.11991
G1 X161.277 Y9.542 E.01923
G1 X161.277 Y31.857 E1.11991
G1 X160.894 Y31.857 E.01923
G1 X160.894 Y9.542 E1.11991
G1 X160.511 Y9.542 E.01923
G1 X160.511 Y31.857 E1.11991
G1 X160.127 Y31.857 E.01923
G1 X160.127 Y9.542 E1.11991
G1 X159.744 Y9.542 E.01923
G1 X159.744 Y31.857 E1.11991
G1 X159.361 Y31.857 E.01923
G1 X159.361 Y9.542 E1.11991
G1 X158.978 Y9.542 E.01923
G1 X158.978 Y31.857 E1.11991
G1 X158.595 Y31.857 E.01923
G1 X158.595 Y9.542 E1.11991
G1 X158.211 Y9.542 E.01923
G1 X158.211 Y31.857 E1.11991
G1 X157.828 Y31.857 E.01923
G1 X157.828 Y9.542 E1.11991
G1 X157.445 Y9.542 E.01923
G1 X157.445 Y31.857 E1.11991
G1 X157.062 Y31.857 E.01923
G1 X157.062 Y9.542 E1.11991
G1 X156.679 Y9.542 E.01923
G1 X156.679 Y31.857 E1.11991
G1 X156.295 Y31.857 E.01923
G1 X156.295 Y9.542 E1.11991
G1 X155.912 Y9.542 E.01923
G1 X155.912 Y31.857 E1.11991
G1 X155.529 Y31.857 E.01923
G1 X155.529 Y9.542 E1.11991
G1 X155.146 Y9.542 E.01923
G1 X155.146 Y31.857 E1.11991
G1 X154.763 Y31.857 E.01923
G1 X154.763 Y9.542 E1.11991
G1 X154.379 Y9.542 E.01923
G1 X154.379 Y31.857 E1.11991
G1 X153.996 Y31.857 E.01923
G1 X153.996 Y9.542 E1.11991
G1 X153.613 Y9.542 E.01923
G1 X153.613 Y31.857 E1.11991
G1 X153.23 Y31.857 E.01923
G1 X153.23 Y9.542 E1.11991
G1 X152.846 Y9.542 E.01923
G1 X152.846 Y31.857 E1.11991
G1 X152.463 Y31.857 E.01923
G1 X152.463 Y9.542 E1.11991
G1 X152.08 Y9.542 E.01923
G1 X152.08 Y31.857 E1.11991
G1 X151.697 Y31.857 E.01923
G1 X151.697 Y9.542 E1.11991
G1 X151.314 Y9.542 E.01923
G1 X151.314 Y31.857 E1.11991
G1 X150.93 Y31.857 E.01923
G1 X150.93 Y9.542 E1.11991
G1 X150.547 Y9.542 E.01923
G1 X150.547 Y31.857 E1.11991
G1 X150.164 Y31.857 E.01923
G1 X150.164 Y9.542 E1.11991
G1 X149.781 Y9.542 E.01923
M73 P0 R453
G1 X149.781 Y31.857 E1.11991
G1 X149.398 Y31.857 E.01923
G1 X149.398 Y9.542 E1.11991
G1 X149.014 Y9.542 E.01923
G1 X149.014 Y31.857 E1.11991
G1 X148.631 Y31.857 E.01923
G1 X148.631 Y9.542 E1.11991
G1 X148.248 Y9.542 E.01923
G1 X148.248 Y31.857 E1.11991
G1 X147.865 Y31.857 E.01923
G1 X147.865 Y9.542 E1.11991
G1 X147.482 Y9.542 E.01923
G1 X147.482 Y31.857 E1.11991
G1 X147.098 Y31.857 E.01923
G1 X147.098 Y9.542 E1.11991
G1 X146.715 Y9.542 E.01923
G1 X146.715 Y31.857 E1.11991
G1 X146.332 Y31.857 E.01923
G1 X146.332 Y9.542 E1.11991
G1 X145.949 Y9.542 E.01923
G1 X145.949 Y31.857 E1.11991
G1 X145.565 Y31.857 E.01923
G1 X145.565 Y9.542 E1.11991
G1 X145.182 Y9.542 E.01923
G1 X145.182 Y31.857 E1.11991
G1 X144.799 Y31.857 E.01923
G1 X144.799 Y9.542 E1.11991
G1 X144.416 Y9.542 E.01923
G1 X144.416 Y31.857 E1.11991
G1 X144.033 Y31.857 E.01923
G1 X144.033 Y9.542 E1.11991
G1 X143.649 Y9.542 E.01923
G1 X143.649 Y31.857 E1.11991
G1 X143.266 Y31.857 E.01923
G1 X143.266 Y9.542 E1.11991
G1 X142.883 Y9.542 E.01923
G1 X142.883 Y31.857 E1.11991
G1 X142.5 Y31.857 E.01923
G1 X142.5 Y9.542 E1.11991
G1 X142.117 Y9.542 E.01923
G1 X142.117 Y31.857 E1.11991
G1 X141.733 Y31.857 E.01923
G1 X141.733 Y12.935 E.94964
G1 X141.35 Y12.935 E.01923
G1 X141.35 Y31.857 E.94964
G1 X140.967 Y31.857 E.01923
G1 X140.967 Y12.935 E.94964
