; generated by PrusaSlicer 2.5.0+win64 on 2022-12-07 at 00:30:49 UTC

; 

; external perimeters extrusion width = 1.00mm
; perimeters extrusion width = 1.00mm
; infill extrusion width = 1.00mm
; solid infill extrusion width = 1.00mm
; top infill extrusion width = 1.00mm
; support material extrusion width = 1.00mm
; first layer extrusion width = 0.42mm

M73 P0 R602
M107
;TYPE:Custom
G90 ; use absolute coordinates
M83 ; extruder relative mode
M140 S60 ; set final bed temp
M104 S150 ; set temporary nozzle temp to prevent oozing during homing and auto bed leveling
G4 S10 ; allow partial nozzle warmup
G28 ; home all axisG1 Z50 F240
G1 X7.6 Y10 F3000
M104 S210 ; set final nozzle temp
M190 S60 ; wait for bed temp to stabilize
M109 S210 ; wait for nozzle temp to stabilize
G1 Z0.28 F240
G92 E0
G1 Y140 E10 F1500 ; prime the nozzle
G1 X4 F5000
G92 E0
G1 Y10 E10 F1200 ; prime the nozzle
G92 E0
G21 ; set units to millimeters
G90 ; use absolute coordinates
M83 ; use relative distances for extrusion
; Filament gcode
M107
;LAYER_CHANGE
;Z:0.35
;HEIGHT:0.35
;BEFORE_LAYER_CHANGE
G92 E0
;0.35


G1 E-1 F3600
G1 Z.35 F7800
;AFTER_LAYER_CHANGE
;0.35
G1 X66.343 Y4.781
G1 E1 F2400
;TYPE:Support material interface
;WIDTH:1
G1 F1800
G1 X66.343 Y8.575 E.51067
G1 X67.236 Y8.575 E.12014
G1 X67.236 Y5.183 E.45661
G1 X68.129 Y5.183 E.12014
G1 X68.129 Y8.575 E.45661
G1 X69.022 Y8.575 E.12014
G1 X69.022 Y5.183 E.45661
G1 X69.914 Y5.183 E.12014
G1 X69.914 Y8.575 E.45661
G1 X70.807 Y8.575 E.12014
G1 X70.807 Y5.183 E.45661
G1 X71.7 Y5.183 E.12014
G1 X71.7 Y8.575 E.45661
G1 X72.592 Y8.575 E.12014
G1 X72.592 Y5.183 E.45661
G1 X73.485 Y5.183 E.12014
G1 X73.485 Y8.575 E.45661
G1 X74.378 Y8.575 E.12014
G1 X74.378 Y5.183 E.45661
G1 X75.27 Y5.183 E.12014
G1 X75.27 Y8.575 E.45661
G1 X76.163 Y8.575 E.12014
G1 X76.163 Y5.183 E.45661
G1 X77.056 Y5.183 E.12014
G1 X77.056 Y8.575 E.45661
G1 X77.949 Y8.575 E.12014
G1 X77.949 Y5.183 E.45661
G1 X78.841 Y5.183 E.12014
G1 X78.841 Y8.575 E.45661
G1 X79.734 Y8.575 E.12014
G1 X79.734 Y5.183 E.45661
G1 X80.627 Y5.183 E.12014
G1 X80.627 Y8.575 E.45661
G1 X81.519 Y8.575 E.12014
M73 P0 R601
G1 X81.519 Y5.183 E.45661
G1 X82.412 Y5.183 E.12014
G1 X82.412 Y8.575 E.45661
G1 X83.305 Y8.575 E.12014
G1 X83.305 Y5.183 E.45661
G1 X84.197 Y5.183 E.12014
G1 X84.197 Y8.575 E.45661
G1 X85.09 Y8.575 E.12014
G1 X85.09 Y5.183 E.45661
G1 X85.983 Y5.183 E.12014
G1 X85.983 Y8.575 E.45661
G1 X86.876 Y8.575 E.12014
G1 X86.876 Y5.183 E.45661
G1 X87.768 Y5.183 E.12014
G1 X87.768 Y8.575 E.45661
G1 X88.661 Y8.575 E.12014
G1 X88.661 Y5.183 E.45661
G1 X89.554 Y5.183 E.12014
G1 X89.554 Y8.575 E.45661
G1 X90.446 Y8.575 E.12014
G1 X90.446 Y5.183 E.45661
G1 X91.339 Y5.183 E.12014
G1 X91.339 Y8.575 E.45661
G1 X92.232 Y8.575 E.12014
G1 X92.232 Y5.183 E.45661
G1 X93.124 Y5.183 E.12014
G1 X93.124 Y8.575 E.45661
G1 X94.017 Y8.575 E.12014
G1 X94.017 Y5.183 E.45661
G1 X94.91 Y5.183 E.12014
G1 X94.91 Y8.575 E.45661
G1 X95.803 Y8.575 E.12014
G1 X95.803 Y5.183 E.45661
G1 X96.695 Y5.183 E.12014
G1 X96.695 Y8.575 E.45661
G1 X97.588 Y8.575 E.12014
G1 X97.588 Y5.183 E.45661
G1 X98.481 Y5.183 E.12014
G1 X98.481 Y8.575 E.45661
G1 X99.373 Y8.575 E.12014
G1 X99.373 Y5.183 E.45661
G1 X100.266 Y5.183 E.12014
G1 X100.266 Y8.575 E.45661
G1 X101.159 Y8.575 E.12014
G1 X101.159 Y5.183 E.45661
G1 X102.051 Y5.183 E.12014
G1 X102.051 Y8.575 E.45661
G1 X102.944 Y8.575 E.12014
G1 X102.944 Y5.183 E.45661
G1 X103.837 Y5.183 E.12014
G1 X103.837 Y11.968 E.91321
G1 X104.73 Y11.968 E.12014
G1 X104.73 Y5.183 E.91321
G1 X105.622 Y5.183 E.12014
G1 X105.622 Y11.968 E.91321
G1 X106.515 Y11.968 E.12014
G1 X106.515 Y5.183 E.91321
G1 X107.408 Y5.183 E.12014
G1 X107.408 Y11.968 E.91321
G1 X108.3 Y11.968 E.12014
G1 X108.3 Y5.183 E.91321
G1 X109.193 Y5.183 E.12014
G1 X109.193 Y11.968 E.91321
G1 X110.086 Y11.968 E.12014
G1 X110.086 Y5.183 E.91321
G1 X110.978 Y5.183 E.12014
G1 X110.978 Y11.968 E.91321
G1 X111.871 Y11.968 E.12014
G1 X111.871 Y5.183 E.91321
G1 X112.764 Y5.183 E.12014
G1 X112.764 Y11.968 E.91321
G1 X113.656 Y11.968 E.12014
G1 X113.656 Y5.183 E.91321
G1 X114.549 Y5.183 E.12014
G1 X114.549 Y11.968 E.91321
G1 X115.442 Y11.968 E.12014
G1 X115.442 Y5.183 E.91321
G1 X116.335 Y5.183 E.12014
G1 X116.335 Y11.968 E.91321
G1 X117.227 Y11.968 E.12014
G1 X117.227 Y5.183 E.91321
G1 X118.12 Y5.183 E.12014
G1 X118.12 Y11.968 E.91321
G1 X119.013 Y11.968 E.12014
G1 X119.013 Y5.183 E.91321
G1 X119.905 Y5.183 E.12014
G1 X119.905 Y11.968 E.91321
G1 X120.798 Y11.968 E.12014
G1 X120.798 Y5.183 E.91321
G1 X121.691 Y5.183 E.12014
G1 X121.691 Y11.968 E.91321
G1 X122.583 Y11.968 E.12014
G1 X122.583 Y5.183 E.91321
G1 X123.476 Y5.183 E.12014
G1 X123.476 Y11.968 E.91321
G1 X124.369 Y11.968 E.12014
G1 X124.369 Y5.183 E.91321
G1 X125.262 Y5.183 E.12014
G1 X125.262 Y11.968 E.91321
G1 X126.154 Y11.968 E.12014
G1 X126.154 Y5.183 E.91321
G1 X127.047 Y5.183 E.12014
G1 X127.047 Y11.968 E.91321
G1 X127.94 Y11.968 E.12014
G1 X127.94 Y5.183 E.91321
G1 X128.832 Y5.183 E.12014
G1 X128.832 Y11.968 E.91321
G1 X129.725 Y11.968 E.12014
G1 X129.725 Y5.183 E.91321
G1 X130.618 Y5.183 E.12014
G1 X130.618 Y11.968 E.91321
G1 X131.51 Y11.968 E.12014
G1 X131.51 Y5.183 E.91321
G1 X132.403 Y5.183 E.12014
G1 X132.403 Y11.968 E.91321
G1 X133.296 Y11.968 E.12014
G1 X133.296 Y5.183 E.91321
G1 X134.189 Y5.183 E.12014
G1 X134.189 Y12.37 E.96727
G1 E-.7 F3600
;WIPE_START
G1 F6240
G1 X134.189 Y11.85 E-.285
;WIPE_END
G1 E-.015 F3600
G1 X136.867 Y4.781 F7800
G1 E1 F2400
G1 F1800
G1 X136.867 Y5.222 E.05932
G1 X135.974 Y5.54 E.12755
G1 X135.974 Y5.183 E.04808
G1 X135.081 Y5.183 E.12014
G1 X135.081 Y11.968 E.91321
G1 X135.974 Y11.968 E.12014
G1 X135.974 Y7.859 E.55298
G1 X136.867 Y8.251 E.13122
G1 X136.867 Y11.968 E.50022
G1 X137.759 Y11.968 E.12014
G1 X137.759 Y8.584 E.45546
G1 X138.652 Y8.632 E.12032
G1 X138.652 Y11.968 E.44901
G1 X139.545 Y11.968 E.12014
G1 X139.545 Y8.68 E.44257
G1 X140.437 Y8.727 E.12032
G1 X140.437 Y11.968 E.43613
G1 X141.33 Y11.968 E.12014
G1 X141.33 Y8.775 E.42969
G1 X142.223 Y8.823 E.12032
G1 X142.223 Y11.968 E.42324
G1 X143.116 Y11.968 E.12014
G1 X143.116 Y8.871 E.4168
G1 X144.008 Y8.919 E.12032
G1 X144.008 Y11.968 E.41036
G1 X144.901 Y11.968 E.12014
G1 X144.901 Y8.967 E.40392
G1 X145.794 Y9.015 E.12032
G1 X145.794 Y11.968 E.39747
G1 X146.686 Y11.968 E.12014
G1 X146.686 Y9.062 E.39103
G1 X147.579 Y9.11 E.12032
G1 X147.579 Y11.968 E.38459
G1 X148.472 Y11.968 E.12014
G1 X148.472 Y9.158 E.37815
G1 X149.364 Y9.206 E.12032
G1 X149.364 Y11.968 E.37171
G1 X150.257 Y11.968 E.12014
G1 X150.257 Y9.254 E.36526
G1 X151.15 Y9.302 E.12032
G1 X151.15 Y15.361 E.81542
G1 X152.043 Y15.361 E.12014
G1 X152.043 Y9.521 E.78587
G1 X152.257 Y9.565 E.02948
G1 X152.935 Y9.613 E.09148
G1 X152.935 Y15.361 E.77348
G1 X153.828 Y15.361 E.12014
G1 X153.828 Y9.677 E.76489
G1 X154.721 Y9.741 E.12045
G1 X154.721 Y15.361 E.75629
G1 X155.613 Y15.361 E.12014
G1 X155.613 Y9.805 E.74769
G1 X156.506 Y9.869 E.12045
G1 X156.506 Y15.361 E.7391
G1 X157.399 Y15.361 E.12014
G1 X157.399 Y9.933 E.7305
G1 X158.291 Y9.997 E.12045
G1 X158.291 Y15.361 E.7219
G1 X159.184 Y15.361 E.12014
G1 X159.184 Y10.061 E.7133
G1 X160.077 Y10.124 E.12045
G1 X160.077 Y15.361 E.70471
G1 X160.97 Y15.361 E.12014
G1 X160.97 Y10.188 E.69611
G1 X161.862 Y10.252 E.12045
G1 X161.862 Y15.361 E.68751
G1 X162.755 Y15.361 E.12014
G1 X162.755 Y10.316 E.67892
G1 X163.648 Y10.38 E.12045
G1 X163.648 Y15.361 E.67032
G1 X164.54 Y15.361 E.12014
G1 X164.54 Y10.444 E.66172
G1 X165.433 Y10.508 E.12045
G1 X165.433 Y15.361 E.65313
G1 X166.326 Y15.361 E.12014
G1 X166.326 Y10.299 E.68119
G1 X166.976 Y9.694 E.1195
G1 X166.976 Y5.525 E.5611
G1 X166.633 Y5.183 E.06519
G1 X167.218 Y5.183 E.07877
G1 X167.218 Y15.762 E1.42387
G1 E-.7 F3600
;WIPE_START
G1 F6240
G1 X167.218 Y15.242 E-.285
;WIPE_END
G1 E-.015 F3600
G1 X166.983 Y4.526 F7800
G1 E1 F2400
;TYPE:Support material
;WIDTH:0.42
G1 F1800
G1 X163.983 Y4.526 E.15056
G1 X163.983 Y5.207 E.03417
G1 X157.152 Y5.207 E.34281
G1 X157.103 Y6.576 E.06876
G1 X159.349 Y6.737 E.11299
G1 X159.296 Y8.207 E.07382
G1 X152.118 Y8.207 E.36027
G1 X152.118 Y5.627 E.12947
G1 X155.118 Y5.627 E.15056
G1 X155.118 Y4.526 E.05526
G1 X152.118 Y4.526 E.15056
G1 X152.118 Y1.946 E.12947
G1 X166.983 Y1.946 E.74602
G1 X166.983 Y4.474 E.12687
G1 X166.642 Y4.371 F7800
G1 F1800
G1 X166.642 Y2.257 E.1061
G1 X166.259 Y2.257 E.01923
G1 X166.259 Y4.216 E.09831
G1 X165.876 Y4.216 E.01923
G1 X165.876 Y2.257 E.09831
G1 X165.492 Y2.257 E.01923
G1 X165.492 Y4.216 E.09831
G1 X165.109 Y4.216 E.01923
G1 X165.109 Y2.257 E.09831
G1 X164.726 Y2.257 E.01923
G1 X164.726 Y4.216 E.09831
G1 X164.343 Y4.216 E.01923
G1 X164.343 Y2.257 E.09831
G1 X163.96 Y2.257 E.01923
G1 X163.96 Y4.216 E.09831
G1 X163.673 Y4.216 E.0144
G1 X163.673 Y4.897 E.03417
G1 X163.576 Y4.897 E.00483
G1 X163.576 Y2.257 E.13249
G1 X163.193 Y2.257 E.01923
G1 X163.193 Y4.897 E.13249
G1 X162.81 Y4.897 E.01923
G1 X162.81 Y2.257 E.13249
G1 X162.427 Y2.257 E.01923
G1 X162.427 Y4.897 E.13249
G1 X162.043 Y4.897 E.01923
G1 X162.043 Y2.257 E.13249
G1 X161.66 Y2.257 E.01923
G1 X161.66 Y4.897 E.13249
G1 X161.277 Y4.897 E.01923
G1 X161.277 Y2.257 E.13249
G1 X160.894 Y2.257 E.01923
G1 X160.894 Y4.897 E.13249
G1 X160.511 Y4.897 E.01923
G1 X160.511 Y2.257 E.13249
G1 X160.127 Y2.257 E.01923
G1 X160.127 Y4.897 E.13249
G1 X159.744 Y4.897 E.01923
G1 X159.744 Y2.257 E.13249
G1 X159.361 Y2.257 E.01923
G1 X159.361 Y4.897 E.13249
G1 X158.978 Y4.897 E.01923
G1 X158.978 Y2.257 E.13249
G1 X158.595 Y2.257 E.01923
G1 X158.595 Y4.897 E.13249
G1 X158.211 Y4.897 E.01923
G1 X158.211 Y2.257 E.13249
G1 X157.828 Y2.257 E.01923
G1 X157.828 Y4.897 E.13249
G1 X157.445 Y4.897 E.01923
G1 X157.445 Y2.257 E.13249
G1 X157.062 Y2.257 E.01923
G1 X157.062 Y4.897 E.13249
G1 X156.853 Y4.897 E.01049
G1 X156.782 Y6.865 E.09882
G1 X157.062 Y6.885 E.01406
G1 X157.062 Y7.896 E.05079
G1 X157.445 Y7.896 E.01923
G1 X157.445 Y6.912 E.04941
G1 X157.828 Y6.939 E.01928
G1 X157.828 Y7.896 E.04803
G1 X158.211 Y7.896 E.01923
G1 X158.211 Y6.967 E.04666
G1 X158.595 Y6.994 E.01928
G1 X158.595 Y7.896 E.04528
G1 X158.978 Y7.896 E.01923
G1 X158.978 Y6.866 E.05172
G1 X156.679 Y8.052 F7800
G1 F1800
G1 X156.679 Y2.257 E.29083
G1 X156.295 Y2.257 E.01923
G1 X156.295 Y7.896 E.28304
G1 X155.912 Y7.896 E.01923
G1 X155.912 Y2.257 E.28304
G1 X155.529 Y2.257 E.01923
G1 X155.529 Y7.896 E.28304
G1 X155.146 Y7.896 E.01923
G1 X155.146 Y5.937 E.09831
G1 X154.763 Y5.937 E.01923
G1 X154.763 Y7.896 E.09831
G1 X154.379 Y7.896 E.01923
G1 X154.379 Y5.937 E.09831
G1 X153.996 Y5.937 E.01923
G1 X153.996 Y7.896 E.09831
G1 X153.613 Y7.896 E.01923
G1 X153.613 Y5.937 E.09831
G1 X153.23 Y5.937 E.01923
G1 X153.23 Y7.896 E.09831
G1 X152.846 Y7.896 E.01923
G1 X152.846 Y5.937 E.09831
G1 X152.463 Y5.937 E.01923
G1 X152.463 Y8.052 E.1061
G1 E-.7 F3600
;WIPE_START
G1 F6240
G1 X152.463 Y7.532 E-.285
;WIPE_END
G1 E-.015 F3600
G1 X155.146 Y4.371 F7800
G1 E1 F2400
G1 F1800
G1 X155.146 Y2.257 E.1061
G1 X154.763 Y2.257 E.01923
G1 X154.763 Y4.216 E.09831
G1 X154.379 Y4.216 E.01923
G1 X154.379 Y2.257 E.09831
G1 X153.996 Y2.257 E.01923
G1 X153.996 Y4.216 E.09831
G1 X153.613 Y4.216 E.01923
G1 X153.613 Y2.257 E.09831
G1 X153.23 Y2.257 E.01923
G1 X153.23 Y4.216 E.09831
G1 X152.846 Y4.216 E.01923
G1 X152.846 Y2.257 E.09831
G1 X152.463 Y2.257 E.01923
G1 X152.463 Y4.371 E.1061
G1 E-.7 F3600
;WIPE_START
G1 F6240
G1 X152.463 Y3.851 E-.285
;WIPE_END
G1 E-.015 F3600
G1 X68.595 Y4.526 F7800
G1 E1 F2400
G1 F1800
G1 X65.595 Y4.526 E.15056
G1 X65.595 Y9.232 E.23616
G1 X102.914 Y9.232 E1.87292
G1 X102.914 Y12.624 E.17027
G1 X150.412 Y12.624 E2.38372
G1 X150.412 Y16.017 E.17027
G1 X168.689 Y16.017 E.91722
G1 X168.689 Y13.017 E.15056
G1 X171.268 Y13.017 E.12947
G1 X171.268 Y178.054 E8.28252
G1 X8.732 Y178.054 E8.15705
G1 X8.732 Y1.946 E8.83811
G1 X68.595 Y1.946 E3.00428
G1 X68.595 Y4.474 E.12687
M73 P0 R600
G1 E-.7 F3600
;WIPE_START
G1 F6240
G1 X68.595 Y3.954 E-.285
;WIPE_END
G1 E-.015 F3600
G1 X170.857 Y177.899 F7800
G1 E1 F2400
G1 F1800
G1 X170.857 Y13.327 E8.25915
G1 X170.474 Y13.327 E.01923
G1 X170.474 Y177.743 E8.25136
G1 X170.091 Y177.743 E.01923
G1 X170.091 Y13.327 E8.25136
G1 X169.708 Y13.327 E.01923
G1 X169.708 Y177.743 E8.25136
G1 X169.324 Y177.743 E.01923
G1 X169.324 Y13.327 E8.25136
G1 X168.999 Y13.327 E.01634
G1 X168.999 Y16.327 E.15056
G1 X168.941 Y16.327 E.00289
G1 X168.941 Y177.743 E8.1008
G1 X168.558 Y177.743 E.01923
G1 X168.558 Y16.327 E8.1008
G1 X168.175 Y16.327 E.01923
G1 X168.175 Y177.743 E8.1008
G1 X167.792 Y177.743 E.01923
G1 X167.792 Y16.327 E8.1008
G1 X167.408 Y16.327 E.01923
G1 X167.408 Y177.743 E8.1008
G1 X167.025 Y177.743 E.01923
G1 X167.025 Y16.327 E8.1008
G1 X166.642 Y16.327 E.01923
M73 P0 R599
G1 X166.642 Y177.743 E8.1008
G1 X166.259 Y177.743 E.01923
G1 X166.259 Y16.327 E8.1008
G1 X165.876 Y16.327 E.01923
G1 X165.876 Y177.743 E8.1008
G1 X165.492 Y177.743 E.01923
G1 X165.492 Y16.327 E8.1008
G1 X165.109 Y16.327 E.01923
G1 X165.109 Y177.743 E8.1008
G1 X164.726 Y177.743 E.01923
G1 X164.726 Y16.327 E8.1008
G1 X164.343 Y16.327 E.01923
G1 X164.343 Y177.743 E8.1008
G1 X163.96 Y177.743 E.01923
G1 X163.96 Y16.327 E8.1008
G1 X163.576 Y16.327 E.01923
G1 X163.576 Y177.743 E8.1008
G1 X163.193 Y177.743 E.01923
G1 X163.193 Y16.327 E8.1008
G1 X162.81 Y16.327 E.01923
G1 X162.81 Y177.743 E8.1008
G1 X162.427 Y177.743 E.01923
M73 P0 R598
G1 X162.427 Y16.327 E8.1008
G1 X162.043 Y16.327 E.01923
G1 X162.043 Y177.743 E8.1008
G1 X161.66 Y177.743 E.01923
G1 X161.66 Y16.327 E8.1008
G1 X161.277 Y16.327 E.01923
G1 X161.277 Y177.743 E8.1008
G1 X160.894 Y177.743 E.01923
G1 X160.894 Y16.327 E8.1008
G1 X160.511 Y16.327 E.01923
G1 X160.511 Y177.743 E8.1008
G1 X160.127 Y177.743 E.01923
G1 X160.127 Y16.327 E8.1008
G1 X159.744 Y16.327 E.01923
G1 X159.744 Y177.743 E8.1008
G1 X159.361 Y177.743 E.01923
G1 X159.361 Y16.327 E8.1008
G1 X158.978 Y16.327 E.01923
G1 X158.978 Y177.743 E8.1008
G1 X158.595 Y177.743 E.01923
G1 X158.595 Y16.327 E8.1008
G1 X158.211 Y16.327 E.01923
M73 P0 R597
G1 X158.211 Y177.743 E8.1008
G1 X157.828 Y177.743 E.01923
G1 X157.828 Y16.327 E8.1008
G1 X157.445 Y16.327 E.01923
G1 X157.445 Y177.743 E8.1008
G1 X157.062 Y177.743 E.01923
G1 X157.062 Y16.327 E8.1008
G1 X156.679 Y16.327 E.01923
G1 X156.679 Y177.743 E8.1008
G1 X156.295 Y177.743 E.01923
G1 X156.295 Y16.327 E8.1008
G1 X155.912 Y16.327 E.01923
G1 X155.912 Y177.743 E8.1008
G1 X155.529 Y177.743 E.01923
G1 X155.529 Y16.327 E8.1008
G1 X155.146 Y16.327 E.01923
G1 X155.146 Y177.743 E8.1008
G1 X154.762 Y177.743 E.01923
G1 X154.763 Y16.327 E8.1008
G1 X154.379 Y16.327 E.01923
G1 X154.379 Y177.743 E8.1008
G1 X153.996 Y177.743 E.01923
M73 P0 R596
G1 X153.996 Y16.327 E8.1008
G1 X153.613 Y16.327 E.01923
G1 X153.613 Y177.743 E8.1008
G1 X153.23 Y177.743 E.01923
G1 X153.23 Y16.327 E8.1008
G1 X152.846 Y16.327 E.01923
G1 X152.846 Y177.743 E8.1008
G1 X152.463 Y177.743 E.01923
G1 X152.463 Y16.327 E8.1008
G1 X152.08 Y16.327 E.01923
G1 X152.08 Y177.743 E8.1008
G1 X151.697 Y177.743 E.01923
G1 X151.697 Y16.327 E8.1008
G1 X151.314 Y16.327 E.01923
G1 X151.314 Y177.743 E8.1008
G1 X150.93 Y177.743 E.01923
M73 P1 R596
G1 X150.93 Y16.327 E8.1008
G1 X150.547 Y16.327 E.01923
G1 X150.547 Y177.743 E8.1008
G1 X150.164 Y177.743 E.01923
G1 X150.164 Y16.327 E8.1008
G1 X150.102 Y16.327 E.00312
M73 P1 R595
G1 X150.102 Y12.935 E.17027
G1 X149.781 Y12.935 E.01611
G1 X149.781 Y177.743 E8.27107
G1 X149.398 Y177.743 E.01923
G1 X149.398 Y12.935 E8.27107
G1 X149.014 Y12.935 E.01923
G1 X149.014 Y177.743 E8.27107
G1 X148.631 Y177.743 E.01923
G1 X148.631 Y12.935 E8.27107
G1 X148.248 Y12.935 E.01923
G1 X148.248 Y177.743 E8.27107
G1 X147.865 Y177.743 E.01923
G1 X147.865 Y12.935 E8.27107
G1 X147.482 Y12.935 E.01923
G1 X147.482 Y177.743 E8.27107
G1 X147.098 Y177.743 E.01923
G1 X147.098 Y12.935 E8.27107
G1 X146.715 Y12.935 E.01923
G1 X146.715 Y177.743 E8.27107
G1 X146.332 Y177.743 E.01923
G1 X146.332 Y12.935 E8.27107
G1 X145.949 Y12.935 E.01923
G1 X145.949 Y177.743 E8.27107
G1 X145.565 Y177.743 E.01923
M73 P1 R594
G1 X145.565 Y12.935 E8.27107
G1 X145.182 Y12.935 E.01923
G1 X145.182 Y177.743 E8.27107
G1 X144.799 Y177.743 E.01923
G1 X144.799 Y12.935 E8.27107
