; generated by PrusaSlicer 2.5.0+win64 on 2022-12-07 at 00:31:27 UTC

; 

; external perimeters extrusion width = 1.00mm
; perimeters extrusion width = 1.00mm
; infill extrusion width = 1.00mm
; solid infill extrusion width = 1.00mm
; top infill extrusion width = 1.00mm
; support material extrusion width = 1.00mm
; first layer extrusion width = 0.42mm

M73 P0 R319
M107
;TYPE:Custom
G90 ; use absolute coordinates
M83 ; extruder relative mode
M140 S60 ; set final bed temp
M104 S150 ; set temporary nozzle temp to prevent oozing during homing and auto bed leveling
G4 S10 ; allow partial nozzle warmup
G28 ; home all axisG1 Z50 F240
G1 X7.6 Y10 F3000
M104 S210 ; set final nozzle temp
M190 S60 ; wait for bed temp to stabilize
M109 S210 ; wait for nozzle temp to stabilize
G1 Z0.28 F240
G92 E0
G1 Y140 E10 F1500 ; prime the nozzle
G1 X4 F5000
G92 E0
G1 Y10 E10 F1200 ; prime the nozzle
G92 E0
G21 ; set units to millimeters
G90 ; use absolute coordinates
M83 ; use relative distances for extrusion
; Filament gcode
M107
;LAYER_CHANGE
;Z:0.35
;HEIGHT:0.35
;BEFORE_LAYER_CHANGE
G92 E0
;0.35


G1 E-1 F3600
G1 Z.35 F7800
;AFTER_LAYER_CHANGE
;0.35
G1 X43.086 Y27.658
G1 E1 F2400
;TYPE:Support material interface
;WIDTH:1
G1 F1800
G1 X43.086 Y25.437 E.2989
G1 X43.979 Y25.437 E.12014
G1 X43.979 Y27.658 E.2989
G1 E-.7 F3600
;WIPE_START
G1 F6240
G1 X43.979 Y27.138 E-.285
;WIPE_END
G1 E-.015 F3600
G1 X43.086 Y32.624 F7800
G1 E1 F2400
G1 F1800
G1 X43.086 Y29.206 E.46003
G1 X43.979 Y29.125 E.12063
G1 X43.979 Y32.222 E.41684
G1 X44.871 Y32.222 E.12014
G1 X44.871 Y25.437 E.91321
G1 X45.764 Y25.437 E.12014
G1 X45.764 Y32.222 E.91321
G1 X46.657 Y32.222 E.12014
G1 X46.657 Y25.437 E.91321
G1 X47.549 Y25.437 E.12014
G1 X47.549 Y32.222 E.91321
G1 X48.442 Y32.222 E.12014
G1 X48.442 Y25.437 E.91321
G1 X49.335 Y25.437 E.12014
G1 X49.335 Y28.83 E.45661
G1 X50.228 Y28.83 E.12014
G1 X50.228 Y25.437 E.45661
G1 X51.12 Y25.437 E.12014
G1 X51.12 Y28.83 E.45661
G1 X52.013 Y28.83 E.12014
G1 X52.013 Y25.437 E.45661
G1 X52.906 Y25.437 E.12014
G1 X52.906 Y32.222 E.91321
G1 X53.798 Y32.222 E.12014
G1 X53.798 Y25.437 E.91321
G1 X54.691 Y25.437 E.12014
G1 X54.691 Y32.222 E.91321
G1 X55.584 Y32.222 E.12014
G1 X55.584 Y25.437 E.91321
G1 X56.476 Y25.437 E.12014
G1 X56.476 Y32.222 E.91321
G1 X57.369 Y32.222 E.12014
G1 X57.369 Y25.437 E.91321
G1 X58.262 Y25.437 E.12014
G1 X58.262 Y32.222 E.91321
G1 X59.154 Y32.222 E.12014
G1 X59.154 Y25.437 E.91321
G1 X60.047 Y25.437 E.12014
G1 X60.047 Y28.83 E.45661
G1 X60.94 Y28.83 E.12014
G1 X60.94 Y25.437 E.45661
G1 X61.833 Y25.437 E.12014
G1 X61.833 Y28.83 E.45661
G1 X62.725 Y28.83 E.12014
G1 X62.725 Y25.437 E.45661
G1 X63.618 Y25.437 E.12014
G1 X63.618 Y32.222 E.91321
G1 X64.511 Y32.222 E.12014
G1 X64.511 Y25.437 E.91321
G1 X65.403 Y25.437 E.12014
G1 X65.403 Y32.222 E.91321
G1 X66.296 Y32.222 E.12014
G1 X66.296 Y25.437 E.91321
G1 X67.189 Y25.437 E.12014
G1 X67.189 Y32.222 E.91321
G1 X68.081 Y32.222 E.12014
G1 X68.081 Y25.437 E.91321
G1 X68.974 Y25.437 E.12014
G1 X68.974 Y32.222 E.91321
G1 X69.596 Y32.222 E.08375
G1 X69.596 Y28.83 E.4566
G1 X69.867 Y28.83 E.03639
G1 X69.867 Y25.437 E.45661
G1 X70.76 Y25.437 E.12014
G1 X70.76 Y28.83 E.45661
G1 X71.652 Y28.83 E.12014
G1 X71.652 Y25.437 E.45661
G1 X72.545 Y25.437 E.12014
G1 X72.545 Y29.231 E.51067
G1 E-.7 F3600
;WIPE_START
G1 F6240
G1 X72.545 Y28.711 E-.285
;WIPE_END
G1 E-.015 F3600
G1 X103.789 Y32.624 F7800
G1 E1 F2400
G1 F1800
G1 X103.789 Y25.437 E.96727
G1 X104.682 Y25.437 E.12014
G1 X104.682 Y32.222 E.91321
G1 X105.575 Y32.222 E.12014
G1 X105.575 Y25.437 E.91321
G1 X106.468 Y25.437 E.12014
G1 X106.468 Y32.222 E.91321
G1 X107.36 Y32.222 E.12014
G1 X107.36 Y25.437 E.91321
G1 X108.253 Y25.437 E.12014
G1 X108.253 Y32.222 E.91321
G1 X109.146 Y32.222 E.12014
G1 X109.146 Y25.437 E.91321
G1 X110.038 Y25.437 E.12014
G1 X110.038 Y32.624 E.96727
G1 E-.7 F3600
;WIPE_START
G1 F6240
G1 X110.038 Y32.104 E-.285
;WIPE_END
G1 E-.015 F3600
G1 X105.867 Y24.78 F7800
G1 E1 F2400
;TYPE:Support material
;WIDTH:0.42
G1 F1800
G1 X102.867 Y24.78 E.15056
G1 X102.867 Y32.879 E.40642
G1 X105.867 Y32.879 E.15056
G1 X105.867 Y35.458 E.12947
G1 X67.253 Y35.458 E1.93788
G1 X67.253 Y32.879 E.12947
G1 X70.253 Y32.879 E.15056
G1 X70.253 Y29.486 E.17027
G1 X73.646 Y29.486 E.17027
G1 X73.646 Y24.78 E.23616
G1 X70.646 Y24.78 E.15056
G1 X70.646 Y22.201 E.12947
G1 X105.867 Y22.201 E1.76762
G1 X105.867 Y24.729 E.12687
G1 E-.7 F3600
;WIPE_START
G1 F6240
G1 X105.867 Y24.209 E-.285
;WIPE_END
G1 E-.015 F3600
G1 X105.281 Y35.303 F7800
G1 E1 F2400
G1 F1800
G1 X105.281 Y33.189 E.1061
G1 X104.898 Y33.189 E.01923
G1 X104.898 Y35.148 E.09831
G1 X104.515 Y35.148 E.01923
G1 X104.515 Y33.189 E.09831
G1 X104.131 Y33.189 E.01923
G1 X104.131 Y35.148 E.09831
G1 X103.748 Y35.148 E.01923
G1 X103.748 Y33.189 E.09831
G1 X103.365 Y33.189 E.01923
G1 X103.365 Y35.148 E.09831
G1 X102.982 Y35.148 E.01923
G1 X102.982 Y33.034 E.1061
G1 E-.7 F3600
;WIPE_START
G1 F6240
G1 X102.982 Y33.554 E-.285
;WIPE_END
G1 E-.015 F3600
G1 X105.281 Y24.625 F7800
G1 E1 F2400
G1 F1800
G1 X105.281 Y22.511 E.1061
G1 X104.898 Y22.511 E.01923
G1 X104.898 Y24.47 E.09831
G1 X104.515 Y24.47 E.01923
G1 X104.515 Y22.511 E.09831
G1 X104.131 Y22.511 E.01923
G1 X104.131 Y24.47 E.09831
G1 X103.748 Y24.47 E.01923
G1 X103.748 Y22.511 E.09831
G1 X103.365 Y22.511 E.01923
G1 X103.365 Y24.47 E.09831
G1 X102.982 Y24.47 E.01923
G1 X102.982 Y22.511 E.09831
G1 X102.599 Y22.511 E.01923
G1 X102.599 Y35.148 E.6342
G1 X102.215 Y35.148 E.01923
G1 X102.215 Y22.511 E.6342
G1 X101.832 Y22.511 E.01923
G1 X101.832 Y35.148 E.6342
G1 X101.449 Y35.148 E.01923
G1 X101.449 Y22.511 E.6342
G1 X101.066 Y22.511 E.01923
G1 X101.066 Y35.148 E.6342
G1 X100.683 Y35.148 E.01923
G1 X100.683 Y22.511 E.6342
G1 X100.299 Y22.511 E.01923
G1 X100.299 Y35.148 E.6342
G1 X99.916 Y35.148 E.01923
G1 X99.916 Y22.511 E.6342
G1 X99.533 Y22.511 E.01923
G1 X99.533 Y35.148 E.6342
G1 X99.15 Y35.148 E.01923
G1 X99.15 Y22.511 E.6342
G1 X98.766 Y22.511 E.01923
G1 X98.766 Y35.148 E.6342
G1 X98.383 Y35.148 E.01923
M73 P0 R318
G1 X98.383 Y22.511 E.6342
G1 X98 Y22.511 E.01923
G1 X98 Y35.148 E.6342
G1 X97.617 Y35.148 E.01923
G1 X97.617 Y22.511 E.6342
G1 X97.234 Y22.511 E.01923
G1 X97.234 Y35.148 E.6342
G1 X96.85 Y35.148 E.01923
G1 X96.85 Y22.511 E.6342
G1 X96.467 Y22.511 E.01923
G1 X96.467 Y35.148 E.6342
G1 X96.084 Y35.148 E.01923
G1 X96.084 Y22.511 E.6342
G1 X95.701 Y22.511 E.01923
G1 X95.701 Y35.148 E.6342
G1 X95.318 Y35.148 E.01923
G1 X95.318 Y22.511 E.6342
G1 X94.934 Y22.511 E.01923
G1 X94.934 Y35.148 E.6342
G1 X94.551 Y35.148 E.01923
G1 X94.551 Y22.511 E.6342
G1 X94.168 Y22.511 E.01923
G1 X94.168 Y35.148 E.6342
G1 X93.785 Y35.148 E.01923
G1 X93.785 Y22.511 E.6342
G1 X93.402 Y22.511 E.01923
G1 X93.402 Y35.148 E.6342
G1 X93.018 Y35.148 E.01923
G1 X93.018 Y22.511 E.6342
G1 X92.635 Y22.511 E.01923
G1 X92.635 Y35.148 E.6342
G1 X92.252 Y35.148 E.01923
G1 X92.252 Y22.511 E.6342
G1 X91.869 Y22.511 E.01923
G1 X91.869 Y35.148 E.6342
G1 X91.486 Y35.148 E.01923
G1 X91.486 Y22.511 E.6342
G1 X91.102 Y22.511 E.01923
G1 X91.102 Y35.148 E.6342
G1 X90.719 Y35.148 E.01923
G1 X90.719 Y22.511 E.6342
G1 X90.336 Y22.511 E.01923
G1 X90.336 Y35.148 E.6342
G1 X89.953 Y35.148 E.01923
G1 X89.953 Y22.511 E.6342
G1 X89.569 Y22.511 E.01923
G1 X89.569 Y35.148 E.6342
G1 X89.186 Y35.148 E.01923
G1 X89.186 Y22.511 E.6342
G1 X88.803 Y22.511 E.01923
G1 X88.803 Y35.148 E.6342
G1 X88.42 Y35.148 E.01923
G1 X88.42 Y22.511 E.6342
G1 X88.037 Y22.511 E.01923
G1 X88.037 Y35.148 E.6342
G1 X87.653 Y35.148 E.01923
G1 X87.653 Y22.511 E.6342
G1 X87.27 Y22.511 E.01923
G1 X87.27 Y35.148 E.6342
G1 X86.887 Y35.148 E.01923
G1 X86.887 Y22.511 E.6342
G1 X86.504 Y22.511 E.01923
G1 X86.504 Y35.148 E.6342
G1 X86.121 Y35.148 E.01923
G1 X86.121 Y22.511 E.6342
G1 X85.737 Y22.511 E.01923
G1 X85.737 Y35.148 E.6342
G1 X85.354 Y35.148 E.01923
G1 X85.354 Y22.511 E.6342
G1 X84.971 Y22.511 E.01923
G1 X84.971 Y35.148 E.6342
G1 X84.588 Y35.148 E.01923
G1 X84.588 Y22.511 E.6342
G1 X84.205 Y22.511 E.01923
G1 X84.205 Y35.148 E.6342
G1 X83.821 Y35.148 E.01923
G1 X83.821 Y22.511 E.6342
G1 X83.438 Y22.511 E.01923
G1 X83.438 Y35.148 E.6342
G1 X83.055 Y35.148 E.01923
G1 X83.055 Y22.511 E.6342
G1 X82.672 Y22.511 E.01923
G1 X82.672 Y35.148 E.6342
G1 X82.288 Y35.148 E.01923
G1 X82.288 Y22.511 E.6342
G1 X81.905 Y22.511 E.01923
G1 X81.905 Y35.148 E.6342
G1 X81.522 Y35.148 E.01923
G1 X81.522 Y22.511 E.6342
G1 X81.139 Y22.511 E.01923
G1 X81.139 Y35.148 E.6342
G1 X80.756 Y35.148 E.01923
G1 X80.756 Y22.511 E.6342
G1 X80.372 Y22.511 E.01923
G1 X80.372 Y35.148 E.6342
G1 X79.989 Y35.148 E.01923
G1 X79.989 Y22.511 E.6342
G1 X79.606 Y22.511 E.01923
G1 X79.606 Y35.148 E.6342
G1 X79.223 Y35.148 E.01923
G1 X79.223 Y22.511 E.6342
G1 X78.84 Y22.511 E.01923
G1 X78.84 Y35.148 E.6342
G1 X78.456 Y35.148 E.01923
G1 X78.456 Y22.511 E.6342
G1 X78.073 Y22.511 E.01923
G1 X78.073 Y35.148 E.6342
G1 X77.69 Y35.148 E.01923
G1 X77.69 Y22.511 E.6342
G1 X77.307 Y22.511 E.01923
G1 X77.307 Y35.148 E.6342
G1 X76.924 Y35.148 E.01923
G1 X76.924 Y22.511 E.6342
G1 X76.54 Y22.511 E.01923
G1 X76.54 Y35.148 E.6342
G1 X76.157 Y35.148 E.01923
G1 X76.157 Y22.511 E.6342
G1 X75.774 Y22.511 E.01923
G1 X75.774 Y35.148 E.6342
G1 X75.391 Y35.148 E.01923
G1 X75.391 Y22.511 E.6342
G1 X75.007 Y22.511 E.01923
G1 X75.007 Y35.148 E.6342
G1 X74.624 Y35.148 E.01923
G1 X74.624 Y22.511 E.6342
G1 X74.241 Y22.511 E.01923
G1 X74.241 Y35.148 E.6342
G1 X73.858 Y35.148 E.01923
G1 X73.858 Y22.511 E.6342
G1 X73.475 Y22.511 E.01923
G1 X73.475 Y24.47 E.09831
G1 X73.091 Y24.47 E.01923
G1 X73.091 Y22.511 E.09831
G1 X72.708 Y22.511 E.01923
G1 X72.708 Y24.47 E.09831
G1 X72.325 Y24.47 E.01923
G1 X72.325 Y22.511 E.09831
G1 X71.942 Y22.511 E.01923
G1 X71.942 Y24.47 E.09831
G1 X71.559 Y24.47 E.01923
G1 X71.559 Y22.511 E.09831
G1 X71.175 Y22.511 E.01923
G1 X71.175 Y24.625 E.1061
G1 E-.7 F3600
;WIPE_START
G1 F6240
G1 X71.175 Y24.105 E-.285
;WIPE_END
G1 E-.015 F3600
G1 X73.475 Y35.303 F7800
G1 E1 F2400
G1 F1800
G1 X73.475 Y29.796 E.27637
G1 X73.091 Y29.796 E.01923
G1 X73.091 Y35.148 E.26858
G1 X72.708 Y35.148 E.01923
G1 X72.708 Y29.796 E.26858
G1 X72.325 Y29.796 E.01923
G1 X72.325 Y35.148 E.26858
G1 X71.942 Y35.148 E.01923
G1 X71.942 Y29.796 E.26858
G1 X71.559 Y29.796 E.01923
G1 X71.559 Y35.148 E.26858
G1 X71.175 Y35.148 E.01923
G1 X71.175 Y29.796 E.26858
G1 X70.792 Y29.796 E.01923
G1 X70.792 Y35.148 E.26858
G1 X70.409 Y35.148 E.01923
G1 X70.409 Y33.189 E.09831
G1 X70.026 Y33.189 E.01923
G1 X70.026 Y35.148 E.09831
G1 X69.643 Y35.148 E.01923
G1 X69.643 Y33.189 E.09831
G1 X69.259 Y33.189 E.01923
G1 X69.259 Y35.148 E.09831
G1 X68.876 Y35.148 E.01923
G1 X68.876 Y33.189 E.09831
G1 X68.493 Y33.189 E.01923
G1 X68.493 Y35.148 E.09831
G1 X68.11 Y35.148 E.01923
G1 X68.11 Y33.189 E.09831
G1 X67.726 Y33.189 E.01923
G1 X67.726 Y35.303 E.1061
G1 E-.7 F3600
;WIPE_START
G1 F6240
G1 X67.726 Y34.783 E-.285
;WIPE_END
G1 E-.015 F3600
G1 X52.477 Y116.883 F7800
G1 E1 F2400
G1 F1800
G1 X49.084 Y116.883 E.17027
G1 X49.084 Y120.276 E.17027
G1 X45.691 Y120.276 E.17027
G1 X45.691 Y123.669 E.17027
G1 X42.298 Y123.669 E.17027
G1 X42.298 Y127.061 E.17027
G1 X25.648 Y127.061 E.83563
G1 X25.648 Y113.803 E.66536
G1 X29.041 Y113.803 E.17027
G1 X29.041 Y110.411 E.17027
G1 X35.826 Y110.411 E.34053
G1 X35.826 Y107.018 E.17027
G1 X52.477 Y107.018 E.83563
G1 X52.477 Y116.832 E.4925
G1 X52.015 Y116.728 F7800
G1 F1800
G1 X52.015 Y107.328 E.47173
G1 X51.632 Y107.328 E.01923
G1 X51.632 Y116.573 E.46394
G1 X51.248 Y116.573 E.01923
G1 X51.248 Y107.328 E.46394
G1 X50.865 Y107.328 E.01923
G1 X50.865 Y116.573 E.46394
G1 X50.482 Y116.573 E.01923
G1 X50.482 Y107.328 E.46394
G1 X50.099 Y107.328 E.01923
G1 X50.099 Y116.573 E.46394
G1 X49.716 Y116.573 E.01923
G1 X49.716 Y107.328 E.46394
G1 X49.332 Y107.328 E.01923
G1 X49.332 Y116.573 E.46394
G1 X48.949 Y116.573 E.01923
G1 X48.949 Y107.328 E.46394
G1 X48.566 Y107.328 E.01923
G1 X48.566 Y119.966 E.6342
G1 X48.183 Y119.966 E.01923
G1 X48.183 Y107.328 E.6342
G1 X47.8 Y107.328 E.01923
G1 X47.8 Y119.966 E.6342
G1 X47.416 Y119.966 E.01923
G1 X47.416 Y107.328 E.6342
G1 X47.033 Y107.328 E.01923
G1 X47.033 Y119.966 E.6342
G1 X46.65 Y119.966 E.01923
G1 X46.65 Y107.328 E.6342
G1 X46.267 Y107.328 E.01923
G1 X46.267 Y119.966 E.6342
G1 X45.884 Y119.966 E.01923
G1 X45.884 Y107.328 E.6342
G1 X45.5 Y107.328 E.01923
G1 X45.5 Y119.966 E.6342
G1 X45.381 Y119.966 E.006
G1 X45.381 Y123.358 E.17027
G1 X45.117 Y123.358 E.01323
G1 X45.117 Y107.328 E.80447
G1 X44.734 Y107.328 E.01923
G1 X44.734 Y123.358 E.80447
G1 X44.351 Y123.358 E.01923
G1 X44.351 Y107.328 E.80447
G1 X43.967 Y107.328 E.01923
G1 X43.967 Y123.358 E.80447
G1 X43.584 Y123.358 E.01923
G1 X43.584 Y107.328 E.80447
G1 X43.201 Y107.328 E.01923
G1 X43.201 Y123.358 E.80447
G1 X42.818 Y123.358 E.01923
G1 X42.818 Y107.328 E.80447
G1 X42.435 Y107.328 E.01923
G1 X42.435 Y123.358 E.80447
G1 X42.051 Y123.358 E.01923
G1 X42.051 Y107.328 E.80447
G1 X41.668 Y107.328 E.01923
G1 X41.668 Y126.751 E.97474
G1 X41.285 Y126.751 E.01923
G1 X41.285 Y107.328 E.97474
G1 X40.902 Y107.328 E.01923
G1 X40.902 Y126.751 E.97474
G1 X40.519 Y126.751 E.01923
G1 X40.519 Y107.328 E.97474
G1 X40.135 Y107.328 E.01923
G1 X40.135 Y126.751 E.97474
G1 X39.752 Y126.751 E.01923
G1 X39.752 Y107.328 E.97474
G1 X39.369 Y107.328 E.01923
G1 X39.369 Y126.751 E.97474
G1 X38.986 Y126.751 E.01923
G1 X38.986 Y107.328 E.97474
G1 X38.603 Y107.328 E.01923
G1 X38.603 Y126.751 E.97474
G1 X38.219 Y126.751 E.01923
M73 P0 R317
G1 X38.219 Y107.328 E.97474
G1 X37.836 Y107.328 E.01923
G1 X37.836 Y126.751 E.97474
G1 X37.453 Y126.751 E.01923
G1 X37.453 Y107.328 E.97474
G1 X37.07 Y107.328 E.01923
G1 X37.07 Y126.751 E.97474
G1 X36.686 Y126.751 E.01923
G1 X36.686 Y107.328 E.97474
G1 X36.303 Y107.328 E.01923
G1 X36.303 Y126.751 E.97474
G1 X35.92 Y126.751 E.01923
G1 X35.92 Y110.721 E.80447
G1 X35.537 Y110.721 E.01923
G1 X35.537 Y126.751 E.80447
G1 X35.154 Y126.751 E.01923
G1 X35.154 Y110.721 E.80447
G1 X34.77 Y110.721 E.01923
G1 X34.77 Y126.751 E.80447
G1 X34.387 Y126.751 E.01923
G1 X34.387 Y110.721 E.80447
G1 X34.004 Y110.721 E.01923
G1 X34.004 Y126.751 E.80447
G1 X33.621 Y126.751 E.01923
G1 X33.621 Y110.721 E.80447
G1 X33.238 Y110.721 E.01923
G1 X33.238 Y126.751 E.80447
G1 X32.854 Y126.751 E.01923
G1 X32.854 Y110.721 E.80447
G1 X32.471 Y110.721 E.01923
G1 X32.471 Y126.751 E.80447
G1 X32.088 Y126.751 E.01923
G1 X32.088 Y110.721 E.80447
G1 X31.705 Y110.721 E.01923
G1 X31.705 Y126.751 E.80447
G1 X31.322 Y126.751 E.01923
G1 X31.322 Y110.721 E.80447
G1 X30.938 Y110.721 E.01923
G1 X30.938 Y126.751 E.80447
G1 X30.555 Y126.751 E.01923
G1 X30.555 Y110.721 E.80447
G1 X30.172 Y110.721 E.01923
G1 X30.172 Y126.751 E.80447
G1 X29.789 Y126.751 E.01923
G1 X29.789 Y110.721 E.80447
G1 X29.405 Y110.721 E.01923
G1 X29.405 Y126.751 E.80447
G1 X29.022 Y126.751 E.01923
G1 X29.022 Y114.114 E.6342
G1 X28.639 Y114.114 E.01923
G1 X28.639 Y126.751 E.6342
G1 X28.256 Y126.751 E.01923
G1 X28.256 Y114.114 E.6342
G1 X27.873 Y114.114 E.01923
G1 X27.873 Y126.751 E.6342
G1 X27.489 Y126.751 E.01923
G1 X27.489 Y114.114 E.6342
G1 X27.106 Y114.114 E.01923
G1 X27.106 Y126.751 E.6342
G1 X26.723 Y126.751 E.01923
G1 X26.723 Y114.114 E.6342
G1 X26.34 Y114.114 E.01923
G1 X26.34 Y126.906 E.64199
M106 S255
;LAYER_CHANGE
;Z:0.65
;HEIGHT:0.3
;BEFORE_LAYER_CHANGE
G92 E0
;0.65


G1 E-.7 F3600
;WIPE_START
G1 F6240
G1 X26.34 Y126.386 E-.285
;WIPE_END
G1 E-.015 F3600
G1 Z.65 F7800
;AFTER_LAYER_CHANGE
;0.65
M104 S205 ; set temperature
G1 X43.086 Y32.624
G1 E1 F2400
;TYPE:Support material interface
;WIDTH:1
G1 F3206.432
G1 X43.086 Y29.206 E.39889
G1 X43.979 Y29.125 E.1046
G1 X43.979 Y32.222 E.36144
G1 X44.871 Y32.222 E.10417
G1 X44.871 Y25.437 E.79183
G1 X45.764 Y25.437 E.10417
G1 X45.764 Y32.222 E.79183
G1 X46.657 Y32.222 E.10417
G1 X46.657 Y25.437 E.79183
G1 X47.549 Y25.437 E.10417
G1 X47.549 Y32.222 E.79183
G1 X48.442 Y32.222 E.10417
G1 X48.442 Y25.437 E.79183
G1 X49.335 Y25.437 E.10417
G1 X49.335 Y28.83 E.39592
G1 X50.228 Y28.83 E.10417
G1 X50.228 Y25.437 E.39592
G1 X51.12 Y25.437 E.10417
G1 X51.12 Y28.83 E.39592
G1 X52.013 Y28.83 E.10417
G1 X52.013 Y25.437 E.39592
