; generated by PrusaSlicer 2.5.0+win64 on 2022-12-07 at 00:31:05 UTC

; 

; external perimeters extrusion width = 1.00mm
; perimeters extrusion width = 1.00mm
; infill extrusion width = 1.00mm
; solid infill extrusion width = 1.00mm
; top infill extrusion width = 1.00mm
; support material extrusion width = 1.00mm
; first layer extrusion width = 0.42mm

M73 P0 R283
M107
;TYPE:Custom
G90 ; use absolute coordinates
M83 ; extruder relative mode
M140 S60 ; set final bed temp
M104 S150 ; set temporary nozzle temp to prevent oozing during homing and auto bed leveling
G4 S10 ; allow partial nozzle warmup
G28 ; home all axisG1 Z50 F240
G1 X7.6 Y10 F3000
M104 S210 ; set final nozzle temp
M190 S60 ; wait for bed temp to stabilize
M109 S210 ; wait for nozzle temp to stabilize
G1 Z0.28 F240
G92 E0
G1 Y140 E10 F1500 ; prime the nozzle
G1 X4 F5000
G92 E0
G1 Y10 E10 F1200 ; prime the nozzle
G92 E0
G21 ; set units to millimeters
G90 ; use absolute coordinates
M83 ; use relative distances for extrusion
; Filament gcode
M107
;LAYER_CHANGE
;Z:0.35
;HEIGHT:0.35
;BEFORE_LAYER_CHANGE
G92 E0
;0.35


G1 E-1 F3600
G1 Z.35 F7800
;AFTER_LAYER_CHANGE
;0.35
G1 X106.807 Y134.262
G1 E1 F2400
;TYPE:Support material
;WIDTH:0.42
G1 F1800
G1 X110.2 Y134.262 E.17027
G1 X110.2 Y144.127 E.49509
G1 X106.807 Y144.127 E.17027
G1 X106.807 Y150.912 E.34053
G1 X103.414 Y150.912 E.17027
G1 X103.414 Y157.698 E.34053
G1 X100.022 Y157.698 E.17027
G1 X100.022 Y164.483 E.34053
G1 X96.629 Y164.483 E.17027
G1 X96.629 Y174.661 E.5108
G1 X93.236 Y174.661 E.17027
G1 X93.236 Y178.054 E.17027
G1 X79.978 Y178.054 E.66536
G1 X79.978 Y174.661 E.17027
G1 X76.273 Y174.661 E.18597
G1 X76.273 Y178.054 E.17027
G1 X8.732 Y178.054 E3.38961
G1 X8.732 Y168.189 E.49509
G1 X76.586 Y168.189 E3.40531
G1 X76.586 Y161.403 E.34053
G1 X79.978 Y161.403 E.17027
G1 X79.978 Y158.01 E.17027
G1 X83.371 Y158.01 E.17027
G1 X83.371 Y151.225 E.34053
G1 X86.764 Y151.225 E.17027
G1 X86.764 Y144.44 E.34053
G1 X90.156 Y144.44 E.17027
G1 X90.156 Y134.262 E.5108
G1 X93.549 Y134.262 E.17027
G1 X93.549 Y127.476 E.34053
G1 X106.807 Y127.476 E.66536
G1 X106.807 Y134.21 E.33794
G1 X109.544 Y143.972 F7800
G1 F1800
G1 X109.544 Y134.572 E.47173
G1 X109.161 Y134.572 E.01923
G1 X109.161 Y143.816 E.46394
G1 X108.777 Y143.816 E.01923
G1 X108.777 Y134.572 E.46394
G1 X108.394 Y134.572 E.01923
G1 X108.394 Y143.816 E.46394
G1 X108.011 Y143.816 E.01923
G1 X108.011 Y134.572 E.46394
G1 X107.628 Y134.572 E.01923
G1 X107.628 Y143.816 E.46394
G1 X107.244 Y143.816 E.01923
G1 X107.244 Y134.572 E.46394
G1 X106.861 Y134.572 E.01923
G1 X106.861 Y143.816 E.46394
G1 X106.497 Y143.816 E.0183
G1 X106.497 Y150.602 E.34053
G1 X106.478 Y150.602 E.00094
G1 X106.478 Y127.787 E1.145
G1 X106.095 Y127.787 E.01923
G1 X106.095 Y150.602 E1.145
G1 X105.712 Y150.602 E.01923
M73 P0 R282
G1 X105.712 Y127.787 E1.145
G1 X105.328 Y127.787 E.01923
G1 X105.328 Y150.602 E1.145
G1 X104.945 Y150.602 E.01923
G1 X104.945 Y127.787 E1.145
G1 X104.562 Y127.787 E.01923
G1 X104.562 Y150.602 E1.145
G1 X104.179 Y150.602 E.01923
G1 X104.179 Y127.787 E1.145
G1 X103.796 Y127.787 E.01923
G1 X103.796 Y150.602 E1.145
G1 X103.412 Y150.602 E.01923
G1 X103.412 Y127.787 E1.145
G1 X103.029 Y127.787 E.01923
G1 X103.029 Y157.387 E1.48553
G1 X102.646 Y157.387 E.01923
G1 X102.646 Y127.787 E1.48553
G1 X102.263 Y127.787 E.01923
G1 X102.263 Y157.387 E1.48553
G1 X101.88 Y157.387 E.01923
G1 X101.88 Y127.787 E1.48553
G1 X101.496 Y127.787 E.01923
G1 X101.496 Y157.387 E1.48553
G1 X101.113 Y157.387 E.01923
G1 X101.113 Y127.787 E1.48553
G1 X100.73 Y127.787 E.01923
G1 X100.73 Y157.387 E1.48553
G1 X100.347 Y157.387 E.01923
G1 X100.347 Y127.787 E1.48553
G1 X99.963 Y127.787 E.01923
G1 X99.963 Y157.387 E1.48553
G1 X99.711 Y157.387 E.01266
G1 X99.711 Y164.173 E.34053
G1 X99.58 Y164.173 E.00658
G1 X99.58 Y127.787 E1.82606
G1 X99.197 Y127.787 E.01923
G1 X99.197 Y164.173 E1.82606
G1 X98.814 Y164.173 E.01923
G1 X98.814 Y127.787 E1.82606
G1 X98.431 Y127.787 E.01923
G1 X98.431 Y164.173 E1.82606
G1 X98.047 Y164.173 E.01923
G1 X98.047 Y127.787 E1.82606
G1 X97.664 Y127.787 E.01923
G1 X97.664 Y164.173 E1.82606
G1 X97.281 Y164.173 E.01923
G1 X97.281 Y127.787 E1.82606
G1 X96.898 Y127.787 E.01923
G1 X96.898 Y164.173 E1.82606
G1 X96.515 Y164.173 E.01923
G1 X96.515 Y127.787 E1.82606
G1 X96.131 Y127.787 E.01923
G1 X96.131 Y174.351 E2.33686
G1 X95.748 Y174.351 E.01923
G1 X95.748 Y127.787 E2.33686
G1 X95.365 Y127.787 E.01923
G1 X95.365 Y174.351 E2.33686
G1 X94.982 Y174.351 E.01923
G1 X94.982 Y127.787 E2.33686
G1 X94.599 Y127.787 E.01923
G1 X94.599 Y174.351 E2.33686
G1 X94.215 Y174.351 E.01923
G1 X94.215 Y127.787 E2.33686
G1 X93.86 Y127.787 E.01785
G1 X93.86 Y134.572 E.34053
G1 X93.832 Y134.572 E.00138
G1 X93.832 Y174.351 E1.99633
G1 X93.449 Y174.351 E.01923
G1 X93.449 Y134.572 E1.99633
G1 X93.066 Y134.572 E.01923
G1 X93.066 Y174.351 E1.99633
G1 X92.926 Y174.351 E.00702
G1 X92.926 Y177.743 E.17027
G1 X92.682 Y177.743 E.01222
G1 X92.682 Y134.572 E2.1666
G1 X92.299 Y134.572 E.01923
G1 X92.299 Y177.743 E2.1666
G1 X91.916 Y177.743 E.01923
G1 X91.916 Y134.572 E2.1666
G1 X91.533 Y134.572 E.01923
G1 X91.533 Y177.743 E2.1666
G1 X91.15 Y177.743 E.01923
G1 X91.15 Y134.572 E2.1666
G1 X90.766 Y134.572 E.01923
G1 X90.766 Y177.743 E2.1666
G1 X90.383 Y177.743 E.01923
G1 X90.383 Y144.75 E1.6558
G1 X90 Y144.75 E.01923
G1 X90 Y177.743 E1.6558
G1 X89.617 Y177.743 E.01923
G1 X89.617 Y144.75 E1.6558
G1 X89.234 Y144.75 E.01923
G1 X89.234 Y177.743 E1.6558
G1 X88.85 Y177.743 E.01923
G1 X88.85 Y144.75 E1.6558
G1 X88.467 Y144.75 E.01923
G1 X88.467 Y177.743 E1.6558
G1 X88.084 Y177.743 E.01923
G1 X88.084 Y144.75 E1.6558
G1 X87.701 Y144.75 E.01923
G1 X87.701 Y177.743 E1.6558
G1 X87.318 Y177.743 E.01923
M73 P0 R281
G1 X87.318 Y144.75 E1.6558
G1 X87.074 Y144.75 E.01221
G1 X87.074 Y151.535 E.34053
G1 X86.934 Y151.535 E.00702
G1 X86.934 Y177.743 E1.31527
G1 X86.551 Y177.743 E.01923
G1 X86.551 Y151.535 E1.31527
G1 X86.168 Y151.535 E.01923
G1 X86.168 Y177.743 E1.31527
G1 X85.785 Y177.743 E.01923
G1 X85.785 Y151.535 E1.31527
G1 X85.402 Y151.535 E.01923
G1 X85.402 Y177.743 E1.31527
G1 X85.018 Y177.743 E.01923
G1 X85.018 Y151.535 E1.31527
G1 X84.635 Y151.535 E.01923
G1 X84.635 Y177.743 E1.31527
G1 X84.252 Y177.743 E.01923
G1 X84.252 Y151.535 E1.31527
G1 X83.869 Y151.535 E.01923
G1 X83.869 Y177.743 E1.31527
G1 X83.485 Y177.743 E.01923
G1 X83.485 Y158.321 E.97474
G1 X83.102 Y158.321 E.01923
G1 X83.102 Y177.743 E.97474
G1 X82.719 Y177.743 E.01923
G1 X82.719 Y158.321 E.97474
G1 X82.336 Y158.321 E.01923
G1 X82.336 Y177.743 E.97474
G1 X81.953 Y177.743 E.01923
G1 X81.953 Y158.321 E.97474
G1 X81.569 Y158.321 E.01923
G1 X81.569 Y177.743 E.97474
G1 X81.186 Y177.743 E.01923
G1 X81.186 Y158.321 E.97474
G1 X80.803 Y158.321 E.01923
G1 X80.803 Y177.743 E.97474
G1 X80.42 Y177.743 E.01923
G1 X80.42 Y158.321 E.97474
G1 X80.289 Y158.321 E.00657
G1 X80.289 Y161.714 E.17027
G1 X80.037 Y161.714 E.01266
G1 X80.037 Y174.351 E.6342
G1 X79.653 Y174.351 E.01923
G1 X79.653 Y161.714 E.6342
G1 X79.27 Y161.714 E.01923
G1 X79.27 Y174.351 E.6342
G1 X78.887 Y174.351 E.01923
G1 X78.887 Y161.714 E.6342
G1 X78.504 Y161.714 E.01923
G1 X78.504 Y174.351 E.6342
G1 X78.121 Y174.351 E.01923
G1 X78.121 Y161.714 E.6342
G1 X77.737 Y161.714 E.01923
G1 X77.737 Y174.351 E.6342
G1 X77.354 Y174.351 E.01923
G1 X77.354 Y161.714 E.6342
G1 X76.971 Y161.714 E.01923
G1 X76.971 Y174.351 E.6342
G1 X76.588 Y174.351 E.01923
G1 X76.588 Y168.499 E.29367
G1 X76.204 Y168.499 E.01923
G1 X76.204 Y174.351 E.29367
G1 X75.962 Y174.351 E.01215
G1 X75.962 Y177.743 E.17027
G1 X75.821 Y177.743 E.00708
G1 X75.821 Y168.499 E.46394
G1 X75.438 Y168.499 E.01923
G1 X75.438 Y177.743 E.46394
G1 X75.055 Y177.743 E.01923
G1 X75.055 Y168.499 E.46394
G1 X74.672 Y168.499 E.01923
G1 X74.672 Y177.743 E.46394
G1 X74.288 Y177.743 E.01923
G1 X74.288 Y168.499 E.46394
G1 X73.905 Y168.499 E.01923
G1 X73.905 Y177.743 E.46394
G1 X73.522 Y177.743 E.01923
G1 X73.522 Y168.499 E.46394
G1 X73.139 Y168.499 E.01923
G1 X73.139 Y177.743 E.46394
G1 X72.756 Y177.743 E.01923
G1 X72.756 Y168.499 E.46394
G1 X72.372 Y168.499 E.01923
G1 X72.372 Y177.743 E.46394
G1 X71.989 Y177.743 E.01923
G1 X71.989 Y168.499 E.46394
G1 X71.606 Y168.499 E.01923
G1 X71.606 Y177.743 E.46394
G1 X71.223 Y177.743 E.01923
G1 X71.223 Y168.499 E.46394
G1 X70.84 Y168.499 E.01923
G1 X70.84 Y177.743 E.46394
G1 X70.456 Y177.743 E.01923
G1 X70.456 Y168.499 E.46394
G1 X70.073 Y168.499 E.01923
G1 X70.073 Y177.743 E.46394
G1 X69.69 Y177.743 E.01923
G1 X69.69 Y168.499 E.46394
G1 X69.307 Y168.499 E.01923
G1 X69.307 Y177.743 E.46394
G1 X68.923 Y177.743 E.01923
G1 X68.923 Y168.499 E.46394
G1 X68.54 Y168.499 E.01923
G1 X68.54 Y177.743 E.46394
G1 X68.157 Y177.743 E.01923
G1 X68.157 Y168.499 E.46394
G1 X67.774 Y168.499 E.01923
G1 X67.774 Y177.743 E.46394
G1 X67.391 Y177.743 E.01923
G1 X67.391 Y168.499 E.46394
G1 X67.007 Y168.499 E.01923
G1 X67.007 Y177.743 E.46394
G1 X66.624 Y177.743 E.01923
G1 X66.624 Y168.499 E.46394
G1 X66.241 Y168.499 E.01923
G1 X66.241 Y177.743 E.46394
G1 X65.858 Y177.743 E.01923
G1 X65.858 Y168.499 E.46394
G1 X65.475 Y168.499 E.01923
G1 X65.475 Y177.743 E.46394
G1 X65.091 Y177.743 E.01923
G1 X65.091 Y168.499 E.46394
G1 X64.708 Y168.499 E.01923
G1 X64.708 Y177.743 E.46394
G1 X64.325 Y177.743 E.01923
G1 X64.325 Y168.499 E.46394
G1 X63.942 Y168.499 E.01923
G1 X63.942 Y177.743 E.46394
G1 X63.559 Y177.743 E.01923
G1 X63.559 Y168.499 E.46394
G1 X63.175 Y168.499 E.01923
G1 X63.175 Y177.743 E.46394
G1 X62.792 Y177.743 E.01923
G1 X62.792 Y168.499 E.46394
G1 X62.409 Y168.499 E.01923
G1 X62.409 Y177.743 E.46394
G1 X62.026 Y177.743 E.01923
G1 X62.026 Y168.499 E.46394
G1 X61.642 Y168.499 E.01923
G1 X61.642 Y177.743 E.46394
G1 X61.259 Y177.743 E.01923
G1 X61.259 Y168.499 E.46394
G1 X60.876 Y168.499 E.01923
G1 X60.876 Y177.743 E.46394
G1 X60.493 Y177.743 E.01923
G1 X60.493 Y168.499 E.46394
G1 X60.11 Y168.499 E.01923
G1 X60.11 Y177.743 E.46394
G1 X59.726 Y177.743 E.01923
G1 X59.726 Y168.499 E.46394
G1 X59.343 Y168.499 E.01923
G1 X59.343 Y177.743 E.46394
G1 X58.96 Y177.743 E.01923
G1 X58.96 Y168.499 E.46394
G1 X58.577 Y168.499 E.01923
G1 X58.577 Y177.743 E.46394
G1 X58.194 Y177.743 E.01923
G1 X58.194 Y168.499 E.46394
G1 X57.81 Y168.499 E.01923
G1 X57.81 Y177.743 E.46394
G1 X57.427 Y177.743 E.01923
G1 X57.427 Y168.499 E.46394
G1 X57.044 Y168.499 E.01923
G1 X57.044 Y177.743 E.46394
G1 X56.661 Y177.743 E.01923
G1 X56.661 Y168.499 E.46394
G1 X56.278 Y168.499 E.01923
G1 X56.278 Y177.743 E.46394
G1 X55.894 Y177.743 E.01923
G1 X55.894 Y168.499 E.46394
G1 X55.511 Y168.499 E.01923
G1 X55.511 Y177.743 E.46394
G1 X55.128 Y177.743 E.01923
G1 X55.128 Y168.499 E.46394
G1 X54.745 Y168.499 E.01923
G1 X54.745 Y177.743 E.46394
G1 X54.361 Y177.743 E.01923
G1 X54.361 Y168.499 E.46394
G1 X53.978 Y168.499 E.01923
G1 X53.978 Y177.743 E.46394
G1 X53.595 Y177.743 E.01923
G1 X53.595 Y168.499 E.46394
G1 X53.212 Y168.499 E.01923
G1 X53.212 Y177.743 E.46394
G1 X52.829 Y177.743 E.01923
G1 X52.829 Y168.499 E.46394
G1 X52.445 Y168.499 E.01923
G1 X52.445 Y177.743 E.46394
G1 X52.062 Y177.743 E.01923
G1 X52.062 Y168.499 E.46394
G1 X51.679 Y168.499 E.01923
G1 X51.679 Y177.743 E.46394
G1 X51.296 Y177.743 E.01923
G1 X51.296 Y168.499 E.46394
G1 X50.913 Y168.499 E.01923
G1 X50.913 Y177.743 E.46394
G1 X50.529 Y177.743 E.01923
G1 X50.529 Y168.499 E.46394
G1 X50.146 Y168.499 E.01923
G1 X50.146 Y177.743 E.46394
G1 X49.763 Y177.743 E.01923
G1 X49.763 Y168.499 E.46394
G1 X49.38 Y168.499 E.01923
G1 X49.38 Y177.743 E.46394
G1 X48.997 Y177.743 E.01923
G1 X48.997 Y168.499 E.46394
G1 X48.613 Y168.499 E.01923
G1 X48.613 Y177.743 E.46394
G1 X48.23 Y177.743 E.01923
G1 X48.23 Y168.499 E.46394
G1 X47.847 Y168.499 E.01923
G1 X47.847 Y177.743 E.46394
G1 X47.464 Y177.743 E.01923
G1 X47.464 Y168.499 E.46394
G1 X47.081 Y168.499 E.01923
G1 X47.081 Y177.743 E.46394
G1 X46.697 Y177.743 E.01923
G1 X46.697 Y168.499 E.46394
G1 X46.314 Y168.499 E.01923
G1 X46.314 Y177.743 E.46394
G1 X45.931 Y177.743 E.01923
G1 X45.931 Y168.499 E.46394
G1 X45.548 Y168.499 E.01923
G1 X45.548 Y177.743 E.46394
G1 X45.164 Y177.743 E.01923
G1 X45.164 Y168.499 E.46394
G1 X44.781 Y168.499 E.01923
G1 X44.781 Y177.743 E.46394
G1 X44.398 Y177.743 E.01923
G1 X44.398 Y168.499 E.46394
G1 X44.015 Y168.499 E.01923
G1 X44.015 Y177.743 E.46394
G1 X43.632 Y177.743 E.01923
G1 X43.632 Y168.499 E.46394
G1 X43.248 Y168.499 E.01923
G1 X43.248 Y177.743 E.46394
G1 X42.865 Y177.743 E.01923
G1 X42.865 Y168.499 E.46394
G1 X42.482 Y168.499 E.01923
G1 X42.482 Y177.743 E.46394
G1 X42.099 Y177.743 E.01923
G1 X42.099 Y168.499 E.46394
G1 X41.716 Y168.499 E.01923
G1 X41.716 Y177.743 E.46394
G1 X41.332 Y177.743 E.01923
G1 X41.332 Y168.499 E.46394
G1 X40.949 Y168.499 E.01923
G1 X40.949 Y177.743 E.46394
G1 X40.566 Y177.743 E.01923
G1 X40.566 Y168.499 E.46394
G1 X40.183 Y168.499 E.01923
G1 X40.183 Y177.743 E.46394
G1 X39.8 Y177.743 E.01923
G1 X39.8 Y168.499 E.46394
G1 X39.416 Y168.499 E.01923
G1 X39.416 Y177.743 E.46394
G1 X39.033 Y177.743 E.01923
G1 X39.033 Y168.499 E.46394
G1 X38.65 Y168.499 E.01923
G1 X38.65 Y177.743 E.46394
G1 X38.267 Y177.743 E.01923
G1 X38.267 Y168.499 E.46394
G1 X37.883 Y168.499 E.01923
G1 X37.883 Y177.743 E.46394
G1 X37.5 Y177.743 E.01923
G1 X37.5 Y168.499 E.46394
G1 X37.117 Y168.499 E.01923
G1 X37.117 Y177.743 E.46394
G1 X36.734 Y177.743 E.01923
G1 X36.734 Y168.499 E.46394
G1 X36.351 Y168.499 E.01923
G1 X36.351 Y177.743 E.46394
M73 P0 R280
G1 X35.967 Y177.743 E.01923
G1 X35.967 Y168.499 E.46394
G1 X35.584 Y168.499 E.01923
G1 X35.584 Y177.743 E.46394
G1 X35.201 Y177.743 E.01923
G1 X35.201 Y168.499 E.46394
G1 X34.818 Y168.499 E.01923
G1 X34.818 Y177.743 E.46394
G1 X34.435 Y177.743 E.01923
G1 X34.435 Y168.499 E.46394
G1 X34.051 Y168.499 E.01923
G1 X34.051 Y177.743 E.46394
G1 X33.668 Y177.743 E.01923
G1 X33.668 Y168.499 E.46394
G1 X33.285 Y168.499 E.01923
G1 X33.285 Y177.743 E.46394
G1 X32.902 Y177.743 E.01923
G1 X32.902 Y168.499 E.46394
G1 X32.519 Y168.499 E.01923
G1 X32.519 Y177.743 E.46394
G1 X32.135 Y177.743 E.01923
G1 X32.135 Y168.499 E.46394
G1 X31.752 Y168.499 E.01923
G1 X31.752 Y177.743 E.46394
G1 X31.369 Y177.743 E.01923
G1 X31.369 Y168.499 E.46394
G1 X30.986 Y168.499 E.01923
G1 X30.986 Y177.743 E.46394
G1 X30.602 Y177.743 E.01923
G1 X30.602 Y168.499 E.46394
G1 X30.219 Y168.499 E.01923
G1 X30.219 Y177.743 E.46394
G1 X29.836 Y177.743 E.01923
G1 X29.836 Y168.499 E.46394
G1 X29.453 Y168.499 E.01923
G1 X29.453 Y177.743 E.46394
G1 X29.07 Y177.743 E.01923
G1 X29.07 Y168.499 E.46394
G1 X28.686 Y168.499 E.01923
G1 X28.686 Y177.743 E.46394
G1 X28.303 Y177.743 E.01923
G1 X28.303 Y168.499 E.46394
G1 X27.92 Y168.499 E.01923
G1 X27.92 Y177.743 E.46394
G1 X27.537 Y177.743 E.01923
G1 X27.537 Y168.499 E.46394
G1 X27.154 Y168.499 E.01923
G1 X27.154 Y177.743 E.46394
G1 X26.77 Y177.743 E.01923
G1 X26.77 Y168.499 E.46394
G1 X26.387 Y168.499 E.01923
G1 X26.387 Y177.743 E.46394
G1 X26.004 Y177.743 E.01923
G1 X26.004 Y168.499 E.46394
G1 X25.621 Y168.499 E.01923
G1 X25.621 Y177.743 E.46394
G1 X25.238 Y177.743 E.01923
G1 X25.238 Y168.499 E.46394
G1 X24.854 Y168.499 E.01923
G1 X24.854 Y177.743 E.46394
G1 X24.471 Y177.743 E.01923
G1 X24.471 Y168.499 E.46394
G1 X24.088 Y168.499 E.01923
G1 X24.088 Y177.743 E.46394
G1 X23.705 Y177.743 E.01923
G1 X23.705 Y168.499 E.46394
G1 X23.321 Y168.499 E.01923
G1 X23.321 Y177.743 E.46394
G1 X22.938 Y177.743 E.01923
G1 X22.938 Y168.499 E.46394
G1 X22.555 Y168.499 E.01923
G1 X22.555 Y177.743 E.46394
G1 X22.172 Y177.743 E.01923
G1 X22.172 Y168.499 E.46394
G1 X21.789 Y168.499 E.01923
G1 X21.789 Y177.743 E.46394
G1 X21.405 Y177.743 E.01923
G1 X21.405 Y168.499 E.46394
G1 X21.022 Y168.499 E.01923
G1 X21.022 Y177.743 E.46394
G1 X20.639 Y177.743 E.01923
G1 X20.639 Y168.499 E.46394
G1 X20.256 Y168.499 E.01923
G1 X20.256 Y177.743 E.46394
G1 X19.873 Y177.743 E.01923
G1 X19.873 Y168.499 E.46394
G1 X19.489 Y168.499 E.01923
G1 X19.489 Y177.743 E.46394
G1 X19.106 Y177.743 E.01923
G1 X19.106 Y168.499 E.46394
G1 X18.723 Y168.499 E.01923
G1 X18.723 Y177.743 E.46394
G1 X18.34 Y177.743 E.01923
G1 X18.34 Y168.499 E.46394
G1 X17.957 Y168.499 E.01923
G1 X17.957 Y177.743 E.46394
