; generated by PrusaSlicer 2.5.0+win64 on 2022-12-07 at 00:31:20 UTC

; 

; external perimeters extrusion width = 1.00mm
; perimeters extrusion width = 1.00mm
; infill extrusion width = 1.00mm
; solid infill extrusion width = 1.00mm
; top infill extrusion width = 1.00mm
; support material extrusion width = 1.00mm
; first layer extrusion width = 0.42mm

M73 P0 R548
M107
;TYPE:Custom
G90 ; use absolute coordinates
M83 ; extruder relative mode
M140 S60 ; set final bed temp
M104 S150 ; set temporary nozzle temp to prevent oozing during homing and auto bed leveling
G4 S10 ; allow partial nozzle warmup
G28 ; home all axisG1 Z50 F240
G1 X7.6 Y10 F3000
M104 S210 ; set final nozzle temp
M190 S60 ; wait for bed temp to stabilize
M109 S210 ; wait for nozzle temp to stabilize
G1 Z0.28 F240
G92 E0
G1 Y140 E10 F1500 ; prime the nozzle
G1 X4 F5000
G92 E0
G1 Y10 E10 F1200 ; prime the nozzle
G92 E0
G21 ; set units to millimeters
G90 ; use absolute coordinates
M83 ; use relative distances for extrusion
; Filament gcode
M107
;LAYER_CHANGE
;Z:0.35
;HEIGHT:0.35
;BEFORE_LAYER_CHANGE
G92 E0
;0.35


G1 E-1 F3600
G1 Z.35 F7800
;AFTER_LAYER_CHANGE
;0.35
G1 X76.273 Y11.811
G1 E1 F2400
;TYPE:Support material
;WIDTH:0.42
G1 F1800
G1 X59.309 Y11.811 E.85133
G1 X59.309 Y18.597 E.34053
G1 X55.917 Y18.597 E.17027
G1 X55.917 Y21.99 E.17027
G1 X52.524 Y21.99 E.17027
G1 X52.524 Y28.775 E.34053
G1 X49.131 Y28.775 E.17027
G1 X49.131 Y32.168 E.17027
G1 X45.738 Y32.168 E.17027
G1 X45.738 Y37.74 E.27965
G1 X13.633 Y40.678 E1.61797
G1 X13.262 Y41.085 E.02763
G1 X13.262 Y72.88 E1.59567
G1 X8.732 Y72.88 E.22736
G1 X8.732 Y1.946 E3.55988
G1 X76.273 Y1.946 E3.38961
G1 X76.273 Y11.76 E.4925
G1 X75.821 Y11.656 F7800
G1 F1800
G1 X75.821 Y2.257 E.47173
G1 X75.438 Y2.257 E.01923
G1 X75.438 Y11.501 E.46394
G1 X75.055 Y11.501 E.01923
G1 X75.055 Y2.257 E.46394
G1 X74.672 Y2.257 E.01923
G1 X74.672 Y11.501 E.46394
G1 X74.288 Y11.501 E.01923
G1 X74.288 Y2.257 E.46394
G1 X73.905 Y2.257 E.01923
G1 X73.905 Y11.501 E.46394
G1 X73.522 Y11.501 E.01923
G1 X73.522 Y2.257 E.46394
G1 X73.139 Y2.257 E.01923
G1 X73.139 Y11.501 E.46394
G1 X72.756 Y11.501 E.01923
G1 X72.756 Y2.257 E.46394
G1 X72.372 Y2.257 E.01923
G1 X72.372 Y11.501 E.46394
G1 X71.989 Y11.501 E.01923
G1 X71.989 Y2.257 E.46394
G1 X71.606 Y2.257 E.01923
G1 X71.606 Y11.501 E.46394
G1 X71.223 Y11.501 E.01923
G1 X71.223 Y2.257 E.46394
G1 X70.84 Y2.257 E.01923
G1 X70.84 Y11.501 E.46394
G1 X70.456 Y11.501 E.01923
G1 X70.456 Y2.257 E.46394
G1 X70.073 Y2.257 E.01923
G1 X70.073 Y11.501 E.46394
G1 X69.69 Y11.501 E.01923
G1 X69.69 Y2.257 E.46394
G1 X69.307 Y2.257 E.01923
G1 X69.307 Y11.501 E.46394
G1 X68.923 Y11.501 E.01923
G1 X68.923 Y2.257 E.46394
G1 X68.54 Y2.257 E.01923
G1 X68.54 Y11.501 E.46394
G1 X68.157 Y11.501 E.01923
G1 X68.157 Y2.257 E.46394
G1 X67.774 Y2.257 E.01923
G1 X67.774 Y11.501 E.46394
G1 X67.391 Y11.501 E.01923
G1 X67.391 Y2.257 E.46394
G1 X67.007 Y2.257 E.01923
G1 X67.007 Y11.501 E.46394
G1 X66.624 Y11.501 E.01923
G1 X66.624 Y2.257 E.46394
G1 X66.241 Y2.257 E.01923
G1 X66.241 Y11.501 E.46394
G1 X65.858 Y11.501 E.01923
G1 X65.858 Y2.257 E.46394
G1 X65.475 Y2.257 E.01923
G1 X65.475 Y11.501 E.46394
G1 X65.091 Y11.501 E.01923
G1 X65.091 Y2.257 E.46394
G1 X64.708 Y2.257 E.01923
G1 X64.708 Y11.501 E.46394
G1 X64.325 Y11.501 E.01923
G1 X64.325 Y2.257 E.46394
G1 X63.942 Y2.257 E.01923
G1 X63.942 Y11.501 E.46394
G1 X63.559 Y11.501 E.01923
G1 X63.559 Y2.257 E.46394
G1 X63.175 Y2.257 E.01923
G1 X63.175 Y11.501 E.46394
M73 P0 R547
G1 X62.792 Y11.501 E.01923
G1 X62.792 Y2.257 E.46394
G1 X62.409 Y2.257 E.01923
G1 X62.409 Y11.501 E.46394
G1 X62.026 Y11.501 E.01923
G1 X62.026 Y2.257 E.46394
G1 X61.642 Y2.257 E.01923
G1 X61.642 Y11.501 E.46394
G1 X61.259 Y11.501 E.01923
G1 X61.259 Y2.257 E.46394
G1 X60.876 Y2.257 E.01923
G1 X60.876 Y11.501 E.46394
G1 X60.493 Y11.501 E.01923
G1 X60.493 Y2.257 E.46394
G1 X60.11 Y2.257 E.01923
G1 X60.11 Y11.501 E.46394
G1 X59.726 Y11.501 E.01923
G1 X59.726 Y2.257 E.46394
G1 X59.343 Y2.257 E.01923
G1 X59.343 Y11.501 E.46394
G1 X58.999 Y11.501 E.01728
G1 X58.999 Y18.286 E.34053
G1 X58.96 Y18.286 E.00195
G1 X58.96 Y2.257 E.80447
G1 X58.577 Y2.257 E.01923
G1 X58.577 Y18.286 E.80447
G1 X58.194 Y18.286 E.01923
G1 X58.194 Y2.257 E.80447
G1 X57.81 Y2.257 E.01923
G1 X57.81 Y18.286 E.80447
G1 X57.427 Y18.286 E.01923
G1 X57.427 Y2.257 E.80447
G1 X57.044 Y2.257 E.01923
G1 X57.044 Y18.286 E.80447
G1 X56.661 Y18.286 E.01923
G1 X56.661 Y2.257 E.80447
G1 X56.278 Y2.257 E.01923
G1 X56.278 Y18.286 E.80447
G1 X55.894 Y18.286 E.01923
G1 X55.894 Y2.257 E.80447
G1 X55.511 Y2.257 E.01923
G1 X55.511 Y21.679 E.97474
G1 X55.128 Y21.679 E.01923
G1 X55.128 Y2.257 E.97474
G1 X54.745 Y2.257 E.01923
G1 X54.745 Y21.679 E.97474
G1 X54.361 Y21.679 E.01923
G1 X54.361 Y2.257 E.97474
G1 X53.978 Y2.257 E.01923
G1 X53.978 Y21.679 E.97474
G1 X53.595 Y21.679 E.01923
G1 X53.595 Y2.257 E.97474
G1 X53.212 Y2.257 E.01923
G1 X53.212 Y21.679 E.97474
G1 X52.829 Y21.679 E.01923
G1 X52.829 Y2.257 E.97474
G1 X52.445 Y2.257 E.01923
G1 X52.445 Y21.679 E.97474
G1 X52.213 Y21.679 E.01164
G1 X52.213 Y28.465 E.34053
G1 X52.062 Y28.465 E.00759
G1 X52.062 Y2.257 E1.31527
G1 X51.679 Y2.257 E.01923
G1 X51.679 Y28.465 E1.31527
G1 X51.296 Y28.465 E.01923
G1 X51.296 Y2.257 E1.31527
G1 X50.913 Y2.257 E.01923
G1 X50.913 Y28.465 E1.31527
G1 X50.529 Y28.465 E.01923
G1 X50.529 Y2.257 E1.31527
G1 X50.146 Y2.257 E.01923
G1 X50.146 Y28.465 E1.31527
G1 X49.763 Y28.465 E.01923
G1 X49.763 Y2.257 E1.31527
G1 X49.38 Y2.257 E.01923
G1 X49.38 Y28.465 E1.31527
G1 X48.997 Y28.465 E.01923
G1 X48.997 Y2.257 E1.31527
G1 X48.613 Y2.257 E.01923
G1 X48.613 Y31.857 E1.48553
G1 X48.23 Y31.857 E.01923
G1 X48.23 Y2.257 E1.48553
G1 X47.847 Y2.257 E.01923
G1 X47.847 Y31.857 E1.48553
G1 X47.464 Y31.857 E.01923
G1 X47.464 Y2.257 E1.48553
G1 X47.08 Y2.257 E.01923
G1 X47.08 Y31.857 E1.48553
G1 X46.697 Y31.857 E.01923
G1 X46.697 Y2.257 E1.48553
G1 X46.314 Y2.257 E.01923
G1 X46.314 Y31.857 E1.48553
G1 X45.931 Y31.857 E.01923
G1 X45.931 Y2.257 E1.48553
G1 X45.548 Y2.257 E.01923
G1 X45.548 Y31.857 E1.48553
G1 X45.428 Y31.857 E.006
G1 X45.428 Y37.457 E.281
G1 X45.164 Y37.481 E.01329
G1 X45.164 Y2.257 E1.76775
G1 X44.781 Y2.257 E.01923
G1 X44.781 Y37.516 E1.76951
G1 X44.398 Y37.551 E.01931
G1 X44.398 Y2.257 E1.77126
G1 X44.015 Y2.257 E.01923
G1 X44.015 Y37.586 E1.77302
G1 X43.632 Y37.621 E.01931
G1 X43.632 Y2.257 E1.77478
G1 X43.248 Y2.257 E.01923
G1 X43.248 Y37.656 E1.77654
G1 X42.865 Y37.691 E.01931
G1 X42.865 Y2.257 E1.7783
G1 X42.482 Y2.257 E.01923
G1 X42.482 Y37.726 E1.78005
G1 X42.099 Y37.761 E.01931
G1 X42.099 Y2.257 E1.78181
G1 X41.716 Y2.257 E.01923
G1 X41.716 Y37.796 E1.78357
G1 X41.332 Y37.831 E.01931
G1 X41.332 Y2.257 E1.78533
G1 X40.949 Y2.257 E.01923
G1 X40.949 Y37.866 E1.78709
G1 X40.566 Y37.901 E.01931
G1 X40.566 Y2.257 E1.78885
G1 X40.183 Y2.257 E.01923
G1 X40.183 Y37.936 E1.7906
G1 X39.799 Y37.971 E.01931
G1 X39.799 Y2.257 E1.79236
G1 X39.416 Y2.257 E.01923
G1 X39.416 Y38.006 E1.79412
G1 X39.033 Y38.041 E.01931
G1 X39.033 Y2.257 E1.79588
G1 X38.65 Y2.257 E.01923
G1 X38.65 Y38.076 E1.79764
G1 X38.267 Y38.111 E.01931
G1 X38.267 Y2.257 E1.7994
G1 X37.883 Y2.257 E.01923
G1 X37.883 Y38.146 E1.80116
G1 X37.5 Y38.181 E.01931
G1 X37.5 Y2.257 E1.80291
G1 X37.117 Y2.257 E.01923
M73 P0 R546
G1 X37.117 Y38.216 E1.80467
G1 X36.734 Y38.251 E.01931
G1 X36.734 Y2.257 E1.80643
G1 X36.351 Y2.257 E.01923
G1 X36.351 Y38.287 E1.80819
G1 X35.967 Y38.322 E.01931
G1 X35.967 Y2.257 E1.80995
G1 X35.584 Y2.257 E.01923
G1 X35.584 Y38.357 E1.81171
G1 X35.201 Y38.392 E.01931
G1 X35.201 Y2.257 E1.81347
G1 X34.818 Y2.257 E.01923
G1 X34.818 Y38.427 E1.81523
G1 X34.435 Y38.462 E.01931
G1 X34.435 Y2.257 E1.81699
G1 X34.051 Y2.257 E.01923
G1 X34.051 Y38.497 E1.81874
G1 X33.668 Y38.532 E.01931
G1 X33.668 Y2.257 E1.8205
G1 X33.285 Y2.257 E.01923
G1 X33.285 Y38.567 E1.82226
G1 X32.902 Y38.602 E.01931
G1 X32.902 Y2.257 E1.82402
G1 X32.519 Y2.257 E.01923
G1 X32.518 Y38.637 E1.82578
G1 X32.135 Y38.672 E.01931
G1 X32.135 Y2.257 E1.82753
G1 X31.752 Y2.257 E.01923
G1 X31.752 Y38.707 E1.82929
G1 X31.369 Y38.742 E.01931
G1 X31.369 Y2.257 E1.83105
G1 X30.986 Y2.257 E.01923
G1 X30.986 Y38.777 E1.83281
G1 X30.602 Y38.812 E.01931
G1 X30.602 Y2.257 E1.83456
G1 X30.219 Y2.257 E.01923
G1 X30.219 Y38.847 E1.83632
G1 X29.836 Y38.882 E.01931
G1 X29.836 Y2.257 E1.83809
G1 X29.453 Y2.257 E.01923
G1 X29.453 Y38.917 E1.83985
G1 X29.07 Y38.953 E.01931
G1 X29.07 Y2.257 E1.84162
G1 X28.686 Y2.257 E.01923
G1 X28.686 Y38.988 E1.84338
G1 X28.303 Y39.023 E.01931
G1 X28.303 Y2.257 E1.84515
G1 X27.92 Y2.257 E.01923
G1 X27.92 Y39.058 E1.84691
G1 X27.537 Y39.093 E.01931
G1 X27.537 Y2.257 E1.84867
G1 X27.154 Y2.257 E.01923
G1 X27.154 Y39.128 E1.85044
G1 X26.77 Y39.164 E.01931
G1 X26.77 Y2.257 E1.8522
G1 X26.387 Y2.257 E.01923
G1 X26.387 Y39.199 E1.85397
G1 X26.004 Y39.234 E.01931
G1 X26.004 Y2.257 E1.85573
G1 X25.621 Y2.257 E.01923
G1 X25.621 Y39.269 E1.8575
G1 X25.238 Y39.304 E.01931
G1 X25.238 Y2.257 E1.85926
G1 X24.854 Y2.257 E.01923
G1 X24.854 Y39.339 E1.86102
G1 X24.471 Y39.374 E.01931
G1 X24.471 Y2.257 E1.86279
G1 X24.088 Y2.257 E.01923
G1 X24.088 Y39.41 E1.86455
G1 X23.705 Y39.445 E.01931
G1 X23.705 Y2.257 E1.86631
G1 X23.321 Y2.257 E.01923
G1 X23.321 Y39.48 E1.86807
G1 X22.938 Y39.515 E.01931
G1 X22.938 Y2.257 E1.86983
G1 X22.555 Y2.257 E.01923
G1 X22.555 Y39.55 E1.87159
G1 X22.172 Y39.585 E.01931
G1 X22.172 Y2.257 E1.87335
G1 X21.789 Y2.257 E.01923
G1 X21.789 Y39.62 E1.87511
G1 X21.405 Y39.655 E.01931
G1 X21.405 Y2.257 E1.87687
G1 X21.022 Y2.257 E.01923
G1 X21.022 Y39.69 E1.87863
G1 X20.639 Y39.725 E.01931
G1 X20.639 Y2.257 E1.88039
G1 X20.256 Y2.257 E.01923
G1 X20.256 Y39.76 E1.88215
G1 X19.873 Y39.795 E.01931
G1 X19.873 Y2.257 E1.88391
G1 X19.489 Y2.257 E.01923
M73 P0 R545
G1 X19.489 Y39.83 E1.88568
G1 X19.106 Y39.866 E.01931
G1 X19.106 Y2.257 E1.88744
G1 X18.723 Y2.257 E.01923
G1 X18.723 Y39.901 E1.8892
G1 X18.34 Y39.936 E.01931
G1 X18.34 Y2.257 E1.89096
G1 X17.957 Y2.257 E.01923
G1 X17.957 Y39.971 E1.89272
G1 X17.573 Y40.006 E.01931
G1 X17.573 Y2.257 E1.89448
G1 X17.19 Y2.257 E.01923
G1 X17.19 Y40.041 E1.89624
G1 X16.807 Y40.076 E.01931
G1 X16.807 Y2.257 E1.898
G1 X16.424 Y2.257 E.01923
G1 X16.424 Y40.111 E1.89976
G1 X16.04 Y40.146 E.01931
G1 X16.04 Y2.257 E1.90152
G1 X15.657 Y2.257 E.01923
G1 X15.657 Y40.181 E1.90328
G1 X15.274 Y40.216 E.01931
G1 X15.274 Y2.257 E1.90504
G1 X14.891 Y2.257 E.01923
G1 X14.891 Y40.251 E1.9068
G1 X14.508 Y40.286 E.01931
G1 X14.508 Y2.257 E1.90856
G1 X14.124 Y2.257 E.01923
G1 X14.124 Y40.322 E1.91032
G1 X13.741 Y40.357 E.01931
G1 X13.741 Y2.257 E1.91208
G1 X13.358 Y2.257 E.01923
G1 X13.358 Y40.519 E1.92024
G1 X12.975 Y40.939 E.02853
G1 X12.975 Y2.257 E1.94132
G1 X12.592 Y2.257 E.01923
G1 X12.592 Y72.57 E3.52872
G1 X12.208 Y72.57 E.01923
G1 X12.208 Y2.257 E3.52872
G1 X11.825 Y2.257 E.01923
G1 X11.825 Y72.57 E3.52872
G1 X11.442 Y72.57 E.01923
G1 X11.442 Y2.257 E3.52872
G1 X11.059 Y2.257 E.01923
G1 X11.059 Y72.57 E3.52872
G1 X10.676 Y72.57 E.01923
G1 X10.676 Y2.257 E3.52872
G1 X10.292 Y2.257 E.01923
G1 X10.292 Y72.57 E3.52872
G1 X9.909 Y72.57 E.01923
G1 X9.909 Y2.257 E3.52872
G1 X9.526 Y2.257 E.01923
G1 X9.526 Y72.57 E3.52872
G1 X9.143 Y72.57 E.01923
G1 X9.143 Y2.101 E3.53651
G1 E-.7 F3600
;WIPE_START
G1 F6240
G1 X9.143 Y2.621 E-.285
;WIPE_END
G1 E-.015 F3600
G1 X18.597 Y100.022 F7800
G1 E1 F2400
G1 F1800
G1 X8.732 Y100.022 E.49509
G1 X8.732 Y76.586 E1.17616
G1 X18.597 Y76.586 E.49509
G1 X18.597 Y99.97 E1.17356
G1 X17.957 Y99.866 F7800
G1 F1800
G1 X17.957 Y76.896 E1.15279
G1 X17.573 Y76.896 E.01923
G1 X17.573 Y99.711 E1.145
G1 X17.19 Y99.711 E.01923
G1 X17.19 Y76.896 E1.145
G1 X16.807 Y76.896 E.01923
G1 X16.807 Y99.711 E1.145
G1 X16.424 Y99.711 E.01923
G1 X16.424 Y76.896 E1.145
G1 X16.04 Y76.896 E.01923
G1 X16.04 Y99.711 E1.145
G1 X15.657 Y99.711 E.01923
G1 X15.657 Y76.896 E1.145
G1 X15.274 Y76.896 E.01923
G1 X15.274 Y99.711 E1.145
G1 X14.891 Y99.711 E.01923
G1 X14.891 Y76.896 E1.145
G1 X14.508 Y76.896 E.01923
G1 X14.508 Y99.711 E1.145
G1 X14.124 Y99.711 E.01923
G1 X14.124 Y76.896 E1.145
G1 X13.741 Y76.896 E.01923
M73 P0 R544
G1 X13.741 Y99.711 E1.145
G1 X13.358 Y99.711 E.01923
G1 X13.358 Y76.896 E1.145
G1 X12.975 Y76.896 E.01923
G1 X12.975 Y99.711 E1.145
G1 X12.592 Y99.711 E.01923
G1 X12.592 Y76.896 E1.145
G1 X12.208 Y76.896 E.01923
G1 X12.208 Y99.711 E1.145
G1 X11.825 Y99.711 E.01923
G1 X11.825 Y76.896 E1.145
G1 X11.442 Y76.896 E.01923
G1 X11.442 Y99.711 E1.145
G1 X11.059 Y99.711 E.01923
G1 X11.059 Y76.896 E1.145
G1 X10.676 Y76.896 E.01923
G1 X10.676 Y99.711 E1.145
G1 X10.292 Y99.711 E.01923
G1 X10.292 Y76.896 E1.145
G1 X9.909 Y76.896 E.01923
G1 X9.909 Y99.711 E1.145
G1 X9.526 Y99.711 E.01923
G1 X9.526 Y76.896 E1.145
G1 X9.143 Y76.896 E.01923
G1 X9.143 Y99.866 E1.15279
G1 E-.7 F3600
;WIPE_START
G1 F6240
G1 X9.143 Y99.346 E-.285
;WIPE_END
G1 E-.015 F3600
G1 X38.953 Y178.054 F7800
G1 E1 F2400
G1 F1800
G1 X15.517 Y178.054 E1.17616
G1 X15.517 Y168.189 E.49509
G1 X38.953 Y168.189 E1.17616
G1 X38.953 Y178.002 E.4925
G1 X38.267 Y177.899 F7800
G1 F1800
G1 X38.267 Y168.499 E.47173
G1 X37.883 Y168.499 E.01923
G1 X37.883 Y177.743 E.46394
G1 X37.5 Y177.743 E.01923
G1 X37.5 Y168.499 E.46394
G1 X37.117 Y168.499 E.01923
G1 X37.117 Y177.743 E.46394
G1 X36.734 Y177.743 E.01923
G1 X36.734 Y168.499 E.46394
G1 X36.351 Y168.499 E.01923
G1 X36.351 Y177.743 E.46394
G1 X35.967 Y177.743 E.01923
G1 X35.967 Y168.499 E.46394
G1 X35.584 Y168.499 E.01923
G1 X35.584 Y177.743 E.46394
G1 X35.201 Y177.743 E.01923
G1 X35.201 Y168.499 E.46394
G1 X34.818 Y168.499 E.01923
G1 X34.818 Y177.743 E.46394
G1 X34.435 Y177.743 E.01923
G1 X34.435 Y168.499 E.46394
G1 X34.051 Y168.499 E.01923
G1 X34.051 Y177.743 E.46394
G1 X33.668 Y177.743 E.01923
G1 X33.668 Y168.499 E.46394
G1 X33.285 Y168.499 E.01923
G1 X33.285 Y177.743 E.46394
G1 X32.902 Y177.743 E.01923
G1 X32.902 Y168.499 E.46394
G1 X32.518 Y168.499 E.01923
G1 X32.518 Y177.743 E.46394
G1 X32.135 Y177.743 E.01923
G1 X32.135 Y168.499 E.46394
G1 X31.752 Y168.499 E.01923
G1 X31.752 Y177.743 E.46394
G1 X31.369 Y177.743 E.01923
G1 X31.369 Y168.499 E.46394
G1 X30.986 Y168.499 E.01923
G1 X30.986 Y177.743 E.46394
G1 X30.602 Y177.743 E.01923
G1 X30.602 Y168.499 E.46394
G1 X30.219 Y168.499 E.01923
G1 X30.219 Y177.743 E.46394
G1 X29.836 Y177.743 E.01923
G1 X29.836 Y168.499 E.46394
G1 X29.453 Y168.499 E.01923
G1 X29.453 Y177.743 E.46394
G1 X29.07 Y177.743 E.01923
G1 X29.07 Y168.499 E.46394
G1 X28.686 Y168.499 E.01923
G1 X28.686 Y177.743 E.46394
G1 X28.303 Y177.743 E.01923
G1 X28.303 Y168.499 E.46394
G1 X27.92 Y168.499 E.01923
G1 X27.92 Y177.743 E.46394
G1 X27.537 Y177.743 E.01923
G1 X27.537 Y168.499 E.46394
G1 X27.154 Y168.499 E.01923
G1 X27.154 Y177.743 E.46394
G1 X26.77 Y177.743 E.01923
G1 X26.77 Y168.499 E.46394
G1 X26.387 Y168.499 E.01923
G1 X26.387 Y177.743 E.46394
G1 X26.004 Y177.743 E.01923
G1 X26.004 Y168.499 E.46394
G1 X25.621 Y168.499 E.01923
G1 X25.621 Y177.743 E.46394
G1 X25.237 Y177.743 E.01923
G1 X25.237 Y168.499 E.46394
G1 X24.854 Y168.499 E.01923
G1 X24.854 Y177.743 E.46394
G1 X24.471 Y177.743 E.01923
G1 X24.471 Y168.499 E.46394
G1 X24.088 Y168.499 E.01923
G1 X24.088 Y177.743 E.46394
G1 X23.705 Y177.743 E.01923
G1 X23.705 Y168.499 E.46394
G1 X23.321 Y168.499 E.01923
G1 X23.321 Y177.743 E.46394
G1 X22.938 Y177.743 E.01923
G1 X22.938 Y168.499 E.46394
G1 X22.555 Y168.499 E.01923
G1 X22.555 Y177.743 E.46394
G1 X22.172 Y177.743 E.01923
G1 X22.172 Y168.499 E.46394
G1 X21.789 Y168.499 E.01923
G1 X21.789 Y177.743 E.46394
G1 X21.405 Y177.743 E.01923
G1 X21.405 Y168.499 E.46394
G1 X21.022 Y168.499 E.01923
G1 X21.022 Y177.743 E.46394
G1 X20.639 Y177.743 E.01923
G1 X20.639 Y168.499 E.46394
G1 X20.256 Y168.499 E.01923
G1 X20.256 Y177.743 E.46394
G1 X19.873 Y177.743 E.01923
G1 X19.873 Y168.499 E.46394
G1 X19.489 Y168.499 E.01923
G1 X19.489 Y177.743 E.46394
G1 X19.106 Y177.743 E.01923
G1 X19.106 Y168.499 E.46394
G1 X18.723 Y168.499 E.01923
G1 X18.723 Y177.743 E.46394
G1 X18.34 Y177.743 E.01923
G1 X18.34 Y168.499 E.46394
G1 X17.957 Y168.499 E.01923
G1 X17.957 Y177.743 E.46394
