; generated by PrusaSlicer 2.5.0+win64 on 2022-12-07 at 00:31:52 UTC

; 

; external perimeters extrusion width = 1.00mm
; perimeters extrusion width = 1.00mm
; infill extrusion width = 1.00mm
; solid infill extrusion width = 1.00mm
; top infill extrusion width = 1.00mm
; support material extrusion width = 1.00mm
; first layer extrusion width = 0.42mm

M73 P0 R210
M107
;TYPE:Custom
G90 ; use absolute coordinates
M83 ; extruder relative mode
M140 S60 ; set final bed temp
M104 S150 ; set temporary nozzle temp to prevent oozing during homing and auto bed leveling
G4 S10 ; allow partial nozzle warmup
G28 ; home all axisG1 Z50 F240
G1 X7.6 Y10 F3000
M104 S210 ; set final nozzle temp
M190 S60 ; wait for bed temp to stabilize
M109 S210 ; wait for nozzle temp to stabilize
G1 Z0.28 F240
G92 E0
G1 Y140 E10 F1500 ; prime the nozzle
G1 X4 F5000
G92 E0
G1 Y10 E10 F1200 ; prime the nozzle
G92 E0
G21 ; set units to millimeters
G90 ; use absolute coordinates
M83 ; use relative distances for extrusion
; Filament gcode
M107
;LAYER_CHANGE
;Z:0.35
;HEIGHT:0.35
;BEFORE_LAYER_CHANGE
G92 E0
;0.35


G1 E-1 F3600
G1 Z.35 F7800
;AFTER_LAYER_CHANGE
;0.35
G1 X38.725 Y116.984
G1 E1 F2400
;TYPE:Support material
;WIDTH:0.42
G1 F1800
G1 X28.86 Y116.984 E.49509
G1 X28.86 Y59.621 E2.87881
G1 X38.725 Y59.621 E.49509
G1 X38.725 Y116.932 E2.87622
G1 X38.038 Y116.829 F7800
G1 F1800
G1 X38.038 Y59.931 E2.85545
G1 X37.655 Y59.931 E.01923
G1 X37.655 Y116.674 E2.84766
G1 X37.272 Y116.674 E.01923
G1 X37.272 Y59.931 E2.84766
G1 X36.889 Y59.931 E.01923
G1 X36.889 Y116.674 E2.84766
G1 X36.505 Y116.674 E.01923
G1 X36.505 Y59.931 E2.84766
G1 X36.122 Y59.931 E.01923
G1 X36.122 Y116.674 E2.84766
G1 X35.739 Y116.674 E.01923
G1 X35.739 Y59.931 E2.84766
G1 X35.356 Y59.931 E.01923
G1 X35.356 Y116.674 E2.84766
G1 X34.973 Y116.674 E.01923
G1 X34.973 Y59.931 E2.84766
G1 X34.589 Y59.931 E.01923
G1 X34.589 Y116.674 E2.84766
G1 X34.206 Y116.674 E.01923
G1 X34.206 Y59.931 E2.84766
G1 X33.823 Y59.931 E.01923
G1 X33.823 Y116.674 E2.84766
G1 X33.44 Y116.674 E.01923
G1 X33.44 Y59.931 E2.84766
G1 X33.057 Y59.931 E.01923
G1 X33.057 Y116.674 E2.84766
G1 X32.673 Y116.674 E.01923
G1 X32.673 Y59.931 E2.84766
G1 X32.29 Y59.931 E.01923
M73 P0 R209
G1 X32.29 Y116.674 E2.84766
G1 X31.907 Y116.674 E.01923
G1 X31.907 Y59.931 E2.84766
G1 X31.524 Y59.931 E.01923
G1 X31.524 Y116.674 E2.84766
G1 X31.141 Y116.674 E.01923
G1 X31.141 Y59.931 E2.84766
G1 X30.757 Y59.931 E.01923
G1 X30.757 Y116.674 E2.84766
G1 X30.374 Y116.674 E.01923
G1 X30.374 Y59.931 E2.84766
G1 X29.991 Y59.931 E.01923
G1 X29.991 Y116.674 E2.84766
G1 X29.608 Y116.674 E.01923
G1 X29.608 Y59.931 E2.84766
G1 X29.225 Y59.931 E.01923
G1 X29.225 Y116.829 E2.85545
G1 E-.7 F3600
;WIPE_START
G1 F6240
G1 X29.225 Y116.309 E-.285
;WIPE_END
G1 E-.015 F3600
G1 X137.113 Y52.523 F7800
G1 E1 F2400
G1 F1800
G1 X49.216 Y52.523 E4.41121
G1 X49.216 Y42.658 E.49509
G1 X137.113 Y42.658 E4.41121
G1 X137.113 Y52.471 E.4925
G1 X136.523 Y52.368 F7800
G1 F1800
G1 X136.523 Y42.968 E.47173
G1 X136.14 Y42.968 E.01923
G1 X136.14 Y52.212 E.46394
G1 X135.757 Y52.212 E.01923
G1 X135.757 Y42.968 E.46394
G1 X135.374 Y42.968 E.01923
G1 X135.374 Y52.212 E.46394
G1 X134.99 Y52.212 E.01923
G1 X134.99 Y42.968 E.46394
G1 X134.607 Y42.968 E.01923
G1 X134.607 Y52.212 E.46394
G1 X134.224 Y52.212 E.01923
G1 X134.224 Y42.968 E.46394
G1 X133.841 Y42.968 E.01923
G1 X133.841 Y52.212 E.46394
G1 X133.458 Y52.212 E.01923
G1 X133.458 Y42.968 E.46394
G1 X133.074 Y42.968 E.01923
G1 X133.074 Y52.212 E.46394
G1 X132.691 Y52.212 E.01923
G1 X132.691 Y42.968 E.46394
G1 X132.308 Y42.968 E.01923
G1 X132.308 Y52.212 E.46394
G1 X131.925 Y52.212 E.01923
G1 X131.925 Y42.968 E.46394
G1 X131.542 Y42.968 E.01923
G1 X131.542 Y52.212 E.46394
G1 X131.158 Y52.212 E.01923
G1 X131.158 Y42.968 E.46394
G1 X130.775 Y42.968 E.01923
G1 X130.775 Y52.212 E.46394
G1 X130.392 Y52.212 E.01923
G1 X130.392 Y42.968 E.46394
G1 X130.009 Y42.968 E.01923
G1 X130.009 Y52.212 E.46394
G1 X129.626 Y52.212 E.01923
G1 X129.626 Y42.968 E.46394
G1 X129.242 Y42.968 E.01923
G1 X129.242 Y52.212 E.46394
G1 X128.859 Y52.212 E.01923
G1 X128.859 Y42.968 E.46394
G1 X128.476 Y42.968 E.01923
G1 X128.476 Y52.212 E.46394
G1 X128.093 Y52.212 E.01923
G1 X128.093 Y42.968 E.46394
G1 X127.709 Y42.968 E.01923
G1 X127.709 Y52.212 E.46394
G1 X127.326 Y52.212 E.01923
G1 X127.326 Y42.968 E.46394
G1 X126.943 Y42.968 E.01923
G1 X126.943 Y52.212 E.46394
G1 X126.56 Y52.212 E.01923
G1 X126.56 Y42.968 E.46394
G1 X126.177 Y42.968 E.01923
G1 X126.177 Y52.212 E.46394
G1 X125.793 Y52.212 E.01923
G1 X125.793 Y42.968 E.46394
G1 X125.41 Y42.968 E.01923
G1 X125.41 Y52.212 E.46394
G1 X125.027 Y52.212 E.01923
G1 X125.027 Y42.968 E.46394
G1 X124.644 Y42.968 E.01923
G1 X124.644 Y52.212 E.46394
G1 X124.261 Y52.212 E.01923
G1 X124.261 Y42.968 E.46394
G1 X123.877 Y42.968 E.01923
G1 X123.877 Y52.212 E.46394
G1 X123.494 Y52.212 E.01923
G1 X123.494 Y42.968 E.46394
G1 X123.111 Y42.968 E.01923
G1 X123.111 Y52.212 E.46394
G1 X122.728 Y52.212 E.01923
G1 X122.728 Y42.968 E.46394
G1 X122.345 Y42.968 E.01923
G1 X122.345 Y52.212 E.46394
G1 X121.961 Y52.212 E.01923
G1 X121.961 Y42.968 E.46394
G1 X121.578 Y42.968 E.01923
G1 X121.578 Y52.212 E.46394
G1 X121.195 Y52.212 E.01923
G1 X121.195 Y42.968 E.46394
G1 X120.812 Y42.968 E.01923
G1 X120.812 Y52.212 E.46394
G1 X120.428 Y52.212 E.01923
G1 X120.428 Y42.968 E.46394
G1 X120.045 Y42.968 E.01923
G1 X120.045 Y52.212 E.46394
G1 X119.662 Y52.212 E.01923
G1 X119.662 Y42.968 E.46394
G1 X119.279 Y42.968 E.01923
G1 X119.279 Y52.212 E.46394
G1 X118.896 Y52.212 E.01923
G1 X118.896 Y42.968 E.46394
G1 X118.512 Y42.968 E.01923
G1 X118.512 Y52.212 E.46394
G1 X118.129 Y52.212 E.01923
G1 X118.129 Y42.968 E.46394
G1 X117.746 Y42.968 E.01923
G1 X117.746 Y52.212 E.46394
G1 X117.363 Y52.212 E.01923
G1 X117.363 Y42.968 E.46394
G1 X116.98 Y42.968 E.01923
G1 X116.98 Y52.212 E.46394
G1 X116.596 Y52.212 E.01923
G1 X116.596 Y42.968 E.46394
G1 X116.213 Y42.968 E.01923
G1 X116.213 Y52.212 E.46394
G1 X115.83 Y52.212 E.01923
G1 X115.83 Y42.968 E.46394
G1 X115.447 Y42.968 E.01923
G1 X115.447 Y52.212 E.46394
G1 X115.064 Y52.212 E.01923
G1 X115.064 Y42.968 E.46394
G1 X114.68 Y42.968 E.01923
G1 X114.68 Y52.212 E.46394
G1 X114.297 Y52.212 E.01923
G1 X114.297 Y42.968 E.46394
G1 X113.914 Y42.968 E.01923
G1 X113.914 Y52.212 E.46394
G1 X113.531 Y52.212 E.01923
G1 X113.531 Y42.968 E.46394
G1 X113.148 Y42.968 E.01923
G1 X113.147 Y52.212 E.46394
G1 X112.764 Y52.212 E.01923
G1 X112.764 Y42.968 E.46394
G1 X112.381 Y42.968 E.01923
G1 X112.381 Y52.212 E.46394
G1 X111.998 Y52.212 E.01923
G1 X111.998 Y42.968 E.46394
G1 X111.615 Y42.968 E.01923
G1 X111.615 Y52.212 E.46394
G1 X111.231 Y52.212 E.01923
G1 X111.231 Y42.968 E.46394
G1 X110.848 Y42.968 E.01923
G1 X110.848 Y52.212 E.46394
G1 X110.465 Y52.212 E.01923
G1 X110.465 Y42.968 E.46394
G1 X110.082 Y42.968 E.01923
G1 X110.082 Y52.212 E.46394
G1 X109.699 Y52.212 E.01923
G1 X109.699 Y42.968 E.46394
G1 X109.315 Y42.968 E.01923
G1 X109.315 Y52.212 E.46394
G1 X108.932 Y52.212 E.01923
G1 X108.932 Y42.968 E.46394
G1 X108.549 Y42.968 E.01923
G1 X108.549 Y52.212 E.46394
G1 X108.166 Y52.212 E.01923
G1 X108.166 Y42.968 E.46394
G1 X107.783 Y42.968 E.01923
G1 X107.783 Y52.212 E.46394
G1 X107.399 Y52.212 E.01923
G1 X107.399 Y42.968 E.46394
G1 X107.016 Y42.968 E.01923
G1 X107.016 Y52.212 E.46394
G1 X106.633 Y52.212 E.01923
G1 X106.633 Y42.968 E.46394
G1 X106.25 Y42.968 E.01923
G1 X106.25 Y52.212 E.46394
G1 X105.867 Y52.212 E.01923
G1 X105.867 Y42.968 E.46394
G1 X105.483 Y42.968 E.01923
G1 X105.483 Y52.212 E.46394
G1 X105.1 Y52.212 E.01923
G1 X105.1 Y42.968 E.46394
G1 X104.717 Y42.968 E.01923
G1 X104.717 Y52.212 E.46394
G1 X104.334 Y52.212 E.01923
G1 X104.334 Y42.968 E.46394
G1 X103.95 Y42.968 E.01923
G1 X103.95 Y52.212 E.46394
G1 X103.567 Y52.212 E.01923
G1 X103.567 Y42.968 E.46394
G1 X103.184 Y42.968 E.01923
G1 X103.184 Y52.212 E.46394
G1 X102.801 Y52.212 E.01923
G1 X102.801 Y42.968 E.46394
G1 X102.418 Y42.968 E.01923
G1 X102.418 Y52.212 E.46394
G1 X102.034 Y52.212 E.01923
G1 X102.034 Y42.968 E.46394
G1 X101.651 Y42.968 E.01923
G1 X101.651 Y52.212 E.46394
G1 X101.268 Y52.212 E.01923
G1 X101.268 Y42.968 E.46394
G1 X100.885 Y42.968 E.01923
M73 P0 R208
G1 X100.885 Y52.212 E.46394
G1 X100.502 Y52.212 E.01923
G1 X100.502 Y42.968 E.46394
G1 X100.118 Y42.968 E.01923
G1 X100.118 Y52.212 E.46394
G1 X99.735 Y52.212 E.01923
G1 X99.735 Y42.968 E.46394
G1 X99.352 Y42.968 E.01923
G1 X99.352 Y52.212 E.46394
G1 X98.969 Y52.212 E.01923
G1 X98.969 Y42.968 E.46394
G1 X98.586 Y42.968 E.01923
G1 X98.586 Y52.212 E.46394
G1 X98.202 Y52.212 E.01923
G1 X98.202 Y42.968 E.46394
G1 X97.819 Y42.968 E.01923
G1 X97.819 Y52.212 E.46394
G1 X97.436 Y52.212 E.01923
G1 X97.436 Y42.968 E.46394
G1 X97.053 Y42.968 E.01923
G1 X97.053 Y52.212 E.46394
G1 X96.669 Y52.212 E.01923
G1 X96.669 Y42.968 E.46394
G1 X96.286 Y42.968 E.01923
G1 X96.286 Y52.212 E.46394
G1 X95.903 Y52.212 E.01923
G1 X95.903 Y42.968 E.46394
G1 X95.52 Y42.968 E.01923
G1 X95.52 Y52.212 E.46394
G1 X95.137 Y52.212 E.01923
G1 X95.137 Y42.968 E.46394
G1 X94.753 Y42.968 E.01923
G1 X94.753 Y52.212 E.46394
G1 X94.37 Y52.212 E.01923
G1 X94.37 Y42.968 E.46394
G1 X93.987 Y42.968 E.01923
G1 X93.987 Y52.212 E.46394
G1 X93.604 Y52.212 E.01923
G1 X93.604 Y42.968 E.46394
G1 X93.221 Y42.968 E.01923
G1 X93.221 Y52.212 E.46394
G1 X92.837 Y52.212 E.01923
G1 X92.837 Y42.968 E.46394
G1 X92.454 Y42.968 E.01923
G1 X92.454 Y52.212 E.46394
G1 X92.071 Y52.212 E.01923
G1 X92.071 Y42.968 E.46394
G1 X91.688 Y42.968 E.01923
G1 X91.688 Y52.212 E.46394
G1 X91.305 Y52.212 E.01923
G1 X91.305 Y42.968 E.46394
G1 X90.921 Y42.968 E.01923
G1 X90.921 Y52.212 E.46394
G1 X90.538 Y52.212 E.01923
G1 X90.538 Y42.968 E.46394
G1 X90.155 Y42.968 E.01923
G1 X90.155 Y52.212 E.46394
G1 X89.772 Y52.212 E.01923
G1 X89.772 Y42.968 E.46394
G1 X89.388 Y42.968 E.01923
G1 X89.388 Y52.212 E.46394
G1 X89.005 Y52.212 E.01923
G1 X89.005 Y42.968 E.46394
G1 X88.622 Y42.968 E.01923
G1 X88.622 Y52.212 E.46394
G1 X88.239 Y52.212 E.01923
G1 X88.239 Y42.968 E.46394
G1 X87.856 Y42.968 E.01923
G1 X87.856 Y52.212 E.46394
G1 X87.472 Y52.212 E.01923
G1 X87.472 Y42.968 E.46394
G1 X87.089 Y42.968 E.01923
G1 X87.089 Y52.212 E.46394
G1 X86.706 Y52.212 E.01923
G1 X86.706 Y42.968 E.46394
G1 X86.323 Y42.968 E.01923
G1 X86.323 Y52.212 E.46394
G1 X85.94 Y52.212 E.01923
G1 X85.94 Y42.968 E.46394
G1 X85.556 Y42.968 E.01923
G1 X85.556 Y52.212 E.46394
G1 X85.173 Y52.212 E.01923
G1 X85.173 Y42.968 E.46394
G1 X84.79 Y42.968 E.01923
G1 X84.79 Y52.212 E.46394
G1 X84.407 Y52.212 E.01923
G1 X84.407 Y42.968 E.46394
G1 X84.024 Y42.968 E.01923
G1 X84.024 Y52.212 E.46394
G1 X83.64 Y52.212 E.01923
G1 X83.64 Y42.968 E.46394
G1 X83.257 Y42.968 E.01923
G1 X83.257 Y52.212 E.46394
G1 X82.874 Y52.212 E.01923
G1 X82.874 Y42.968 E.46394
G1 X82.491 Y42.968 E.01923
G1 X82.491 Y52.212 E.46394
G1 X82.107 Y52.212 E.01923
G1 X82.107 Y42.968 E.46394
G1 X81.724 Y42.968 E.01923
G1 X81.724 Y52.212 E.46394
G1 X81.341 Y52.212 E.01923
M73 P1 R208
G1 X81.341 Y42.968 E.46394
G1 X80.958 Y42.968 E.01923
G1 X80.958 Y52.212 E.46394
G1 X80.575 Y52.212 E.01923
G1 X80.575 Y42.968 E.46394
G1 X80.191 Y42.968 E.01923
G1 X80.191 Y52.212 E.46394
G1 X79.808 Y52.212 E.01923
G1 X79.808 Y42.968 E.46394
G1 X79.425 Y42.968 E.01923
G1 X79.425 Y52.212 E.46394
G1 X79.042 Y52.212 E.01923
G1 X79.042 Y42.968 E.46394
G1 X78.659 Y42.968 E.01923
G1 X78.659 Y52.212 E.46394
G1 X78.275 Y52.212 E.01923
G1 X78.275 Y42.968 E.46394
G1 X77.892 Y42.968 E.01923
G1 X77.892 Y52.212 E.46394
G1 X77.509 Y52.212 E.01923
G1 X77.509 Y42.968 E.46394
G1 X77.126 Y42.968 E.01923
G1 X77.126 Y52.212 E.46394
G1 X76.743 Y52.212 E.01923
G1 X76.743 Y42.968 E.46394
G1 X76.359 Y42.968 E.01923
G1 X76.359 Y52.212 E.46394
G1 X75.976 Y52.212 E.01923
G1 X75.976 Y42.968 E.46394
G1 X75.593 Y42.968 E.01923
G1 X75.593 Y52.212 E.46394
G1 X75.21 Y52.212 E.01923
G1 X75.21 Y42.968 E.46394
G1 X74.827 Y42.968 E.01923
G1 X74.826 Y52.212 E.46394
G1 X74.443 Y52.212 E.01923
G1 X74.443 Y42.968 E.46394
G1 X74.06 Y42.968 E.01923
G1 X74.06 Y52.212 E.46394
G1 X73.677 Y52.212 E.01923
G1 X73.677 Y42.968 E.46394
G1 X73.294 Y42.968 E.01923
G1 X73.294 Y52.212 E.46394
G1 X72.91 Y52.212 E.01923
G1 X72.91 Y42.968 E.46394
G1 X72.527 Y42.968 E.01923
G1 X72.527 Y52.212 E.46394
G1 X72.144 Y52.212 E.01923
G1 X72.144 Y42.968 E.46394
G1 X71.761 Y42.968 E.01923
G1 X71.761 Y52.212 E.46394
G1 X71.378 Y52.212 E.01923
G1 X71.378 Y42.968 E.46394
G1 X70.994 Y42.968 E.01923
G1 X70.994 Y52.212 E.46394
G1 X70.611 Y52.212 E.01923
G1 X70.611 Y42.968 E.46394
G1 X70.228 Y42.968 E.01923
G1 X70.228 Y52.212 E.46394
G1 X69.845 Y52.212 E.01923
G1 X69.845 Y42.968 E.46394
G1 X69.462 Y42.968 E.01923
G1 X69.462 Y52.212 E.46394
G1 X69.078 Y52.212 E.01923
G1 X69.078 Y42.968 E.46394
G1 X68.695 Y42.968 E.01923
G1 X68.695 Y52.212 E.46394
G1 X68.312 Y52.212 E.01923
G1 X68.312 Y42.968 E.46394
G1 X67.929 Y42.968 E.01923
G1 X67.929 Y52.212 E.46394
G1 X67.546 Y52.212 E.01923
G1 X67.546 Y42.968 E.46394
G1 X67.162 Y42.968 E.01923
G1 X67.162 Y52.212 E.46394
G1 X66.779 Y52.212 E.01923
G1 X66.779 Y42.968 E.46394
G1 X66.396 Y42.968 E.01923
G1 X66.396 Y52.212 E.46394
G1 X66.013 Y52.212 E.01923
G1 X66.013 Y42.968 E.46394
G1 X65.629 Y42.968 E.01923
G1 X65.629 Y52.212 E.46394
G1 X65.246 Y52.212 E.01923
G1 X65.246 Y42.968 E.46394
G1 X64.863 Y42.968 E.01923
G1 X64.863 Y52.212 E.46394
G1 X64.48 Y52.212 E.01923
G1 X64.48 Y42.968 E.46394
G1 X64.097 Y42.968 E.01923
G1 X64.097 Y52.212 E.46394
G1 X63.713 Y52.212 E.01923
G1 X63.713 Y42.968 E.46394
G1 X63.33 Y42.968 E.01923
G1 X63.33 Y52.212 E.46394
G1 X62.947 Y52.212 E.01923
G1 X62.947 Y42.968 E.46394
G1 X62.564 Y42.968 E.01923
G1 X62.564 Y52.212 E.46394
G1 X62.181 Y52.212 E.01923
G1 X62.181 Y42.968 E.46394
G1 X61.797 Y42.968 E.01923
G1 X61.797 Y52.212 E.46394
G1 X61.414 Y52.212 E.01923
G1 X61.414 Y42.968 E.46394
G1 X61.031 Y42.968 E.01923
G1 X61.031 Y52.212 E.46394
G1 X60.648 Y52.212 E.01923
G1 X60.648 Y42.968 E.46394
G1 X60.265 Y42.968 E.01923
G1 X60.265 Y52.212 E.46394
G1 X59.881 Y52.212 E.01923
G1 X59.881 Y42.968 E.46394
G1 X59.498 Y42.968 E.01923
G1 X59.498 Y52.212 E.46394
G1 X59.115 Y52.212 E.01923
G1 X59.115 Y42.968 E.46394
G1 X58.732 Y42.968 E.01923
G1 X58.732 Y52.212 E.46394
G1 X58.348 Y52.212 E.01923
G1 X58.348 Y42.968 E.46394
G1 X57.965 Y42.968 E.01923
G1 X57.965 Y52.212 E.46394
G1 X57.582 Y52.212 E.01923
G1 X57.582 Y42.968 E.46394
G1 X57.199 Y42.968 E.01923
G1 X57.199 Y52.212 E.46394
G1 X56.816 Y52.212 E.01923
G1 X56.816 Y42.968 E.46394
G1 X56.432 Y42.968 E.01923
G1 X56.432 Y52.212 E.46394
G1 X56.049 Y52.212 E.01923
G1 X56.049 Y42.968 E.46394
G1 X55.666 Y42.968 E.01923
G1 X55.666 Y52.212 E.46394
G1 X55.283 Y52.212 E.01923
G1 X55.283 Y42.968 E.46394
G1 X54.9 Y42.968 E.01923
G1 X54.9 Y52.212 E.46394
G1 X54.516 Y52.212 E.01923
G1 X54.516 Y42.968 E.46394
G1 X54.133 Y42.968 E.01923
G1 X54.133 Y52.212 E.46394
G1 X53.75 Y52.212 E.01923
G1 X53.75 Y42.968 E.46394
G1 X53.367 Y42.968 E.01923
G1 X53.367 Y52.212 E.46394
G1 X52.984 Y52.212 E.01923
G1 X52.984 Y42.968 E.46394
G1 X52.6 Y42.968 E.01923
G1 X52.6 Y52.212 E.46394
G1 X52.217 Y52.212 E.01923
G1 X52.217 Y42.968 E.46394
G1 X51.834 Y42.968 E.01923
G1 X51.834 Y52.212 E.46394
G1 X51.451 Y52.212 E.01923
G1 X51.451 Y42.968 E.46394
G1 X51.067 Y42.968 E.01923
G1 X51.067 Y52.212 E.46394
G1 X50.684 Y52.212 E.01923
G1 X50.684 Y42.968 E.46394
G1 X50.301 Y42.968 E.01923
G1 X50.301 Y52.212 E.46394
G1 X49.918 Y52.212 E.01923
G1 X49.918 Y42.968 E.46394
G1 X49.535 Y42.968 E.01923
G1 X49.535 Y52.368 E.47173
M106 S255
;LAYER_CHANGE
;Z:1.07632
;HEIGHT:0.726316
;BEFORE_LAYER_CHANGE
G92 E0
;1.07632


G1 E-.7 F3600
;WIPE_START
G1 F6240
G1 X49.535 Y51.848 E-.285
;WIPE_END
G1 E-.015 F3600
G1 Z1.076 F7800
;AFTER_LAYER_CHANGE
;1.07632
M104 S205 ; set temperature
G1 X35.053 Y66.25
G1 E1 F2400
;WIDTH:1
G1 F1166
G1 X32.933 Y66.25 E.54016
G1 X32.933 Y69.643 E.8648
G1 X34.651 Y69.643 E.43777
G1 X34.651 Y73.035 E.8648
G1 X32.933 Y73.035 E.43777
G1 X32.933 Y76.428 E.8648
G1 X34.651 Y76.428 E.43777
G1 X34.651 Y79.821 E.8648
G1 X32.933 Y79.821 E.43777
G1 X32.933 Y83.213 E.8648
