; generated by PrusaSlicer 2.5.0+win64 on 2022-12-07 at 00:31:51 UTC

; 

; external perimeters extrusion width = 1.00mm
; perimeters extrusion width = 1.00mm
; infill extrusion width = 1.00mm
; solid infill extrusion width = 1.00mm
; top infill extrusion width = 1.00mm
; support material extrusion width = 1.00mm
; first layer extrusion width = 0.42mm

M73 P0 R467
M107
;TYPE:Custom
G90 ; use absolute coordinates
M83 ; extruder relative mode
M140 S60 ; set final bed temp
M104 S150 ; set temporary nozzle temp to prevent oozing during homing and auto bed leveling
G4 S10 ; allow partial nozzle warmup
G28 ; home all axisG1 Z50 F240
G1 X7.6 Y10 F3000
M104 S210 ; set final nozzle temp
M190 S60 ; wait for bed temp to stabilize
M109 S210 ; wait for nozzle temp to stabilize
G1 Z0.28 F240
G92 E0
G1 Y140 E10 F1500 ; prime the nozzle
G1 X4 F5000
G92 E0
G1 Y10 E10 F1200 ; prime the nozzle
G92 E0
G21 ; set units to millimeters
G90 ; use absolute coordinates
M83 ; use relative distances for extrusion
; Filament gcode
M107
;LAYER_CHANGE
;Z:0.35
;HEIGHT:0.35
;BEFORE_LAYER_CHANGE
G92 E0
;0.35


G1 E-1 F3600
G1 Z.35 F7800
;AFTER_LAYER_CHANGE
;0.35
G1 X13.263 Y56.302
G1 E1 F2400
;TYPE:Support material
;WIDTH:0.42
G1 F1800
G1 X13.715 Y56.723 E.03102
G1 X18.597 Y56.375 E.24562
G1 X18.597 Y123.719 E3.37969
G1 X8.732 Y123.719 E.49509
G1 X8.732 Y52.785 E3.55988
G1 X13.263 Y52.785 E.2274
G1 X13.263 Y56.25 E.17393
G1 X17.957 Y123.563 F7800
G1 F1800
G1 X17.957 Y56.732 E3.35399
G1 X17.573 Y56.759 E.01928
G1 X17.573 Y123.408 E3.34483
G1 X17.19 Y123.408 E.01923
G1 X17.19 Y56.787 E3.34346
G1 X16.807 Y56.814 E.01928
G1 X16.807 Y123.408 E3.34208
G1 X16.424 Y123.408 E.01923
G1 X16.424 Y56.841 E3.34071
G1 X16.04 Y56.869 E.01928
G1 X16.04 Y123.408 E3.33934
G1 X15.657 Y123.408 E.01923
G1 X15.657 Y56.896 E3.33797
G1 X15.274 Y56.923 E.01928
M73 P0 R466
G1 X15.274 Y123.408 E3.3366
G1 X14.891 Y123.408 E.01923
G1 X14.891 Y56.951 E3.33523
G1 X14.508 Y56.978 E.01928
G1 X14.508 Y123.408 E3.33385
G1 X14.124 Y123.408 E.01923
G1 X14.124 Y57.005 E3.33248
G1 X13.741 Y57.033 E.01928
G1 X13.741 Y123.408 E3.33111
G1 X13.358 Y123.408 E.01923
G1 X13.358 Y56.815 E3.34203
G1 X12.975 Y56.458 E.02628
G1 X12.975 Y123.408 E3.35994
G1 X12.592 Y123.408 E.01923
G1 X12.592 Y53.095 E3.52872
G1 X12.208 Y53.095 E.01923
G1 X12.208 Y123.408 E3.52872
G1 X11.825 Y123.408 E.01923
G1 X11.825 Y53.095 E3.52872
G1 X11.442 Y53.095 E.01923
G1 X11.442 Y123.408 E3.52872
G1 X11.059 Y123.408 E.01923
G1 X11.059 Y53.095 E3.52872
G1 X10.676 Y53.095 E.01923
G1 X10.676 Y123.408 E3.52872
G1 X10.292 Y123.408 E.01923
G1 X10.292 Y53.095 E3.52872
G1 X9.909 Y53.095 E.01923
G1 X9.909 Y123.408 E3.52872
G1 X9.526 Y123.408 E.01923
G1 X9.526 Y53.095 E3.52872
G1 X9.143 Y53.095 E.01923
G1 X9.143 Y123.563 E3.53651
G1 E-.7 F3600
;WIPE_START
G1 F6240
G1 X9.143 Y123.043 E-.285
;WIPE_END
G1 E-.015 F3600
G1 X171.268 Y110.148 F7800
G1 E1 F2400
G1 F1800
G1 X161.403 Y110.148 E.49509
G1 X161.403 Y52.785 E2.87881
G1 X171.268 Y52.785 E.49509
G1 X171.268 Y110.096 E2.87622
G1 X170.857 Y109.993 F7800
G1 F1800
G1 X170.857 Y53.095 E2.85545
G1 X170.474 Y53.095 E.01923
G1 X170.474 Y109.837 E2.84766
G1 X170.091 Y109.837 E.01923
G1 X170.091 Y53.095 E2.84766
G1 X169.708 Y53.095 E.01923
G1 X169.708 Y109.837 E2.84766
G1 X169.324 Y109.837 E.01923
G1 X169.324 Y53.095 E2.84766
G1 X168.941 Y53.095 E.01923
G1 X168.941 Y109.837 E2.84766
G1 X168.558 Y109.837 E.01923
G1 X168.558 Y53.095 E2.84766
G1 X168.175 Y53.095 E.01923
M73 P0 R465
G1 X168.175 Y109.837 E2.84766
G1 X167.792 Y109.837 E.01923
G1 X167.792 Y53.095 E2.84766
G1 X167.408 Y53.095 E.01923
G1 X167.408 Y109.837 E2.84766
G1 X167.025 Y109.837 E.01923
G1 X167.025 Y53.095 E2.84766
G1 X166.642 Y53.095 E.01923
G1 X166.642 Y109.837 E2.84766
G1 X166.259 Y109.837 E.01923
G1 X166.259 Y53.095 E2.84766
G1 X165.876 Y53.095 E.01923
G1 X165.876 Y109.837 E2.84766
G1 X165.492 Y109.837 E.01923
G1 X165.492 Y53.095 E2.84766
G1 X165.109 Y53.095 E.01923
G1 X165.109 Y109.837 E2.84766
G1 X164.726 Y109.837 E.01923
G1 X164.726 Y53.095 E2.84766
G1 X164.343 Y53.095 E.01923
G1 X164.343 Y109.837 E2.84766
G1 X163.96 Y109.837 E.01923
G1 X163.96 Y53.095 E2.84766
G1 X163.576 Y53.095 E.01923
G1 X163.576 Y109.837 E2.84766
G1 X163.193 Y109.837 E.01923
G1 X163.193 Y53.095 E2.84766
G1 X162.81 Y53.095 E.01923
G1 X162.81 Y109.837 E2.84766
G1 X162.427 Y109.837 E.01923
G1 X162.427 Y53.095 E2.84766
G1 X162.043 Y53.095 E.01923
G1 X162.043 Y109.993 E2.85545
G1 E-.7 F3600
;WIPE_START
G1 F6240
G1 X162.043 Y109.473 E-.285
;WIPE_END
G1 E-.015 F3600
G1 X160.237 Y41.01 F7800
G1 E1 F2400
;TYPE:Perimeter
;WIDTH:0.42
G1 F1800
G1 X161.957 Y47.854 E.35417
G1 X30.964 Y54.225 E6.58173
G1 X14.528 Y55.397 E.82698
G1 X14.528 Y41.01 E.72206
G1 X160.087 Y41.01 E7.30502
G1 X160.506 Y40.665 F7800
;TYPE:External perimeter
G1 F1800
G1 X162.394 Y48.178 E.38878
G1 X30.981 Y54.57 E6.60285
G1 X14.183 Y55.768 E.84518
G1 X14.183 Y40.665 E.75795
G1 X160.356 Y40.665 E7.33582
G1 X160.186 Y41.612 F7800
G1 X160.392 Y42.051
;TYPE:Solid infill
;WIDTH:0.420587
G1 F1800
G1 X159.609 Y41.268 E.05564
G1 X159.121 Y41.268 E.02456
G1 X160.342 Y42.49 E.08684
G1 X160.506 Y43.142 E.03382
G1 X158.632 Y41.268 E.13323
G1 X158.143 Y41.268 E.02456
G1 X160.67 Y43.795 E.17962
G1 X160.834 Y44.447 E.03382
G1 X157.655 Y41.268 E.22601
G1 X157.166 Y41.268 E.02456
G1 X160.998 Y45.1 E.2724
G1 X161.162 Y45.752 E.03382
G1 X156.678 Y41.268 E.31879
G1 X156.189 Y41.268 E.02456
G1 X161.326 Y46.405 E.36518
G1 X161.49 Y47.057 E.03382
G1 X155.701 Y41.268 E.41157
G1 X155.212 Y41.268 E.02456
G1 X161.558 Y47.615 E.45118
G1 X161.092 Y47.637 E.02345
G1 X154.723 Y41.268 E.45279
G1 X154.235 Y41.268 E.02456
G1 X160.626 Y47.66 E.4544
G1 X160.16 Y47.682 E.02345
G1 X153.746 Y41.268 E.45601
G1 X153.258 Y41.268 E.02456
M73 P0 R464
G1 X159.695 Y47.705 E.45762
G1 X159.229 Y47.728 E.02345
G1 X152.769 Y41.268 E.45923
G1 X152.281 Y41.268 E.02456
G1 X158.763 Y47.75 E.46084
G1 X158.297 Y47.773 E.02345
G1 X151.792 Y41.268 E.46245
G1 X151.303 Y41.268 E.02456
G1 X157.831 Y47.796 E.46407
G1 X157.365 Y47.818 E.02345
G1 X150.815 Y41.268 E.46568
G1 X150.326 Y41.268 E.02456
G1 X156.899 Y47.841 E.46729
G1 X156.433 Y47.864 E.02345
G1 X149.838 Y41.268 E.4689
G1 X149.349 Y41.268 E.02456
G1 X155.967 Y47.886 E.47051
G1 X155.501 Y47.909 E.02345
G1 X148.861 Y41.268 E.47212
G1 X148.372 Y41.268 E.02456
G1 X155.035 Y47.932 E.47373
G1 X154.569 Y47.954 E.02345
G1 X147.883 Y41.268 E.47534
G1 X147.395 Y41.268 E.02456
G1 X154.104 Y47.977 E.47695
G1 X153.638 Y48 E.02345
G1 X146.906 Y41.268 E.47856
G1 X146.418 Y41.268 E.02456
G1 X153.172 Y48.022 E.48018
G1 X152.706 Y48.045 E.02345
G1 X145.929 Y41.268 E.48179
G1 X145.44 Y41.268 E.02456
G1 X152.24 Y48.068 E.4834
G1 X151.774 Y48.09 E.02345
G1 X144.952 Y41.268 E.48501
G1 X144.463 Y41.268 E.02456
G1 X151.308 Y48.113 E.48662
G1 X150.842 Y48.136 E.02345
G1 X143.975 Y41.268 E.48823
G1 X143.486 Y41.268 E.02456
G1 X150.376 Y48.158 E.48984
G1 X149.91 Y48.181 E.02345
G1 X142.998 Y41.268 E.49145
G1 X142.509 Y41.268 E.02456
G1 X149.444 Y48.204 E.49306
G1 X148.978 Y48.226 E.02345
G1 X142.02 Y41.268 E.49467
G1 X141.532 Y41.268 E.02456
G1 X148.513 Y48.249 E.49629
G1 X148.047 Y48.272 E.02345
G1 X141.043 Y41.268 E.4979
G1 X140.555 Y41.268 E.02456
G1 X147.581 Y48.294 E.49951
G1 X147.115 Y48.317 E.02345
G1 X140.066 Y41.268 E.50112
G1 X139.578 Y41.268 E.02456
G1 X146.649 Y48.34 E.50273
G1 X146.183 Y48.362 E.02345
G1 X139.089 Y41.268 E.50434
G1 X138.6 Y41.268 E.02456
G1 X145.717 Y48.385 E.50595
G1 X145.251 Y48.408 E.02345
G1 X138.112 Y41.268 E.50756
G1 X137.623 Y41.268 E.02456
G1 X144.785 Y48.43 E.50917
G1 X144.319 Y48.453 E.02345
G1 X137.135 Y41.268 E.51079
G1 X136.646 Y41.268 E.02456
G1 X143.853 Y48.476 E.5124
G1 X143.387 Y48.498 E.02345
G1 X136.158 Y41.268 E.51401
G1 X135.669 Y41.268 E.02456
G1 X142.922 Y48.521 E.51562
G1 X142.456 Y48.544 E.02345
G1 X135.18 Y41.268 E.51723
G1 X134.692 Y41.268 E.02456
G1 X141.99 Y48.566 E.51884
G1 X141.524 Y48.589 E.02345
G1 X134.203 Y41.268 E.52045
G1 X133.715 Y41.268 E.02456
G1 X141.058 Y48.612 E.52206
G1 X140.592 Y48.634 E.02345
G1 X133.226 Y41.268 E.52367
G1 X132.737 Y41.268 E.02456
G1 X140.126 Y48.657 E.52528
G1 X139.66 Y48.68 E.02345
G1 X132.249 Y41.268 E.5269
G1 X131.76 Y41.268 E.02456
G1 X139.194 Y48.702 E.52851
G1 X138.728 Y48.725 E.02345
G1 X131.272 Y41.268 E.53012
G1 X130.783 Y41.268 E.02456
G1 X138.262 Y48.748 E.53173
G1 X137.796 Y48.77 E.02345
G1 X130.295 Y41.268 E.53334
G1 X129.806 Y41.268 E.02456
G1 X137.331 Y48.793 E.53495
G1 X136.865 Y48.816 E.02345
G1 X129.317 Y41.268 E.53656
G1 X128.829 Y41.268 E.02456
G1 X136.399 Y48.838 E.53817
G1 X135.933 Y48.861 E.02345
G1 X128.34 Y41.268 E.53978
G1 X127.852 Y41.268 E.02456
G1 X135.467 Y48.883 E.54139
G1 X135.001 Y48.906 E.02345
G1 X127.363 Y41.268 E.54301
G1 X126.875 Y41.268 E.02456
G1 X134.535 Y48.929 E.54462
G1 X134.069 Y48.951 E.02345
G1 X126.386 Y41.268 E.54623
G1 X125.897 Y41.268 E.02456
G1 X133.603 Y48.974 E.54784
G1 X133.137 Y48.997 E.02345
G1 X125.409 Y41.268 E.54945
G1 X124.92 Y41.268 E.02456
G1 X132.671 Y49.019 E.55106
G1 X132.205 Y49.042 E.02345
G1 X124.432 Y41.268 E.55267
G1 X123.943 Y41.268 E.02456
G1 X131.74 Y49.065 E.55428
G1 X131.274 Y49.087 E.02345
G1 X123.455 Y41.268 E.55589
G1 X122.966 Y41.268 E.02456
G1 X130.808 Y49.11 E.5575
G1 X130.342 Y49.133 E.02345
G1 X122.477 Y41.268 E.55912
G1 X121.989 Y41.268 E.02456
G1 X129.876 Y49.155 E.56073
G1 X129.41 Y49.178 E.02345
G1 X121.5 Y41.268 E.56234
G1 X121.012 Y41.268 E.02456
G1 X128.944 Y49.201 E.56395
G1 X128.478 Y49.223 E.02345
G1 X120.523 Y41.268 E.56556
G1 X120.034 Y41.268 E.02456
G1 X128.012 Y49.246 E.56717
G1 X127.546 Y49.269 E.02345
G1 X119.546 Y41.268 E.56878
G1 X119.057 Y41.268 E.02456
G1 X127.08 Y49.291 E.57039
G1 X126.614 Y49.314 E.02345
G1 X118.569 Y41.268 E.572
G1 X118.08 Y41.268 E.02456
G1 X126.149 Y49.337 E.57362
G1 X125.683 Y49.359 E.02345
G1 X117.592 Y41.268 E.57523
G1 X117.103 Y41.268 E.02456
G1 X125.217 Y49.382 E.57684
G1 X124.751 Y49.405 E.02345
G1 X116.614 Y41.268 E.57845
G1 X116.126 Y41.268 E.02456
G1 X124.285 Y49.427 E.58006
G1 X123.819 Y49.45 E.02345
G1 X115.637 Y41.268 E.58167
G1 X115.149 Y41.268 E.02456
G1 X123.353 Y49.473 E.58328
G1 X122.887 Y49.495 E.02345
G1 X114.66 Y41.268 E.58489
G1 X114.172 Y41.268 E.02456
G1 X122.421 Y49.518 E.5865
G1 X121.955 Y49.541 E.02345
G1 X113.683 Y41.268 E.58811
G1 X113.194 Y41.268 E.02456
G1 X121.489 Y49.563 E.58973
G1 X121.023 Y49.586 E.02345
G1 X112.706 Y41.268 E.59134
G1 X112.217 Y41.268 E.02456
G1 X120.558 Y49.609 E.59295
G1 X120.092 Y49.631 E.02345
G1 X111.729 Y41.268 E.59456
G1 X111.24 Y41.268 E.02456
G1 X119.626 Y49.654 E.59617
G1 X119.16 Y49.677 E.02345
G1 X110.752 Y41.268 E.59778
G1 X110.263 Y41.268 E.02456
G1 X118.694 Y49.699 E.59939
G1 X118.228 Y49.722 E.02345
G1 X109.774 Y41.268 E.601
G1 X109.286 Y41.268 E.02456
G1 X117.762 Y49.745 E.60261
G1 X117.296 Y49.767 E.02345
G1 X108.797 Y41.268 E.60422
G1 X108.309 Y41.268 E.02456
G1 X116.83 Y49.79 E.60584
G1 X116.364 Y49.813 E.02345
G1 X107.82 Y41.268 E.60745
G1 X107.331 Y41.268 E.02456
G1 X115.898 Y49.835 E.60906
G1 X115.432 Y49.858 E.02345
G1 X106.843 Y41.268 E.61067
G1 X106.354 Y41.268 E.02456
G1 X114.967 Y49.881 E.61228
G1 X114.501 Y49.903 E.02345
G1 X105.866 Y41.268 E.61389
G1 X105.377 Y41.268 E.02456
G1 X114.035 Y49.926 E.6155
G1 X113.569 Y49.949 E.02345
G1 X104.889 Y41.268 E.61711
G1 X104.4 Y41.268 E.02456
G1 X113.103 Y49.971 E.61872
G1 X112.637 Y49.994 E.02345
G1 X103.911 Y41.268 E.62033
G1 X103.423 Y41.268 E.02456
G1 X112.171 Y50.017 E.62195
G1 X111.705 Y50.039 E.02345
G1 X102.934 Y41.268 E.62356
G1 X102.446 Y41.268 E.02456
G1 X111.239 Y50.062 E.62517
G1 X110.773 Y50.085 E.02345
G1 X101.957 Y41.268 E.62678
G1 X101.469 Y41.268 E.02456
G1 X110.307 Y50.107 E.62839
G1 X109.841 Y50.13 E.02345
G1 X100.98 Y41.268 E.63
G1 X100.491 Y41.268 E.02456
G1 X109.376 Y50.152 E.63161
G1 X108.91 Y50.175 E.02345
G1 X100.003 Y41.268 E.63322
G1 X99.514 Y41.268 E.02456
G1 X108.444 Y50.198 E.63483
G1 X107.978 Y50.22 E.02345
G1 X99.026 Y41.268 E.63645
G1 X98.537 Y41.268 E.02456
G1 X107.512 Y50.243 E.63806
G1 X107.046 Y50.266 E.02345
G1 X98.049 Y41.268 E.63967
G1 X97.56 Y41.268 E.02456
G1 X106.58 Y50.288 E.64128
G1 X106.114 Y50.311 E.02345
G1 X97.071 Y41.268 E.64289
G1 X96.583 Y41.268 E.02456
G1 X105.648 Y50.334 E.6445
G1 X105.182 Y50.356 E.02345
G1 X96.094 Y41.268 E.64611
G1 X95.606 Y41.268 E.02456
G1 X104.716 Y50.379 E.64772
G1 X104.25 Y50.402 E.02345
G1 X95.117 Y41.268 E.64933
G1 X94.628 Y41.268 E.02456
G1 X103.785 Y50.424 E.65094
G1 X103.319 Y50.447 E.02345
G1 X94.14 Y41.268 E.65256
G1 X93.651 Y41.268 E.02456
G1 X102.853 Y50.47 E.65417
G1 X102.387 Y50.492 E.02345
G1 X93.163 Y41.268 E.65578
G1 X92.674 Y41.268 E.02456
G1 X101.921 Y50.515 E.65739
G1 X101.455 Y50.538 E.02345
G1 X92.186 Y41.268 E.659
G1 X91.697 Y41.268 E.02456
G1 X100.989 Y50.56 E.66061
G1 X100.523 Y50.583 E.02345
G1 X91.208 Y41.268 E.66222
G1 X90.72 Y41.268 E.02456
G1 X100.057 Y50.606 E.66383
G1 X99.591 Y50.628 E.02345
G1 X90.231 Y41.268 E.66544
G1 X89.743 Y41.268 E.02456
G1 X99.125 Y50.651 E.66705
G1 X98.659 Y50.674 E.02345
G1 X89.254 Y41.268 E.66867
G1 X88.766 Y41.268 E.02456
G1 X98.194 Y50.696 E.67028
G1 X97.728 Y50.719 E.02345
G1 X88.277 Y41.268 E.67189
G1 X87.788 Y41.268 E.02456
G1 X97.262 Y50.742 E.6735
G1 X96.796 Y50.764 E.02345
G1 X87.3 Y41.268 E.67511
G1 X86.811 Y41.268 E.02456
G1 X96.33 Y50.787 E.67672
G1 X95.864 Y50.81 E.02345
M73 P0 R463
G1 X86.323 Y41.268 E.67833
G1 X85.834 Y41.268 E.02456
G1 X95.398 Y50.832 E.67994
G1 X94.932 Y50.855 E.02345
G1 X85.346 Y41.268 E.68155
G1 X84.857 Y41.268 E.02456
G1 X94.466 Y50.878 E.68317
G1 X94 Y50.9 E.02345
G1 X84.368 Y41.268 E.68478
G1 X83.88 Y41.268 E.02456
G1 X93.534 Y50.923 E.68639
G1 X93.068 Y50.946 E.02345
G1 X83.391 Y41.268 E.688
G1 X82.903 Y41.268 E.02456
G1 X92.603 Y50.968 E.68961
G1 X92.137 Y50.991 E.02345
G1 X82.414 Y41.268 E.69122
G1 X81.925 Y41.268 E.02456
G1 X91.671 Y51.014 E.69283
G1 X91.205 Y51.036 E.02345
G1 X81.437 Y41.268 E.69444
G1 X80.948 Y41.268 E.02456
G1 X90.739 Y51.059 E.69605
G1 X90.273 Y51.082 E.02345
G1 X80.46 Y41.268 E.69766
G1 X79.971 Y41.268 E.02456
G1 X89.807 Y51.104 E.69928
G1 X89.341 Y51.127 E.02345
G1 X79.483 Y41.268 E.70089
G1 X78.994 Y41.268 E.02456
G1 X88.875 Y51.15 E.7025
G1 X88.409 Y51.172 E.02345
G1 X78.505 Y41.268 E.70411
G1 X78.017 Y41.268 E.02456
G1 X87.943 Y51.195 E.70572
G1 X87.477 Y51.218 E.02345
G1 X77.528 Y41.268 E.70733
G1 X77.04 Y41.268 E.02456
G1 X87.012 Y51.24 E.70894
G1 X86.546 Y51.263 E.02345
G1 X76.551 Y41.268 E.71055
G1 X76.063 Y41.268 E.02456
G1 X86.08 Y51.286 E.71216
G1 X85.614 Y51.308 E.02345
G1 X75.574 Y41.268 E.71377
G1 X75.085 Y41.268 E.02456
G1 X85.148 Y51.331 E.71539
G1 X84.682 Y51.353 E.02345
G1 X74.597 Y41.268 E.717
G1 X74.108 Y41.268 E.02456
G1 X84.216 Y51.376 E.71861
G1 X83.75 Y51.399 E.02345
G1 X73.62 Y41.268 E.72022
G1 X73.131 Y41.268 E.02456
G1 X83.284 Y51.421 E.72183
G1 X82.818 Y51.444 E.02345
G1 X72.643 Y41.268 E.72344
G1 X72.154 Y41.268 E.02456
G1 X82.352 Y51.467 E.72505
G1 X81.886 Y51.489 E.02345
G1 X71.665 Y41.268 E.72666
G1 X71.177 Y41.268 E.02456
G1 X81.421 Y51.512 E.72827
G1 X80.955 Y51.535 E.02345
G1 X70.688 Y41.268 E.72988
G1 X70.2 Y41.268 E.02456
G1 X80.489 Y51.557 E.7315
G1 X80.023 Y51.58 E.02345
G1 X69.711 Y41.268 E.73311
G1 X69.222 Y41.268 E.02456
G1 X79.557 Y51.603 E.73472
G1 X79.091 Y51.625 E.02345
G1 X68.734 Y41.268 E.73633
G1 X68.245 Y41.268 E.02456
G1 X78.625 Y51.648 E.73794
G1 X78.159 Y51.671 E.02345
G1 X67.757 Y41.268 E.73955
G1 X67.268 Y41.268 E.02456
G1 X77.693 Y51.693 E.74116
G1 X77.227 Y51.716 E.02345
G1 X66.78 Y41.268 E.74277
G1 X66.291 Y41.268 E.02456
G1 X76.761 Y51.739 E.74438
G1 X76.295 Y51.761 E.02345
G1 X65.802 Y41.268 E.746
G1 X65.314 Y41.268 E.02456
G1 X75.83 Y51.784 E.74761
G1 X75.364 Y51.807 E.02345
G1 X64.825 Y41.268 E.74922
G1 X64.337 Y41.268 E.02456
G1 X74.898 Y51.829 E.75083
G1 X74.432 Y51.852 E.02345
G1 X63.848 Y41.268 E.75244
G1 X63.36 Y41.268 E.02456
G1 X73.966 Y51.875 E.75405
G1 X73.5 Y51.897 E.02345
G1 X62.871 Y41.268 E.75566
G1 X62.382 Y41.268 E.02456
G1 X73.034 Y51.92 E.75727
G1 X72.568 Y51.943 E.02345
