; generated by PrusaSlicer 2.5.0+win64 on 2022-12-07 at 00:31:32 UTC

; 

; external perimeters extrusion width = 1.00mm
; perimeters extrusion width = 1.00mm
; infill extrusion width = 1.00mm
; solid infill extrusion width = 1.00mm
; top infill extrusion width = 1.00mm
; support material extrusion width = 1.00mm
; first layer extrusion width = 0.42mm

M73 P0 R181
M107
;TYPE:Custom
G90 ; use absolute coordinates
M83 ; extruder relative mode
M140 S60 ; set final bed temp
M104 S150 ; set temporary nozzle temp to prevent oozing during homing and auto bed leveling
G4 S10 ; allow partial nozzle warmup
G28 ; home all axisG1 Z50 F240
G1 X7.6 Y10 F3000
M104 S210 ; set final nozzle temp
M190 S60 ; wait for bed temp to stabilize
M109 S210 ; wait for nozzle temp to stabilize
G1 Z0.28 F240
G92 E0
G1 Y140 E10 F1500 ; prime the nozzle
G1 X4 F5000
G92 E0
G1 Y10 E10 F1200 ; prime the nozzle
G92 E0
G21 ; set units to millimeters
G90 ; use absolute coordinates
M83 ; use relative distances for extrusion
; Filament gcode
M107
;LAYER_CHANGE
;Z:0.35
;HEIGHT:0.35
;BEFORE_LAYER_CHANGE
G92 E0
;0.35


G1 E-1 F3600
G1 Z.35 F7800
;AFTER_LAYER_CHANGE
;0.35
G1 X14.526 Y134.79
G1 E1 F2400
;TYPE:Perimeter
;WIDTH:0.42
G1 F1800
G1 X165.474 Y132.996 E7.57603
G1 X165.474 Y149.752 E.84092
G1 X14.526 Y151.556 E7.57603
G1 X14.526 Y134.94 E.83388
G1 X14.181 Y134.449 F7800
;TYPE:External perimeter
G1 F1800
G1 X165.819 Y132.647 E7.61065
G1 X165.819 Y150.092 E.87553
M73 P0 R180
G1 X14.181 Y151.905 E7.61065
G1 X14.181 Y134.599 E.8685
G1 X15.18 Y134.476 F7800
G1 E-.7 F3600
;WIPE_START
G1 F6240
G1 X14.701 Y134.593 E-.285
;WIPE_END
G1 E-.015 F3600
G1 X164.68 Y133.109 F7800
G1 E1 F2400
;TYPE:Solid infill
;WIDTH:0.420821
G1 F1800
G1 X165.216 Y133.644 E.03808
G1 X165.216 Y134.133 E.02459
G1 X164.351 Y133.268 E.06155
G1 X163.867 Y133.273 E.02431
G1 X165.216 Y134.622 E.09592
G1 X165.216 Y135.111 E.02459
G1 X163.384 Y133.279 E.13029
G1 X162.901 Y133.285 E.02431
G1 X165.216 Y135.599 E.16467
G1 X165.216 Y136.088 E.02459
G1 X162.418 Y133.291 E.19904
G1 X161.935 Y133.296 E.02431
G1 X165.216 Y136.577 E.23341
G1 X165.216 Y137.066 E.02459
G1 X161.452 Y133.302 E.26779
G1 X160.968 Y133.308 E.02431
G1 X165.216 Y137.555 E.30216
G1 X165.216 Y138.044 E.02459
G1 X160.485 Y133.314 E.33653
G1 X160.002 Y133.319 E.02431
G1 X165.216 Y138.533 E.37091
G1 X165.216 Y139.022 E.02459
G1 X159.519 Y133.325 E.40528
G1 X159.036 Y133.331 E.02431
G1 X165.216 Y139.511 E.43965
G1 X165.216 Y140 E.02459
G1 X158.553 Y133.337 E.47403
G1 X158.069 Y133.342 E.02431
G1 X165.216 Y140.489 E.5084
G1 X165.216 Y140.977 E.02459
G1 X157.586 Y133.348 E.54277
G1 X157.103 Y133.354 E.02431
G1 X165.216 Y141.466 E.57715
G1 X165.216 Y141.955 E.02459
G1 X156.62 Y133.36 E.61152
G1 X156.137 Y133.365 E.02431
G1 X165.216 Y142.444 E.64589
G1 X165.216 Y142.933 E.02459
G1 X155.654 Y133.371 E.68027
G1 X155.171 Y133.377 E.02431
G1 X165.216 Y143.422 E.71464
G1 X165.216 Y143.911 E.02459
G1 X154.687 Y133.383 E.74902
G1 X154.204 Y133.388 E.02431
G1 X165.216 Y144.4 E.78339
G1 X165.216 Y144.889 E.02459
G1 X153.721 Y133.394 E.81776
G1 X153.238 Y133.4 E.02431
G1 X165.216 Y145.378 E.85214
G1 X165.216 Y145.867 E.02459
G1 X152.755 Y133.406 E.88651
G1 X152.272 Y133.411 E.02431
G1 X165.216 Y146.355 E.92088
G1 X165.216 Y146.844 E.02459
G1 X151.788 Y133.417 E.95526
G1 X151.305 Y133.423 E.02431
G1 X165.216 Y147.333 E.98963
G1 X165.216 Y147.822 E.02459
G1 X150.822 Y133.428 E1.024
G1 X150.339 Y133.434 E.02431
G1 X165.216 Y148.311 E1.05838
G1 X165.216 Y148.8 E.02459
G1 X149.856 Y133.44 E1.09275
G1 X149.373 Y133.446 E.02431
G1 X165.216 Y149.289 E1.12712
G1 X165.216 Y149.496 E.01042
G1 X164.937 Y149.499 E.01401
G1 X148.889 Y133.451 E1.14169
G1 X148.406 Y133.457 E.02431
G1 X164.454 Y149.505 E1.14169
G1 X163.971 Y149.511 E.02431
G1 X147.923 Y133.463 E1.1417
G1 X147.44 Y133.469 E.02431
G1 X163.488 Y149.517 E1.1417
G1 X163.005 Y149.523 E.02431
G1 X146.957 Y133.474 E1.1417
G1 X146.474 Y133.48 E.02431
G1 X162.522 Y149.528 E1.1417
G1 X162.039 Y149.534 E.02431
G1 X145.99 Y133.486 E1.1417
G1 X145.507 Y133.492 E.02431
G1 X161.555 Y149.54 E1.14171
G1 X161.072 Y149.546 E.02431
G1 X145.024 Y133.497 E1.14171
G1 X144.541 Y133.503 E.02431
G1 X160.589 Y149.551 E1.14171
G1 X160.106 Y149.557 E.02431
G1 X144.058 Y133.509 E1.14171
G1 X143.575 Y133.515 E.02431
G1 X159.623 Y149.563 E1.14172
G1 X159.14 Y149.569 E.02431
G1 X143.091 Y133.52 E1.14172
G1 X142.608 Y133.526 E.02431
G1 X158.657 Y149.574 E1.14172
G1 X158.173 Y149.58 E.02431
G1 X142.125 Y133.532 E1.14172
G1 X141.642 Y133.538 E.02431
G1 X157.69 Y149.586 E1.14172
G1 X157.207 Y149.592 E.02431
G1 X141.159 Y133.543 E1.14173
G1 X140.676 Y133.549 E.02431
G1 X156.724 Y149.598 E1.14173
G1 X156.241 Y149.603 E.02431
G1 X140.192 Y133.555 E1.14173
G1 X139.709 Y133.561 E.02431
G1 X155.758 Y149.609 E1.14173
G1 X155.275 Y149.615 E.02431
G1 X139.226 Y133.566 E1.14173
G1 X138.743 Y133.572 E.02431
G1 X154.792 Y149.621 E1.14174
G1 X154.308 Y149.626 E.02431
G1 X138.26 Y133.578 E1.14174
G1 X137.777 Y133.584 E.02431
G1 X153.825 Y149.632 E1.14174
G1 X153.342 Y149.638 E.02431
G1 X137.293 Y133.589 E1.14174
G1 X136.81 Y133.595 E.02431
G1 X152.859 Y149.644 E1.14175
G1 X152.376 Y149.65 E.02431
G1 X136.327 Y133.601 E1.14175
G1 X135.844 Y133.607 E.02431
G1 X151.893 Y149.655 E1.14175
G1 X151.41 Y149.661 E.02431
G1 X135.361 Y133.612 E1.14175
G1 X134.878 Y133.618 E.02431
G1 X150.926 Y149.667 E1.14175
G1 X150.443 Y149.673 E.02431
G1 X134.394 Y133.624 E1.14176
G1 X133.911 Y133.63 E.02431
G1 X149.96 Y149.678 E1.14176
G1 X149.477 Y149.684 E.02431
G1 X133.428 Y133.635 E1.14176
G1 X132.945 Y133.641 E.02431
G1 X148.994 Y149.69 E1.14176
G1 X148.511 Y149.696 E.02431
G1 X132.462 Y133.647 E1.14177
G1 X131.979 Y133.652 E.02431
G1 X148.028 Y149.702 E1.14177
G1 X147.545 Y149.707 E.02431
G1 X131.495 Y133.658 E1.14177
G1 X131.012 Y133.664 E.02431
G1 X147.061 Y149.713 E1.14177
G1 X146.578 Y149.719 E.02431
G1 X130.529 Y133.67 E1.14177
G1 X130.046 Y133.675 E.02431
G1 X146.095 Y149.725 E1.14178
G1 X145.612 Y149.73 E.02431
G1 X129.563 Y133.681 E1.14178
G1 X129.08 Y133.687 E.02431
G1 X145.129 Y149.736 E1.14178
G1 X144.646 Y149.742 E.02431
M73 P0 R179
G1 X128.596 Y133.693 E1.14178
G1 X128.113 Y133.698 E.02431
G1 X144.163 Y149.748 E1.14179
G1 X143.679 Y149.753 E.02431
G1 X127.63 Y133.704 E1.14179
G1 X127.147 Y133.71 E.02431
G1 X143.196 Y149.759 E1.14179
G1 X142.713 Y149.765 E.02431
G1 X126.664 Y133.716 E1.14179
G1 X126.181 Y133.721 E.02431
G1 X142.23 Y149.771 E1.14179
G1 X141.747 Y149.777 E.02431
G1 X125.698 Y133.727 E1.1418
G1 X125.214 Y133.733 E.02431
G1 X141.264 Y149.782 E1.1418
G1 X140.781 Y149.788 E.02431
G1 X124.731 Y133.739 E1.1418
G1 X124.248 Y133.744 E.02431
G1 X140.298 Y149.794 E1.1418
G1 X139.814 Y149.8 E.02431
G1 X123.765 Y133.75 E1.14181
G1 X123.282 Y133.756 E.02431
G1 X139.331 Y149.805 E1.14181
G1 X138.848 Y149.811 E.02431
G1 X122.799 Y133.762 E1.14181
G1 X122.315 Y133.767 E.02431
G1 X138.365 Y149.817 E1.14181
G1 X137.882 Y149.823 E.02431
G1 X121.832 Y133.773 E1.14181
G1 X121.349 Y133.779 E.02431
G1 X137.399 Y149.829 E1.14182
G1 X136.916 Y149.834 E.02431
G1 X120.866 Y133.785 E1.14182
G1 X120.383 Y133.79 E.02431
G1 X136.432 Y149.84 E1.14182
G1 X135.949 Y149.846 E.02431
G1 X119.9 Y133.796 E1.14182
G1 X119.416 Y133.802 E.02431
G1 X135.466 Y149.852 E1.14183
G1 X134.983 Y149.857 E.02431
G1 X118.933 Y133.808 E1.14183
G1 X118.45 Y133.813 E.02431
G1 X134.5 Y149.863 E1.14183
G1 X134.017 Y149.869 E.02431
G1 X117.967 Y133.819 E1.14183
G1 X117.484 Y133.825 E.02431
G1 X133.534 Y149.875 E1.14183
G1 X133.051 Y149.881 E.02431
G1 X117.001 Y133.831 E1.14184
G1 X116.517 Y133.836 E.02431
G1 X132.567 Y149.886 E1.14184
G1 X132.084 Y149.892 E.02431
G1 X116.034 Y133.842 E1.14184
G1 X115.551 Y133.848 E.02431
M73 P1 R179
G1 X131.601 Y149.898 E1.14184
G1 X131.118 Y149.904 E.02431
G1 X115.068 Y133.854 E1.14185
G1 X114.585 Y133.859 E.02431
G1 X130.635 Y149.909 E1.14185
G1 X130.152 Y149.915 E.02431
G1 X114.102 Y133.865 E1.14185
G1 X113.618 Y133.871 E.02431
G1 X129.669 Y149.921 E1.14185
G1 X129.185 Y149.927 E.02431
G1 X113.135 Y133.877 E1.14185
G1 X112.652 Y133.882 E.02431
G1 X128.702 Y149.933 E1.14186
G1 X128.219 Y149.938 E.02431
G1 X112.169 Y133.888 E1.14186
G1 X111.686 Y133.894 E.02431
G1 X127.736 Y149.944 E1.14186
G1 X127.253 Y149.95 E.02431
G1 X111.203 Y133.899 E1.14186
G1 X110.719 Y133.905 E.02431
G1 X126.77 Y149.956 E1.14187
G1 X126.287 Y149.961 E.02431
G1 X110.236 Y133.911 E1.14187
G1 X109.753 Y133.917 E.02431
G1 X125.804 Y149.967 E1.14187
G1 X125.32 Y149.973 E.02431
G1 X109.27 Y133.922 E1.14187
G1 X108.787 Y133.928 E.02431
G1 X124.837 Y149.979 E1.14187
G1 X124.354 Y149.984 E.02431
G1 X108.304 Y133.934 E1.14188
G1 X107.82 Y133.94 E.02431
G1 X123.871 Y149.99 E1.14188
G1 X123.388 Y149.996 E.02431
G1 X107.337 Y133.945 E1.14188
G1 X106.854 Y133.951 E.02431
G1 X122.905 Y150.002 E1.14188
G1 X122.422 Y150.008 E.02431
G1 X106.371 Y133.957 E1.14188
G1 X105.888 Y133.963 E.02431
G1 X121.938 Y150.013 E1.14189
G1 X121.455 Y150.019 E.02431
G1 X105.405 Y133.968 E1.14189
G1 X104.921 Y133.974 E.02431
G1 X120.972 Y150.025 E1.14189
G1 X120.489 Y150.031 E.02431
G1 X104.438 Y133.98 E1.14189
G1 X103.955 Y133.986 E.02431
G1 X120.006 Y150.036 E1.1419
G1 X119.523 Y150.042 E.02431
G1 X103.472 Y133.991 E1.1419
G1 X102.989 Y133.997 E.02431
G1 X119.04 Y150.048 E1.1419
G1 X118.557 Y150.054 E.02431
G1 X102.506 Y134.003 E1.1419
G1 X102.022 Y134.009 E.02431
G1 X118.073 Y150.06 E1.1419
G1 X117.59 Y150.065 E.02431
G1 X101.539 Y134.014 E1.14191
G1 X101.056 Y134.02 E.02431
G1 X117.107 Y150.071 E1.14191
G1 X116.624 Y150.077 E.02431
G1 X100.573 Y134.026 E1.14191
G1 X100.09 Y134.032 E.02431
G1 X116.141 Y150.083 E1.14191
G1 X115.658 Y150.088 E.02431
G1 X99.607 Y134.037 E1.14192
G1 X99.123 Y134.043 E.02431
G1 X115.175 Y150.094 E1.14192
G1 X114.692 Y150.1 E.02431
G1 X98.64 Y134.049 E1.14192
G1 X98.157 Y134.055 E.02431
G1 X114.208 Y150.106 E1.14192
G1 X113.725 Y150.112 E.02431
G1 X97.674 Y134.06 E1.14192
G1 X97.191 Y134.066 E.02431
G1 X113.242 Y150.117 E1.14193
G1 X112.759 Y150.123 E.02431
G1 X96.708 Y134.072 E1.14193
G1 X96.225 Y134.078 E.02431
G1 X112.276 Y150.129 E1.14193
G1 X111.793 Y150.135 E.02431
G1 X95.741 Y134.083 E1.14193
G1 X95.258 Y134.089 E.02431
G1 X111.31 Y150.14 E1.14194
G1 X110.826 Y150.146 E.02431
G1 X94.775 Y134.095 E1.14194
G1 X94.292 Y134.101 E.02431
G1 X110.343 Y150.152 E1.14194
G1 X109.86 Y150.158 E.02431
G1 X93.809 Y134.106 E1.14194
G1 X93.326 Y134.112 E.02431
M73 P1 R178
G1 X109.377 Y150.164 E1.14194
G1 X108.894 Y150.169 E.02431
G1 X92.842 Y134.118 E1.14195
G1 X92.359 Y134.123 E.02431
G1 X108.411 Y150.175 E1.14195
G1 X107.928 Y150.181 E.02431
G1 X91.876 Y134.129 E1.14195
G1 X91.393 Y134.135 E.02431
G1 X107.445 Y150.187 E1.14195
G1 X106.961 Y150.192 E.02431
G1 X90.91 Y134.141 E1.14196
G1 X90.427 Y134.146 E.02431
G1 X106.478 Y150.198 E1.14196
G1 X105.995 Y150.204 E.02431
G1 X89.943 Y134.152 E1.14196
G1 X89.46 Y134.158 E.02431
G1 X105.512 Y150.21 E1.14196
G1 X105.029 Y150.215 E.02431
G1 X88.977 Y134.164 E1.14196
G1 X88.494 Y134.169 E.02431
G1 X104.546 Y150.221 E1.14197
G1 X104.063 Y150.227 E.02431
G1 X88.011 Y134.175 E1.14197
G1 X87.528 Y134.181 E.02431
G1 X103.579 Y150.233 E1.14197
G1 X103.096 Y150.239 E.02431
G1 X87.044 Y134.187 E1.14197
G1 X86.561 Y134.192 E.02431
G1 X102.613 Y150.244 E1.14198
G1 X102.13 Y150.25 E.02431
G1 X86.078 Y134.198 E1.14198
G1 X85.595 Y134.204 E.02431
G1 X101.647 Y150.256 E1.14198
G1 X101.164 Y150.262 E.02431
G1 X85.112 Y134.21 E1.14198
G1 X84.629 Y134.215 E.02431
G1 X100.681 Y150.267 E1.14198
G1 X100.198 Y150.273 E.02431
G1 X84.145 Y134.221 E1.14199
G1 X83.662 Y134.227 E.02431
G1 X99.714 Y150.279 E1.14199
G1 X99.231 Y150.285 E.02431
G1 X83.179 Y134.233 E1.14199
G1 X82.696 Y134.238 E.02431
G1 X98.748 Y150.291 E1.14199
G1 X98.265 Y150.296 E.02431
G1 X82.213 Y134.244 E1.142
G1 X81.73 Y134.25 E.02431
G1 X97.782 Y150.302 E1.142
G1 X97.299 Y150.308 E.02431
G1 X81.246 Y134.256 E1.142
G1 X80.763 Y134.261 E.02431
G1 X96.816 Y150.314 E1.142
G1 X96.332 Y150.319 E.02431
G1 X80.28 Y134.267 E1.142
G1 X79.797 Y134.273 E.02431
G1 X95.849 Y150.325 E1.14201
G1 X95.366 Y150.331 E.02431
G1 X79.314 Y134.279 E1.14201
G1 X78.831 Y134.284 E.02431
G1 X94.883 Y150.337 E1.14201
G1 X94.4 Y150.343 E.02431
G1 X78.347 Y134.29 E1.14201
G1 X77.864 Y134.296 E.02431
G1 X93.917 Y150.348 E1.14201
G1 X93.434 Y150.354 E.02431
G1 X77.381 Y134.302 E1.14202
G1 X76.898 Y134.307 E.02431
G1 X92.951 Y150.36 E1.14202
G1 X92.467 Y150.366 E.02431
G1 X76.415 Y134.313 E1.14202
G1 X75.932 Y134.319 E.02431
G1 X91.984 Y150.371 E1.14202
G1 X91.501 Y150.377 E.02431
G1 X75.448 Y134.325 E1.14203
G1 X74.965 Y134.33 E.02431
G1 X91.018 Y150.383 E1.14203
G1 X90.535 Y150.389 E.02431
G1 X74.482 Y134.336 E1.14203
G1 X73.999 Y134.342 E.02431
G1 X90.052 Y150.395 E1.14203
G1 X89.569 Y150.4 E.02431
G1 X73.516 Y134.347 E1.14203
G1 X73.033 Y134.353 E.02431
G1 X89.085 Y150.406 E1.14204
G1 X88.602 Y150.412 E.02431
G1 X72.549 Y134.359 E1.14204
G1 X72.066 Y134.365 E.02431
G1 X88.119 Y150.418 E1.14204
G1 X87.636 Y150.423 E.02431
G1 X71.583 Y134.37 E1.14204
G1 X71.1 Y134.376 E.02431
G1 X87.153 Y150.429 E1.14205
G1 X86.67 Y150.435 E.02431
G1 X70.617 Y134.382 E1.14205
G1 X70.134 Y134.388 E.02431
G1 X86.187 Y150.441 E1.14205
G1 X85.704 Y150.446 E.02431
G1 X69.65 Y134.393 E1.14205
G1 X69.167 Y134.399 E.02431
G1 X85.22 Y150.452 E1.14205
G1 X84.737 Y150.458 E.02431
G1 X68.684 Y134.405 E1.14206
G1 X68.201 Y134.411 E.02431
G1 X84.254 Y150.464 E1.14206
G1 X83.771 Y150.47 E.02431
G1 X67.718 Y134.416 E1.14206
G1 X67.235 Y134.422 E.02431
G1 X83.288 Y150.475 E1.14206
G1 X82.805 Y150.481 E.02431
G1 X66.752 Y134.428 E1.14207
G1 X66.268 Y134.434 E.02431
G1 X82.322 Y150.487 E1.14207
G1 X81.838 Y150.493 E.02431
G1 X65.785 Y134.439 E1.14207
G1 X65.302 Y134.445 E.02431
G1 X81.355 Y150.498 E1.14207
G1 X80.872 Y150.504 E.02431
G1 X64.819 Y134.451 E1.14207
G1 X64.336 Y134.457 E.02431
G1 X80.389 Y150.51 E1.14208
G1 X79.906 Y150.516 E.02431
G1 X63.853 Y134.462 E1.14208
G1 X63.369 Y134.468 E.02431
G1 X79.423 Y150.522 E1.14208
G1 X78.94 Y150.527 E.02431
G1 X62.886 Y134.474 E1.14208
G1 X62.403 Y134.48 E.02431
G1 X78.457 Y150.533 E1.14209
G1 X77.973 Y150.539 E.02431
G1 X61.92 Y134.485 E1.14209
G1 X61.437 Y134.491 E.02431
G1 X77.49 Y150.545 E1.14209
G1 X77.007 Y150.55 E.02431
G1 X60.954 Y134.497 E1.14209
G1 X60.47 Y134.503 E.02431
G1 X76.524 Y150.556 E1.14209
G1 X76.041 Y150.562 E.02431
G1 X59.987 Y134.508 E1.1421
G1 X59.504 Y134.514 E.02431
G1 X75.558 Y150.568 E1.1421
G1 X75.075 Y150.574 E.02431
G1 X59.021 Y134.52 E1.1421
G1 X58.538 Y134.526 E.02431
G1 X74.591 Y150.579 E1.1421
G1 X74.108 Y150.585 E.02431
M73 P1 R177
G1 X58.055 Y134.531 E1.14211
G1 X57.571 Y134.537 E.02431
G1 X73.625 Y150.591 E1.14211
G1 X73.142 Y150.597 E.02431
G1 X57.088 Y134.543 E1.14211
G1 X56.605 Y134.549 E.02431
G1 X72.659 Y150.602 E1.14211
G1 X72.176 Y150.608 E.02431
G1 X56.122 Y134.554 E1.14211
G1 X55.639 Y134.56 E.02431
G1 X71.693 Y150.614 E1.14212
G1 X71.21 Y150.62 E.02431
G1 X55.156 Y134.566 E1.14212
G1 X54.672 Y134.572 E.02431
G1 X70.726 Y150.625 E1.14212
G1 X70.243 Y150.631 E.02431
G1 X54.189 Y134.577 E1.14212
G1 X53.706 Y134.583 E.02431
G1 X69.76 Y150.637 E1.14213
G1 X69.277 Y150.643 E.02431
G1 X53.223 Y134.589 E1.14213
G1 X52.74 Y134.594 E.02431
G1 X68.794 Y150.649 E1.14213
G1 X68.311 Y150.654 E.02431
G1 X52.257 Y134.6 E1.14213
G1 X51.773 Y134.606 E.02431
G1 X67.828 Y150.66 E1.14213
G1 X67.344 Y150.666 E.02431
M73 P2 R177
G1 X51.29 Y134.612 E1.14214
G1 X50.807 Y134.617 E.02431
G1 X66.861 Y150.672 E1.14214
G1 X66.378 Y150.677 E.02431
G1 X50.324 Y134.623 E1.14214
G1 X49.841 Y134.629 E.02431
G1 X65.895 Y150.683 E1.14214
G1 X65.412 Y150.689 E.02431
G1 X49.358 Y134.635 E1.14214
G1 X48.874 Y134.64 E.02431
G1 X64.929 Y150.695 E1.14215
G1 X64.446 Y150.701 E.02431
G1 X48.391 Y134.646 E1.14215
G1 X47.908 Y134.652 E.02431
G1 X63.963 Y150.706 E1.14215
G1 X63.479 Y150.712 E.02431
G1 X47.425 Y134.658 E1.14215
G1 X46.942 Y134.663 E.02431
G1 X62.996 Y150.718 E1.14216
G1 X62.513 Y150.724 E.02431
G1 X46.459 Y134.669 E1.14216
G1 X45.975 Y134.675 E.02431
G1 X62.03 Y150.729 E1.14216
