; generated by PrusaSlicer 2.5.0+win64 on 2022-12-07 at 00:31:50 UTC

; 

; external perimeters extrusion width = 1.00mm
; perimeters extrusion width = 1.00mm
; infill extrusion width = 1.00mm
; solid infill extrusion width = 1.00mm
; top infill extrusion width = 1.00mm
; support material extrusion width = 1.00mm
; first layer extrusion width = 0.42mm

M73 P0 R63
M107
;TYPE:Custom
G90 ; use absolute coordinates
M83 ; extruder relative mode
M140 S60 ; set final bed temp
M104 S150 ; set temporary nozzle temp to prevent oozing during homing and auto bed leveling
G4 S10 ; allow partial nozzle warmup
G28 ; home all axisG1 Z50 F240
G1 X7.6 Y10 F3000
M104 S210 ; set final nozzle temp
M190 S60 ; wait for bed temp to stabilize
M109 S210 ; wait for nozzle temp to stabilize
G1 Z0.28 F240
G92 E0
G1 Y140 E10 F1500 ; prime the nozzle
G1 X4 F5000
G92 E0
G1 Y10 E10 F1200 ; prime the nozzle
G92 E0
G21 ; set units to millimeters
G90 ; use absolute coordinates
M83 ; use relative distances for extrusion
; Filament gcode
M107
;LAYER_CHANGE
;Z:0.35
;HEIGHT:0.35
;BEFORE_LAYER_CHANGE
G92 E0
;0.35


G1 E-1 F3600
M73 P0 R62
G1 Z.35 F7800
;AFTER_LAYER_CHANGE
;0.35
G1 X72.336 Y25.932
G1 E1 F2400
;TYPE:Support material
;WIDTH:0.42
G1 F1800
G1 X77.042 Y25.932 E.23616
G1 X77.042 Y22.932 E.15056
G1 X79.621 Y22.932 E.12947
G1 X79.621 Y86.188 E3.17454
G1 X69.756 Y86.188 E.49509
G1 X69.756 Y22.932 E3.17454
G1 X72.336 Y22.932 E.12947
G1 X72.336 Y25.881 E.14796
G1 X79.226 Y86.033 F7800
G1 F1800
G1 X79.226 Y23.243 E3.15118
G1 X78.843 Y23.243 E.01923
G1 X78.843 Y85.878 E3.14339
G1 X78.46 Y85.878 E.01923
G1 X78.46 Y23.243 E3.14339
G1 X78.077 Y23.243 E.01923
G1 X78.077 Y85.878 E3.14339
G1 X77.693 Y85.878 E.01923
G1 X77.693 Y23.243 E3.14339
G1 X77.352 Y23.243 E.01712
G1 X77.352 Y26.243 E.15056
G1 X77.31 Y26.243 E.00211
G1 X77.31 Y85.878 E2.99283
G1 X76.927 Y85.878 E.01923
G1 X76.927 Y26.243 E2.99283
G1 X76.544 Y26.243 E.01923
G1 X76.544 Y85.878 E2.99283
G1 X76.16 Y85.878 E.01923
G1 X76.16 Y26.243 E2.99283
G1 X75.777 Y26.243 E.01923
M73 P1 R62
G1 X75.777 Y85.878 E2.99283
G1 X75.394 Y85.878 E.01923
G1 X75.394 Y26.243 E2.99283
G1 X75.011 Y26.243 E.01923
G1 X75.011 Y85.878 E2.99283
G1 X74.628 Y85.878 E.01923
G1 X74.628 Y26.243 E2.99283
G1 X74.244 Y26.243 E.01923
G1 X74.244 Y85.878 E2.99283
G1 X73.861 Y85.878 E.01923
G1 X73.861 Y26.243 E2.99283
G1 X73.478 Y26.243 E.01923
G1 X73.478 Y85.878 E2.99283
G1 X73.095 Y85.878 E.01923
G1 X73.095 Y26.243 E2.99283
G1 X72.712 Y26.243 E.01923
G1 X72.712 Y85.878 E2.99283
G1 X72.328 Y85.878 E.01923
G1 X72.328 Y26.243 E2.99283
G1 X72.026 Y26.243 E.01519
G1 X72.026 Y23.243 E.15056
G1 X71.945 Y23.243 E.00404
G1 X71.945 Y85.878 E3.14339
G1 X71.562 Y85.878 E.01923
G1 X71.562 Y23.243 E3.14339
G1 X71.179 Y23.243 E.01923
G1 X71.179 Y85.878 E3.14339
G1 X70.796 Y85.878 E.01923
G1 X70.796 Y23.243 E3.14339
G1 X70.412 Y23.243 E.01923
M73 P1 R61
G1 X70.412 Y86.033 E3.15118
G1 E-.7 F3600
;WIPE_START
G1 F6240
G1 X70.412 Y85.513 E-.285
;WIPE_END
G1 E-.015 F3600
G1 X73.441 Y25.678 F7800
G1 E1 F2400
;TYPE:Support material interface
;WIDTH:1
G1 F1800
G1 X73.441 Y15.098 E1.42387
G1 X74.334 Y15.098 E.12014
G1 X74.334 Y25.276 E1.36981
G1 X75.226 Y25.276 E.12014
G1 X75.226 Y18.441 E.91993
G1 X76.119 Y18.473 E.12022
G1 X76.119 Y25.678 E.96958
M106 S255
;LAYER_CHANGE
;Z:0.65
;HEIGHT:0.3
;BEFORE_LAYER_CHANGE
G92 E0
;0.65


G1 E-.7 F3600
;WIPE_START
G1 F6240
G1 X76.119 Y25.158 E-.285
;WIPE_END
G1 E-.015 F3600
G1 Z.65 F7800
;AFTER_LAYER_CHANGE
;0.65
M104 S205 ; set temperature
G1 X76.119 Y22.285
G1 E1 F2400
G1 F1549
G1 X76.119 Y18.473 E.44479
G1 X75.226 Y18.441 E.10424
G1 X75.226 Y21.883 E.40174
G1 X74.334 Y21.883 E.10417
G1 X74.334 Y15.098 E.79183
G1 X73.441 Y15.098 E.10417
G1 X73.441 Y22.285 E.83871
;LAYER_CHANGE
;Z:0.75
;HEIGHT:0.1
;BEFORE_LAYER_CHANGE
G92 E0
;0.75


G1 E-.7 F3600
;WIPE_START
G1 F6240
G1 X73.441 Y21.765 E-.285
;WIPE_END
G1 E-.015 F3600
G1 Z.75 F7800
;AFTER_LAYER_CHANGE
;0.75
G1 X74.325 Y17.544
G1 E1 F2400
;TYPE:Support material
G1 F1549
G1 X73.046 Y17.544 E.05204
G1 X73.046 Y15.152 E.09734
G1 X74.325 Y15.152 E.05204
G1 X74.325 Y17.407 E.09176
G1 E-.7 F3600
;WIPE_START
G1 F6240
G1 X74.325 Y16.887 E-.285
;WIPE_END
G1 E-.015 F3600
G1 X73.441 Y29.07 F7800
G1 E1 F2400
;TYPE:Support material interface
;HEIGHT:0.4
G1 F1549
G1 X73.441 Y22.83 E.94876
;HEIGHT:0.1
G1 X73.441 Y18.491 E.17653
G1 X74.334 Y18.491 E.03632
G1 X74.334 Y22.83 E.17653
;HEIGHT:0.4
G1 X74.334 Y28.669 E.88769
G1 X75.226 Y28.669 E.13571
G1 X75.226 Y22.83 E.88769
;HEIGHT:0.1
G1 X75.226 Y21.132 E.06905
M73 P2 R61
G1 X76.119 Y21.165 E.03634
G1 X76.119 Y22.83 E.06771
;HEIGHT:0.4
G1 X76.119 Y29.07 E.94876
G1 X75.921 Y32.061 F7800
;TYPE:Support material
G1 F1549
G1 X73.858 Y32.061 E.31364
G1 X73.858 Y35.454 E.51578
G1 X75.52 Y35.454 E.25257
G1 X75.52 Y38.847 E.51578
G1 X73.858 Y38.847 E.25257
G1 X73.858 Y42.239 E.51578
G1 X75.52 Y42.239 E.25257
G1 X75.52 Y45.632 E.51578
G1 X73.858 Y45.632 E.25257
G1 X73.858 Y49.025 E.51578
G1 X75.52 Y49.025 E.25257
G1 X75.52 Y52.418 E.51578
G1 X73.858 Y52.418 E.25257
G1 X73.858 Y55.81 E.51578
G1 X75.52 Y55.81 E.25257
G1 X75.52 Y59.203 E.51578
G1 X73.858 Y59.203 E.25257
G1 X73.858 Y62.596 E.51578
G1 X75.52 Y62.596 E.25257
G1 X75.52 Y65.988 E.51578
G1 X73.858 Y65.988 E.25257
G1 X73.858 Y69.381 E.51578
G1 X75.52 Y69.381 E.25257
G1 X75.52 Y72.774 E.51578
G1 X73.858 Y72.774 E.25257
G1 X73.858 Y76.166 E.51578
G1 X75.52 Y76.166 E.25257
G1 X75.52 Y79.559 E.51578
G1 X73.456 Y79.559 E.31364
G1 X76.332 Y82.761 F7800
G1 F1549
G1 X76.332 Y29.615 E8.07954
G1 X73.046 Y29.615 E.49946
G1 X73.046 Y82.898 E8.10039
G1 X76.332 Y82.898 E.49946
;LAYER_CHANGE
;Z:1.15
;HEIGHT:0.4
;BEFORE_LAYER_CHANGE
G92 E0
;1.15


G1 E-.7 F3600
;WIPE_START
G1 F6240
G1 X75.812 Y82.898 E-.285
;WIPE_END
G1 E-.015 F3600
G1 Z1.15 F7800
;AFTER_LAYER_CHANGE
;1.15
G1 X76.332 Y82.898
G1 E1 F2400
G1 F1549
G1 X73.046 Y82.898 E.49946
G1 X73.046 Y29.615 E8.10039
G1 X76.332 Y29.615 E.49946
G1 X76.332 Y82.761 E8.07954
G1 X73.456 Y79.559 F7800
G1 F1549
G1 X75.52 Y79.559 E.31364
G1 X75.52 Y76.166 E.51578
G1 X73.858 Y76.166 E.25257
G1 X73.858 Y72.774 E.51578
G1 X75.52 Y72.774 E.25257
G1 X75.52 Y69.381 E.51578
G1 X73.858 Y69.381 E.25257
G1 X73.858 Y65.988 E.51578
G1 X75.52 Y65.988 E.25257
G1 X75.52 Y62.596 E.51578
G1 X73.858 Y62.596 E.25257
G1 X73.858 Y59.203 E.51578
G1 X75.52 Y59.203 E.25257
G1 X75.52 Y55.81 E.51578
G1 X73.858 Y55.81 E.25257
G1 X73.858 Y52.418 E.51578
G1 X75.52 Y52.418 E.25257
G1 X75.52 Y49.025 E.51578
G1 X73.858 Y49.025 E.25257
G1 X73.858 Y45.632 E.51578
G1 X75.52 Y45.632 E.25257
G1 X75.52 Y42.239 E.51578
G1 X73.858 Y42.239 E.25257
G1 X73.858 Y38.847 E.51578
G1 X75.52 Y38.847 E.25257
G1 X75.52 Y35.454 E.51578
G1 X73.858 Y35.454 E.25257
G1 X73.858 Y32.061 E.51578
G1 X75.921 Y32.061 E.31364
G1 E-.7 F3600
;WIPE_START
G1 F6240
G1 X75.401 Y32.061 E-.285
;WIPE_END
G1 E-.015 F3600
G1 X76.119 Y29.07 F7800
G1 E1 F2400
;TYPE:Support material interface
G1 F1549
G1 X76.119 Y21.165 E1.2018
G1 X75.226 Y21.132 E.1358
G1 X75.226 Y28.669 E1.14571
G1 X74.334 Y28.669 E.13571
G1 X74.334 Y18.491 E1.54734
G1 X73.441 Y18.491 E.13571
G1 X73.441 Y29.07 E1.60841
;LAYER_CHANGE
;Z:1.35
;HEIGHT:0.2
;BEFORE_LAYER_CHANGE
G92 E0
;1.35


G1 E-.7 F3600
;WIPE_START
G1 F6240
G1 X73.441 Y28.55 E-.285
;WIPE_END
G1 E-.015 F3600
G1 Z1.35 F7800
;AFTER_LAYER_CHANGE
;1.35
G1 X75.504 Y15.322
G1 E1 F2400
;TYPE:External perimeter
;WIDTH:0.957301
;HEIGHT:0.5
G1 F1549
G1 X75.535 Y14.477 E.1493
;LAYER_CHANGE
;Z:1.65
;HEIGHT:0.3
;BEFORE_LAYER_CHANGE
G92 E0
;1.65


G1 E-.7 F3600
;WIPE_START
G1 F6240
G1 X75.516 Y14.997 E-.285
;WIPE_END
G1 E-.015 F3600
G1 Z1.65 F7800
;AFTER_LAYER_CHANGE
;1.65
G1 X76.119 Y32.463
G1 E1 F2400
;TYPE:Support material interface
;WIDTH:1
;HEIGHT:0.5
G1 F900
G1 X76.119 Y23.857 E1.59705
G1 X75.226 Y23.824 E.16577
G1 X75.226 Y32.061 E1.5286
G1 X74.334 Y32.061 E.16566
G1 X74.334 Y21.883 E1.88877
G1 X73.441 Y21.883 E.16566
G1 X73.441 Y32.463 E1.96331
G1 X75.93 Y35.454 F7800
;TYPE:Support material
G1 F900
G1 X73.85 Y35.454 E.38604
G1 X73.85 Y38.847 E.62958
G1 X75.528 Y38.847 E.31149
G1 X75.528 Y42.239 E.62958
G1 X73.85 Y42.239 E.31149
G1 X73.85 Y45.632 E.62958
G1 X75.528 Y45.632 E.31149
G1 X75.528 Y49.025 E.62958
G1 X73.85 Y49.025 E.31149
G1 X73.85 Y52.418 E.62958
G1 X75.528 Y52.418 E.31149
G1 X75.528 Y55.81 E.62958
G1 X73.85 Y55.81 E.31149
G1 X73.85 Y59.203 E.62958
G1 X75.528 Y59.203 E.31149
G1 X75.528 Y62.596 E.62958
G1 X73.85 Y62.596 E.31149
G1 X73.85 Y65.988 E.62958
G1 X75.528 Y65.988 E.31149
G1 X75.528 Y69.381 E.62958
G1 X73.85 Y69.381 E.31149
G1 X73.85 Y72.774 E.62958
G1 X75.528 Y72.774 E.31149
G1 X75.528 Y76.166 E.62958
G1 X73.85 Y76.166 E.31149
G1 X73.85 Y79.559 E.62958
G1 X75.93 Y79.559 E.38604
G1 X76.332 Y82.764 F7800
G1 F900
G1 X76.332 Y33.008 E9.23336
G1 X73.046 Y33.008 E.60967
G1 X73.046 Y82.898 E9.2582
G1 X76.332 Y82.898 E.60967
;LAYER_CHANGE
;Z:1.85
;HEIGHT:0.2
;BEFORE_LAYER_CHANGE
G92 E0
;1.85


G1 E-.7 F3600
;WIPE_START
G1 F6240
G1 X75.812 Y82.898 E-.285
;WIPE_END
G1 E-.015 F3600
G1 Z1.85 F7800
;AFTER_LAYER_CHANGE
;1.85
G1 X75.504 Y18.013
G1 E1 F2400
;TYPE:External perimeter
;WIDTH:0.957301
;HEIGHT:0.5
G1 F900
G1 X75.631 Y14.573 E.60835
;LAYER_CHANGE
;Z:2.15
;HEIGHT:0.3
;BEFORE_LAYER_CHANGE
G92 E0
;2.15


G1 E-.7 F3600
;WIPE_START
G1 F6240
G1 X75.612 Y15.092 E-.285
;WIPE_END
G1 E-.015 F3600
G1 Z2.15 F7800
;AFTER_LAYER_CHANGE
;2.15
G1 X76.119 Y35.856
G1 E1 F2400
;TYPE:Support material interface
;WIDTH:1
;HEIGHT:0.5
G1 F900
G1 X76.119 Y26.549 E1.72713
G1 X75.226 Y26.516 E.16577
M73 P3 R61
G1 X75.226 Y35.454 E1.65867
G1 X74.334 Y35.454 E.16566
G1 X74.334 Y25.276 E1.88877
G1 X73.441 Y25.276 E.16566
G1 X73.441 Y35.856 E1.96331
G1 X75.93 Y38.847 F7800
;TYPE:Support material
G1 F900
G1 X73.85 Y38.847 E.38604
G1 X73.85 Y42.239 E.62958
G1 X75.528 Y42.239 E.31149
G1 X75.528 Y45.632 E.62958
G1 X73.85 Y45.632 E.31149
G1 X73.85 Y49.025 E.62958
G1 X75.528 Y49.025 E.31149
G1 X75.528 Y52.418 E.62958
G1 X73.85 Y52.418 E.31149
G1 X73.85 Y55.81 E.62958
G1 X75.528 Y55.81 E.31149
G1 X75.528 Y59.203 E.62958
G1 X73.85 Y59.203 E.31149
G1 X73.85 Y62.596 E.62958
G1 X75.528 Y62.596 E.31149
G1 X75.528 Y65.988 E.62958
G1 X73.85 Y65.988 E.31149
G1 X73.85 Y69.381 E.62958
G1 X75.528 Y69.381 E.31149
G1 X75.528 Y72.774 E.62958
G1 X73.85 Y72.774 E.31149
G1 X73.85 Y76.166 E.62958
G1 X75.528 Y76.166 E.31149
G1 X75.528 Y79.559 E.62958
G1 X73.448 Y79.559 E.38604
G1 X76.332 Y82.764 F7800
G1 F900
G1 X76.332 Y36.4 E8.60377
G1 X73.046 Y36.4 E.60967
G1 X73.046 Y82.898 E8.62862
G1 X76.332 Y82.898 E.60967
;LAYER_CHANGE
;Z:2.35
;HEIGHT:0.2
;BEFORE_LAYER_CHANGE
G92 E0
;2.35


M73 P3 R60
G1 E-.7 F3600
;WIPE_START
G1 F6240
G1 X75.812 Y82.898 E-.285
;WIPE_END
G1 E-.015 F3600
G1 Z2.35 F7800
;AFTER_LAYER_CHANGE
;2.35
G1 X75.504 Y20.705
G1 E1 F2400
;TYPE:External perimeter
;WIDTH:0.957301
;HEIGHT:0.5
G1 F900
G1 X75.726 Y14.668 E1.06741
;LAYER_CHANGE
;Z:2.65
;HEIGHT:0.3
;BEFORE_LAYER_CHANGE
G92 E0
;2.65


G1 E-.7 F3600
;WIPE_START
G1 F6240
G1 X75.707 Y15.188 E-.285
;WIPE_END
G1 E-.015 F3600
G1 Z2.65 F7800
;AFTER_LAYER_CHANGE
;2.65
G1 X76.119 Y39.249
G1 E1 F2400
;TYPE:Support material interface
;WIDTH:1
;HEIGHT:0.5
G1 F900
G1 X76.119 Y29.24 E1.8572
G1 X75.226 Y29.208 E.16577
G1 X75.226 Y38.847 E1.78875
G1 X74.334 Y38.847 E.16566
G1 X74.334 Y25.276 E2.51835
G1 X73.441 Y25.276 E.16566
G1 X73.441 Y39.249 E2.5929
G1 X75.93 Y42.239 F7800
;TYPE:Support material
G1 F900
G1 X73.85 Y42.239 E.38604
G1 X73.85 Y45.632 E.62958
G1 X75.528 Y45.632 E.31149
G1 X75.528 Y49.025 E.62958
G1 X73.85 Y49.025 E.31149
G1 X73.85 Y52.418 E.62958
G1 X75.528 Y52.418 E.31149
G1 X75.528 Y55.81 E.62958
G1 X73.85 Y55.81 E.31149
G1 X73.85 Y59.203 E.62958
G1 X75.528 Y59.203 E.31149
G1 X75.528 Y62.596 E.62958
G1 X73.85 Y62.596 E.31149
G1 X73.85 Y65.988 E.62958
G1 X75.528 Y65.988 E.31149
G1 X75.528 Y69.381 E.62958
G1 X73.85 Y69.381 E.31149
G1 X73.85 Y72.774 E.62958
G1 X75.528 Y72.774 E.31149
G1 X75.528 Y76.166 E.62958
G1 X73.85 Y76.166 E.31149
G1 X73.85 Y79.559 E.62958
G1 X75.93 Y79.559 E.38604
G1 X76.332 Y82.764 F7800
G1 F900
G1 X76.332 Y39.793 E7.97419
G1 X73.046 Y39.793 E.60967
G1 X73.046 Y82.898 E7.99903
G1 X76.332 Y82.898 E.60967
;LAYER_CHANGE
;Z:2.85
;HEIGHT:0.2
;BEFORE_LAYER_CHANGE
G92 E0
;2.85


G1 E-.7 F3600
;WIPE_START
G1 F6240
G1 X75.812 Y82.898 E-.285
;WIPE_END
G1 E-.015 F3600
G1 Z2.85 F7800
;AFTER_LAYER_CHANGE
;2.85
G1 X75.504 Y23.397
G1 E1 F2400
;TYPE:External perimeter
;WIDTH:0.992759
;HEIGHT:0.5
G1 F900
G1 X75.822 Y14.764 E1.59015
;LAYER_CHANGE
;Z:3.15
;HEIGHT:0.3
;BEFORE_LAYER_CHANGE
G92 E0
;3.15


G1 E-.7 F3600
;WIPE_START
G1 F6240
G1 X75.803 Y15.283 E-.285
;WIPE_END
G1 E-.015 F3600
G1 Z3.15 F7800
;AFTER_LAYER_CHANGE
;3.15
G1 X76.119 Y42.641
G1 E1 F2400
;TYPE:Support material interface
;WIDTH:1
;HEIGHT:0.5
G1 F900
G1 X76.119 Y31.932 E1.98728
G1 X75.226 Y31.899 E.16577
G1 X75.226 Y42.24 E1.91882
G1 X74.334 Y42.24 E.16566
G1 X74.334 Y28.669 E2.51835
G1 X73.441 Y28.669 E.16566
G1 X73.441 Y42.641 E2.5929
G1 X75.93 Y45.632 F7800
;TYPE:Support material
G1 F900
G1 X73.85 Y45.632 E.38604
G1 X73.85 Y49.025 E.62958
G1 X75.528 Y49.025 E.31149
G1 X75.528 Y52.418 E.62958
G1 X73.85 Y52.418 E.31149
G1 X73.85 Y55.81 E.62958
G1 X75.528 Y55.81 E.31149
G1 X75.528 Y59.203 E.62958
G1 X73.85 Y59.203 E.31149
G1 X73.85 Y62.596 E.62958
G1 X75.528 Y62.596 E.31149
G1 X75.528 Y65.988 E.62958
G1 X73.85 Y65.988 E.31149
G1 X73.85 Y69.381 E.62958
G1 X75.528 Y69.381 E.31149
G1 X75.528 Y72.774 E.62958
G1 X73.85 Y72.774 E.31149
M73 P4 R60
G1 X73.85 Y76.166 E.62958
G1 X75.528 Y76.166 E.31149
G1 X75.528 Y79.559 E.62958
G1 X73.448 Y79.559 E.38604
G1 X76.332 Y82.764 F7800
G1 F900
G1 X76.332 Y43.186 E7.3446
G1 X73.046 Y43.186 E.60967
G1 X73.046 Y82.898 E7.36945
G1 X76.332 Y82.898 E.60967
;LAYER_CHANGE
;Z:3.35
;HEIGHT:0.2
;BEFORE_LAYER_CHANGE
G92 E0
;3.35


G1 E-.7 F3600
;WIPE_START
G1 F6240
G1 X75.812 Y82.898 E-.285
;WIPE_END
G1 E-.015 F3600
G1 Z3.35 F7800
;AFTER_LAYER_CHANGE
;3.35
G1 X75.504 Y26.089
G1 E1 F2400
;TYPE:External perimeter
;WIDTH:1.00258
;HEIGHT:0.5
G1 F900
G1 X75.587 Y23.843 E.41826
;WIDTH:1.04785
G1 X75.67 Y21.597 E.43941
;WIDTH:1.09313
G1 X75.752 Y19.351 E.46056
;WIDTH:1.1384
G1 X75.835 Y17.105 E.48171
;WIDTH:1.18367
G1 X75.917 Y14.859 E.50287
;LAYER_CHANGE
;Z:3.65
;HEIGHT:0.3
;BEFORE_LAYER_CHANGE
G92 E0
;3.65


G1 E-.7 F3600
;WIPE_START
G1 F6240
G1 X75.898 Y15.379 E-.285
;WIPE_END
G1 E-.015 F3600
G1 Z3.65 F7800
;AFTER_LAYER_CHANGE
;3.65
G1 X76.119 Y42.641
G1 E1 F2400
;TYPE:Support material interface
;WIDTH:1
;HEIGHT:0.5
G1 F900
G1 X76.119 Y34.624 E1.48777
G1 X75.226 Y34.591 E.16577
G1 X75.226 Y42.24 E1.41931
G1 X74.334 Y42.24 E.16566
G1 X74.334 Y32.061 E1.88877
G1 X73.441 Y32.061 E.16566
G1 X73.441 Y42.641 E1.96331
G1 X75.93 Y45.632 F7800
;TYPE:Support material
G1 F900
G1 X73.85 Y45.632 E.38604
G1 X73.85 Y49.025 E.62958
G1 X75.528 Y49.025 E.31149
G1 X75.528 Y52.418 E.62958
G1 X73.85 Y52.418 E.31149
G1 X73.85 Y55.81 E.62958
G1 X75.528 Y55.81 E.31149
G1 X75.528 Y59.203 E.62958
G1 X73.85 Y59.203 E.31149
G1 X73.85 Y62.596 E.62958
G1 X75.528 Y62.596 E.31149
G1 X75.528 Y65.988 E.62958
G1 X73.85 Y65.988 E.31149
G1 X73.85 Y69.381 E.62958
G1 X75.528 Y69.381 E.31149
G1 X75.528 Y72.774 E.62958
G1 X73.85 Y72.774 E.31149
G1 X73.85 Y76.166 E.62958
G1 X75.528 Y76.166 E.31149
G1 X75.528 Y79.559 E.62958
G1 X73.448 Y79.559 E.38604
G1 X76.332 Y82.764 F7800
G1 F900
G1 X76.332 Y43.186 E7.3446
G1 X73.046 Y43.186 E.60967
G1 X73.046 Y82.898 E7.36945
G1 X76.332 Y82.898 E.60967
;LAYER_CHANGE
;Z:3.85
;HEIGHT:0.2
;BEFORE_LAYER_CHANGE
G92 E0
;3.85


G1 E-.7 F3600
;WIPE_START
G1 F6240
G1 X75.812 Y82.898 E-.285
;WIPE_END
G1 E-.015 F3600
G1 Z3.85 F7800
;AFTER_LAYER_CHANGE
;3.85
G1 X75.504 Y28.78
G1 E1 F2400
;TYPE:External perimeter
;WIDTH:1.00367
;HEIGHT:0.5
G1 F900
G1 X75.561 Y27.244 E.28644
;WIDTH:1.05003
G1 X75.617 Y25.708 E.30125
;WIDTH:1.0964
G1 X75.674 Y24.172 E.31607
;WIDTH:1.14276
G1 X75.73 Y22.636 E.33089
;WIDTH:1.18913
G1 X75.787 Y21.099 E.3457
;WIDTH:1.23549
G1 X75.843 Y19.563 E.36052
;WIDTH:1.28186
G1 X75.9 Y18.027 E.37534
;WIDTH:1.32822
G1 X75.956 Y16.491 E.39015
;WIDTH:1.37459
