; generated by PrusaSlicer 2.5.0+win64 on 2022-12-07 at 00:31:43 UTC

; 

; external perimeters extrusion width = 1.00mm
; perimeters extrusion width = 1.00mm
; infill extrusion width = 1.00mm
; solid infill extrusion width = 1.00mm
; top infill extrusion width = 1.00mm
; support material extrusion width = 1.00mm
; first layer extrusion width = 0.42mm

M73 P0 R263
M107
;TYPE:Custom
G90 ; use absolute coordinates
M83 ; extruder relative mode
M140 S60 ; set final bed temp
M104 S150 ; set temporary nozzle temp to prevent oozing during homing and auto bed leveling
G4 S10 ; allow partial nozzle warmup
G28 ; home all axisG1 Z50 F240
G1 X7.6 Y10 F3000
M104 S210 ; set final nozzle temp
M190 S60 ; wait for bed temp to stabilize
M109 S210 ; wait for nozzle temp to stabilize
G1 Z0.28 F240
G92 E0
G1 Y140 E10 F1500 ; prime the nozzle
G1 X4 F5000
G92 E0
G1 Y10 E10 F1200 ; prime the nozzle
G92 E0
G21 ; set units to millimeters
G90 ; use absolute coordinates
M83 ; use relative distances for extrusion
; Filament gcode
M107
;LAYER_CHANGE
;Z:0.35
;HEIGHT:0.35
;BEFORE_LAYER_CHANGE
G92 E0
;0.35


G1 E-1 F3600
G1 Z.35 F7800
;AFTER_LAYER_CHANGE
;0.35
G1 X13.674 Y128.959
G1 E1 F2400
;TYPE:Support material interface
;WIDTH:1
G1 F1800
G1 X13.674 Y116.888 E1.62461
G1 X13.029 Y109.021 E1.06232
G1 X13.026 Y96.785 E1.6467
G1 X12.781 Y96.785 E.03291
G1 X12.781 Y131.114 E4.62008
G1 X11.311 Y131.369 F7800
;TYPE:Support material
;WIDTH:0.42
G1 F1800
G1 X13.435 Y131.369 E.10658
G1 X13.263 Y131.669 E.01735
G1 X13.262 Y153.18 E1.07956
G1 X13.975 Y153.591 E.04129
G1 X18.597 Y150.899 E.26844
G1 X18.597 Y178.054 E1.3628
G1 X8.732 Y178.054 E.49509
G1 X8.732 Y128.369 E2.49348
G1 X11.311 Y128.369 E.12947
G1 X11.311 Y131.317 E.14796
G1 E-.7 F3600
;WIPE_START
G1 F6240
G1 X11.311 Y130.797 E-.285
;WIPE_END
G1 E-.015 F3600
G1 X17.957 Y177.899 F7800
G1 E1 F2400
G1 F1800
G1 X17.957 Y151.631 E1.31827
G1 X17.573 Y151.854 E.02226
G1 X17.573 Y177.743 E1.29928
G1 X17.19 Y177.743 E.01923
G1 X17.19 Y152.077 E1.28808
G1 X16.807 Y152.3 E.02226
G1 X16.807 Y177.743 E1.27688
G1 X16.424 Y177.743 E.01923
G1 X16.424 Y152.524 E1.26567
G1 X16.04 Y152.747 E.02226
G1 X16.04 Y177.743 E1.25447
G1 X15.657 Y177.743 E.01923
G1 X15.657 Y152.97 E1.24327
G1 X15.274 Y153.193 E.02226
G1 X15.274 Y177.743 E1.23207
G1 X14.891 Y177.743 E.01923
G1 X14.891 Y153.416 E1.22087
G1 X14.508 Y153.64 E.02226
G1 X14.508 Y177.743 E1.20967
G1 X14.124 Y177.743 E.01923
G1 X14.124 Y153.863 E1.19847
G1 X13.976 Y153.949 E.00864
G1 X13.741 Y153.814 E.01358
G1 X13.741 Y177.743 E1.2009
G1 X13.358 Y177.743 E.01923
G1 X13.358 Y153.593 E1.21198
G1 X12.975 Y153.373 E.0222
G1 X12.975 Y177.743 E1.22307
G1 X12.592 Y177.743 E.01923
G1 X12.592 Y131.679 E2.31177
G1 X12.208 Y131.679 E.01923
G1 X12.208 Y177.743 E2.31177
G1 X11.825 Y177.743 E.01923
G1 X11.825 Y131.679 E2.31177
G1 X11.442 Y131.679 E.01923
G1 X11.442 Y177.743 E2.31177
G1 X11.059 Y177.743 E.01923
G1 X11.059 Y131.679 E2.31177
G1 X11.001 Y131.679 E.00289
G1 X11.001 Y128.679 E.15056
G1 X10.676 Y128.679 E.01634
G1 X10.676 Y177.743 E2.46233
G1 X10.292 Y177.743 E.01923
G1 X10.292 Y128.679 E2.46233
G1 X9.909 Y128.679 E.01923
G1 X9.909 Y177.743 E2.46233
G1 X9.526 Y177.743 E.01923
G1 X9.526 Y128.679 E2.46233
G1 X9.143 Y128.679 E.01923
G1 X9.143 Y177.899 E2.47011
G1 E-.7 F3600
;WIPE_START
G1 F6240
G1 X9.143 Y177.379 E-.285
;WIPE_END
G1 E-.015 F3600
G1 X16.263 Y129.702 F7800
G1 E1 F2400
G1 F1800
G1 X13.683 Y131.205 E.14984
G1 X13.683 Y130.671 E.02682
G1 X13.76 Y130.537 E.00777
G1 X14.718 Y129.979 E.05562
G1 X14.634 Y129.668 E.01615
G1 X13.683 Y129.668 E.04772
G1 X13.683 Y129.605 E.00317
G1 X13.773 Y129.35 E.01356
G1 X13.92 Y129.167 E.0118
G1 X13.954 Y128.369 E.04007
G1 X16.263 Y128.369 E.11588
G1 X16.263 Y129.65 E.06431
G1 X15.657 Y129.875 F7800
G1 F1800
G1 X15.657 Y128.679 E.06002
G1 X15.274 Y128.679 E.01923
G1 X15.274 Y129.919 E.06222
G1 X15.057 Y130.045 E.01259
G1 X14.891 Y129.429 E.03204
G1 X14.891 Y128.679 E.03763
G1 X14.508 Y128.679 E.01923
G1 X14.508 Y129.513 E.04183
G1 E-.7 F3600
;WIPE_START
G1 F6240
G1 X14.508 Y128.993 E-.285
;WIPE_END
G1 E-.015 F3600
G1 X86.673 Y82.856 F7800
G1 E1 F2400
;TYPE:Perimeter
;WIDTH:0.42
G1 F1800
G1 X86.66 Y82.936 E.00404
G1 X88.51 Y105.519 E1.13714
G1 X78.071 Y109.242 E.55619
G1 X77.86 Y109.383 E.01275
G1 X70.241 Y117.862 E.57207
G1 X63.119 Y122.884 E.43737
G1 X50.088 Y128.941 E.72112
G1 X49.98 Y129.009 E.00643
G1 X40.723 Y136.548 E.59917
G1 X14.528 Y151.805 E1.52133
G1 X14.528 Y132.177 E.98504
G1 X18.966 Y129.591 E.25776
G1 X19.157 Y129.396 E.0137
G1 X19.222 Y129.166 E.01202
G1 X19.449 Y123.662 E.27647
G1 X16.502 Y87.933 E1.79917
G1 X17.671 Y86.531 E.09161
M73 P0 R262
G1 X17.743 Y86.418 E.00673
G1 X17.789 Y86.156 E.01334
G1 X17.746 Y85.64 E.02598
G1 X18.319 Y84.872 E.04809
G1 X20.926 Y84.341 E.13352
G1 X31.484 Y80.64 E.56149
G1 X31.696 Y80.474 E.01347
G1 X35.792 Y75.01 E.34272
G1 X36.526 Y74.962 E.03692
G1 X69.556 Y68.086 E1.69314
G1 X74.638 Y67.792 E.2555
G1 X77.751 Y67.635 E.1564
G1 X108.969 Y61.169 E1.59994
G1 X110.042 Y61.004 E.05452
G1 X125.252 Y60.274 E.76418
G1 X129.965 Y59.293 E.24162
G1 X133.805 Y59.105 E.19293
G1 X134.307 Y59.008 E.02566
G1 X134.37 Y59.07 E.00443
G1 X134.775 Y59.05 E.02035
G1 X146.578 Y56.628 E.60468
G1 X146.727 Y56.573 E.00798
G1 X153.773 Y52.624 E.40536
G1 X154.092 Y52.368 E.02055
G1 X154.151 Y52.254 E.0064
G1 X154.341 Y52.147 E.01096
G1 X154.747 Y51.817 E.02628
G1 X156.463 Y50.856 E.09867
G1 X157.956 Y50.201 E.08181
G1 X158.225 Y50.029 E.01602
G1 X164.81 Y46.471 E.37562
G1 X165.474 Y46.589 E.03385
G1 X165.474 Y70.305 E1.19024
G1 X160.681 Y64.906 E.36233
G1 X160.483 Y64.768 E.01211
G1 X160.302 Y64.732 E.00924
G1 X160.043 Y64.798 E.01344
G1 X153.659 Y68.347 E.36658
G1 X151.509 Y70.132 E.14019
G1 X144.628 Y70.478 E.3458
G1 X87.071 Y82.387 E2.94971
G1 X86.868 Y82.478 E.0112
G1 X86.696 Y82.708 E.01438
G1 X87.004 Y82.908 F7800
;TYPE:External perimeter
G1 F1800
G1 X88.875 Y105.755 E1.15044
G1 X78.187 Y109.567 E.56948
G1 X78.117 Y109.614 E.00425
G1 X70.472 Y118.122 E.57402
G1 X63.292 Y123.184 E.44088
G1 X50.234 Y129.253 E.72268
G1 X40.919 Y136.832 E.60265
G1 X14.183 Y152.405 E1.5528
G1 X14.183 Y131.979 E1.0251
G1 X18.805 Y129.285 E.26849
G1 X18.877 Y129.151 E.00761
G1 X19.105 Y123.69 E.27432
G1 X16.146 Y87.82 E1.80626
G1 X17.406 Y86.31 E.0987
G1 X17.446 Y86.185 E.00658
G1 X17.391 Y85.539 E.03255
G1 X18.122 Y84.56 E.06128
G1 X20.812 Y84.015 E.13776
G1 X31.339 Y80.327 E.55979
G1 X31.42 Y80.267 E.00504
G1 X35.612 Y74.675 E.35075
G1 X36.456 Y74.624 E.04242
G1 X69.522 Y67.743 E1.69498
G1 X74.62 Y67.448 E.2563
G1 X77.681 Y67.297 E.1538
G1 X108.907 Y60.83 E1.60038
G1 X110.008 Y60.66 E.05587
G1 X125.235 Y59.929 E.76509
G1 X129.921 Y58.949 E.24026
G1 X133.788 Y58.761 E.1943
G1 X134.327 Y58.652 E.02761
G1 X134.404 Y58.727 E.00537
G1 X134.706 Y58.712 E.01516
G1 X146.509 Y56.29 E.60468
G1 X153.605 Y52.323 E.40799
G1 X153.859 Y52.113 E.01655
G1 X153.885 Y52.008 E.00546
G1 X154.173 Y51.847 E.01655
G1 X154.55 Y51.532 E.02466
G1 X156.309 Y50.547 E.10117
G1 X157.817 Y49.885 E.08266
G1 X158.045 Y49.734 E.01374
G1 X164.752 Y46.111 E.38253
G1 X165.819 Y46.299 E.0544
G1 X165.819 Y71.213 E1.25032
G1 X160.423 Y65.135 E.40789
G1 X160.357 Y65.089 E.00404
G1 X160.21 Y65.099 E.00738
G1 X153.826 Y68.649 E.36658
G1 X151.642 Y70.471 E.14275
G1 X144.697 Y70.815 E.34896
G1 X87.141 Y82.725 E2.94968
G1 X87.06 Y82.769 E.00461
G1 X86.012 Y83.031 F7800
G1 E-.7 F3600
;WIPE_START
G1 F6240
G1 X87.101 Y83.287 E-.285
;WIPE_END
G1 E-.015 F3600
G1 X164.663 Y46.668 F7800
G1 E1 F2400
;TYPE:Solid infill
;WIDTH:0.420254
G1 F1800
G1 X165.215 Y47.221 E.03924
G1 X165.215 Y47.709 E.02451
G1 X164.461 Y46.954 E.05361
G1 X164.144 Y47.125 E.01809
G1 X165.215 Y48.197 E.07612
G1 X165.215 Y48.685 E.02451
G1 X163.827 Y47.296 E.09863
G1 X163.51 Y47.468 E.01809
G1 X165.215 Y49.173 E.12114
G1 X165.215 Y49.661 E.02451
G1 X163.193 Y47.639 E.14365
G1 X162.876 Y47.81 E.01809
G1 X165.215 Y50.149 E.16616
G1 X165.215 Y50.637 E.02451
G1 X162.559 Y47.981 E.18867
G1 X162.242 Y48.152 E.01809
G1 X165.215 Y51.126 E.21118
G1 X165.215 Y51.614 E.02451
G1 X161.925 Y48.324 E.23369
G1 X161.608 Y48.495 E.01809
G1 X165.215 Y52.102 E.25619
G1 X165.215 Y52.59 E.02451
G1 X161.292 Y48.666 E.2787
G1 X160.975 Y48.837 E.01809
G1 X165.215 Y53.078 E.30121
G1 X165.215 Y53.566 E.02451
G1 X160.658 Y49.008 E.32372
G1 X160.341 Y49.18 E.01809
G1 X165.215 Y54.054 E.34623
G1 X165.215 Y54.542 E.02451
G1 X160.024 Y49.351 E.36874
G1 X159.707 Y49.522 E.01809
G1 X165.215 Y55.03 E.39125
G1 X165.215 Y55.519 E.02451
G1 X159.39 Y49.693 E.41376
G1 X159.073 Y49.864 E.01809
G1 X165.215 Y56.007 E.43627
G1 X165.215 Y56.495 E.02451
G1 X158.756 Y50.035 E.45878
G1 X158.439 Y50.207 E.01809
G1 X165.215 Y56.983 E.48128
G1 X165.215 Y57.471 E.02451
G1 X158.136 Y50.391 E.50286
G1 X157.806 Y50.549 E.01838
G1 X165.215 Y57.959 E.52629
G1 X165.215 Y58.447 E.02451
G1 X157.466 Y50.698 E.55039
G1 X157.127 Y50.847 E.01861
G1 X165.215 Y58.935 E.57449
G1 X165.215 Y59.423 E.02451
G1 X156.788 Y50.996 E.59859
G1 X156.459 Y51.155 E.01836
G1 X165.215 Y59.912 E.62197
G1 X165.215 Y60.4 E.02451
G1 X156.146 Y51.33 E.64419
G1 X155.833 Y51.505 E.01801
G1 X165.215 Y60.888 E.66641
G1 X165.215 Y61.376 E.02451
G1 X155.52 Y51.68 E.68863
G1 X155.207 Y51.856 E.01801
G1 X165.215 Y61.864 E.71085
G1 X165.215 Y62.352 E.02451
G1 X154.894 Y52.031 E.73306
G1 X154.629 Y52.254 E.0174
G1 X165.215 Y62.84 E.75191
G1 X165.215 Y63.328 E.02451
G1 X154.354 Y52.467 E.77142
G1 X154.095 Y52.695 E.01737
G1 X165.215 Y63.816 E.78988
G1 X165.215 Y64.304 E.02451
G1 X153.811 Y52.9 E.81004
G1 X153.498 Y53.075 E.01801
G1 X165.215 Y64.793 E.83226
G1 X165.215 Y65.281 E.02451
G1 X153.185 Y53.25 E.85448
G1 X152.872 Y53.425 E.01801
G1 X165.215 Y65.769 E.8767
G1 X165.215 Y66.257 E.02451
G1 X152.559 Y53.601 E.89891
G1 X152.247 Y53.776 E.01801
G1 X165.215 Y66.745 E.92113
G1 X165.215 Y67.233 E.02451
G1 X151.934 Y53.951 E.94335
G1 X151.621 Y54.127 E.01801
G1 X165.215 Y67.721 E.96556
G1 X165.215 Y68.209 E.02451
G1 X151.308 Y54.302 E.98778
G1 X150.995 Y54.477 E.01801
G1 X165.215 Y68.697 E1.01
G1 X165.215 Y69.186 E.02451
G1 X150.683 Y54.653 E1.03222
G1 X150.37 Y54.828 E.01801
G1 X160.064 Y64.522 E.68852
G1 X159.924 Y64.567 E.00737
G1 X159.729 Y64.676 E.01118
G1 X150.057 Y55.003 E.687
G1 X149.744 Y55.178 E.01801
G1 X159.416 Y64.85 E.68694
G1 X159.102 Y65.025 E.01803
G1 X149.431 Y55.354 E.68688
G1 X149.118 Y55.529 E.01801
G1 X158.788 Y65.199 E.68682
G1 X158.475 Y65.374 E.01803
G1 X148.806 Y55.704 E.68676
G1 X148.493 Y55.88 E.01801
G1 X158.161 Y65.548 E.6867
G1 X157.848 Y65.722 E.01803
G1 X148.18 Y56.055 E.68664
G1 X147.867 Y56.23 E.01801
G1 X157.534 Y65.897 E.68658
G1 X157.22 Y66.071 E.01803
G1 X147.554 Y56.406 E.68652
G1 X147.242 Y56.581 E.01801
G1 X156.907 Y66.246 E.68645
G1 X156.593 Y66.42 E.01803
G1 X146.929 Y56.756 E.68639
G1 X146.848 Y56.802 E.00466
G1 X146.577 Y56.892 E.01435
G1 X156.279 Y66.595 E.68911
G1 X155.966 Y66.769 E.01803
G1 X146.172 Y56.976 E.69559
G1 X145.767 Y57.059 E.02076
G1 X155.652 Y66.944 E.70208
G1 X155.338 Y67.118 E.01803
G1 X145.362 Y57.142 E.70857
G1 X144.957 Y57.225 E.02076
G1 X155.025 Y67.292 E.71506
G1 X154.711 Y67.467 E.01803
G1 X144.552 Y57.308 E.72154
G1 X144.147 Y57.391 E.02076
G1 X154.397 Y67.641 E.72803
G1 X154.084 Y67.816 E.01803
G1 X143.742 Y57.474 E.73452
G1 X143.337 Y57.557 E.02076
G1 X153.77 Y67.99 E.74101
G1 X153.463 Y68.171 E.0179
G1 X142.932 Y57.64 E.74797
G1 X142.527 Y57.723 E.02076
G1 X153.196 Y68.393 E.7578
G1 X152.93 Y68.614 E.01741
G1 X142.122 Y57.807 E.76764
G1 X141.717 Y57.89 E.02076
G1 X152.663 Y68.836 E.77747
G1 X152.397 Y69.058 E.01741
G1 X141.312 Y57.973 E.7873
G1 X140.907 Y58.056 E.02076
G1 X152.13 Y69.279 E.79714
G1 X151.864 Y69.501 E.01741
G1 X140.502 Y58.139 E.80697
G1 X140.097 Y58.222 E.02076
M73 P0 R261
G1 X151.597 Y69.722 E.81681
G1 X151.41 Y69.878 E.01222
G1 X151.272 Y69.885 E.00697
G1 X139.692 Y58.305 E.82245
G1 X139.287 Y58.388 E.02076
G1 X150.807 Y69.908 E.81821
G1 X150.342 Y69.932 E.02336
G1 X138.882 Y58.471 E.81398
G1 X138.477 Y58.555 E.02076
G1 X149.878 Y69.955 E.80974
G1 X149.413 Y69.979 E.02336
G1 X138.072 Y58.638 E.80551
G1 X137.667 Y58.721 E.02076
G1 X148.948 Y70.002 E.80127
G1 X148.484 Y70.026 E.02336
G1 X137.262 Y58.804 E.79704
G1 X136.857 Y58.887 E.02076
G1 X148.019 Y70.049 E.7928
G1 X147.555 Y70.073 E.02336
G1 X136.452 Y58.97 E.78857
G1 X136.047 Y59.053 E.02076
G1 X147.09 Y70.096 E.78434
G1 X146.625 Y70.12 E.02336
G1 X135.642 Y59.136 E.7801
G1 X135.237 Y59.219 E.02076
G1 X146.161 Y70.143 E.77587
G1 X145.696 Y70.167 E.02336
G1 X134.832 Y59.302 E.77163
G1 X134.372 Y59.331 E.02314
G1 X145.231 Y70.19 E.7713
G1 X144.767 Y70.214 E.02336
G1 X133.902 Y59.348 E.7717
G1 X133.447 Y59.382 E.02291
G1 X144.338 Y70.273 E.7736
G1 X143.934 Y70.357 E.02074
G1 X132.981 Y59.404 E.77792
G1 X132.516 Y59.427 E.0234
G1 X143.53 Y70.441 E.78225
G1 X143.125 Y70.524 E.02074
G1 X132.051 Y59.45 E.78658
G1 X131.585 Y59.472 E.0234
G1 X142.721 Y70.608 E.79091
G1 X142.316 Y70.692 E.02074
G1 X131.12 Y59.495 E.79524
G1 X130.654 Y59.518 E.0234
G1 X141.912 Y70.775 E.79957
G1 X141.508 Y70.859 E.02074
G1 X130.189 Y59.541 E.8039
G1 X129.998 Y59.55 E.0096
G1 X129.76 Y59.599 E.01223
G1 X141.103 Y70.943 E.80567
G1 X140.699 Y71.026 E.02074
G1 X129.356 Y59.683 E.80565
G1 X128.951 Y59.767 E.02073
G1 X140.294 Y71.11 E.80563
G1 X139.89 Y71.194 E.02074
G1 X128.547 Y59.851 E.80561
G1 X128.143 Y59.935 E.02073
G1 X139.485 Y71.277 E.8056
G1 X139.081 Y71.361 E.02074
G1 X127.739 Y60.019 E.80558
G1 X127.335 Y60.103 E.02073
G1 X138.677 Y71.445 E.80556
G1 X138.272 Y71.529 E.02074
G1 X126.931 Y60.187 E.80554
G1 X126.526 Y60.271 E.02073
G1 X137.868 Y71.612 E.80553
G1 X137.463 Y71.696 E.02074
G1 X126.122 Y60.355 E.80551
G1 X125.718 Y60.439 E.02073
G1 X137.059 Y71.78 E.80549
G1 X136.654 Y71.863 E.02074
G1 X125.314 Y60.523 E.80547
G1 X124.855 Y60.552 E.02311
G1 X136.25 Y71.947 E.80936
G1 X135.846 Y72.031 E.02074
G1 X124.389 Y60.574 E.81372
G1 X123.923 Y60.596 E.02342
G1 X135.441 Y72.114 E.81807
G1 X135.037 Y72.198 E.02074
G1 X123.457 Y60.619 E.82243
G1 X122.992 Y60.641 E.02342
G1 X134.632 Y72.282 E.82679
G1 X134.228 Y72.365 E.02074
G1 X122.526 Y60.663 E.83114
G1 X122.06 Y60.686 E.02342
G1 X133.823 Y72.449 E.8355
G1 X133.419 Y72.533 E.02074
G1 X121.594 Y60.708 E.83985
G1 X121.129 Y60.73 E.02342
G1 X133.015 Y72.616 E.84421
G1 X132.61 Y72.7 E.02074
G1 X120.663 Y60.753 E.84856
G1 X120.197 Y60.775 E.02342
G1 X132.206 Y72.784 E.85292
G1 X131.801 Y72.867 E.02074
G1 X119.731 Y60.798 E.85728
G1 X119.266 Y60.82 E.02342
G1 X131.397 Y72.951 E.86163
G1 X130.993 Y73.035 E.02074
G1 X118.8 Y60.842 E.86599
G1 X118.334 Y60.865 E.02342
G1 X130.588 Y73.119 E.87034
G1 X130.184 Y73.202 E.02074
G1 X117.868 Y60.887 E.8747
G1 X117.403 Y60.909 E.02342
G1 X129.779 Y73.286 E.87905
G1 X129.375 Y73.37 E.02074
G1 X116.937 Y60.932 E.88341
G1 X116.471 Y60.954 E.02342
G1 X128.97 Y73.453 E.88777
G1 X128.566 Y73.537 E.02074
G1 X116.005 Y60.976 E.89212
G1 X115.54 Y60.999 E.02342
G1 X128.162 Y73.621 E.89648
G1 X127.757 Y73.704 E.02074
G1 X115.074 Y61.021 E.90083
G1 X114.608 Y61.043 E.02342
G1 X127.353 Y73.788 E.90519
G1 X126.948 Y73.872 E.02074
G1 X114.142 Y61.066 E.90954
G1 X113.677 Y61.088 E.02342
G1 X126.544 Y73.955 E.9139
G1 X126.139 Y74.039 E.02074
G1 X113.211 Y61.111 E.91825
G1 X112.745 Y61.133 E.02342
G1 X125.735 Y74.123 E.92261
G1 X125.331 Y74.206 E.02074
G1 X112.279 Y61.155 E.92697
G1 X111.814 Y61.178 E.02342
G1 X124.926 Y74.29 E.93132
G1 X124.522 Y74.374 E.02074
G1 X111.348 Y61.2 E.93568
G1 X110.882 Y61.222 E.02342
M73 P1 R261
G1 X124.117 Y74.457 E.94003
G1 X123.713 Y74.541 E.02074
G1 X110.416 Y61.245 E.94439
G1 X109.962 Y61.278 E.02291
G1 X123.308 Y74.625 E.94798
G1 X122.904 Y74.708 E.02074
G1 X109.539 Y61.343 E.94928
G1 X109.116 Y61.408 E.02149
G1 X122.5 Y74.792 E.95059
G1 X122.095 Y74.876 E.02074
G1 X108.707 Y61.488 E.9509
G1 X108.303 Y61.572 E.02074
G1 X121.691 Y74.96 E.95089
G1 X121.286 Y75.043 E.02074
G1 X107.898 Y61.655 E.95089
G1 X107.494 Y61.739 E.02074
G1 X120.882 Y75.127 E.95088
G1 X120.478 Y75.211 E.02074
G1 X107.09 Y61.823 E.95088
G1 X106.685 Y61.906 E.02074
