; generated by PrusaSlicer 2.5.0+win64 on 2022-12-07 at 00:31:49 UTC

; 

; external perimeters extrusion width = 1.00mm
; perimeters extrusion width = 1.00mm
; infill extrusion width = 1.00mm
; solid infill extrusion width = 1.00mm
; top infill extrusion width = 1.00mm
; support material extrusion width = 1.00mm
; first layer extrusion width = 0.42mm

M73 P0 R400
M107
;TYPE:Custom
G90 ; use absolute coordinates
M83 ; extruder relative mode
M140 S60 ; set final bed temp
M104 S150 ; set temporary nozzle temp to prevent oozing during homing and auto bed leveling
G4 S10 ; allow partial nozzle warmup
G28 ; home all axisG1 Z50 F240
G1 X7.6 Y10 F3000
M104 S210 ; set final nozzle temp
M190 S60 ; wait for bed temp to stabilize
M109 S210 ; wait for nozzle temp to stabilize
G1 Z0.28 F240
G92 E0
G1 Y140 E10 F1500 ; prime the nozzle
G1 X4 F5000
G92 E0
G1 Y10 E10 F1200 ; prime the nozzle
G92 E0
G21 ; set units to millimeters
G90 ; use absolute coordinates
M83 ; use relative distances for extrusion
; Filament gcode
M107
;LAYER_CHANGE
;Z:0.35
;HEIGHT:0.35
;BEFORE_LAYER_CHANGE
G92 E0
;0.35


G1 E-1 F3600
G1 Z.35 F7800
;AFTER_LAYER_CHANGE
;0.35
G1 X18.597 Y9.714
G1 E1 F2400
;TYPE:Support material
;WIDTH:0.42
G1 F1800
G1 X17.258 Y9.714 E.0672
G1 X16.961 Y9.86 E.01658
G1 X13.337 Y14.559 E.29781
G1 X13.261 Y14.782 E.01181
G1 X13.261 Y15.179 E.01996
G1 X8.732 Y15.179 E.22731
G1 X8.732 Y5.314 E.49509
G1 X18.597 Y5.314 E.49509
M73 P0 R399
G1 X18.597 Y9.662 E.21823
G1 X17.957 Y9.559 F7800
G1 F1800
G1 X17.957 Y5.624 E.19745
G1 X17.573 Y5.624 E.01923
G1 X17.573 Y9.404 E.18967
G1 X17.19 Y9.404 E.01923
G1 X17.19 Y5.624 E.18967
G1 X16.807 Y5.624 E.01923
G1 X16.807 Y9.59 E.19902
G1 X16.76 Y9.613 E.00265
G1 X16.424 Y10.049 E.02762
G1 X16.424 Y5.624 E.22207
G1 X16.04 Y5.624 E.01923
G1 X16.04 Y10.546 E.247
G1 X15.657 Y11.043 E.03149
G1 X15.657 Y5.624 E.27193
G1 X15.274 Y5.624 E.01923
G1 X15.274 Y11.54 E.29686
G1 X14.891 Y12.036 E.03149
G1 X14.891 Y5.624 E.32178
G1 X14.508 Y5.624 E.01923
G1 X14.508 Y12.533 E.34671
G1 X14.124 Y13.03 E.03149
G1 X14.124 Y5.624 E.37164
G1 X13.741 Y5.624 E.01923
G1 X13.741 Y13.527 E.39657
G1 X13.358 Y14.023 E.03149
G1 X13.358 Y5.624 E.4215
G1 X12.975 Y5.624 E.01923
G1 X12.975 Y14.659 E.45342
G1 X12.951 Y14.73 E.00376
G1 X12.951 Y14.869 E.00696
G1 X12.592 Y14.869 E.01802
G1 X12.592 Y5.624 E.46394
G1 X12.208 Y5.624 E.01923
G1 X12.208 Y14.869 E.46394
G1 X11.825 Y14.869 E.01923
G1 X11.825 Y5.624 E.46394
G1 X11.442 Y5.624 E.01923
G1 X11.442 Y14.869 E.46394
G1 X11.059 Y14.869 E.01923
G1 X11.059 Y5.624 E.46394
G1 X10.676 Y5.624 E.01923
G1 X10.676 Y14.869 E.46394
G1 X10.292 Y14.869 E.01923
G1 X10.292 Y5.624 E.46394
G1 X9.909 Y5.624 E.01923
G1 X9.909 Y14.869 E.46394
G1 X9.526 Y14.869 E.01923
G1 X9.526 Y5.624 E.46394
G1 X9.143 Y5.624 E.01923
G1 X9.143 Y15.024 E.47173
G1 E-.7 F3600
;WIPE_START
G1 F6240
G1 X9.143 Y14.504 E-.285
;WIPE_END
G1 E-.015 F3600
G1 X12.781 Y76.806 F7800
G1 E1 F2400
;TYPE:Support material interface
;WIDTH:1
G1 F1800
G1 X12.782 Y66.226 E1.42387
G1 X13.356 Y66.226 E.07737
G1 X13.674 Y66.985 E.11069
G1 X13.674 Y67.285 E.04046
G1 X13.025 Y67.285 E.08741
G1 X13.025 Y68.367 E.14563
G1 X13.081 Y68.65 E.03874
G1 X13.674 Y70.065 E.20647
G1 X13.674 Y76.404 E.85321
G1 X14.567 Y76.404 E.12014
G1 X14.567 Y71.051 E.7205
G1 X15.46 Y71.773 E.15458
G1 X15.46 Y79.797 E1.07984
G1 X16.352 Y79.797 E.12014
G1 X16.352 Y72.496 E.98258
G1 X17.245 Y73.219 E.15458
G1 X17.245 Y79.797 E.88532
G1 X18.138 Y79.797 E.12014
G1 X18.138 Y73.941 E.78806
G1 X19.03 Y74.664 E.15458
G1 X19.03 Y83.19 E1.14741
G1 X19.923 Y83.19 E.12014
G1 X19.923 Y75.387 E1.05015
G1 X20.816 Y76.109 E.15458
G1 X20.816 Y83.19 E.95289
G1 X21.708 Y83.19 E.12014
G1 X21.708 Y76.832 E.85563
G1 X22.601 Y77.555 E.15458
G1 X22.601 Y83.19 E.75837
G1 X23.494 Y83.19 E.12014
G1 X23.494 Y78.277 E.66111
G1 X24.387 Y79 E.15458
G1 X24.387 Y83.19 E.56385
G1 X25.279 Y83.19 E.12014
G1 X25.279 Y79.723 E.46659
G1 X26.172 Y80.445 E.15458
G1 X26.172 Y86.582 E.82593
G1 X27.065 Y86.582 E.12014
G1 X27.065 Y81.168 E.72867
G1 X27.957 Y81.891 E.15458
G1 X27.957 Y86.582 E.63141
G1 X28.85 Y86.582 E.12014
G1 X28.85 Y82.613 E.53415
G1 X29.743 Y83.336 E.15458
G1 X29.743 Y89.975 E.8935
G1 X30.635 Y89.975 E.12014
G1 X30.635 Y84.059 E.79624
G1 X31.528 Y84.781 E.15458
G1 X31.528 Y89.975 E.69898
G1 X32.324 Y89.975 E.10712
G1 X32.324 Y93.368 E.4566
G1 X32.421 Y93.368 E.01302
G1 X32.421 Y85.504 E1.05832
G1 X33.314 Y86.227 E.15458
G1 X33.314 Y93.368 E.96106
G1 X34.206 Y93.368 E.12014
G1 X34.206 Y86.949 E.8638
G1 X35.099 Y87.672 E.15458
G1 X35.099 Y93.368 E.76654
G1 X35.717 Y93.368 E.08315
G1 X35.717 Y96.761 E.4566
G1 X35.992 Y96.761 E.03699
G1 X35.992 Y88.423 E1.12212
G1 X36.884 Y89.349 E.17316
G1 X36.884 Y96.76 E.99742
G1 X37.777 Y96.76 E.12014
G1 X37.777 Y90.279 E.87226
G1 X38.67 Y91.209 E.17349
G1 X38.67 Y96.76 E.7471
G1 X39.562 Y96.76 E.12014
G1 X39.562 Y92.139 E.62194
G1 X40.455 Y93.069 E.17349
G1 X40.455 Y97.162 E.55084
G1 E-.7 F3600
;WIPE_START
G1 F6240
G1 X40.455 Y96.642 E-.285
;WIPE_END
G1 E-.015 F3600
G1 X27.882 Y80.985 F7800
G1 E1 F2400
;TYPE:Support material
;WIDTH:0.42
G1 F1800
G1 X27.71 Y80.846 E.01111
G1 X27.882 Y80.846 E.00863
G1 X27.882 Y80.934 E.00439
G1 E-.7 F3600
;WIPE_START
G1 F6240
G1 X27.882 Y80.846 E-.04797
G1 X27.71 Y80.846 E-.09429
G1 X27.882 Y80.985 E-.12131
;WIPE_END
G1 E-.03643 F3600
G1 X11.311 Y77.061 F7800
G1 E1 F2400
G1 F1800
G1 X14.704 Y77.061 E.17027
G1 X14.704 Y80.453 E.17027
G1 X18.097 Y80.453 E.17027
G1 X18.097 Y83.846 E.17027
G1 X24.882 Y83.846 E.34053
G1 X24.882 Y87.239 E.17027
G1 X28.275 Y87.239 E.17027
G1 X28.275 Y90.632 E.17027
G1 X31.668 Y90.632 E.17027
G1 X31.668 Y94.024 E.17027
G1 X35.06 Y94.024 E.17027
G1 X35.06 Y97.417 E.17027
G1 X41.092 Y97.417 E.30271
G1 X40.797 Y94.024 E.17091
G1 X41.62 Y94.024 E.04131
G1 X41.384 Y91.315 E.13649
G1 X40.498 Y92.166 E.06168
G1 X39.402 Y91.024 E.07941
G1 X41.637 Y91.024 E.11217
G1 X42.418 Y99.997 E.45199
G1 X42.346 Y99.997 E.00362
G1 X42.346 Y102.416 E.1214
G1 X39.037 Y103.507 E.17485
G1 X38.845 Y104.262 E.03909
G1 X38.995 Y104.421 E.01092
G1 X33.315 Y106.292 E.30011
G1 X33.44 Y106.674 E.02014
G1 X13.489 Y115.613 E1.09718
G1 X13.261 Y115.966 E.02107
G1 X13.261 Y127.138 E.56072
G1 X8.732 Y127.138 E.22731
G1 X8.732 Y74.061 E2.66375
G1 X11.311 Y74.061 E.12947
G1 X11.311 Y77.009 E.14796
G1 E-.7 F3600
;WIPE_START
G1 F6240
G1 X11.311 Y76.489 E-.285
;WIPE_END
G1 E-.015 F3600
G1 X41.716 Y102.46 F7800
G1 E1 F2400
G1 F1800
G1 X41.716 Y95.506 E.349
G1 X41.614 Y94.335 E.05902
G1 X41.332 Y94.335 E.01412
G1 X41.332 Y102.423 E.40594
G1 X40.949 Y102.55 E.02025
G1 X40.949 Y97.727 E.24202
G1 X40.566 Y97.727 E.01923
G1 X40.566 Y102.676 E.24836
G1 X40.183 Y102.803 E.02025
G1 X40.183 Y97.727 E.25471
G1 X39.8 Y97.727 E.01923
G1 X39.8 Y102.929 E.26105
G1 X39.416 Y103.055 E.02025
G1 X39.416 Y97.727 E.2674
G1 X39.033 Y97.727 E.01923
G1 X39.033 Y103.182 E.27374
G1 X38.778 Y103.266 E.01347
G1 X38.65 Y103.772 E.02618
G1 X38.65 Y97.727 E.30333
G1 X38.267 Y97.727 E.01923
G1 X38.267 Y104.334 E.33155
G1 X37.883 Y104.46 E.02025
G1 X37.883 Y97.727 E.33789
G1 X37.5 Y97.727 E.01923
G1 X37.5 Y104.586 E.34423
G1 X37.117 Y104.713 E.02025
G1 X37.117 Y97.727 E.35056
G1 X36.734 Y97.727 E.01923
G1 X36.734 Y104.839 E.3569
G1 X36.351 Y104.965 E.02025
G1 X36.351 Y97.727 E.36324
G1 X35.967 Y97.727 E.01923
G1 X35.967 Y105.091 E.36958
G1 X35.584 Y105.218 E.02025
G1 X35.584 Y97.727 E.37591
G1 X35.201 Y97.727 E.01923
G1 X35.201 Y105.344 E.38225
G1 X34.818 Y105.47 E.02025
G1 X34.818 Y97.727 E.38859
G1 X34.75 Y97.727 E.0034
G1 X34.75 Y94.335 E.17027
G1 X34.435 Y94.335 E.01583
G1 X34.435 Y105.597 E.56519
G1 X34.051 Y105.723 E.02025
G1 X34.051 Y94.335 E.57153
G1 X33.668 Y94.335 E.01923
G1 X33.668 Y105.849 E.57787
G1 X33.285 Y105.975 E.02025
G1 X33.285 Y94.335 E.5842
G1 X32.902 Y94.335 E.01923
G1 X32.902 Y106.575 E.61428
G1 X32.519 Y106.746 E.02107
G1 X32.519 Y94.335 E.6229
G1 X32.135 Y94.335 E.01923
G1 X32.135 Y106.918 E.63151
G1 X31.752 Y107.09 E.02107
G1 X31.752 Y94.335 E.64013
G1 X31.369 Y94.335 E.01923
G1 X31.369 Y107.262 E.64878
G1 X30.986 Y107.435 E.02109
G1 X30.986 Y90.942 E.82771
G1 X30.602 Y90.942 E.01923
G1 X30.602 Y107.607 E.83637
G1 X30.219 Y107.78 E.02109
G1 X30.219 Y90.942 E.84504
G1 X29.836 Y90.942 E.01923
G1 X29.836 Y107.953 E.8537
G1 X29.453 Y108.125 E.02108
G1 X29.453 Y90.942 E.86234
G1 X29.07 Y90.942 E.01923
G1 X29.07 Y108.297 E.87096
G1 X28.686 Y108.468 E.02107
G1 X28.686 Y90.942 E.87957
G1 X28.303 Y90.942 E.01923
G1 X28.303 Y108.64 E.88818
G1 X27.92 Y108.811 E.02107
G1 X27.92 Y87.549 E1.06706
G1 X27.537 Y87.549 E.01923
G1 X27.537 Y108.983 E1.07567
G1 X27.154 Y109.155 E.02107
G1 X27.154 Y87.549 E1.08428
G1 X26.77 Y87.549 E.01923
G1 X26.77 Y109.326 E1.09289
G1 X26.387 Y109.498 E.02107
G1 X26.387 Y87.549 E1.10151
G1 X26.004 Y87.549 E.01923
G1 X26.004 Y109.669 E1.11012
G1 X25.621 Y109.841 E.02107
G1 X25.621 Y87.549 E1.11873
G1 X25.238 Y87.549 E.01923
G1 X25.238 Y110.013 E1.12734
G1 X24.854 Y110.184 E.02107
G1 X24.854 Y87.549 E1.13595
G1 X24.572 Y87.549 E.01417
G1 X24.572 Y84.157 E.17027
G1 X24.471 Y84.157 E.00506
G1 X24.471 Y110.356 E1.31483
G1 X24.088 Y110.527 E.02107
G1 X24.088 Y84.157 E1.32344
G1 X23.705 Y84.157 E.01923
G1 X23.705 Y110.699 E1.33205
G1 X23.321 Y110.871 E.02107
G1 X23.321 Y84.157 E1.34066
G1 X22.938 Y84.157 E.01923
G1 X22.938 Y111.042 E1.34928
G1 X22.555 Y111.214 E.02107
G1 X22.555 Y84.157 E1.35789
G1 X22.172 Y84.157 E.01923
G1 X22.172 Y111.385 E1.3665
G1 X21.789 Y111.557 E.02107
G1 X21.789 Y84.157 E1.37511
G1 X21.405 Y84.157 E.01923
G1 X21.405 Y111.728 E1.38372
G1 X21.022 Y111.9 E.02107
G1 X21.022 Y84.157 E1.39233
G1 X20.639 Y84.157 E.01923
G1 X20.639 Y112.072 E1.40095
G1 X20.256 Y112.243 E.02107
M73 P0 R398
G1 X20.256 Y84.157 E1.40956
G1 X19.873 Y84.157 E.01923
G1 X19.873 Y112.415 E1.41817
G1 X19.489 Y112.586 E.02107
G1 X19.489 Y84.157 E1.42678
G1 X19.106 Y84.157 E.01923
G1 X19.106 Y112.758 E1.43539
G1 X18.723 Y112.93 E.02107
G1 X18.723 Y84.157 E1.444
G1 X18.34 Y84.157 E.01923
G1 X18.34 Y113.101 E1.45262
G1 X17.957 Y113.273 E.02107
G1 X17.957 Y84.157 E1.46123
G1 X17.786 Y84.157 E.00853
G1 X17.786 Y80.764 E.17027
G1 X17.573 Y80.764 E.0107
G1 X17.573 Y113.444 E1.6401
G1 X17.19 Y113.616 E.02107
G1 X17.19 Y80.764 E1.64872
G1 X16.807 Y80.764 E.01923
G1 X16.807 Y113.788 E1.65733
G1 X16.424 Y113.959 E.02107
G1 X16.424 Y80.764 E1.66594
G1 X16.04 Y80.764 E.01923
G1 X16.04 Y114.131 E1.67455
G1 X15.657 Y114.302 E.02107
G1 X15.657 Y80.764 E1.68316
G1 X15.274 Y80.764 E.01923
G1 X15.274 Y114.474 E1.69177
G1 X14.891 Y114.646 E.02107
G1 X14.891 Y80.764 E1.70039
G1 X14.508 Y80.764 E.01923
G1 X14.508 Y114.817 E1.709
G1 X14.124 Y114.989 E.02107
G1 X14.124 Y77.371 E1.88787
G1 X13.741 Y77.371 E.01923
G1 X13.741 Y115.16 E1.89649
G1 X13.358 Y115.332 E.02107
G1 X13.358 Y77.371 E1.9051
G1 X12.975 Y77.371 E.01923
G1 X12.975 Y115.837 E1.93042
G1 X12.951 Y115.874 E.00223
G1 X12.951 Y126.828 E.54974
G1 X12.592 Y126.828 E.01802
G1 X12.592 Y77.371 E2.48203
G1 X12.208 Y77.371 E.01923
G1 X12.208 Y126.828 E2.48203
G1 X11.825 Y126.828 E.01923
G1 X11.825 Y77.371 E2.48203
G1 X11.442 Y77.371 E.01923
G1 X11.442 Y126.828 E2.48203
G1 X11.059 Y126.828 E.01923
G1 X11.059 Y77.371 E2.48203
G1 X11.001 Y77.371 E.00289
G1 X11.001 Y74.371 E.15056
G1 X10.676 Y74.371 E.01634
G1 X10.676 Y126.828 E2.63259
G1 X10.292 Y126.828 E.01923
G1 X10.292 Y74.371 E2.63259
G1 X9.909 Y74.371 E.01923
G1 X9.909 Y126.828 E2.63259
G1 X9.526 Y126.828 E.01923
G1 X9.526 Y74.371 E2.63259
G1 X9.143 Y74.371 E.01923
G1 X9.143 Y126.983 E2.64038
G1 E-.7 F3600
;WIPE_START
G1 F6240
G1 X9.143 Y126.463 E-.285
;WIPE_END
G1 E-.015 F3600
G1 X40.566 Y91.885 F7800
G1 E1 F2400
G1 F1800
G1 X40.566 Y91.335 E.02763
G1 X40.183 Y91.335 E.01923
G1 X40.183 Y91.613 E.01399
G1 E-.7 F3600
;WIPE_START
G1 F6240
G1 X40.183 Y91.335 E-.15277
G1 X40.424 Y91.335 E-.13223
;WIPE_END
G1 E-.015 F3600
G1 X106.807 Y35.848 F7800
G1 E1 F2400
G1 F1800
G1 X113.908 Y35.848 E.35639
G1 X113.01 Y45.703 E.49662
G1 X112.475 Y52.563 E.34534
G1 X111.444 Y53.19 E.06052
G1 X100.624 Y62.409 E.7134
G1 X98.115 Y61.869 E.12878
G1 X97.727 Y62.016 E.02085
G1 X96.203 Y64.064 E.12809
G1 X95.855 Y63.8 E.02194
G1 X95.238 Y64.611 E.05117
G1 X94.717 Y64.369 E.0288
G1 X92.509 Y67.266 E.1828
G1 X94.642 Y48.566 E.94455
G1 X96.008 Y42.634 E.30551
G1 X96.942 Y42.634 E.04687
G1 X96.942 Y38.588 E.20303
G1 X99.14 Y29.063 E.4906
G1 X106.807 Y29.063 E.38478
G1 X106.807 Y35.797 E.33794
G1 X113.376 Y39.981 F7800
G1 F1800
G1 X113.376 Y36.159 E.19184
G1 X112.993 Y36.159 E.01923
G1 X112.993 Y42.476 E.31703
G1 X112.609 Y46.85 E.22039
G1 X112.609 Y36.159 E.53657
G1 X112.226 Y36.159 E.01923
G1 X112.226 Y51.761 E.78302
G1 X112.178 Y52.38 E.03115
G1 X111.843 Y52.582 E.01962
G1 X111.843 Y36.159 E.8242
G1 X111.46 Y36.159 E.01923
G1 X111.46 Y52.812 E.83578
G1 X111.253 Y52.945 E.01235
G1 X111.077 Y53.095 E.01161
G1 X111.077 Y36.159 E.84997
G1 X110.693 Y36.159 E.01923
G1 X110.693 Y53.422 E.86637
G1 X110.31 Y53.749 E.02527
G1 X110.31 Y36.159 E.88276
G1 X109.927 Y36.159 E.01923
G1 X109.927 Y54.075 E.89916
G1 X109.544 Y54.402 E.02529
G1 X109.544 Y36.159 E.91557
G1 X109.161 Y36.159 E.01923
G1 X109.161 Y54.73 E.932
G1 X108.777 Y55.056 E.02526
G1 X108.777 Y36.159 E.94838
G1 X108.394 Y36.159 E.01923
G1 X108.394 Y55.382 E.96476
G1 X108.011 Y55.709 E.02526
G1 X108.011 Y36.159 E.98114
G1 X107.628 Y36.159 E.01923
G1 X107.628 Y56.035 E.99752
G1 X107.244 Y56.362 E.02526
G1 X107.244 Y36.159 E1.0139
G1 X106.861 Y36.159 E.01923
G1 X106.861 Y56.688 E1.03028
G1 X106.478 Y57.014 E.02526
G1 X106.478 Y29.373 E1.3872
G1 X106.095 Y29.373 E.01923
G1 X106.095 Y57.341 E1.40358
M73 P0 R397
G1 X105.712 Y57.667 E.02526
G1 X105.712 Y29.373 E1.41996
G1 X105.328 Y29.373 E.01923
G1 X105.328 Y57.994 E1.43634
G1 X104.945 Y58.32 E.02526
G1 X104.945 Y29.373 E1.45272
G1 X104.562 Y29.373 E.01923
G1 X104.562 Y58.646 E1.4691
G1 X104.179 Y58.973 E.02526
G1 X104.179 Y29.373 E1.48548
G1 X103.796 Y29.373 E.01923
G1 X103.796 Y59.299 E1.50186
G1 X103.412 Y59.626 E.02526
G1 X103.412 Y29.373 E1.51824
G1 X103.029 Y29.373 E.01923
G1 X103.029 Y59.952 E1.53462
G1 X102.646 Y60.278 E.02526
G1 X102.646 Y29.373 E1.551
G1 X102.263 Y29.373 E.01923
G1 X102.263 Y60.605 E1.56738
G1 X101.88 Y60.931 E.02526
G1 X101.88 Y29.373 E1.58376
G1 X101.496 Y29.373 E.01923
G1 X101.496 Y61.258 E1.60015
G1 X101.113 Y61.584 E.02526
G1 X101.113 Y29.373 E1.61653
G1 X100.73 Y29.373 E.01923
G1 X100.73 Y61.91 E1.63291
G1 X100.55 Y62.064 E.01187
G1 X100.347 Y62.021 E.01041
G1 X100.347 Y29.373 E1.63846
G1 X99.963 Y29.373 E.01923
G1 X99.963 Y61.941 E1.63442
G1 X99.58 Y61.86 E.01965
G1 X99.58 Y29.373 E1.63038
G1 X99.387 Y29.373 E.00971
G1 X99.197 Y30.196 E.04235
G1 X99.197 Y61.78 E1.58507
G1 X98.814 Y61.699 E.01965
G1 X98.814 Y31.856 E1.49768
G1 X98.431 Y33.517 E.08553
G1 X98.431 Y61.618 E1.4103
G1 X98.09 Y61.547 E.01747
G1 X98.047 Y61.563 E.00229
G1 X98.047 Y35.178 E1.32417
G1 X97.664 Y36.838 E.08553
G1 X97.664 Y61.708 E1.24811
G1 X97.532 Y61.758 E.00711
G1 X97.281 Y62.095 E.02108
G1 X97.281 Y38.499 E1.18421
G1 X97.252 Y38.624 E.00641
G1 X97.252 Y42.944 E.21683
G1 X96.898 Y42.944 E.01779
G1 X96.898 Y62.611 E.98699
G1 X96.515 Y63.126 E.03223
G1 X96.515 Y42.944 E1.01285
G1 X96.255 Y42.944 E.01304
G1 X96.131 Y43.48 E.02762
G1 X96.131 Y63.62 E1.01071
G1 X95.796 Y63.365 E.02112
G1 X95.748 Y63.428 E.00399
G1 X95.748 Y45.147 E.91749
G1 X95.365 Y46.811 E.08573
G1 X95.365 Y63.932 E.85921
G1 X95.142 Y64.224 E.01846
G1 X94.982 Y64.15 E.00888
G1 X94.982 Y48.476 E.78661
G1 X94.949 Y48.619 E.00736
G1 X94.599 Y51.689 E.15509
G1 X94.599 Y64.013 E.61849
G1 X94.215 Y64.516 E.03172
G1 X94.215 Y55.048 E.47515
G1 X93.832 Y58.407 E.16966
G1 X93.832 Y65.018 E.3318
G1 X93.449 Y65.521 E.03172
G1 X93.449 Y61.766 E.18846
G1 X93.066 Y65.125 E.16966
G1 X93.066 Y66.28 E.05796
G1 E-.7 F3600
;WIPE_START
G1 F6240
G1 X93.066 Y65.76 E-.285
;WIPE_END
G1 E-.015 F3600
G1 X127.163 Y9.714 F7800
G1 E1 F2400
G1 F1800
G1 X117.298 Y9.714 E.49509
G1 X117.298 Y5.314 E.22082
G1 X127.163 Y5.314 E.49509
G1 X127.163 Y9.662 E.21823
G1 X126.788 Y9.559 F7800
G1 F1800
G1 X126.788 Y5.624 E.19745
G1 X126.405 Y5.624 E.01923
