; generated by PrusaSlicer 2.5.0+win64 on 2022-12-07 at 00:31:34 UTC

; 

; external perimeters extrusion width = 1.00mm
; perimeters extrusion width = 1.00mm
; infill extrusion width = 1.00mm
; solid infill extrusion width = 1.00mm
; top infill extrusion width = 1.00mm
; support material extrusion width = 1.00mm
; first layer extrusion width = 0.42mm

M73 P0 R562
M107
;TYPE:Custom
G90 ; use absolute coordinates
M83 ; extruder relative mode
M140 S60 ; set final bed temp
M104 S150 ; set temporary nozzle temp to prevent oozing during homing and auto bed leveling
G4 S10 ; allow partial nozzle warmup
G28 ; home all axisG1 Z50 F240
G1 X7.6 Y10 F3000
M104 S210 ; set final nozzle temp
M190 S60 ; wait for bed temp to stabilize
M109 S210 ; wait for nozzle temp to stabilize
G1 Z0.28 F240
G92 E0
G1 Y140 E10 F1500 ; prime the nozzle
G1 X4 F5000
G92 E0
G1 Y10 E10 F1200 ; prime the nozzle
G92 E0
G21 ; set units to millimeters
G90 ; use absolute coordinates
M83 ; use relative distances for extrusion
; Filament gcode
M107
;LAYER_CHANGE
;Z:0.35
;HEIGHT:0.35
;BEFORE_LAYER_CHANGE
G92 E0
;0.35


G1 E-1 F3600
G1 Z.35 F7800
;AFTER_LAYER_CHANGE
;0.35
G1 X150.912 Y49.131
G1 E1 F2400
;TYPE:Support material
;WIDTH:0.42
G1 F1800
G1 X147.519 Y49.131 E.17027
G1 X147.519 Y59.309 E.5108
G1 X144.127 Y59.309 E.17027
G1 X144.127 Y66.095 E.34053
G1 X140.734 Y66.095 E.17027
G1 X140.734 Y72.88 E.34053
G1 X137.341 Y72.88 E.17027
G1 X137.341 Y83.058 E.5108
G1 X133.949 Y83.058 E.17027
G1 X133.949 Y89.844 E.34053
G1 X130.556 Y89.844 E.17027
G1 X130.556 Y96.629 E.34053
G1 X127.163 Y96.629 E.17027
G1 X127.163 Y103.414 E.34053
G1 X123.771 Y103.414 E.17027
G1 X123.771 Y110.2 E.34053
G1 X120.378 Y110.2 E.17027
G1 X120.378 Y120.378 E.5108
G1 X116.985 Y120.378 E.17027
G1 X116.985 Y127.163 E.34053
G1 X113.592 Y127.163 E.17027
G1 X113.592 Y133.949 E.34053
G1 X110.2 Y133.949 E.17027
G1 X110.2 Y140.734 E.34053
G1 X104.019 Y140.734 E.31017
G1 X104.206 Y140.537 E.01361
G1 X103.684 Y140.041 E.03616
G1 X104.725 Y138.949 E.07572
G1 X104.802 Y138.53 E.02137
G1 X98.105 Y123.716 E.81587
G1 X98.144 Y123.677 E.00278
G1 X98.219 Y123.245 E.02199
G1 X96.942 Y120.427 E.1553
G1 X96.942 Y117.298 E.15701
G1 X100.335 Y117.298 E.17027
G1 X100.335 Y113.905 E.17027
G1 X103.727 Y113.905 E.17027
G1 X103.727 Y103.727 E.5108
G1 X107.12 Y103.727 E.17027
G1 X107.12 Y96.942 E.34053
G1 X110.513 Y96.942 E.17027
G1 X110.513 Y93.236 E.18597
G1 X107.12 Y93.236 E.17027
G1 X107.12 Y79.978 E.66536
G1 X110.513 Y79.978 E.17027
G1 X110.513 Y69.8 E.5108
G1 X113.905 Y69.8 E.17027
G1 X113.905 Y63.015 E.34053
G1 X124.083 Y63.015 E.5108
G1 X124.083 Y59.622 E.17027
G1 X127.476 Y59.622 E.17027
G1 X127.476 Y52.837 E.34053
G1 X130.869 Y52.837 E.17027
G1 X130.869 Y38.953 E.69677
G1 X127.476 Y38.953 E.17027
G1 X127.476 Y29.088 E.49509
G1 X150.912 Y29.088 E1.17616
G1 X150.912 Y49.079 E1.0033
G1 X150.547 Y48.976 F7800
G1 F1800
G1 X150.547 Y29.398 E.98253
G1 X150.164 Y29.398 E.01923
G1 X150.164 Y48.821 E.97474
G1 X149.781 Y48.821 E.01923
G1 X149.781 Y29.398 E.97474
G1 X149.398 Y29.398 E.01923
G1 X149.398 Y48.821 E.97474
G1 X149.014 Y48.821 E.01923
G1 X149.014 Y29.398 E.97474
G1 X148.631 Y29.398 E.01923
G1 X148.631 Y48.821 E.97474
G1 X148.248 Y48.821 E.01923
G1 X148.248 Y29.398 E.97474
G1 X147.865 Y29.398 E.01923
G1 X147.865 Y48.821 E.97474
G1 X147.482 Y48.821 E.01923
G1 X147.482 Y29.398 E.97474
G1 X147.098 Y29.398 E.01923
G1 X147.098 Y58.999 E1.48553
G1 X146.715 Y58.999 E.01923
G1 X146.715 Y29.398 E1.48553
G1 X146.332 Y29.398 E.01923
G1 X146.332 Y58.999 E1.48553
G1 X145.949 Y58.999 E.01923
G1 X145.949 Y29.398 E1.48553
G1 X145.565 Y29.398 E.01923
G1 X145.565 Y58.999 E1.48553
G1 X145.182 Y58.999 E.01923
G1 X145.182 Y29.398 E1.48553
G1 X144.799 Y29.398 E.01923
G1 X144.799 Y58.999 E1.48553
G1 X144.416 Y58.999 E.01923
G1 X144.416 Y29.398 E1.48553
G1 X144.033 Y29.398 E.01923
G1 X144.033 Y58.999 E1.48553
G1 X143.816 Y58.999 E.01085
G1 X143.816 Y65.784 E.34053
G1 X143.649 Y65.784 E.00838
G1 X143.649 Y29.398 E1.82606
G1 X143.266 Y29.398 E.01923
G1 X143.266 Y65.784 E1.82606
G1 X142.883 Y65.784 E.01923
G1 X142.883 Y29.398 E1.82606
G1 X142.5 Y29.398 E.01923
G1 X142.5 Y65.784 E1.82606
G1 X142.117 Y65.784 E.01923
G1 X142.117 Y29.398 E1.82606
G1 X141.733 Y29.398 E.01923
G1 X141.733 Y65.784 E1.82606
G1 X141.35 Y65.784 E.01923
G1 X141.35 Y29.398 E1.82606
G1 X140.967 Y29.398 E.01923
G1 X140.967 Y65.784 E1.82606
G1 X140.584 Y65.784 E.01923
G1 X140.584 Y29.398 E1.82606
G1 X140.201 Y29.398 E.01923
G1 X140.201 Y72.57 E2.1666
G1 X139.817 Y72.57 E.01923
G1 X139.817 Y29.398 E2.1666
G1 X139.434 Y29.398 E.01923
G1 X139.434 Y72.57 E2.1666
G1 X139.051 Y72.57 E.01923
M73 P0 R561
G1 X139.051 Y29.398 E2.1666
G1 X138.668 Y29.398 E.01923
G1 X138.668 Y72.57 E2.1666
G1 X138.284 Y72.57 E.01923
G1 X138.284 Y29.398 E2.1666
G1 X137.901 Y29.398 E.01923
G1 X137.901 Y72.57 E2.1666
G1 X137.518 Y72.57 E.01923
G1 X137.518 Y29.398 E2.1666
G1 X137.135 Y29.398 E.01923
G1 X137.135 Y72.57 E2.1666
G1 X137.031 Y72.57 E.00521
G1 X137.031 Y82.748 E.5108
G1 X136.752 Y82.748 E.01402
G1 X136.752 Y29.398 E2.67739
G1 X136.368 Y29.398 E.01923
G1 X136.368 Y82.748 E2.67739
G1 X135.985 Y82.748 E.01923
G1 X135.985 Y29.398 E2.67739
G1 X135.602 Y29.398 E.01923
G1 X135.602 Y82.748 E2.67739
G1 X135.219 Y82.748 E.01923
G1 X135.219 Y29.398 E2.67739
G1 X134.836 Y29.398 E.01923
G1 X134.836 Y82.748 E2.67739
G1 X134.452 Y82.748 E.01923
G1 X134.452 Y29.398 E2.67739
G1 X134.069 Y29.398 E.01923
G1 X134.069 Y82.748 E2.67739
G1 X133.686 Y82.748 E.01923
G1 X133.686 Y29.398 E2.67739
G1 X133.303 Y29.398 E.01923
G1 X133.303 Y89.533 E3.01792
G1 X132.92 Y89.533 E.01923
G1 X132.92 Y29.398 E3.01792
G1 X132.536 Y29.398 E.01923
G1 X132.536 Y89.533 E3.01792
G1 X132.153 Y89.533 E.01923
G1 X132.153 Y29.398 E3.01792
G1 X131.77 Y29.398 E.01923
G1 X131.77 Y89.533 E3.01792
G1 X131.387 Y89.533 E.01923
G1 X131.387 Y29.398 E3.01792
G1 X131.004 Y29.398 E.01923
G1 X131.004 Y38.643 E.46394
G1 X130.62 Y38.643 E.01923
G1 X130.62 Y29.398 E.46394
G1 X130.237 Y29.398 E.01923
G1 X130.237 Y38.643 E.46394
G1 X129.854 Y38.643 E.01923
G1 X129.854 Y29.398 E.46394
G1 X129.471 Y29.398 E.01923
G1 X129.471 Y38.643 E.46394
G1 X129.087 Y38.643 E.01923
G1 X129.087 Y29.398 E.46394
G1 X128.704 Y29.398 E.01923
G1 X128.704 Y38.643 E.46394
G1 X128.321 Y38.643 E.01923
G1 X128.321 Y29.398 E.46394
G1 X127.938 Y29.398 E.01923
G1 X127.938 Y38.798 E.47173
G1 E-.7 F3600
;WIPE_START
G1 F6240
G1 X127.938 Y38.278 E-.285
;WIPE_END
G1 E-.015 F3600
G1 X131.004 Y89.688 F7800
G1 E1 F2400
G1 F1800
G1 X131.004 Y53.147 E1.83385
G1 X130.62 Y53.147 E.01923
G1 X130.62 Y89.533 E1.82606
G1 X130.246 Y89.533 E.01881
G1 X130.237 Y96.319 E.34053
G1 X130.237 Y53.147 E2.1666
G1 X129.854 Y53.147 E.01923
G1 X129.854 Y96.319 E2.1666
G1 X129.471 Y96.319 E.01923
G1 X129.471 Y53.147 E2.1666
G1 X129.087 Y53.147 E.01923
G1 X129.087 Y96.319 E2.1666
G1 X128.704 Y96.319 E.01923
G1 X128.704 Y53.147 E2.1666
G1 X128.321 Y53.147 E.01923
G1 X128.321 Y96.319 E2.1666
G1 X127.938 Y96.319 E.01923
G1 X127.938 Y53.147 E2.1666
G1 X127.787 Y53.147 E.00759
G1 X127.787 Y59.933 E.34053
G1 X127.555 Y59.933 E.01164
G1 X127.555 Y96.319 E1.82607
G1 X127.171 Y96.319 E.01923
G1 X127.171 Y59.933 E1.82607
G1 X126.788 Y59.933 E.01923
G1 X126.788 Y103.104 E2.1666
G1 X126.405 Y103.104 E.01923
M73 P0 R560
G1 X126.405 Y59.933 E2.1666
G1 X126.022 Y59.933 E.01923
G1 X126.022 Y103.104 E2.1666
G1 X125.639 Y103.104 E.01923
G1 X125.639 Y59.933 E2.1666
G1 X125.255 Y59.933 E.01923
G1 X125.255 Y103.104 E2.1666
G1 X124.872 Y103.104 E.01923
G1 X124.872 Y59.933 E2.1666
G1 X124.489 Y59.933 E.01923
G1 X124.489 Y103.104 E2.1666
G1 X124.106 Y103.104 E.01923
G1 X124.106 Y63.325 E1.99633
G1 X123.723 Y63.325 E.01923
G1 X123.723 Y103.104 E1.99633
G1 X123.46 Y103.104 E.01317
G1 X123.46 Y109.889 E.34053
G1 X123.339 Y109.889 E.00607
G1 X123.339 Y63.325 E2.33686
G1 X122.956 Y63.325 E.01923
G1 X122.956 Y109.889 E2.33686
G1 X122.573 Y109.889 E.01923
G1 X122.573 Y63.325 E2.33686
G1 X122.19 Y63.325 E.01923
G1 X122.19 Y109.889 E2.33686
G1 X121.806 Y109.889 E.01923
G1 X121.806 Y63.325 E2.33686
G1 X121.423 Y63.325 E.01923
G1 X121.423 Y109.889 E2.33686
G1 X121.04 Y109.889 E.01923
G1 X121.04 Y63.325 E2.33686
G1 X120.657 Y63.325 E.01923
G1 X120.657 Y109.889 E2.33686
G1 X120.274 Y109.889 E.01923
G1 X120.274 Y63.325 E2.33686
G1 X119.89 Y63.325 E.01923
G1 X119.89 Y120.067 E2.84766
G1 X119.507 Y120.067 E.01923
G1 X119.507 Y63.325 E2.84766
G1 X119.124 Y63.325 E.01923
G1 X119.124 Y120.067 E2.84766
G1 X118.741 Y120.067 E.01923
G1 X118.741 Y63.325 E2.84766
G1 X118.358 Y63.325 E.01923
G1 X118.358 Y120.067 E2.84766
G1 X117.974 Y120.067 E.01923
G1 X117.974 Y63.325 E2.84766
G1 X117.591 Y63.325 E.01923
G1 X117.591 Y120.067 E2.84766
G1 X117.208 Y120.067 E.01923
G1 X117.208 Y63.325 E2.84766
G1 X116.825 Y63.325 E.01923
G1 X116.825 Y120.067 E2.84766
G1 X116.675 Y120.067 E.00753
G1 X116.675 Y126.853 E.34053
G1 X116.442 Y126.853 E.01171
G1 X116.442 Y63.325 E3.18819
G1 X116.058 Y63.325 E.01923
G1 X116.058 Y126.853 E3.18819
G1 X115.675 Y126.853 E.01923
G1 X115.675 Y63.325 E3.18819
G1 X115.292 Y63.325 E.01923
G1 X115.292 Y126.853 E3.18819
G1 X114.909 Y126.853 E.01923
G1 X114.909 Y63.325 E3.18819
G1 X114.525 Y63.325 E.01923
G1 X114.525 Y126.853 E3.18819
G1 X114.142 Y126.853 E.01923
G1 X114.142 Y70.111 E2.84766
G1 X113.759 Y70.111 E.01923
M73 P0 R559
G1 X113.759 Y126.853 E2.84766
G1 X113.376 Y126.853 E.01923
G1 X113.376 Y70.111 E2.84766
G1 X112.993 Y70.111 E.01923
G1 X112.993 Y133.638 E3.18819
G1 X112.609 Y133.638 E.01923
G1 X112.609 Y70.111 E3.18819
G1 X112.226 Y70.111 E.01923
G1 X112.226 Y133.638 E3.18819
G1 X111.843 Y133.638 E.01923
G1 X111.843 Y70.111 E3.18819
G1 X111.46 Y70.111 E.01923
G1 X111.46 Y133.638 E3.18819
G1 X111.077 Y133.638 E.01923
G1 X111.077 Y70.111 E3.18819
G1 X110.823 Y70.111 E.01272
G1 X110.823 Y80.289 E.5108
G1 X110.693 Y80.289 E.00651
G1 X110.693 Y133.638 E2.67739
G1 X110.31 Y133.638 E.01923
G1 X110.31 Y97.252 E1.82606
G1 X109.927 Y97.252 E.01923
G1 X109.927 Y133.638 E1.82606
G1 X109.889 Y133.638 E.00189
G1 X109.889 Y140.424 E.34053
G1 X109.544 Y140.424 E.01735
G1 X109.544 Y97.252 E2.1666
G1 X109.161 Y97.252 E.01923
G1 X109.161 Y140.424 E2.1666
G1 X108.777 Y140.424 E.01923
G1 X108.777 Y97.252 E2.1666
G1 X108.394 Y97.252 E.01923
G1 X108.394 Y140.424 E2.1666
G1 X108.011 Y140.424 E.01923
G1 X108.011 Y97.252 E2.1666
G1 X107.628 Y97.252 E.01923
G1 X107.628 Y140.424 E2.1666
G1 X107.244 Y140.424 E.01923
G1 X107.244 Y104.038 E1.82606
G1 X106.861 Y104.038 E.01923
G1 X106.861 Y140.424 E1.82606
G1 X106.478 Y140.424 E.01923
G1 X106.478 Y104.038 E1.82606
G1 X106.095 Y104.038 E.01923
G1 X106.095 Y140.424 E1.82606
G1 X105.712 Y140.424 E.01923
G1 X105.712 Y104.038 E1.82606
G1 X105.328 Y104.038 E.01923
G1 X105.328 Y140.424 E1.82606
G1 X104.945 Y140.424 E.01923
G1 X104.945 Y139.168 E.06302
G1 X104.562 Y139.571 E.02792
G1 X104.562 Y140.424 E.04278
G1 X104.537 Y140.424 E.00126
G1 X104.179 Y140.083 E.02481
G1 X104.179 Y139.748 E.01679
G1 E-.7 F3600
;WIPE_START
G1 F6240
G1 X104.179 Y140.083 E-.18331
G1 X104.313 Y140.211 E-.10169
;WIPE_END
G1 E-.015 F3600
G1 X110.31 Y93.081 F7800
G1 E1 F2400
G1 F1800
G1 X110.31 Y80.289 E.64199
G1 X109.927 Y80.289 E.01923
G1 X109.927 Y92.926 E.63421
G1 X109.544 Y92.926 E.01923
G1 X109.544 Y80.289 E.63421
G1 X109.161 Y80.289 E.01923
G1 X109.161 Y92.926 E.63421
G1 X108.777 Y92.926 E.01923
G1 X108.777 Y80.289 E.63421
G1 X108.394 Y80.289 E.01923
G1 X108.394 Y92.926 E.63421
G1 X108.011 Y92.926 E.01923
G1 X108.011 Y80.289 E.63421
G1 X107.628 Y80.289 E.01923
G1 X107.628 Y93.081 E.64199
G1 E-.7 F3600
;WIPE_START
G1 F6240
G1 X107.628 Y92.561 E-.285
;WIPE_END
G1 E-.015 F3600
G1 X104.945 Y138.47 F7800
G1 E1 F2400
G1 F1800
G1 X104.945 Y104.038 E1.72803
G1 X104.562 Y104.038 E.01923
G1 X104.562 Y137.221 E1.66535
G1 X104.179 Y136.375 E.04662
G1 X104.179 Y104.038 E1.62289
G1 X104.038 Y104.038 E.00708
G1 X104.038 Y114.216 E.5108
G1 X103.796 Y114.216 E.01215
G1 X103.796 Y135.529 E1.06962
G1 X103.412 Y134.683 E.04662
G1 X103.412 Y114.216 E1.02716
G1 X103.029 Y114.216 E.01923
G1 X103.029 Y133.837 E.9847
G1 X102.646 Y132.991 E.04662
G1 X102.646 Y114.216 E.94223
G1 X102.263 Y114.216 E.01923
G1 X102.263 Y132.144 E.89977
G1 X101.88 Y131.298 E.04662
G1 X101.88 Y114.216 E.85731
G1 X101.496 Y114.216 E.01923
G1 X101.496 Y130.452 E.81484
G1 X101.113 Y129.606 E.04662
G1 X101.113 Y114.216 E.77238
G1 X100.73 Y114.216 E.01923
G1 X100.73 Y128.76 E.72992
G1 X100.347 Y127.914 E.04662
G1 X100.347 Y117.608 E.51719
G1 X99.963 Y117.608 E.01923
G1 X99.963 Y127.068 E.47472
G1 X99.58 Y126.222 E.04662
G1 X99.58 Y117.608 E.43226
G1 X99.197 Y117.608 E.01923
G1 X99.197 Y125.375 E.38979
G1 X98.814 Y124.529 E.04662
G1 X98.814 Y117.608 E.34733
G1 X98.431 Y117.608 E.01923
G1 X98.431 Y122.96 E.26857
G1 X98.047 Y122.114 E.0466
G1 X98.047 Y117.608 E.22612
G1 X97.664 Y117.608 E.01923
G1 X97.664 Y121.268 E.18368
G1 X97.281 Y120.423 E.04659
G1 X97.281 Y117.453 E.14903
G1 E-.7 F3600
;WIPE_START
G1 F6240
G1 X97.281 Y117.973 E-.285
;WIPE_END
G1 E-.015 F3600
G1 X51.284 Y173.932 F7800
G1 E1 F2400
G1 F1800
G1 X51.653 Y174.793 E.04699
G1 X66.095 Y174.793 E.72479
G1 X66.095 Y178.054 E.16364
G1 X32.481 Y178.054 E1.68695
G1 X32.481 Y168.189 E.49509
M73 P0 R558
G1 X56.752 Y168.189 E1.2181
G1 X51.319 Y173.895 E.39542
G1 E-.7 F3600
;WIPE_START
G1 F6240
G1 X51.678 Y173.518 E-.285
;WIPE_END
G1 E-.015 F3600
G1 X65.475 Y177.899 F7800
G1 E1 F2400
G1 F1800
G1 X65.475 Y175.103 E.14028
G1 X65.091 Y175.103 E.01923
G1 X65.091 Y177.743 E.13249
G1 X64.708 Y177.743 E.01923
G1 X64.708 Y175.103 E.13249
G1 X64.325 Y175.103 E.01923
G1 X64.325 Y177.743 E.13249
G1 X63.942 Y177.743 E.01923
G1 X63.942 Y175.103 E.13249
G1 X63.559 Y175.103 E.01923
G1 X63.559 Y177.743 E.13249
G1 X63.175 Y177.743 E.01923
G1 X63.175 Y175.103 E.13249
G1 X62.792 Y175.103 E.01923
G1 X62.792 Y177.743 E.13249
G1 X62.409 Y177.743 E.01923
G1 X62.409 Y175.103 E.13249
G1 X62.026 Y175.103 E.01923
G1 X62.026 Y177.743 E.13249
G1 X61.642 Y177.743 E.01923
G1 X61.642 Y175.103 E.13249
G1 X61.259 Y175.103 E.01923
G1 X61.259 Y177.743 E.13249
G1 X60.876 Y177.743 E.01923
G1 X60.876 Y175.103 E.13249
G1 X60.493 Y175.103 E.01923
G1 X60.493 Y177.743 E.13249
G1 X60.11 Y177.743 E.01923
G1 X60.11 Y175.103 E.13249
G1 X59.726 Y175.103 E.01923
G1 X59.726 Y177.743 E.13249
G1 X59.343 Y177.743 E.01923
G1 X59.343 Y175.103 E.13249
G1 X58.96 Y175.103 E.01923
G1 X58.96 Y177.743 E.13249
G1 X58.577 Y177.743 E.01923
G1 X58.577 Y175.103 E.13249
G1 X58.194 Y175.103 E.01923
G1 X58.194 Y177.743 E.13249
G1 X57.81 Y177.743 E.01923
G1 X57.81 Y175.103 E.13249
G1 X57.427 Y175.103 E.01923
G1 X57.427 Y177.743 E.13249
G1 X57.044 Y177.743 E.01923
G1 X57.044 Y175.103 E.13249
G1 X56.661 Y175.103 E.01923
G1 X56.661 Y177.743 E.13249
G1 X56.278 Y177.743 E.01923
G1 X56.278 Y175.103 E.13249
G1 X55.894 Y175.103 E.01923
G1 X55.894 Y177.743 E.13249
G1 X55.511 Y177.743 E.01923
G1 X55.511 Y175.103 E.13249
G1 X55.128 Y175.103 E.01923
G1 X55.128 Y177.743 E.13249
G1 X54.745 Y177.743 E.01923
G1 X54.745 Y175.103 E.13249
G1 X54.361 Y175.103 E.01923
G1 X54.361 Y177.743 E.13249
G1 X53.978 Y177.743 E.01923
G1 X53.978 Y175.103 E.13249
G1 X53.595 Y175.103 E.01923
G1 X53.595 Y177.743 E.13249
G1 X53.212 Y177.743 E.01923
G1 X53.212 Y175.103 E.13249
G1 X52.829 Y175.103 E.01923
G1 X52.829 Y177.743 E.13249
G1 X52.445 Y177.743 E.01923
G1 X52.445 Y175.103 E.13249
G1 X52.062 Y175.103 E.01923
G1 X52.062 Y177.743 E.13249
G1 X51.679 Y177.743 E.01923
G1 X51.679 Y175.103 E.13249
G1 X51.448 Y175.103 E.01159
G1 X51.296 Y174.748 E.01939
G1 X51.296 Y177.743 E.15031
G1 X50.913 Y177.743 E.01923
G1 X50.913 Y168.499 E.46394
G1 X51.296 Y168.499 E.01923
G1 X51.296 Y173.47 E.24946
G1 X51.679 Y173.067 E.02789
G1 X51.679 Y168.499 E.22926
G1 X52.062 Y168.499 E.01923
G1 X52.062 Y172.665 E.20906
G1 X52.445 Y172.262 E.02789
G1 X52.445 Y168.499 E.18886
G1 X52.829 Y168.499 E.01923
G1 X52.829 Y171.86 E.16866
G1 X53.212 Y171.457 E.02789
G1 X53.212 Y168.499 E.14846
G1 X53.595 Y168.499 E.01923
G1 X53.595 Y171.055 E.12826
G1 X53.978 Y170.652 E.02789
G1 X53.978 Y168.499 E.10806
G1 X54.361 Y168.499 E.01923
G1 X54.361 Y170.25 E.08786
