; generated by PrusaSlicer 2.5.0+win64 on 2022-12-07 at 00:32:10 UTC

; 

; external perimeters extrusion width = 1.00mm
; perimeters extrusion width = 1.00mm
; infill extrusion width = 1.00mm
; solid infill extrusion width = 1.00mm
; top infill extrusion width = 1.00mm
; support material extrusion width = 1.00mm
; first layer extrusion width = 0.42mm

M73 P0 R454
M107
;TYPE:Custom
G90 ; use absolute coordinates
M83 ; extruder relative mode
M140 S60 ; set final bed temp
M104 S150 ; set temporary nozzle temp to prevent oozing during homing and auto bed leveling
G4 S10 ; allow partial nozzle warmup
G28 ; home all axisG1 Z50 F240
G1 X7.6 Y10 F3000
M104 S210 ; set final nozzle temp
M190 S60 ; wait for bed temp to stabilize
M109 S210 ; wait for nozzle temp to stabilize
G1 Z0.28 F240
G92 E0
G1 Y140 E10 F1500 ; prime the nozzle
G1 X4 F5000
G92 E0
M73 P0 R453
G1 Y10 E10 F1200 ; prime the nozzle
G92 E0
G21 ; set units to millimeters
G90 ; use absolute coordinates
M83 ; use relative distances for extrusion
; Filament gcode
M107
;LAYER_CHANGE
;Z:0.35
;HEIGHT:0.35
;BEFORE_LAYER_CHANGE
G92 E0
;0.35


G1 E-1 F3600
G1 Z.35 F7800
;AFTER_LAYER_CHANGE
;0.35
G1 X18.597 Y127.041
G1 E1 F2400
;TYPE:Support material
;WIDTH:0.42
G1 F1800
G1 X8.732 Y127.041 E.49509
G1 X8.732 Y25.573 E5.09227
G1 X18.597 Y25.573 E.49509
G1 X18.597 Y126.989 E5.08967
G1 X17.957 Y126.886 F7800
G1 F1800
G1 X17.957 Y25.883 E5.0689
G1 X17.573 Y25.883 E.01923
G1 X17.573 Y126.73 E5.06111
G1 X17.19 Y126.73 E.01923
G1 X17.19 Y25.883 E5.06111
G1 X16.807 Y25.883 E.01923
G1 X16.807 Y126.73 E5.06111
G1 X16.424 Y126.73 E.01923
G1 X16.424 Y25.883 E5.06111
G1 X16.04 Y25.883 E.01923
G1 X16.04 Y126.73 E5.06111
G1 X15.657 Y126.73 E.01923
G1 X15.657 Y25.883 E5.06111
G1 X15.274 Y25.883 E.01923
G1 X15.274 Y126.73 E5.06111
G1 X14.891 Y126.73 E.01923
G1 X14.891 Y25.883 E5.06111
G1 X14.508 Y25.883 E.01923
G1 X14.508 Y126.73 E5.06111
G1 X14.124 Y126.73 E.01923
G1 X14.124 Y25.883 E5.06111
G1 X13.741 Y25.883 E.01923
G1 X13.741 Y126.73 E5.06111
G1 X13.358 Y126.73 E.01923
G1 X13.358 Y25.883 E5.06111
G1 X12.975 Y25.883 E.01923
M73 P0 R452
G1 X12.975 Y126.73 E5.06111
G1 X12.592 Y126.73 E.01923
G1 X12.592 Y25.883 E5.06111
G1 X12.208 Y25.883 E.01923
G1 X12.208 Y126.73 E5.06111
G1 X11.825 Y126.73 E.01923
G1 X11.825 Y25.883 E5.06111
G1 X11.442 Y25.883 E.01923
G1 X11.442 Y126.73 E5.06111
G1 X11.059 Y126.73 E.01923
G1 X11.059 Y25.883 E5.06111
G1 X10.676 Y25.883 E.01923
G1 X10.676 Y126.73 E5.06111
G1 X10.292 Y126.73 E.01923
G1 X10.292 Y25.883 E5.06111
G1 X9.909 Y25.883 E.01923
G1 X9.909 Y126.73 E5.06111
G1 X9.526 Y126.73 E.01923
G1 X9.526 Y25.883 E5.06111
G1 X9.143 Y25.883 E.01923
G1 X9.143 Y126.886 E5.0689
G1 E-.7 F3600
;WIPE_START
G1 F6240
G1 X9.143 Y126.366 E-.285
;WIPE_END
G1 E-.015 F3600
G1 X171.268 Y106.685 F7800
G1 E1 F2400
G1 F1800
G1 X161.09 Y106.685 E.5108
G1 X161.09 Y110.077 E.17027
G1 X147.519 Y110.077 E.68106
G1 X147.519 Y113.47 E.17027
G1 X137.341 Y113.47 E.5108
G1 X137.341 Y116.863 E.17027
G1 X127.163 Y116.863 E.5108
G1 X127.163 Y120.255 E.17027
G1 X116.985 Y120.255 E.5108
G1 X116.985 Y123.648 E.17027
G1 X96.942 Y123.648 E1.00589
G1 X96.942 Y25.573 E4.922
G1 X171.268 Y25.573 E3.73014
G1 X171.268 Y106.633 E4.06808
G1 E-.7 F3600
;WIPE_START
G1 F6240
G1 X171.268 Y106.113 E-.285
;WIPE_END
G1 E-.015 F3600
G1 X161.623 Y30.069 F7800
G1 E1 F2400
G1 F1800
G1 X161.213 Y30.452 E.02815
G1 X161.158 Y31.295 E.04239
G1 X161.991 Y31.72 E.04694
G1 X162.85 Y31.006 E.05605
G1 X162.512 Y30.069 E.05004
G1 X161.675 Y30.069 E.042
G1 E-.7 F3600
;WIPE_START
G1 F6240
G1 X162.195 Y30.069 E-.285
;WIPE_END
G1 E-.015 F3600
G1 X170.857 Y106.529 F7800
G1 E1 F2400
G1 F1800
G1 X170.857 Y25.883 E4.04731
G1 X170.474 Y25.883 E.01923
G1 X170.474 Y106.374 E4.03952
G1 X170.091 Y106.374 E.01923
M73 P0 R451
G1 X170.091 Y25.883 E4.03952
G1 X169.708 Y25.883 E.01923
G1 X169.708 Y106.374 E4.03952
G1 X169.324 Y106.374 E.01923
G1 X169.324 Y25.883 E4.03952
G1 X168.941 Y25.883 E.01923
G1 X168.941 Y106.374 E4.03952
G1 X168.558 Y106.374 E.01923
G1 X168.558 Y25.883 E4.03952
G1 X168.175 Y25.883 E.01923
G1 X168.175 Y106.374 E4.03952
G1 X167.792 Y106.374 E.01923
G1 X167.792 Y25.883 E4.03952
G1 X167.408 Y25.883 E.01923
G1 X167.408 Y106.374 E4.03952
G1 X167.025 Y106.374 E.01923
G1 X167.025 Y25.883 E4.03952
G1 X166.642 Y25.883 E.01923
G1 X166.642 Y106.374 E4.03952
G1 X166.259 Y106.374 E.01923
G1 X166.259 Y25.883 E4.03952
G1 X165.876 Y25.883 E.01923
G1 X165.876 Y106.374 E4.03952
G1 X165.492 Y106.374 E.01923
G1 X165.492 Y25.883 E4.03952
G1 X165.109 Y25.883 E.01923
G1 X165.109 Y106.374 E4.03952
G1 X164.726 Y106.374 E.01923
G1 X164.726 Y25.883 E4.03952
G1 X164.343 Y25.883 E.01923
G1 X164.343 Y106.374 E4.03952
G1 X163.96 Y106.374 E.01923
G1 X163.96 Y25.883 E4.03952
G1 X163.576 Y25.883 E.01923
G1 X163.576 Y106.374 E4.03952
G1 X163.193 Y106.374 E.01923
G1 X163.193 Y25.883 E4.03952
G1 X162.81 Y25.883 E.01923
G1 X162.81 Y29.981 E.20565
G1 X162.73 Y29.758 E.01188
G1 X162.427 Y29.758 E.0152
G1 X162.427 Y25.883 E.19447
G1 X162.043 Y25.883 E.01923
G1 X162.043 Y29.758 E.19447
G1 X161.66 Y29.758 E.01923
G1 X161.66 Y25.883 E.19447
G1 X161.277 Y25.883 E.01923
G1 X161.277 Y30.18 E.21563
G1 X162.81 Y106.529 F7800
G1 F1800
G1 X162.81 Y31.443 E3.76827
G1 X162.427 Y31.761 E.025
G1 X162.427 Y106.374 E3.74451
G1 X162.043 Y106.374 E.01923
M73 P0 R450
G1 X162.043 Y32.08 E3.72854
G1 X162.032 Y32.089 E.00076
G1 X161.66 Y31.9 E.02094
G1 X161.66 Y106.374 E3.73757
G1 X161.277 Y106.374 E.01923
G1 X161.277 Y31.53 E3.75613
G1 X160.894 Y109.922 F7800
G1 F1800
G1 X160.894 Y25.883 E4.21757
G1 X160.511 Y25.883 E.01923
G1 X160.511 Y109.767 E4.20978
G1 X160.127 Y109.767 E.01923
G1 X160.127 Y25.883 E4.20978
G1 X159.744 Y25.883 E.01923
G1 X159.744 Y109.767 E4.20978
G1 X159.361 Y109.767 E.01923
G1 X159.361 Y25.883 E4.20978
G1 X158.978 Y25.883 E.01923
G1 X158.978 Y109.767 E4.20978
G1 X158.595 Y109.767 E.01923
G1 X158.595 Y25.883 E4.20978
G1 X158.211 Y25.883 E.01923
G1 X158.211 Y109.767 E4.20978
G1 X157.828 Y109.767 E.01923
G1 X157.828 Y25.883 E4.20978
G1 X157.445 Y25.883 E.01923
G1 X157.445 Y109.767 E4.20978
G1 X157.062 Y109.767 E.01923
G1 X157.062 Y25.883 E4.20978
G1 X156.679 Y25.883 E.01923
G1 X156.679 Y109.767 E4.20978
G1 X156.295 Y109.767 E.01923
G1 X156.295 Y25.883 E4.20978
G1 X155.912 Y25.883 E.01923
G1 X155.912 Y109.767 E4.20978
G1 X155.529 Y109.767 E.01923
G1 X155.529 Y25.883 E4.20978
G1 X155.146 Y25.883 E.01923
G1 X155.146 Y109.767 E4.20978
G1 X154.762 Y109.767 E.01923
G1 X154.763 Y25.883 E4.20978
G1 X154.379 Y25.883 E.01923
G1 X154.379 Y109.767 E4.20978
G1 X153.996 Y109.767 E.01923
M73 P0 R449
G1 X153.996 Y25.883 E4.20978
G1 X153.613 Y25.883 E.01923
G1 X153.613 Y109.767 E4.20978
G1 X153.23 Y109.767 E.01923
G1 X153.23 Y25.883 E4.20978
G1 X152.846 Y25.883 E.01923
G1 X152.846 Y109.767 E4.20978
G1 X152.463 Y109.767 E.01923
G1 X152.463 Y25.883 E4.20978
G1 X152.08 Y25.883 E.01923
G1 X152.08 Y109.767 E4.20978
G1 X151.697 Y109.767 E.01923
G1 X151.697 Y25.883 E4.20978
G1 X151.314 Y25.883 E.01923
G1 X151.314 Y109.767 E4.20978
G1 X150.93 Y109.767 E.01923
G1 X150.93 Y25.883 E4.20978
G1 X150.547 Y25.883 E.01923
G1 X150.547 Y109.767 E4.20978
G1 X150.164 Y109.767 E.01923
G1 X150.164 Y25.883 E4.20978
G1 X149.781 Y25.883 E.01923
M73 P1 R449
G1 X149.781 Y109.767 E4.20978
G1 X149.398 Y109.767 E.01923
G1 X149.398 Y25.883 E4.20978
G1 X149.014 Y25.883 E.01923
G1 X149.014 Y109.767 E4.20978
G1 X148.631 Y109.767 E.01923
G1 X148.631 Y25.883 E4.20978
G1 X148.248 Y25.883 E.01923
G1 X148.248 Y109.767 E4.20978
G1 X147.865 Y109.767 E.01923
G1 X147.865 Y25.883 E4.20978
G1 X147.482 Y25.883 E.01923
G1 X147.482 Y109.767 E4.20978
G1 X147.209 Y109.767 E.01367
G1 X147.209 Y113.16 E.17027
G1 X147.098 Y113.16 E.00556
G1 X147.098 Y25.883 E4.38005
G1 X146.715 Y25.883 E.01923
G1 X146.715 Y113.16 E4.38005
G1 X146.332 Y113.16 E.01923
G1 X146.332 Y25.883 E4.38005
G1 X145.949 Y25.883 E.01923
M73 P1 R448
G1 X145.949 Y113.16 E4.38005
G1 X145.565 Y113.16 E.01923
G1 X145.565 Y25.883 E4.38005
G1 X145.182 Y25.883 E.01923
G1 X145.182 Y113.16 E4.38005
G1 X144.799 Y113.16 E.01923
G1 X144.799 Y25.883 E4.38005
G1 X144.416 Y25.883 E.01923
G1 X144.416 Y113.16 E4.38005
G1 X144.033 Y113.16 E.01923
G1 X144.033 Y25.883 E4.38005
G1 X143.649 Y25.883 E.01923
G1 X143.649 Y113.16 E4.38005
G1 X143.266 Y113.16 E.01923
G1 X143.266 Y25.883 E4.38005
G1 X142.883 Y25.883 E.01923
G1 X142.883 Y113.16 E4.38005
G1 X142.5 Y113.16 E.01923
G1 X142.5 Y25.883 E4.38005
G1 X142.117 Y25.883 E.01923
G1 X142.117 Y113.16 E4.38005
G1 X141.733 Y113.16 E.01923
G1 X141.733 Y25.883 E4.38005
G1 X141.35 Y25.883 E.01923
G1 X141.35 Y113.16 E4.38005
G1 X140.967 Y113.16 E.01923
G1 X140.967 Y25.883 E4.38005
G1 X140.584 Y25.883 E.01923
G1 X140.584 Y113.16 E4.38005
G1 X140.201 Y113.16 E.01923
G1 X140.201 Y25.883 E4.38005
G1 X139.817 Y25.883 E.01923
G1 X139.817 Y113.16 E4.38005
G1 X139.434 Y113.16 E.01923
G1 X139.434 Y25.883 E4.38005
G1 X139.051 Y25.883 E.01923
G1 X139.051 Y113.16 E4.38005
G1 X138.668 Y113.16 E.01923
G1 X138.668 Y25.883 E4.38005
G1 X138.284 Y25.883 E.01923
M73 P1 R447
G1 X138.284 Y113.16 E4.38005
G1 X137.901 Y113.16 E.01923
G1 X137.901 Y25.883 E4.38005
G1 X137.518 Y25.883 E.01923
G1 X137.518 Y113.16 E4.38005
G1 X137.135 Y113.16 E.01923
G1 X137.135 Y25.883 E4.38005
G1 X136.752 Y25.883 E.01923
G1 X136.752 Y116.552 E4.55032
G1 X136.368 Y116.552 E.01923
G1 X136.368 Y25.883 E4.55032
G1 X135.985 Y25.883 E.01923
G1 X135.985 Y116.552 E4.55032
G1 X135.602 Y116.552 E.01923
G1 X135.602 Y25.883 E4.55032
G1 X135.219 Y25.883 E.01923
G1 X135.219 Y116.552 E4.55032
G1 X134.836 Y116.552 E.01923
G1 X134.836 Y25.883 E4.55032
G1 X134.452 Y25.883 E.01923
G1 X134.452 Y116.552 E4.55032
G1 X134.069 Y116.552 E.01923
G1 X134.069 Y25.883 E4.55032
G1 X133.686 Y25.883 E.01923
G1 X133.686 Y116.552 E4.55032
G1 X133.303 Y116.552 E.01923
G1 X133.303 Y25.883 E4.55032
G1 X132.92 Y25.883 E.01923
G1 X132.92 Y116.552 E4.55032
G1 X132.536 Y116.552 E.01923
G1 X132.536 Y25.883 E4.55032
G1 X132.153 Y25.883 E.01923
G1 X132.153 Y116.552 E4.55032
G1 X131.77 Y116.552 E.01923
G1 X131.77 Y25.883 E4.55032
G1 X131.387 Y25.883 E.01923
G1 X131.387 Y116.552 E4.55032
G1 X131.003 Y116.552 E.01923
G1 X131.003 Y25.883 E4.55032
G1 X130.62 Y25.883 E.01923
M73 P1 R446
G1 X130.62 Y116.552 E4.55032
G1 X130.237 Y116.552 E.01923
G1 X130.237 Y25.883 E4.55032
G1 X129.854 Y25.883 E.01923
G1 X129.854 Y116.552 E4.55032
G1 X129.471 Y116.552 E.01923
G1 X129.471 Y25.883 E4.55032
G1 X129.087 Y25.883 E.01923
G1 X129.087 Y116.552 E4.55032
G1 X128.704 Y116.552 E.01923
G1 X128.704 Y25.883 E4.55032
G1 X128.321 Y25.883 E.01923
G1 X128.321 Y116.552 E4.55032
G1 X127.938 Y116.552 E.01923
G1 X127.938 Y25.883 E4.55032
G1 X127.555 Y25.883 E.01923
G1 X127.555 Y116.552 E4.55032
G1 X127.171 Y116.552 E.01923
G1 X127.171 Y25.883 E4.55032
G1 X126.788 Y25.883 E.01923
G1 X126.788 Y119.945 E4.72058
G1 X126.405 Y119.945 E.01923
G1 X126.405 Y25.883 E4.72058
G1 X126.022 Y25.883 E.01923
G1 X126.022 Y119.945 E4.72058
G1 X125.639 Y119.945 E.01923
G1 X125.639 Y25.883 E4.72058
G1 X125.255 Y25.883 E.01923
G1 X125.255 Y119.945 E4.72058
G1 X124.872 Y119.945 E.01923
G1 X124.872 Y25.883 E4.72058
G1 X124.489 Y25.883 E.01923
G1 X124.489 Y119.945 E4.72058
G1 X124.106 Y119.945 E.01923
G1 X124.106 Y25.883 E4.72058
G1 X123.722 Y25.883 E.01923
G1 X123.722 Y119.945 E4.72058
G1 X123.339 Y119.945 E.01923
M73 P1 R445
G1 X123.339 Y25.883 E4.72058
G1 X122.956 Y25.883 E.01923
G1 X122.956 Y119.945 E4.72058
G1 X122.573 Y119.945 E.01923
G1 X122.573 Y25.883 E4.72058
G1 X122.19 Y25.883 E.01923
G1 X122.19 Y119.945 E4.72058
G1 X121.806 Y119.945 E.01923
G1 X121.806 Y25.883 E4.72058
G1 X121.423 Y25.883 E.01923
G1 X121.423 Y119.945 E4.72058
G1 X121.04 Y119.945 E.01923
G1 X121.04 Y25.883 E4.72058
G1 X120.657 Y25.883 E.01923
G1 X120.657 Y119.945 E4.72058
G1 X120.274 Y119.945 E.01923
G1 X120.274 Y25.883 E4.72058
G1 X119.89 Y25.883 E.01923
G1 X119.89 Y119.945 E4.72058
G1 X119.507 Y119.945 E.01923
G1 X119.507 Y25.883 E4.72058
G1 X119.124 Y25.883 E.01923
G1 X119.124 Y119.945 E4.72058
G1 X118.741 Y119.945 E.01923
G1 X118.741 Y25.883 E4.72058
G1 X118.358 Y25.883 E.01923
G1 X118.358 Y119.945 E4.72058
G1 X117.974 Y119.945 E.01923
G1 X117.974 Y25.883 E4.72058
G1 X117.591 Y25.883 E.01923
G1 X117.591 Y119.945 E4.72058
G1 X117.208 Y119.945 E.01923
G1 X117.208 Y25.883 E4.72058
G1 X116.825 Y25.883 E.01923
G1 X116.825 Y119.945 E4.72058
G1 X116.675 Y119.945 E.00753
G1 X116.675 Y123.338 E.17027
G1 X116.441 Y123.338 E.01171
G1 X116.442 Y25.883 E4.89085
G1 X116.058 Y25.883 E.01923
M73 P2 R444
G1 X116.058 Y123.338 E4.89085
G1 X115.675 Y123.338 E.01923
G1 X115.675 Y25.883 E4.89085
G1 X115.292 Y25.883 E.01923
G1 X115.292 Y123.338 E4.89085
G1 X114.909 Y123.338 E.01923
G1 X114.909 Y25.883 E4.89085
G1 X114.525 Y25.883 E.01923
G1 X114.525 Y123.338 E4.89085
G1 X114.142 Y123.338 E.01923
G1 X114.142 Y25.883 E4.89085
G1 X113.759 Y25.883 E.01923
G1 X113.759 Y123.338 E4.89085
G1 X113.376 Y123.338 E.01923
G1 X113.376 Y25.883 E4.89085
G1 X112.993 Y25.883 E.01923
G1 X112.993 Y123.338 E4.89085
G1 X112.609 Y123.338 E.01923
G1 X112.609 Y25.883 E4.89085
G1 X112.226 Y25.883 E.01923
G1 X112.226 Y123.338 E4.89085
G1 X111.843 Y123.338 E.01923
G1 X111.843 Y25.883 E4.89085
G1 X111.46 Y25.883 E.01923
G1 X111.46 Y123.338 E4.89085
G1 X111.077 Y123.338 E.01923
G1 X111.077 Y25.883 E4.89085
G1 X110.693 Y25.883 E.01923
G1 X110.693 Y123.338 E4.89085
G1 X110.31 Y123.338 E.01923
G1 X110.31 Y25.883 E4.89085
G1 X109.927 Y25.883 E.01923
G1 X109.927 Y123.338 E4.89085
G1 X109.544 Y123.338 E.01923
G1 X109.544 Y25.883 E4.89085
G1 X109.161 Y25.883 E.01923
M73 P2 R443
G1 X109.161 Y123.338 E4.89085
G1 X108.777 Y123.338 E.01923
G1 X108.777 Y25.883 E4.89085
G1 X108.394 Y25.883 E.01923
G1 X108.394 Y123.338 E4.89085
G1 X108.011 Y123.338 E.01923
G1 X108.011 Y25.883 E4.89085
G1 X107.628 Y25.883 E.01923
G1 X107.628 Y123.338 E4.89085
G1 X107.244 Y123.338 E.01923
G1 X107.244 Y25.883 E4.89085
G1 X106.861 Y25.883 E.01923
G1 X106.861 Y123.338 E4.89085
G1 X106.478 Y123.338 E.01923
G1 X106.478 Y25.883 E4.89085
G1 X106.095 Y25.883 E.01923
G1 X106.095 Y123.338 E4.89085
G1 X105.712 Y123.338 E.01923
G1 X105.712 Y25.883 E4.89085
G1 X105.328 Y25.883 E.01923
G1 X105.328 Y123.338 E4.89085
G1 X104.945 Y123.338 E.01923
G1 X104.945 Y25.883 E4.89085
G1 X104.562 Y25.883 E.01923
G1 X104.562 Y123.338 E4.89085
G1 X104.179 Y123.338 E.01923
G1 X104.179 Y25.883 E4.89085
G1 X103.796 Y25.883 E.01923
G1 X103.796 Y123.338 E4.89085
G1 X103.412 Y123.338 E.01923
G1 X103.412 Y25.883 E4.89085
G1 X103.029 Y25.883 E.01923
G1 X103.029 Y123.338 E4.89085
G1 X102.646 Y123.338 E.01923
G1 X102.646 Y25.883 E4.89085
G1 X102.263 Y25.883 E.01923
M73 P2 R442
G1 X102.263 Y123.338 E4.89085
G1 X101.88 Y123.338 E.01923
G1 X101.88 Y25.883 E4.89085
G1 X101.496 Y25.883 E.01923
G1 X101.496 Y123.338 E4.89085
G1 X101.113 Y123.338 E.01923
G1 X101.113 Y25.883 E4.89085
G1 X100.73 Y25.883 E.01923
G1 X100.73 Y123.338 E4.89085
G1 X100.347 Y123.338 E.01923
G1 X100.347 Y25.883 E4.89085
G1 X99.963 Y25.883 E.01923
G1 X99.963 Y123.338 E4.89085
G1 X99.58 Y123.338 E.01923
G1 X99.58 Y25.883 E4.89085
G1 X99.197 Y25.883 E.01923
G1 X99.197 Y123.338 E4.89085
G1 X98.814 Y123.338 E.01923
G1 X98.814 Y25.883 E4.89085
G1 X98.431 Y25.883 E.01923
G1 X98.431 Y123.338 E4.89085
G1 X98.047 Y123.338 E.01923
G1 X98.047 Y25.883 E4.89085
G1 X97.664 Y25.883 E.01923
G1 X97.664 Y123.338 E4.89085
G1 X97.281 Y123.338 E.01923
G1 X97.281 Y25.728 E4.89864
M106 S255
;LAYER_CHANGE
;Z:1.09524
;HEIGHT:0.745238
;BEFORE_LAYER_CHANGE
G92 E0
;1.09524


G1 E-.7 F3600
;WIPE_START
G1 F6240
G1 X97.281 Y26.248 E-.285
;WIPE_END
G1 E-.015 F3600
G1 Z1.095 F7800
;AFTER_LAYER_CHANGE
;1.09524
M104 S205 ; set temperature
G1 X161.508 Y29.779
G1 E1 F2400
;WIDTH:1
G1 F1437.579
G1 X160.932 Y30.319 E.20565
G1 X160.856 Y31.466 E.29938
G1 X161.012 Y31.546 E.04557
G1 X161.002 Y31.7 E.04027
G1 X161.185 Y31.794 E.05361
G1 X161.173 Y31.975 E.04737
G1 X162.346 Y32.574 E.34285
G1 X164.123 Y31.099 E.6009
G1 X163.646 Y29.779 E.36551
G1 X161.634 Y29.779 E.52351
G1 E-.7 F3600
;WIPE_START
G1 F6240
G1 X162.154 Y29.779 E-.285
;WIPE_END
G1 E-.015 F3600
