; generated by PrusaSlicer 2.5.0+win64 on 2022-12-07 at 00:32:13 UTC

; 

; external perimeters extrusion width = 1.00mm
; perimeters extrusion width = 1.00mm
; infill extrusion width = 1.00mm
; solid infill extrusion width = 1.00mm
; top infill extrusion width = 1.00mm
; support material extrusion width = 1.00mm
; first layer extrusion width = 0.42mm

M73 P0 R551
M107
;TYPE:Custom
G90 ; use absolute coordinates
M83 ; extruder relative mode
M140 S60 ; set final bed temp
M104 S150 ; set temporary nozzle temp to prevent oozing during homing and auto bed leveling
G4 S10 ; allow partial nozzle warmup
G28 ; home all axisG1 Z50 F240
G1 X7.6 Y10 F3000
M104 S210 ; set final nozzle temp
M190 S60 ; wait for bed temp to stabilize
M109 S210 ; wait for nozzle temp to stabilize
G1 Z0.28 F240
G92 E0
G1 Y140 E10 F1500 ; prime the nozzle
G1 X4 F5000
G92 E0
G1 Y10 E10 F1200 ; prime the nozzle
G92 E0
G21 ; set units to millimeters
G90 ; use absolute coordinates
M83 ; use relative distances for extrusion
; Filament gcode
M107
;LAYER_CHANGE
;Z:0.35
;HEIGHT:0.35
;BEFORE_LAYER_CHANGE
G92 E0
;0.35


G1 E-1 F3600
G1 Z.35 F7800
;AFTER_LAYER_CHANGE
;0.35
G1 X127.29 Y178.054
G1 E1 F2400
;TYPE:Support material
;WIDTH:0.42
G1 F1800
G1 X69.927 Y178.054 E2.87881
G1 X69.927 Y174.795 E.16354
G1 X76.968 Y174.795 E.35338
G1 X77.332 Y174.544 E.02217
G1 X85.488 Y153.153 E1.14894
G1 X87.18 Y146.116 E.36323
G1 X89.31 Y140.503 E.30127
G1 X89.44 Y140.424 E.00763
G1 X89.616 Y139.699 E.03743
G1 X90.383 Y137.631 E.11073
G1 X110.943 Y52.301 E4.40489
G1 X111.013 Y60.028 E.38779
M73 P0 R550
G1 X110.446 Y110.657 E2.54104
G1 X110.856 Y154.595 E2.20518
G1 X112.125 Y174.41 E.99648
G1 X112.535 Y174.795 E.0282
G1 X122.096 Y174.795 E.4798
G1 X122.512 Y174.379 E.02952
G1 X122.512 Y22.302 E7.63211
G1 X127.29 Y22.302 E.2398
G1 X127.29 Y178.002 E7.81392
G1 X126.915 Y177.899 F7800
G1 F1800
G1 X126.915 Y22.613 E7.79315
G1 X126.531 Y22.613 E.01923
G1 X126.531 Y177.743 E7.78536
G1 X126.148 Y177.743 E.01923
G1 X126.148 Y22.613 E7.78536
G1 X125.765 Y22.613 E.01923
G1 X125.765 Y177.743 E7.78536
G1 X125.382 Y177.743 E.01923
G1 X125.382 Y22.613 E7.78536
G1 X124.999 Y22.613 E.01923
G1 X124.999 Y177.743 E7.78536
G1 X124.615 Y177.743 E.01923
G1 X124.615 Y22.613 E7.78536
G1 X124.232 Y22.613 E.01923
G1 X124.232 Y177.743 E7.78536
G1 X123.849 Y177.743 E.01923
G1 X123.849 Y22.613 E7.78536
G1 X123.466 Y22.613 E.01923
M73 P0 R549
G1 X123.466 Y177.743 E7.78536
G1 X123.083 Y177.743 E.01923
G1 X123.083 Y22.613 E7.78536
G1 X122.822 Y22.613 E.01308
G1 X122.822 Y174.508 E7.62298
G1 X122.699 Y174.63 E.0087
G1 X122.699 Y177.743 E.15623
G1 X122.316 Y177.743 E.01923
G1 X122.316 Y175.013 E.137
G1 X122.224 Y175.105 E.00653
G1 X121.933 Y175.105 E.01462
G1 X121.933 Y177.743 E.13239
G1 X121.55 Y177.743 E.01923
G1 X121.55 Y175.105 E.13239
G1 X121.167 Y175.105 E.01923
G1 X121.167 Y177.743 E.13239
G1 X120.783 Y177.743 E.01923
G1 X120.783 Y175.105 E.13239
G1 X120.4 Y175.105 E.01923
G1 X120.4 Y177.743 E.13239
G1 X120.017 Y177.743 E.01923
G1 X120.017 Y175.105 E.13239
G1 X119.634 Y175.105 E.01923
G1 X119.634 Y177.743 E.13239
G1 X119.25 Y177.743 E.01923
G1 X119.25 Y175.105 E.13239
G1 X118.867 Y175.105 E.01923
G1 X118.867 Y177.743 E.13239
G1 X118.484 Y177.743 E.01923
G1 X118.484 Y175.105 E.13239
G1 X118.101 Y175.105 E.01923
G1 X118.101 Y177.743 E.13239
G1 X117.718 Y177.743 E.01923
G1 X117.718 Y175.105 E.13239
G1 X117.334 Y175.105 E.01923
G1 X117.334 Y177.743 E.13239
G1 X116.951 Y177.743 E.01923
G1 X116.951 Y175.105 E.13239
G1 X116.568 Y175.105 E.01923
G1 X116.568 Y177.743 E.13239
G1 X116.185 Y177.743 E.01923
G1 X116.185 Y175.105 E.13239
G1 X115.802 Y175.105 E.01923
G1 X115.802 Y177.743 E.13239
G1 X115.418 Y177.743 E.01923
G1 X115.418 Y175.105 E.13239
G1 X115.035 Y175.105 E.01923
G1 X115.035 Y177.743 E.13239
G1 X114.652 Y177.743 E.01923
G1 X114.652 Y175.105 E.13239
G1 X114.269 Y175.105 E.01923
G1 X114.269 Y177.743 E.13239
G1 X113.886 Y177.743 E.01923
G1 X113.886 Y175.105 E.13239
G1 X113.502 Y175.105 E.01923
G1 X113.502 Y177.743 E.13239
G1 X113.119 Y177.743 E.01923
G1 X113.119 Y175.105 E.13239
G1 X112.736 Y175.105 E.01923
G1 X112.736 Y177.743 E.13239
G1 X112.353 Y177.743 E.01923
G1 X112.353 Y175.049 E.1352
G1 X111.969 Y174.69 E.02637
G1 X111.969 Y177.743 E.15325
G1 X111.586 Y177.743 E.01923
G1 X111.586 Y170.833 E.3468
G1 X111.203 Y164.865 E.30011
G1 X111.203 Y177.743 E.64629
G1 X110.82 Y177.743 E.01923
G1 X110.82 Y158.848 E.9483
G1 X110.546 Y154.602 E.21349
G1 X110.437 Y142.809 E.59191
G1 X110.437 Y177.743 E1.75323
G1 X110.053 Y177.743 E.01923
G1 X110.053 Y57.317 E6.04371
G1 X110.437 Y55.726 E.08212
G1 X110.437 Y97.586 E2.10077
G1 X109.67 Y177.899 F7800
G1 F1800
G1 X109.67 Y58.908 E5.97166
G1 X109.287 Y60.498 E.08212
G1 X109.287 Y177.743 E5.88404
G1 X108.904 Y177.743 E.01923
G1 X108.904 Y62.089 E5.80421
G1 X108.521 Y63.68 E.08212
G1 X108.521 Y177.743 E5.72438
G1 X108.137 Y177.743 E.01923
G1 X108.137 Y65.271 E5.64455
G1 X107.754 Y66.861 E.08212
G1 X107.754 Y177.743 E5.56471
G1 X107.371 Y177.743 E.01923
G1 X107.371 Y68.452 E5.48488
G1 X106.988 Y70.043 E.08212
G1 X106.988 Y177.743 E5.40505
G1 X106.605 Y177.743 E.01923
M73 P0 R548
G1 X106.605 Y71.634 E5.32522
G1 X106.221 Y73.224 E.08212
G1 X106.221 Y177.743 E5.24539
G1 X105.838 Y177.743 E.01923
G1 X105.838 Y74.815 E5.16555
G1 X105.455 Y76.406 E.08212
G1 X105.455 Y177.743 E5.08572
G1 X105.072 Y177.743 E.01923
G1 X105.072 Y77.996 E5.00589
G1 X104.688 Y79.587 E.08209
G1 X104.688 Y177.743 E4.92609
G1 X104.305 Y177.743 E.01923
G1 X104.305 Y81.178 E4.84622
G1 X103.922 Y82.769 E.08213
G1 X103.922 Y177.743 E4.76638
G1 X103.539 Y177.743 E.01923
G1 X103.539 Y84.359 E4.68656
G1 X103.156 Y85.95 E.08211
G1 X103.156 Y177.743 E4.60673
G1 X102.772 Y177.743 E.01923
G1 X102.772 Y87.541 E4.52691
G1 X102.389 Y89.131 E.08211
G1 X102.389 Y177.743 E4.44708
G1 X102.006 Y177.743 E.01923
G1 X102.006 Y90.722 E4.36726
G1 X101.623 Y92.311 E.08205
G1 X101.623 Y177.743 E4.28749
G1 X101.24 Y177.743 E.01923
G1 X101.24 Y93.903 E4.20761
G1 X100.856 Y95.494 E.08211
G1 X100.856 Y177.743 E4.12778
G1 X100.473 Y177.743 E.01923
G1 X100.473 Y97.084 E4.04797
G1 X100.09 Y98.674 E.0821
G1 X100.09 Y177.743 E3.96815
G1 X99.707 Y177.743 E.01923
M73 P0 R547
G1 X99.707 Y100.265 E3.88834
G1 X99.324 Y101.855 E.0821
G1 X99.324 Y177.743 E3.80853
G1 X98.94 Y177.743 E.01923
G1 X98.94 Y103.445 E3.72872
G1 X98.557 Y105.036 E.0821
G1 X98.557 Y177.743 E3.6489
G1 X98.174 Y177.743 E.01923
G1 X98.174 Y106.625 E3.56914
G1 X97.791 Y108.215 E.08209
G1 X97.791 Y177.743 E3.48934
G1 X97.407 Y177.743 E.01923
G1 X97.407 Y109.805 E3.40954
G1 X97.024 Y111.395 E.08209
G1 X97.024 Y177.743 E3.32974
G1 X96.641 Y177.743 E.01923
G1 X96.641 Y112.985 E3.24994
G1 X96.258 Y114.576 E.08209
G1 X96.258 Y177.743 E3.17013
G1 X95.875 Y177.743 E.01923
G1 X95.875 Y116.166 E3.09033
G1 X95.491 Y117.756 E.08209
G1 X95.491 Y177.743 E3.01053
G1 X95.108 Y177.743 E.01923
G1 X95.108 Y119.346 E2.93073
G1 X94.725 Y120.936 E.08209
G1 X94.725 Y177.743 E2.85093
G1 X94.342 Y177.743 E.01923
G1 X94.342 Y122.526 E2.77112
G1 X93.959 Y124.117 E.0821
G1 X93.959 Y177.743 E2.6913
G1 X93.575 Y177.743 E.01923
G1 X93.575 Y125.707 E2.61148
G1 X93.192 Y127.298 E.0821
G1 X93.192 Y177.743 E2.53166
G1 X92.809 Y177.743 E.01923
G1 X92.809 Y128.888 E2.45185
G1 X92.426 Y130.478 E.08209
G1 X92.426 Y177.743 E2.37204
G1 X92.043 Y177.743 E.01923
G1 X92.043 Y132.068 E2.29224
G1 X91.659 Y133.659 E.08209
G1 X91.659 Y177.743 E2.21243
G1 X91.276 Y177.743 E.01923
G1 X91.276 Y135.249 E2.13262
G1 X90.893 Y136.839 E.0821
G1 X90.893 Y177.743 E2.0528
G1 X90.51 Y177.743 E.01923
G1 X90.51 Y138.19 E1.985
G1 X90.126 Y139.218 E.05503
G1 X90.126 Y177.743 E1.93344
G1 X89.743 Y177.743 E.01923
G1 X89.743 Y140.492 E1.86951
G1 X89.712 Y140.622 E.00674
G1 X89.563 Y140.713 E.00875
G1 X89.36 Y141.247 E.02868
G1 X89.36 Y177.743 E1.83159
G1 X88.977 Y177.743 E.01923
G1 X88.977 Y142.257 E1.78094
G1 X88.594 Y143.266 E.05418
G1 X88.594 Y177.743 E1.73028
G1 X88.21 Y177.743 E.01923
G1 X88.21 Y144.275 E1.67963
G1 X87.827 Y145.285 E.05418
G1 X87.827 Y177.743 E1.62897
G1 X87.444 Y177.743 E.01923
G1 X87.444 Y146.343 E1.57584
G1 X87.061 Y147.939 E.08235
M73 P0 R546
G1 X87.061 Y177.743 E1.49577
G1 X86.678 Y177.743 E.01923
G1 X86.678 Y149.536 E1.4156
G1 X86.294 Y151.134 E.08244
G1 X86.294 Y177.743 E1.33543
G1 X85.911 Y177.743 E.01923
G1 X85.911 Y152.731 E1.25526
G1 X85.782 Y153.252 E.02694
G1 X85.528 Y153.923 E.03598
G1 X85.528 Y177.743 E1.19547
G1 X85.145 Y177.743 E.01923
G1 X85.145 Y154.927 E1.14503
G1 X84.762 Y155.932 E.05398
G1 X84.762 Y177.743 E1.0946
G1 X84.378 Y177.743 E.01923
G1 X84.378 Y156.937 E1.04417
G1 X83.995 Y157.942 E.05398
G1 X83.995 Y177.743 E.99373
G1 X83.612 Y177.743 E.01923
G1 X83.612 Y158.947 E.9433
G1 X83.229 Y159.952 E.05398
G1 X83.229 Y177.743 E.89287
G1 X82.846 Y177.743 E.01923
G1 X82.846 Y160.957 E.84243
G1 X82.462 Y161.962 E.05398
G1 X82.462 Y177.743 E.792
G1 X82.079 Y177.743 E.01923
G1 X82.079 Y162.967 E.74157
G1 X81.696 Y163.972 E.05398
G1 X81.696 Y177.743 E.69114
G1 X81.313 Y177.743 E.01923
G1 X81.313 Y164.977 E.6407
G1 X80.929 Y165.982 E.05398
G1 X80.929 Y177.743 E.59027
G1 X80.546 Y177.743 E.01923
G1 X80.546 Y166.987 E.53984
G1 X80.163 Y167.992 E.05398
G1 X80.163 Y177.743 E.4894
G1 X79.78 Y177.743 E.01923
G1 X79.78 Y168.996 E.43897
G1 X79.397 Y170.001 E.05398
G1 X79.397 Y177.743 E.38854
G1 X79.013 Y177.743 E.01923
G1 X79.013 Y171.006 E.3381
G1 X78.63 Y172.011 E.05398
G1 X78.63 Y177.743 E.28767
G1 X78.247 Y177.743 E.01923
G1 X78.247 Y173.016 E.23724
G1 X77.864 Y174.021 E.05398
G1 X77.864 Y177.743 E.1868
G1 X77.481 Y177.743 E.01923
G1 X77.481 Y174.819 E.14676
G1 X77.097 Y175.083 E.02335
G1 X77.097 Y177.743 E.13351
G1 X76.714 Y177.743 E.01923
G1 X76.714 Y175.105 E.13239
G1 X76.331 Y175.105 E.01923
G1 X76.331 Y177.743 E.13239
G1 X75.948 Y177.743 E.01923
G1 X75.948 Y175.105 E.13239
G1 X75.565 Y175.105 E.01923
G1 X75.565 Y177.743 E.13239
G1 X75.181 Y177.743 E.01923
G1 X75.181 Y175.105 E.13239
G1 X74.798 Y175.105 E.01923
G1 X74.798 Y177.743 E.13239
G1 X74.415 Y177.743 E.01923
G1 X74.415 Y175.105 E.13239
G1 X74.032 Y175.105 E.01923
G1 X74.032 Y177.743 E.13239
G1 X73.648 Y177.743 E.01923
G1 X73.648 Y175.105 E.13239
G1 X73.265 Y175.105 E.01923
G1 X73.265 Y177.743 E.13239
G1 X72.882 Y177.743 E.01923
G1 X72.882 Y175.105 E.13239
G1 X72.499 Y175.105 E.01923
G1 X72.499 Y177.743 E.13239
G1 X72.116 Y177.743 E.01923
G1 X72.116 Y175.105 E.13239
G1 X71.732 Y175.105 E.01923
G1 X71.732 Y177.743 E.13239
G1 X71.349 Y177.743 E.01923
G1 X71.349 Y175.105 E.13239
G1 X70.966 Y175.105 E.01923
G1 X70.966 Y177.743 E.13239
G1 X70.583 Y177.743 E.01923
G1 X70.583 Y174.95 E.14018
G1 E-.7 F3600
;WIPE_START
G1 F6240
G1 X70.583 Y175.47 E-.285
;WIPE_END
G1 E-.015 F3600
G1 X112.238 Y46.262 F7800
G1 E1 F2400
;TYPE:Perimeter
;WIDTH:0.42
G1 F1800
G1 X121.247 Y8.867 E1.93041
G1 X121.247 Y173.53 E8.26377
G1 X113.337 Y173.53 E.39697
G1 X112.121 Y154.559 E.95405
G1 X111.711 Y110.655 E2.20342
G1 X112.278 Y60.036 E2.54055
G1 X112.159 Y47.172 E.64561
G1 X112.126 Y46.691 E.02417
G1 X112.013 Y46.594 E.00749
G1 X112.145 Y46.524 E.00749
G1 X112.196 Y46.406 E.00646
G1 X111.523 Y46.537 F7800
;TYPE:External perimeter
;WIDTH:0.705315
G1 F1800
G1 X111.702 Y46.558 E.01651
G1 X111.196 Y46.5 F7800
;TYPE:Perimeter
;WIDTH:0.42
G1 F1800
G1 X111.053 Y46.567 E.00793
G1 X110.984 Y46.727 E.00874
G1 X89.166 Y137.281 E4.67458
G1 X88.516 Y139.028 E.09355
G1 X88.327 Y139.648 E.03252
G1 X88.252 Y139.728 E.00551
G1 X85.98 Y145.711 E.32115
G1 X84.284 Y152.761 E.36394
G1 X76.365 Y173.53 E1.1155
G1 X60.686 Y173.53 E.78687
G1 X75.715 Y134.133 E2.11618
G1 X106.385 Y6.965 E6.56501
G1 X109.41 Y9.741 E.20607
G1 X109.666 Y10.016 E.01885
G1 X109.85 Y10.146 E.01131
G1 X110.698 Y10.926 E.05781
G1 X111.035 Y45.628 E1.74165
G1 X111.078 Y46.407 E.03916
G1 X111.432 Y46.416 F7800
;TYPE:External perimeter
;WIDTH:0.61347
G1 F1800
G1 X111.435 Y46.42 E.00035
;WIDTH:0.657995
G1 X111.479 Y46.479 E.00623
;WIDTH:0.702521
G1 X111.523 Y46.537 E.0067
G1 X111.467 Y46.585 E.0067
;WIDTH:0.657995
G1 X111.411 Y46.632 E.00623
;WIDTH:0.61347
G1 X111.355 Y46.679 E.00575
;WIDTH:0.568945
G1 X111.299 Y46.727 E.00527
;WIDTH:0.52442
G1 X111.305 Y46.754 E.00184
;WIDTH:0.489613
G1 X111.312 Y46.781 E.0017
;WIDTH:0.454806
G1 X111.319 Y46.808 E.00155
;WIDTH:0.42
G1 X89.497 Y137.382 E4.6756
G1 X88.839 Y139.148 E.09459
G1 X88.644 Y139.804 E.03434
G1 X88.574 Y139.851 E.00421
G1 X86.303 Y145.833 E.32112
G1 X84.614 Y152.863 E.36285
G1 X76.603 Y173.875 E1.12854
G1 X60.185 Y173.875 E.82393
G1 X75.38 Y134.052 E2.13911
G1 X106.187 Y6.315 E6.59439
G1 X109.912 Y9.734 E.25378
G1 X109.936 Y9.801 E.00356
G1 X110.049 Y9.86 E.0064
G1 X111.042 Y10.773 E.06768
G1 X111.386 Y46.224 E1.77922
;WIDTH:0.454806
G1 X111.373 Y46.25 E.00161
;WIDTH:0.489613
G1 X111.36 Y46.276 E.00176
;WIDTH:0.52442
G1 X111.351 Y46.295 E.00141
G1 X111.903 Y46.182 F7800
;WIDTH:0.42
G1 F1800
G1 X121.551 Y6.129 E2.06758
G1 X121.592 Y6.151 E.0023
G1 X121.592 Y173.875 E8.41736
G1 X113.013 Y173.875 E.43051
M73 P0 R545
G1 X111.776 Y154.571 E.97076
G1 X111.366 Y110.655 E2.20407
G1 X111.933 Y60.036 E2.54054
G1 X111.811 Y46.868 E.66086
;WIDTH:0.457488
G1 X111.826 Y46.842 E.00166
;WIDTH:0.494976
G1 X111.84 Y46.815 E.00182
;WIDTH:0.532465
G1 X111.854 Y46.789 E.00199
;WIDTH:0.575677
G1 X111.816 Y46.731 E.00504
;WIDTH:0.61889
G1 X111.778 Y46.674 E.00547
;WIDTH:0.662102
G1 X111.74 Y46.616 E.00591
;WIDTH:0.705315
G1 X111.702 Y46.558 E.00634
G1 X111.752 Y46.51 E.00634
;WIDTH:0.662102
G1 X111.802 Y46.463 E.00591
;WIDTH:0.61889
G1 X111.852 Y46.415 E.00547
;WIDTH:0.575677
G1 X111.902 Y46.367 E.00504
;WIDTH:0.532465
G1 X111.894 Y46.339 E.00193
;WIDTH:0.494976
G1 X111.891 Y46.327 E.0008
G1 E-.7 F3600
;WIPE_START
G1 F6240
G1 X112.012 Y45.821 E-.285
;WIPE_END
G1 E-.015 F3600
G1 X110.602 Y11.686 F7800
G1 E1 F2400
;TYPE:Solid infill
;WIDTH:0.420181
G1 F1800
G1 X106.501 Y7.585 E.2912
G1 X106.407 Y7.978 E.02031
G1 X110.45 Y12.022 E.28714
G1 X110.455 Y12.514 E.02475
G1 X106.312 Y8.371 E.29421
G1 X106.217 Y8.764 E.02031
G1 X110.46 Y13.007 E.30129
G1 X110.465 Y13.5 E.02475
G1 X106.122 Y9.158 E.30836
G1 X106.027 Y9.551 E.02031
G1 X110.469 Y13.993 E.31543
G1 X110.474 Y14.486 E.02475
G1 X105.932 Y9.944 E.32251
G1 X105.838 Y10.337 E.02031
G1 X110.479 Y14.978 E.32958
G1 X110.484 Y15.471 E.02475
M73 P1 R545
G1 X105.743 Y10.73 E.33665
G1 X105.648 Y11.123 E.02031
G1 X110.488 Y15.964 E.34373
G1 X110.493 Y16.457 E.02475
G1 X105.553 Y11.517 E.3508
G1 X105.458 Y11.91 E.02031
G1 X110.498 Y16.949 E.35787
G1 X110.503 Y17.442 E.02475
G1 X105.363 Y12.303 E.36495
G1 X105.269 Y12.696 E.02031
G1 X110.508 Y17.935 E.37202
G1 X110.512 Y18.428 E.02475
G1 X105.174 Y13.089 E.3791
G1 X105.079 Y13.482 E.02031
G1 X110.517 Y18.921 E.38617
G1 X110.522 Y19.413 E.02475
G1 X104.984 Y13.876 E.39324
G1 X104.889 Y14.269 E.02031
G1 X110.527 Y19.906 E.40032
G1 X110.532 Y20.399 E.02475
G1 X104.795 Y14.662 E.40739
G1 X104.7 Y15.055 E.02031
G1 X110.536 Y20.892 E.41446
G1 X110.541 Y21.385 E.02475
G1 X104.605 Y15.448 E.42154
G1 X104.51 Y15.842 E.02031
G1 X110.546 Y21.877 E.42861
G1 X110.551 Y22.37 E.02475
G1 X104.415 Y16.235 E.43568
G1 X104.32 Y16.628 E.02031
G1 X110.555 Y22.863 E.44276
G1 X110.56 Y23.356 E.02475
G1 X104.226 Y17.021 E.44983
G1 X104.131 Y17.414 E.02031
G1 X110.565 Y23.849 E.4569
G1 X110.57 Y24.341 E.02475
G1 X104.036 Y17.807 E.46398
G1 X103.941 Y18.201 E.02031
G1 X110.575 Y24.834 E.47105
G1 X110.579 Y25.327 E.02475
G1 X103.846 Y18.594 E.47812
G1 X103.751 Y18.987 E.02031
G1 X110.584 Y25.82 E.4852
G1 X110.589 Y26.312 E.02475
G1 X103.657 Y19.38 E.49227
G1 X103.562 Y19.773 E.02031
G1 X110.594 Y26.805 E.49934
G1 X110.599 Y27.298 E.02475
G1 X103.467 Y20.167 E.50642
G1 X103.372 Y20.56 E.02031
G1 X110.603 Y27.791 E.51349
G1 X110.608 Y28.284 E.02475
G1 X103.277 Y20.953 E.52056
G1 X103.183 Y21.346 E.02031
G1 X110.613 Y28.776 E.52764
G1 X110.618 Y29.269 E.02475
G1 X103.088 Y21.739 E.53471
G1 X102.993 Y22.132 E.02031
G1 X110.622 Y29.762 E.54178
G1 X110.627 Y30.255 E.02475
G1 X102.898 Y22.526 E.54886
G1 X102.803 Y22.919 E.02031
G1 X110.632 Y30.748 E.55593
G1 X110.637 Y31.24 E.02475
G1 X102.708 Y23.312 E.563
