; generated by PrusaSlicer 2.5.0+win64 on 2022-12-07 at 00:32:24 UTC

; 

; external perimeters extrusion width = 1.00mm
; perimeters extrusion width = 1.00mm
; infill extrusion width = 1.00mm
; solid infill extrusion width = 1.00mm
; top infill extrusion width = 1.00mm
; support material extrusion width = 1.00mm
; first layer extrusion width = 0.42mm

M73 P0 R471
M107
;TYPE:Custom
G90 ; use absolute coordinates
M83 ; extruder relative mode
M140 S60 ; set final bed temp
M104 S150 ; set temporary nozzle temp to prevent oozing during homing and auto bed leveling
G4 S10 ; allow partial nozzle warmup
G28 ; home all axisG1 Z50 F240
G1 X7.6 Y10 F3000
M104 S210 ; set final nozzle temp
M190 S60 ; wait for bed temp to stabilize
M109 S210 ; wait for nozzle temp to stabilize
G1 Z0.28 F240
G92 E0
G1 Y140 E10 F1500 ; prime the nozzle
G1 X4 F5000
G92 E0
G1 Y10 E10 F1200 ; prime the nozzle
G92 E0
G21 ; set units to millimeters
G90 ; use absolute coordinates
M83 ; use relative distances for extrusion
; Filament gcode
M107
;LAYER_CHANGE
;Z:0.35
;HEIGHT:0.35
;BEFORE_LAYER_CHANGE
G92 E0
;0.35


G1 E-1 F3600
G1 Z.35 F7800
;AFTER_LAYER_CHANGE
;0.35
G1 X171.268 Y18.597
G1 E1 F2400
;TYPE:Support material
;WIDTH:0.42
G1 F1800
G1 X161.09 Y18.597 E.5108
G1 X161.09 Y35.873 E.86703
G1 X164.483 Y35.873 E.17027
G1 X164.483 Y42.659 E.34053
G1 X171.268 Y42.659 E.34053
G1 X171.268 Y69.487 E1.34642
G1 X167.876 Y69.487 E.17027
G1 X167.876 Y73.193 E.18597
G1 X171.268 Y73.193 E.17027
G1 X171.268 Y113.592 E2.02749
G1 X167.876 Y113.592 E.17027
G1 X167.876 Y150.912 E1.87292
G1 X164.483 Y150.912 E.17027
G1 X164.483 Y164.796 E.69677
G1 X167.876 Y164.796 E.17027
G1 X167.876 Y168.189 E.17027
G1 X171.268 Y168.189 E.17027
G1 X171.268 Y178.054 E.49509
G1 X8.732 Y178.054 E8.15705
G1 X8.732 Y18.91 E7.98679
G1 X21.99 Y18.91 E.66536
G1 X21.99 Y25.695 E.34053
G1 X25.695 Y25.695 E.18597
G1 X25.695 Y18.91 E.34053
G1 X29.088 Y18.91 E.17027
G1 X29.088 Y15.204 E.18597
G1 X18.91 Y15.204 E.5108
G1 X18.91 Y1.946 E.66536
G1 X171.268 Y1.946 E7.64625
G1 X171.268 Y18.545 E.83303
G1 E-.7 F3600
;WIPE_START
G1 F6240
G1 X171.268 Y18.025 E-.285
;WIPE_END
G1 E-.015 F3600
G1 X113.593 Y157.698 F7800
G1 E1 F2400
G1 F1800
G1 X113.593 Y161.09 E.17027
G1 X83.058 Y161.09 E1.53239
G1 X83.058 Y164.483 E.17027
G1 X69.487 Y164.483 E.68106
G1 X69.487 Y168.189 E.18597
G1 X130.869 Y168.189 E3.08049
G1 X130.869 Y157.698 E.5265
G1 X113.644 Y157.698 E.86443
G1 E-.7 F3600
;WIPE_START
G1 F6240
G1 X114.164 Y157.698 E-.285
;WIPE_END
G1 E-.015 F3600
G1 X83.058 Y100.022 F7800
G1 E1 F2400
G1 F1800
G1 X83.058 Y103.414 E.17027
G1 X69.487 Y103.414 E.68106
G1 X69.487 Y106.807 E.17027
G1 X66.095 Y106.807 E.17027
G1 X66.095 Y110.513 E.18597
G1 X76.273 Y110.513 E.5108
G1 X76.273 Y113.905 E.17027
G1 X83.058 Y113.905 E.34053
G1 X83.058 Y117.298 E.17027
G1 X93.236 Y117.298 E.5108
G1 X93.236 Y120.691 E.17027
G1 X103.414 Y120.691 E.5108
G1 X103.414 Y124.083 E.17027
G1 X120.378 Y124.083 E.85133
G1 X120.378 Y127.476 E.17027
G1 X133.949 Y127.476 E.68106
G1 X133.949 Y130.869 E.17027
G1 X137.654 Y130.869 E.18597
G1 X137.654 Y113.592 E.86703
G1 X130.869 Y113.592 E.34053
M73 P0 R470
G1 X130.869 Y110.2 E.17027
G1 X120.691 Y110.2 E.5108
G1 X120.691 Y106.807 E.17027
G1 X113.905 Y106.807 E.34053
G1 X113.905 Y103.414 E.17027
G1 X103.727 Y103.414 E.5108
G1 X103.727 Y100.022 E.17027
G1 X83.11 Y100.022 E1.0347
G1 X133.949 Y79.665 F7800
G1 F1800
G1 X133.949 Y86.764 E.35623
G1 X137.341 Y86.764 E.17027
G1 X137.341 Y90.156 E.17027
G1 X140.734 Y90.156 E.17027
G1 X140.734 Y93.549 E.17027
G1 X144.44 Y93.549 E.18597
G1 X144.44 Y79.665 E.69677
G1 X134 Y79.665 E.5239
G1 X154.305 Y66.095 F7800
G1 F1800
G1 X154.305 Y69.8 E.18597
G1 X158.01 Y69.8 E.18597
G1 X158.01 Y66.095 E.18597
G1 X154.357 Y66.095 E.18337
G1 E-.7 F3600
;WIPE_START
G1 F6240
G1 X154.877 Y66.095 E-.285
;WIPE_END
G1 E-.015 F3600
G1 X96.629 Y35.56 F7800
G1 E1 F2400
G1 F1800
G1 X96.629 Y42.659 E.35623
G1 X100.022 Y42.659 E.17027
G1 X100.022 Y46.051 E.17027
G1 X103.414 Y46.051 E.17027
G1 X103.414 Y52.837 E.34053
G1 X107.12 Y52.837 E.18597
G1 X107.12 Y38.953 E.69677
G1 X103.727 Y38.953 E.17027
G1 X103.727 Y35.56 E.17027
G1 X96.681 Y35.56 E.35364
G1 X137.341 Y15.204 F7800
G1 F1800
G1 X137.341 Y29.088 E.69677
G1 X144.127 Y29.088 E.34053
G1 X144.127 Y35.873 E.34053
G1 X147.832 Y35.873 E.18597
G1 X147.832 Y25.382 E.5265
G1 X144.44 Y25.382 E.17027
G1 X144.44 Y18.597 E.34053
G1 X141.047 Y18.597 E.17027
G1 X141.047 Y15.204 E.17027
G1 X137.393 Y15.204 E.18337
G1 E-.7 F3600
;WIPE_START
G1 F6240
G1 X137.913 Y15.204 E-.285
;WIPE_END
G1 E-.015 F3600
G1 X170.857 Y177.899 F7800
G1 E1 F2400
G1 F1800
G1 X170.857 Y168.499 E.47173
G1 X170.474 Y168.499 E.01923
G1 X170.474 Y177.743 E.46394
G1 X170.091 Y177.743 E.01923
G1 X170.091 Y168.499 E.46394
G1 X169.708 Y168.499 E.01923
G1 X169.708 Y177.743 E.46394
G1 X169.325 Y177.743 E.01923
G1 X169.325 Y168.499 E.46394
G1 X168.941 Y168.499 E.01923
G1 X168.941 Y177.743 E.46394
G1 X168.558 Y177.743 E.01923
G1 X168.558 Y168.499 E.46394
G1 X168.175 Y168.499 E.01923
G1 X168.175 Y177.743 E.46394
G1 X167.792 Y177.743 E.01923
G1 X167.792 Y168.499 E.46394
G1 X167.565 Y168.499 E.01136
G1 X167.565 Y165.106 E.17027
G1 X167.408 Y165.106 E.00787
G1 X167.408 Y177.743 E.6342
G1 X167.025 Y177.743 E.01923
G1 X167.025 Y165.106 E.6342
G1 X166.642 Y165.106 E.01923
G1 X166.642 Y177.743 E.6342
G1 X166.259 Y177.743 E.01923
G1 X166.259 Y165.106 E.6342
G1 X165.876 Y165.106 E.01923
G1 X165.876 Y177.743 E.6342
G1 X165.492 Y177.743 E.01923
G1 X165.492 Y165.106 E.6342
G1 X165.109 Y165.106 E.01923
G1 X165.109 Y177.743 E.6342
G1 X164.726 Y177.743 E.01923
G1 X164.726 Y165.106 E.6342
G1 X164.343 Y165.106 E.01923
G1 X164.343 Y177.743 E.6342
G1 X163.96 Y177.743 E.01923
G1 X163.96 Y36.184 E7.1043
G1 X163.576 Y36.184 E.01923
G1 X163.576 Y177.743 E7.1043
G1 X163.193 Y177.743 E.01923
G1 X163.193 Y36.184 E7.1043
G1 X162.81 Y36.184 E.01923
G1 X162.81 Y177.743 E7.1043
G1 X162.427 Y177.743 E.01923
G1 X162.427 Y36.184 E7.1043
G1 X162.044 Y36.184 E.01923
G1 X162.044 Y177.743 E7.1043
G1 X161.66 Y177.743 E.01923
G1 X161.66 Y36.184 E7.1043
G1 X161.277 Y36.184 E.01923
G1 X161.277 Y177.743 E7.1043
G1 X160.894 Y177.743 E.01923
M73 P0 R469
G1 X160.894 Y2.257 E8.80696
G1 X161.277 Y2.257 E.01923
G1 X161.277 Y18.286 E.80447
G1 X161.66 Y18.286 E.01923
G1 X161.66 Y2.257 E.80447
G1 X162.044 Y2.257 E.01923
G1 X162.044 Y18.286 E.80447
G1 X162.427 Y18.286 E.01923
G1 X162.427 Y2.257 E.80447
G1 X162.81 Y2.257 E.01923
G1 X162.81 Y18.286 E.80447
G1 X163.193 Y18.286 E.01923
G1 X163.193 Y2.257 E.80447
G1 X163.576 Y2.257 E.01923
G1 X163.576 Y18.286 E.80447
G1 X163.96 Y18.286 E.01923
G1 X163.96 Y2.257 E.80447
G1 X164.343 Y2.257 E.01923
G1 X164.343 Y18.286 E.80447
G1 X164.726 Y18.286 E.01923
G1 X164.726 Y2.257 E.80447
G1 X165.109 Y2.257 E.01923
G1 X165.109 Y18.286 E.80447
G1 X165.492 Y18.286 E.01923
G1 X165.492 Y2.257 E.80447
G1 X165.876 Y2.257 E.01923
G1 X165.876 Y18.286 E.80447
G1 X166.259 Y18.286 E.01923
G1 X166.259 Y2.257 E.80447
G1 X166.642 Y2.257 E.01923
G1 X166.642 Y18.286 E.80447
G1 X167.025 Y18.286 E.01923
G1 X167.025 Y2.257 E.80447
G1 X167.408 Y2.257 E.01923
G1 X167.408 Y18.286 E.80447
G1 X167.792 Y18.286 E.01923
G1 X167.792 Y2.257 E.80447
G1 X168.175 Y2.257 E.01923
G1 X168.175 Y18.286 E.80447
G1 X168.558 Y18.286 E.01923
G1 X168.558 Y2.257 E.80447
G1 X168.941 Y2.257 E.01923
G1 X168.941 Y18.286 E.80447
G1 X169.325 Y18.286 E.01923
G1 X169.325 Y2.257 E.80447
G1 X169.708 Y2.257 E.01923
G1 X169.708 Y18.286 E.80447
G1 X170.091 Y18.286 E.01923
G1 X170.091 Y2.257 E.80447
G1 X170.474 Y2.257 E.01923
G1 X170.474 Y18.286 E.80447
G1 X170.857 Y18.286 E.01923
G1 X170.857 Y2.101 E.81226
G1 E-.7 F3600
;WIPE_START
G1 F6240
G1 X170.857 Y2.621 E-.285
;WIPE_END
G1 E-.015 F3600
G1 X170.857 Y113.437 F7800
G1 E1 F2400
G1 F1800
G1 X170.857 Y73.503 E2.00412
G1 X170.474 Y73.503 E.01923
G1 X170.474 Y113.282 E1.99633
G1 X170.091 Y113.282 E.01923
G1 X170.091 Y73.503 E1.99633
G1 X169.708 Y73.503 E.01923
G1 X169.708 Y113.282 E1.99633
G1 X169.325 Y113.282 E.01923
G1 X169.325 Y73.503 E1.99633
G1 X168.941 Y73.503 E.01923
G1 X168.941 Y113.282 E1.99633
G1 X168.558 Y113.282 E.01923
G1 X168.558 Y73.503 E1.99633
G1 X168.175 Y73.503 E.01923
G1 X168.175 Y113.282 E1.99633
G1 X167.792 Y113.282 E.01923
G1 X167.792 Y73.503 E1.99633
G1 X167.565 Y73.503 E.01136
G1 X167.565 Y69.177 E.21712
G1 X167.792 Y69.177 E.01136
G1 X167.792 Y42.969 E1.31527
G1 X168.175 Y42.969 E.01923
G1 X168.175 Y69.177 E1.31527
G1 X168.558 Y69.177 E.01923
G1 X168.558 Y42.969 E1.31527
G1 X168.941 Y42.969 E.01923
G1 X168.941 Y69.177 E1.31527
G1 X169.325 Y69.177 E.01923
G1 X169.325 Y42.969 E1.31527
G1 X169.708 Y42.969 E.01923
G1 X169.708 Y69.177 E1.31527
G1 X170.091 Y69.177 E.01923
G1 X170.091 Y42.969 E1.31527
G1 X170.474 Y42.969 E.01923
G1 X170.474 Y69.177 E1.31527
G1 X170.857 Y69.177 E.01923
G1 X170.857 Y42.814 E1.32306
G1 E-.7 F3600
;WIPE_START
G1 F6240
G1 X170.857 Y43.334 E-.285
;WIPE_END
G1 E-.015 F3600
G1 X167.408 Y150.757 F7800
G1 E1 F2400
G1 F1800
G1 X167.408 Y42.969 E5.40943
G1 X167.025 Y42.969 E.01923
G1 X167.025 Y150.602 E5.40164
G1 X166.642 Y150.602 E.01923
G1 X166.642 Y42.969 E5.40164
G1 X166.259 Y42.969 E.01923
G1 X166.259 Y150.602 E5.40164
G1 X165.876 Y150.602 E.01923
G1 X165.876 Y42.969 E5.40164
G1 X165.492 Y42.969 E.01923
M73 P0 R468
G1 X165.492 Y150.602 E5.40164
G1 X165.109 Y150.602 E.01923
G1 X165.109 Y42.969 E5.40164
G1 X164.726 Y42.969 E.01923
G1 X164.726 Y150.602 E5.40164
G1 X164.343 Y150.602 E.01923
G1 X164.343 Y42.814 E5.40943
G1 X160.511 Y177.899 F7800
G1 F1800
G1 X160.511 Y2.257 E8.81475
G1 X160.127 Y2.257 E.01923
G1 X160.127 Y177.743 E8.80696
G1 X159.744 Y177.743 E.01923
G1 X159.744 Y2.257 E8.80696
G1 X159.361 Y2.257 E.01923
G1 X159.361 Y177.743 E8.80696
G1 X158.978 Y177.743 E.01923
G1 X158.978 Y2.257 E8.80696
G1 X158.595 Y2.257 E.01923
G1 X158.595 Y177.743 E8.80696
G1 X158.211 Y177.743 E.01923
G1 X158.211 Y2.257 E8.80696
G1 X157.828 Y2.257 E.01923
M73 P0 R467
G1 X157.828 Y65.784 E3.18819
G1 X157.445 Y65.784 E.01923
G1 X157.445 Y2.257 E3.18819
G1 X157.062 Y2.257 E.01923
G1 X157.062 Y65.784 E3.18819
G1 X156.679 Y65.784 E.01923
G1 X156.679 Y2.257 E3.18819
G1 X156.295 Y2.257 E.01923
G1 X156.295 Y65.784 E3.18819
G1 X155.912 Y65.784 E.01923
G1 X155.912 Y2.257 E3.18819
G1 X155.529 Y2.257 E.01923
G1 X155.529 Y65.784 E3.18819
G1 X155.146 Y65.784 E.01923
G1 X155.146 Y2.257 E3.18819
G1 X154.763 Y2.257 E.01923
G1 X154.763 Y65.784 E3.18819
G1 X154.379 Y65.784 E.01923
G1 X154.379 Y2.257 E3.18819
G1 X153.996 Y2.257 E.01923
G1 X153.996 Y177.743 E8.80696
G1 X154.379 Y177.743 E.01923
G1 X154.379 Y70.111 E5.40164
G1 X154.763 Y70.111 E.01923
G1 X154.763 Y177.743 E5.40164
G1 X155.146 Y177.743 E.01923
G1 X155.146 Y70.111 E5.40164
G1 X155.529 Y70.111 E.01923
G1 X155.529 Y177.743 E5.40164
G1 X155.912 Y177.743 E.01923
G1 X155.912 Y70.111 E5.40164
G1 X156.295 Y70.111 E.01923
G1 X156.295 Y177.743 E5.40164
G1 X156.679 Y177.743 E.01923
G1 X156.679 Y70.111 E5.40164
G1 X157.062 Y70.111 E.01923
M73 P1 R467
G1 X157.062 Y177.743 E5.40164
G1 X157.445 Y177.743 E.01923
G1 X157.445 Y70.111 E5.40164
G1 X157.828 Y70.111 E.01923
M73 P1 R466
G1 X157.828 Y177.899 E5.40943
G1 X153.613 Y177.899 F7800
G1 F1800
G1 X153.613 Y2.257 E8.81475
G1 X153.23 Y2.257 E.01923
G1 X153.23 Y177.743 E8.80696
G1 X152.846 Y177.743 E.01923
G1 X152.846 Y2.257 E8.80696
G1 X152.463 Y2.257 E.01923
G1 X152.463 Y177.743 E8.80696
G1 X152.08 Y177.743 E.01923
G1 X152.08 Y2.257 E8.80696
G1 X151.697 Y2.257 E.01923
G1 X151.697 Y177.743 E8.80696
G1 X151.314 Y177.743 E.01923
G1 X151.314 Y2.257 E8.80696
G1 X150.93 Y2.257 E.01923
G1 X150.93 Y177.743 E8.80696
G1 X150.547 Y177.743 E.01923
G1 X150.547 Y2.257 E8.80696
G1 X150.164 Y2.257 E.01923
G1 X150.164 Y177.743 E8.80696
G1 X149.781 Y177.743 E.01923
M73 P1 R465
G1 X149.781 Y2.257 E8.80696
G1 X149.398 Y2.257 E.01923
G1 X149.398 Y177.743 E8.80696
G1 X149.014 Y177.743 E.01923
G1 X149.014 Y2.257 E8.80696
G1 X148.631 Y2.257 E.01923
G1 X148.631 Y177.743 E8.80696
G1 X148.248 Y177.743 E.01923
G1 X148.248 Y2.257 E8.80696
G1 X147.865 Y2.257 E.01923
G1 X147.865 Y25.072 E1.145
G1 X147.482 Y25.072 E.01923
G1 X147.482 Y2.257 E1.145
G1 X147.098 Y2.257 E.01923
G1 X147.098 Y25.072 E1.145
G1 X146.715 Y25.072 E.01923
G1 X146.715 Y2.257 E1.145
G1 X146.332 Y2.257 E.01923
G1 X146.332 Y25.072 E1.145
G1 X145.949 Y25.072 E.01923
G1 X145.949 Y2.257 E1.145
G1 X145.566 Y2.257 E.01923
G1 X145.566 Y25.072 E1.145
G1 X145.182 Y25.072 E.01923
G1 X145.182 Y2.257 E1.145
G1 X144.799 Y2.257 E.01923
G1 X144.799 Y25.072 E1.145
G1 X144.75 Y25.072 E.00246
G1 X144.75 Y18.286 E.34053
G1 X144.416 Y18.286 E.01677
G1 X144.416 Y2.257 E.80447
G1 X144.033 Y2.257 E.01923
G1 X144.033 Y18.286 E.80447
G1 X143.649 Y18.286 E.01923
G1 X143.649 Y2.257 E.80447
G1 X143.266 Y2.257 E.01923
G1 X143.266 Y18.286 E.80447
G1 X142.883 Y18.286 E.01923
G1 X142.883 Y2.257 E.80447
G1 X142.5 Y2.257 E.01923
G1 X142.5 Y18.286 E.80447
G1 X142.117 Y18.286 E.01923
G1 X142.117 Y2.257 E.80447
G1 X141.733 Y2.257 E.01923
G1 X141.733 Y18.286 E.80447
G1 X141.357 Y18.286 E.01887
G1 X141.35 Y2.257 E.80447
G1 X140.967 Y2.257 E.01923
G1 X140.967 Y14.894 E.6342
G1 X140.584 Y14.894 E.01923
G1 X140.584 Y2.257 E.6342
G1 X140.201 Y2.257 E.01923
G1 X140.201 Y14.894 E.6342
G1 X139.817 Y14.894 E.01923
G1 X139.817 Y2.257 E.6342
G1 X139.434 Y2.257 E.01923
G1 X139.434 Y14.894 E.6342
G1 X139.051 Y14.894 E.01923
G1 X139.051 Y2.257 E.6342
G1 X138.668 Y2.257 E.01923
G1 X138.668 Y14.894 E.6342
G1 X138.285 Y14.894 E.01923
G1 X138.285 Y2.257 E.6342
G1 X137.901 Y2.257 E.01923
G1 X137.901 Y14.894 E.6342
G1 X137.518 Y14.894 E.01923
G1 X137.518 Y2.257 E.6342
G1 X137.135 Y2.257 E.01923
G1 X137.135 Y79.355 E3.86925
G1 X137.518 Y79.355 E.01923
G1 X137.518 Y29.398 E2.50713
G1 X137.901 Y29.398 E.01923
G1 X137.901 Y79.355 E2.50713
G1 X138.285 Y79.355 E.01923
G1 X138.285 Y29.398 E2.50713
G1 X138.668 Y29.398 E.01923
G1 X138.668 Y79.355 E2.50713
G1 X139.051 Y79.355 E.01923
M73 P1 R464
G1 X139.051 Y29.398 E2.50713
G1 X139.434 Y29.398 E.01923
G1 X139.434 Y79.355 E2.50713
G1 X139.817 Y79.355 E.01923
G1 X139.817 Y29.398 E2.50713
G1 X140.201 Y29.398 E.01923
G1 X140.201 Y79.355 E2.50713
G1 X140.584 Y79.355 E.01923
G1 X140.584 Y29.398 E2.50713
G1 X140.967 Y29.398 E.01923
G1 X140.967 Y79.355 E2.50713
G1 X141.35 Y79.355 E.01923
G1 X141.35 Y29.398 E2.50713
G1 X141.733 Y29.398 E.01923
G1 X141.733 Y79.355 E2.50713
G1 X142.117 Y79.355 E.01923
G1 X142.117 Y29.398 E2.50713
G1 X142.5 Y29.398 E.01923
G1 X142.5 Y79.355 E2.50713
G1 X142.883 Y79.355 E.01923
G1 X142.883 Y29.398 E2.50713
G1 X143.266 Y29.398 E.01923
G1 X143.266 Y79.355 E2.50713
G1 X143.649 Y79.355 E.01923
G1 X143.649 Y29.398 E2.50713
G1 X143.816 Y29.398 E.00838
G1 X143.816 Y36.184 E.34053
G1 X144.033 Y36.184 E.01085
G1 X144.033 Y79.355 E2.1666
G1 X144.416 Y79.355 E.01923
G1 X144.416 Y36.184 E2.1666
G1 X144.799 Y36.184 E.01923
G1 X144.799 Y177.743 E7.1043
G1 X145.182 Y177.743 E.01923
G1 X145.182 Y36.184 E7.1043
G1 X145.566 Y36.184 E.01923
G1 X145.565 Y177.743 E7.1043
G1 X145.949 Y177.743 E.01923
G1 X145.949 Y36.184 E7.1043
G1 X146.332 Y36.184 E.01923
G1 X146.332 Y177.743 E7.1043
G1 X146.715 Y177.743 E.01923
G1 X146.715 Y36.184 E7.1043
G1 X147.098 Y36.184 E.01923
G1 X147.098 Y177.743 E7.1043
G1 X147.482 Y177.743 E.01923
M73 P1 R463
G1 X147.482 Y36.184 E7.1043
G1 X147.865 Y36.184 E.01923
G1 X147.865 Y177.899 E7.11209
G1 X144.416 Y177.899 F7800
G1 F1800
G1 X144.416 Y93.86 E4.21757
G1 X144.033 Y93.86 E.01923
G1 X144.033 Y177.743 E4.20978
G1 X143.649 Y177.743 E.01923
G1 X143.649 Y93.86 E4.20978
G1 X143.266 Y93.86 E.01923
G1 X143.266 Y177.743 E4.20978
G1 X142.883 Y177.743 E.01923
G1 X142.883 Y93.86 E4.20978
G1 X142.5 Y93.86 E.01923
G1 X142.5 Y177.743 E4.20978
G1 X142.117 Y177.743 E.01923
G1 X142.117 Y93.86 E4.20978
G1 X141.733 Y93.86 E.01923
G1 X141.733 Y177.743 E4.20978
G1 X141.35 Y177.743 E.01923
G1 X141.35 Y93.86 E4.20978
G1 X140.967 Y93.86 E.01923
G1 X140.967 Y177.743 E4.20978
G1 X140.584 Y177.743 E.01923
G1 X140.584 Y93.86 E4.20978
G1 X140.424 Y93.86 E.00803
G1 X140.424 Y90.467 E.17027
G1 X140.201 Y90.467 E.0112
G1 X140.201 Y177.743 E4.38005
