; generated by PrusaSlicer 2.5.0+win64 on 2022-12-07 at 00:16:59 UTC

; 

; external perimeters extrusion width = 1.00mm
; perimeters extrusion width = 1.00mm
; infill extrusion width = 1.00mm
; solid infill extrusion width = 1.00mm
; top infill extrusion width = 1.00mm
; support material extrusion width = 1.00mm
; first layer extrusion width = 0.42mm

M73 P0 R165
M107
;TYPE:Custom
G90 ; use absolute coordinates
M83 ; extruder relative mode
M140 S60 ; set final bed temp
M104 S150 ; set temporary nozzle temp to prevent oozing during homing and auto bed leveling
G4 S10 ; allow partial nozzle warmup
G28 ; home all axisG1 Z50 F240
G1 X7.6 Y10 F3000
M104 S210 ; set final nozzle temp
M190 S60 ; wait for bed temp to stabilize
M109 S210 ; wait for nozzle temp to stabilize
G1 Z0.28 F240
G92 E0
G1 Y140 E10 F1500 ; prime the nozzle
G1 X4 F5000
G92 E0
G1 Y10 E10 F1200 ; prime the nozzle
G92 E0
G21 ; set units to millimeters
G90 ; use absolute coordinates
M83 ; use relative distances for extrusion
; Filament gcode
M107
;LAYER_CHANGE
;Z:0.35
;HEIGHT:0.35
;BEFORE_LAYER_CHANGE
G92 E0
;0.35


G1 E-1 F3600
G1 Z.35 F7800
;AFTER_LAYER_CHANGE
;0.35
G1 X119.253 Y162.82
G1 E1 F2400
;TYPE:Perimeter
;WIDTH:0.42
G1 F1800
G1 X110.34 Y17.18 E7.32276
G1 X125.107 Y17.18 E.74108
G1 X134.031 Y162.82 E7.3228
G1 X119.403 Y162.82 E.73413
G1 X118.928 Y163.165 F7800
;TYPE:External perimeter
G1 F1800
G1 X109.974 Y16.835 E7.35744
G1 X125.431 Y16.835 E.77576
G1 X134.398 Y163.165 E7.35748
G1 X119.078 Y163.165 E.76881
G1 X118.902 Y162.165 F7800
G1 E-.7 F3600
;WIPE_START
G1 F6240
G1 X119.046 Y162.646 E-.285
;WIPE_END
G1 E-.015 F3600
G1 X125.055 Y18.029 F7800
G1 E1 F2400
;TYPE:Solid infill
;WIDTH:0.421021
G1 F1800
G1 X124.464 Y17.438 E.04206
G1 X123.975 Y17.438 E.02462
G1 X124.922 Y18.385 E.06737
G1 X124.954 Y18.906 E.02628
G1 X123.486 Y17.438 E.10446
G1 X122.997 Y17.438 E.02462
G1 X124.985 Y19.427 E.14156
G1 X125.017 Y19.948 E.02628
G1 X122.508 Y17.438 E.17865
G1 X122.018 Y17.438 E.02462
G1 X125.049 Y20.469 E.21575
G1 X125.081 Y20.99 E.02628
G1 X121.529 Y17.438 E.25284
G1 X121.04 Y17.438 E.02462
G1 X125.113 Y21.512 E.28994
G1 X125.145 Y22.033 E.02628
G1 X120.551 Y17.438 E.32704
G1 X120.062 Y17.438 E.02462
G1 X125.177 Y22.554 E.36413
G1 X125.209 Y23.075 E.02628
G1 X119.573 Y17.438 E.40123
G1 X119.083 Y17.438 E.02462
G1 X125.241 Y23.596 E.43832
G1 X125.273 Y24.117 E.02628
G1 X118.594 Y17.438 E.47542
G1 X118.105 Y17.438 E.02462
G1 X125.305 Y24.638 E.51251
G1 X125.337 Y25.159 E.02628
G1 X117.616 Y17.438 E.54961
G1 X117.127 Y17.438 E.02462
G1 X125.369 Y25.681 E.5867
G1 X125.401 Y26.202 E.02628
G1 X116.637 Y17.438 E.6238
G1 X116.148 Y17.438 E.02462
G1 X125.433 Y26.723 E.66089
G1 X125.464 Y27.244 E.02628
G1 X115.659 Y17.438 E.69799
G1 X115.17 Y17.438 E.02462
G1 X125.496 Y27.765 E.73508
G1 X125.528 Y28.286 E.02628
G1 X114.681 Y17.438 E.77218
G1 X114.191 Y17.438 E.02462
G1 X125.56 Y28.807 E.80928
G1 X125.592 Y29.328 E.02628
G1 X113.702 Y17.438 E.84637
G1 X113.213 Y17.438 E.02462
G1 X125.624 Y29.85 E.88347
G1 X125.656 Y30.371 E.02628
G1 X112.724 Y17.438 E.92056
G1 X112.235 Y17.438 E.02462
M73 P0 R164
G1 X125.688 Y30.892 E.95766
G1 X125.72 Y31.413 E.02628
G1 X111.745 Y17.438 E.99475
G1 X111.256 Y17.438 E.02462
G1 X125.752 Y31.934 E1.03185
G1 X125.784 Y32.455 E.02628
G1 X110.767 Y17.438 E1.06894
G1 X110.615 Y17.438 E.00765
G1 X110.637 Y17.798 E.01812
G1 X125.816 Y32.976 E1.08046
G1 X125.848 Y33.497 E.02628
G1 X110.669 Y18.319 E1.08047
G1 X110.701 Y18.84 E.02628
G1 X125.88 Y34.018 E1.08047
G1 X125.911 Y34.54 E.02628
G1 X110.733 Y19.361 E1.08047
G1 X110.765 Y19.882 E.02628
G1 X125.943 Y35.061 E1.08048
G1 X125.975 Y35.582 E.02628
G1 X110.797 Y20.403 E1.08048
G1 X110.828 Y20.924 E.02628
G1 X126.007 Y36.103 E1.08048
G1 X126.039 Y36.624 E.02628
G1 X110.86 Y21.445 E1.08049
G1 X110.892 Y21.966 E.02628
G1 X126.071 Y37.145 E1.08049
G1 X126.103 Y37.666 E.02628
G1 X110.924 Y22.487 E1.08049
G1 X110.956 Y23.008 E.02628
G1 X126.135 Y38.187 E1.0805
G1 X126.167 Y38.709 E.02628
G1 X110.988 Y23.53 E1.0805
G1 X111.02 Y24.051 E.02628
G1 X126.199 Y39.23 E1.0805
G1 X126.231 Y39.751 E.02628
G1 X111.052 Y24.572 E1.08051
G1 X111.084 Y25.093 E.02628
G1 X126.263 Y40.272 E1.08051
G1 X126.295 Y40.793 E.02628
G1 X111.115 Y25.614 E1.08051
G1 X111.147 Y26.135 E.02628
G1 X126.327 Y41.314 E1.08051
G1 X126.359 Y41.835 E.02628
G1 X111.179 Y26.656 E1.08052
G1 X111.211 Y27.177 E.02628
G1 X126.39 Y42.356 E1.08052
G1 X126.422 Y42.878 E.02628
G1 X111.243 Y27.698 E1.08052
G1 X111.275 Y28.219 E.02628
G1 X126.454 Y43.399 E1.08053
G1 X126.486 Y43.92 E.02628
G1 X111.307 Y28.74 E1.08053
G1 X111.339 Y29.261 E.02628
G1 X126.518 Y44.441 E1.08053
G1 X126.55 Y44.962 E.02628
G1 X111.371 Y29.782 E1.08054
G1 X111.402 Y30.304 E.02628
G1 X126.582 Y45.483 E1.08054
G1 X126.614 Y46.004 E.02628
G1 X111.434 Y30.825 E1.08054
G1 X111.466 Y31.346 E.02628
G1 X126.646 Y46.525 E1.08055
G1 X126.678 Y47.047 E.02628
G1 X111.498 Y31.867 E1.08055
G1 X111.53 Y32.388 E.02628
G1 X126.71 Y47.568 E1.08055
G1 X126.742 Y48.089 E.02628
G1 X111.562 Y32.909 E1.08056
G1 X111.594 Y33.43 E.02628
G1 X126.774 Y48.61 E1.08056
G1 X126.806 Y49.131 E.02628
G1 X111.626 Y33.951 E1.08056
G1 X111.658 Y34.472 E.02628
G1 X126.838 Y49.652 E1.08056
G1 X126.869 Y50.173 E.02628
G1 X111.689 Y34.993 E1.08057
G1 X111.721 Y35.514 E.02628
G1 X126.901 Y50.694 E1.08057
G1 X126.933 Y51.216 E.02628
G1 X111.753 Y36.035 E1.08057
G1 X111.785 Y36.557 E.02628
G1 X126.965 Y51.737 E1.08058
G1 X126.997 Y52.258 E.02628
G1 X111.817 Y37.078 E1.08058
G1 X111.849 Y37.599 E.02628
G1 X127.029 Y52.779 E1.08058
G1 X127.061 Y53.3 E.02628
G1 X111.881 Y38.12 E1.08059
G1 X111.913 Y38.641 E.02628
G1 X127.093 Y53.821 E1.08059
G1 X127.125 Y54.342 E.02628
G1 X111.945 Y39.162 E1.08059
G1 X111.976 Y39.683 E.02628
G1 X127.157 Y54.863 E1.0806
G1 X127.189 Y55.384 E.02628
G1 X112.008 Y40.204 E1.0806
G1 X112.04 Y40.725 E.02628
G1 X127.221 Y55.906 E1.0806
G1 X127.253 Y56.427 E.02628
G1 X112.072 Y41.246 E1.08061
G1 X112.104 Y41.767 E.02628
G1 X127.285 Y56.948 E1.08061
G1 X127.316 Y57.469 E.02628
G1 X112.136 Y42.288 E1.08061
G1 X112.168 Y42.809 E.02628
G1 X127.348 Y57.99 E1.08061
G1 X127.38 Y58.511 E.02628
G1 X112.2 Y43.331 E1.08062
G1 X112.232 Y43.852 E.02628
G1 X127.412 Y59.032 E1.08062
G1 X127.444 Y59.553 E.02628
G1 X112.263 Y44.373 E1.08062
G1 X112.295 Y44.894 E.02628
G1 X127.476 Y60.075 E1.08063
G1 X127.508 Y60.596 E.02628
G1 X112.327 Y45.415 E1.08063
G1 X112.359 Y45.936 E.02628
G1 X127.54 Y61.117 E1.08063
G1 X127.572 Y61.638 E.02628
G1 X112.391 Y46.457 E1.08064
G1 X112.423 Y46.978 E.02628
G1 X127.604 Y62.159 E1.08064
G1 X127.636 Y62.68 E.02628
G1 X112.455 Y47.499 E1.08064
G1 X112.487 Y48.02 E.02628
G1 X127.668 Y63.201 E1.08065
G1 X127.7 Y63.722 E.02628
G1 X112.519 Y48.541 E1.08065
G1 X112.55 Y49.062 E.02628
G1 X127.732 Y64.244 E1.08065
G1 X127.764 Y64.765 E.02628
G1 X112.582 Y49.583 E1.08066
G1 X112.614 Y50.105 E.02628
G1 X127.795 Y65.286 E1.08066
G1 X127.827 Y65.807 E.02628
G1 X112.646 Y50.626 E1.08066
G1 X112.678 Y51.147 E.02628
M73 P1 R164
G1 X127.859 Y66.328 E1.08066
G1 X127.891 Y66.849 E.02628
G1 X112.71 Y51.668 E1.08067
G1 X112.742 Y52.189 E.02628
G1 X127.923 Y67.37 E1.08067
G1 X127.955 Y67.891 E.02628
G1 X112.774 Y52.71 E1.08067
G1 X112.805 Y53.231 E.02628
G1 X127.987 Y68.413 E1.08068
G1 X128.019 Y68.934 E.02628
G1 X112.837 Y53.752 E1.08068
G1 X112.869 Y54.273 E.02628
G1 X128.051 Y69.455 E1.08068
G1 X128.083 Y69.976 E.02628
G1 X112.901 Y54.794 E1.08069
G1 X112.933 Y55.315 E.02628
G1 X128.115 Y70.497 E1.08069
G1 X128.147 Y71.018 E.02628
M73 P1 R163
G1 X112.965 Y55.836 E1.08069
G1 X112.997 Y56.357 E.02628
G1 X128.179 Y71.539 E1.0807
G1 X128.211 Y72.06 E.02628
G1 X113.029 Y56.879 E1.0807
G1 X113.061 Y57.4 E.02628
G1 X128.242 Y72.582 E1.0807
G1 X128.274 Y73.103 E.02628
G1 X113.092 Y57.921 E1.08071
G1 X113.124 Y58.442 E.02628
G1 X128.306 Y73.624 E1.08071
G1 X128.338 Y74.145 E.02628
G1 X113.156 Y58.963 E1.08071
G1 X113.188 Y59.484 E.02628
G1 X128.37 Y74.666 E1.08071
G1 X128.402 Y75.187 E.02628
G1 X113.22 Y60.005 E1.08072
G1 X113.252 Y60.526 E.02628
G1 X128.434 Y75.708 E1.08072
G1 X128.466 Y76.229 E.02628
G1 X113.284 Y61.047 E1.08072
G1 X113.316 Y61.568 E.02628
G1 X128.498 Y76.751 E1.08073
G1 X128.53 Y77.272 E.02628
G1 X113.348 Y62.089 E1.08073
G1 X113.379 Y62.61 E.02628
G1 X128.562 Y77.793 E1.08073
G1 X128.594 Y78.314 E.02628
G1 X113.411 Y63.131 E1.08074
G1 X113.443 Y63.653 E.02628
G1 X128.626 Y78.835 E1.08074
G1 X128.658 Y79.356 E.02628
G1 X113.475 Y64.174 E1.08074
G1 X113.507 Y64.695 E.02628
G1 X128.69 Y79.877 E1.08075
G1 X128.721 Y80.398 E.02628
G1 X113.539 Y65.216 E1.08075
G1 X113.571 Y65.737 E.02628
G1 X128.753 Y80.919 E1.08075
G1 X128.785 Y81.441 E.02628
G1 X113.603 Y66.258 E1.08076
G1 X113.635 Y66.779 E.02628
G1 X128.817 Y81.962 E1.08076
G1 X128.849 Y82.483 E.02628
G1 X113.666 Y67.3 E1.08076
G1 X113.698 Y67.821 E.02628
G1 X128.881 Y83.004 E1.08077
G1 X128.913 Y83.525 E.02628
G1 X113.73 Y68.342 E1.08077
G1 X113.762 Y68.863 E.02628
G1 X128.945 Y84.046 E1.08077
G1 X128.977 Y84.567 E.02628
G1 X113.794 Y69.384 E1.08077
G1 X113.826 Y69.906 E.02628
G1 X129.009 Y85.088 E1.08078
G1 X129.041 Y85.61 E.02628
G1 X113.858 Y70.427 E1.08078
G1 X113.89 Y70.948 E.02628
G1 X129.073 Y86.131 E1.08078
G1 X129.105 Y86.652 E.02628
G1 X113.922 Y71.469 E1.08079
G1 X113.953 Y71.99 E.02628
G1 X129.137 Y87.173 E1.08079
G1 X129.169 Y87.694 E.02628
G1 X113.985 Y72.511 E1.08079
G1 X114.017 Y73.032 E.02628
G1 X129.2 Y88.215 E1.0808
G1 X129.232 Y88.736 E.02628
G1 X114.049 Y73.553 E1.0808
G1 X114.081 Y74.074 E.02628
G1 X129.264 Y89.257 E1.0808
G1 X129.296 Y89.779 E.02628
G1 X114.113 Y74.595 E1.08081
G1 X114.145 Y75.116 E.02628
G1 X129.328 Y90.3 E1.08081
G1 X129.36 Y90.821 E.02628
G1 X114.177 Y75.637 E1.08081
G1 X114.209 Y76.158 E.02628
G1 X129.392 Y91.342 E1.08082
G1 X129.424 Y91.863 E.02628
G1 X114.24 Y76.68 E1.08082
G1 X114.272 Y77.201 E.02628
G1 X129.456 Y92.384 E1.08082
G1 X129.488 Y92.905 E.02628
G1 X114.304 Y77.722 E1.08082
G1 X114.336 Y78.243 E.02628
G1 X129.52 Y93.426 E1.08083
G1 X129.552 Y93.948 E.02628
G1 X114.368 Y78.764 E1.08083
G1 X114.4 Y79.285 E.02628
G1 X129.584 Y94.469 E1.08083
G1 X129.616 Y94.99 E.02628
G1 X114.432 Y79.806 E1.08084
G1 X114.464 Y80.327 E.02628
G1 X129.647 Y95.511 E1.08084
G1 X129.679 Y96.032 E.02628
G1 X114.496 Y80.848 E1.08084
G1 X114.527 Y81.369 E.02628
G1 X129.711 Y96.553 E1.08085
G1 X129.743 Y97.074 E.02628
G1 X114.559 Y81.89 E1.08085
G1 X114.591 Y82.411 E.02628
G1 X129.775 Y97.595 E1.08085
G1 X129.807 Y98.117 E.02628
G1 X114.623 Y82.932 E1.08086
G1 X114.655 Y83.454 E.02628
G1 X129.839 Y98.638 E1.08086
G1 X129.871 Y99.159 E.02628
G1 X114.687 Y83.975 E1.08086
G1 X114.719 Y84.496 E.02628
G1 X129.903 Y99.68 E1.08087
G1 X129.935 Y100.201 E.02628
G1 X114.751 Y85.017 E1.08087
G1 X114.783 Y85.538 E.02628
G1 X129.967 Y100.722 E1.08087
G1 X129.999 Y101.243 E.02628
G1 X114.814 Y86.059 E1.08087
G1 X114.846 Y86.58 E.02628
G1 X130.031 Y101.764 E1.08088
G1 X130.063 Y102.285 E.02628
G1 X114.878 Y87.101 E1.08088
G1 X114.91 Y87.622 E.02628
G1 X130.095 Y102.807 E1.08088
G1 X130.126 Y103.328 E.02628
G1 X114.942 Y88.143 E1.08089
G1 X114.974 Y88.664 E.02628
G1 X130.158 Y103.849 E1.08089
G1 X130.19 Y104.37 E.02628
G1 X115.006 Y89.185 E1.08089
G1 X115.038 Y89.706 E.02628
G1 X130.222 Y104.891 E1.0809
G1 X130.254 Y105.412 E.02628
G1 X115.07 Y90.228 E1.0809
G1 X115.101 Y90.749 E.02628
G1 X130.286 Y105.933 E1.0809
G1 X130.318 Y106.454 E.02628
G1 X115.133 Y91.27 E1.08091
G1 X115.165 Y91.791 E.02628
G1 X130.35 Y106.976 E1.08091
G1 X130.382 Y107.497 E.02628
G1 X115.197 Y92.312 E1.08091
G1 X115.229 Y92.833 E.02628
G1 X130.414 Y108.018 E1.08092
G1 X130.446 Y108.539 E.02628
G1 X115.261 Y93.354 E1.08092
G1 X115.293 Y93.875 E.02628
G1 X130.478 Y109.06 E1.08092
G1 X130.51 Y109.581 E.02628
G1 X115.325 Y94.396 E1.08092
G1 X115.357 Y94.917 E.02628
G1 X130.542 Y110.102 E1.08093
G1 X130.573 Y110.623 E.02628
G1 X115.388 Y95.438 E1.08093
G1 X115.42 Y95.959 E.02628
M73 P1 R162
G1 X130.605 Y111.145 E1.08093
G1 X130.637 Y111.666 E.02628
G1 X115.452 Y96.48 E1.08094
G1 X115.484 Y97.002 E.02628
G1 X130.669 Y112.187 E1.08094
G1 X130.701 Y112.708 E.02628
G1 X115.516 Y97.523 E1.08094
G1 X115.548 Y98.044 E.02628
G1 X130.733 Y113.229 E1.08095
G1 X130.765 Y113.75 E.02628
G1 X115.58 Y98.565 E1.08095
G1 X115.612 Y99.086 E.02628
G1 X130.797 Y114.271 E1.08095
G1 X130.829 Y114.792 E.02628
G1 X115.643 Y99.607 E1.08096
G1 X115.675 Y100.128 E.02628
G1 X130.861 Y115.314 E1.08096
G1 X130.893 Y115.835 E.02628
G1 X115.707 Y100.649 E1.08096
G1 X115.739 Y101.17 E.02628
G1 X130.925 Y116.356 E1.08097
G1 X130.957 Y116.877 E.02628
G1 X115.771 Y101.691 E1.08097
G1 X115.803 Y102.212 E.02628
G1 X130.989 Y117.398 E1.08097
G1 X131.021 Y117.919 E.02628
G1 X115.835 Y102.733 E1.08097
G1 X115.867 Y103.255 E.02628
G1 X131.052 Y118.44 E1.08098
G1 X131.084 Y118.961 E.02628
G1 X115.899 Y103.776 E1.08098
G1 X115.93 Y104.297 E.02628
G1 X131.116 Y119.483 E1.08098
G1 X131.148 Y120.004 E.02628
G1 X115.962 Y104.818 E1.08099
G1 X115.994 Y105.339 E.02628
G1 X131.18 Y120.525 E1.08099
G1 X131.212 Y121.046 E.02628
G1 X116.026 Y105.86 E1.08099
G1 X116.058 Y106.381 E.02628
G1 X131.244 Y121.567 E1.081
G1 X131.276 Y122.088 E.02628
G1 X116.09 Y106.902 E1.081
G1 X116.122 Y107.423 E.02628
G1 X131.308 Y122.609 E1.081
G1 X131.34 Y123.13 E.02628
G1 X116.154 Y107.944 E1.08101
G1 X116.186 Y108.465 E.02628
G1 X131.372 Y123.651 E1.08101
G1 X131.404 Y124.173 E.02628
G1 X116.217 Y108.986 E1.08101
G1 X116.249 Y109.507 E.02628
G1 X131.436 Y124.694 E1.08102
G1 X131.468 Y125.215 E.02628
G1 X116.281 Y110.029 E1.08102
G1 X116.313 Y110.55 E.02628
G1 X131.5 Y125.736 E1.08102
G1 X131.531 Y126.257 E.02628
G1 X116.345 Y111.071 E1.08102
G1 X116.377 Y111.592 E.02628
G1 X131.563 Y126.778 E1.08103
G1 X131.595 Y127.299 E.02628
G1 X116.409 Y112.113 E1.08103
G1 X116.441 Y112.634 E.02628
G1 X131.627 Y127.82 E1.08103
G1 X131.659 Y128.342 E.02628
G1 X116.473 Y113.155 E1.08104
G1 X116.504 Y113.676 E.02628
G1 X131.691 Y128.863 E1.08104
G1 X131.723 Y129.384 E.02628
G1 X116.536 Y114.197 E1.08104
G1 X116.568 Y114.718 E.02628
G1 X131.755 Y129.905 E1.08105
G1 X131.787 Y130.426 E.02628
G1 X116.6 Y115.239 E1.08105
G1 X116.632 Y115.76 E.02628
G1 X131.819 Y130.947 E1.08105
G1 X131.851 Y131.468 E.02628
G1 X116.664 Y116.281 E1.08106
G1 X116.696 Y116.803 E.02628
G1 X131.883 Y131.989 E1.08106
G1 X131.915 Y132.511 E.02628
G1 X116.728 Y117.324 E1.08106
G1 X116.76 Y117.845 E.02628
M73 P2 R162
G1 X131.947 Y133.032 E1.08107
G1 X131.978 Y133.553 E.02628
G1 X116.791 Y118.366 E1.08107
G1 X116.823 Y118.887 E.02628
G1 X132.01 Y134.074 E1.08107
G1 X132.042 Y134.595 E.02628
G1 X116.855 Y119.408 E1.08107
G1 X116.887 Y119.929 E.02628
G1 X132.074 Y135.116 E1.08108
G1 X132.106 Y135.637 E.02628
G1 X116.919 Y120.45 E1.08108
G1 X116.951 Y120.971 E.02628
G1 X132.138 Y136.158 E1.08108
G1 X132.17 Y136.68 E.02628
G1 X116.983 Y121.492 E1.08109
G1 X117.015 Y122.013 E.02628
G1 X132.202 Y137.201 E1.08109
G1 X132.234 Y137.722 E.02628
G1 X117.047 Y122.534 E1.08109
G1 X117.078 Y123.055 E.02628
G1 X132.266 Y138.243 E1.0811
G1 X132.298 Y138.764 E.02628
G1 X117.11 Y123.577 E1.0811
G1 X117.142 Y124.098 E.02628
G1 X132.33 Y139.285 E1.0811
G1 X132.362 Y139.806 E.02628
G1 X117.174 Y124.619 E1.08111
G1 X117.206 Y125.14 E.02628
G1 X132.394 Y140.327 E1.08111
G1 X132.426 Y140.849 E.02628
G1 X117.238 Y125.661 E1.08111
G1 X117.27 Y126.182 E.02628
G1 X132.457 Y141.37 E1.08112
G1 X132.489 Y141.891 E.02628
G1 X117.302 Y126.703 E1.08112
G1 X117.334 Y127.224 E.02628
G1 X132.521 Y142.412 E1.08112
G1 X132.553 Y142.933 E.02628
G1 X117.365 Y127.745 E1.08112
G1 X117.397 Y128.266 E.02628
G1 X132.585 Y143.454 E1.08113
G1 X132.617 Y143.975 E.02628
G1 X117.429 Y128.787 E1.08113
G1 X117.461 Y129.308 E.02628
G1 X132.649 Y144.496 E1.08113
G1 X132.681 Y145.017 E.02628
G1 X117.493 Y129.829 E1.08114
G1 X117.525 Y130.351 E.02628
G1 X132.713 Y145.539 E1.08114
G1 X132.745 Y146.06 E.02628
G1 X117.557 Y130.872 E1.08114
G1 X117.589 Y131.393 E.02628
G1 X132.777 Y146.581 E1.08115
G1 X132.809 Y147.102 E.02628
G1 X117.621 Y131.914 E1.08115
G1 X117.652 Y132.435 E.02628
