; generated by PrusaSlicer 2.5.0+win64 on 2022-12-07 at 00:17:03 UTC

; 

; external perimeters extrusion width = 1.00mm
; perimeters extrusion width = 1.00mm
; infill extrusion width = 1.00mm
; solid infill extrusion width = 1.00mm
; top infill extrusion width = 1.00mm
; support material extrusion width = 1.00mm
; first layer extrusion width = 0.42mm

M73 P0 R162
M107
;TYPE:Custom
G90 ; use absolute coordinates
M83 ; extruder relative mode
M140 S60 ; set final bed temp
M104 S150 ; set temporary nozzle temp to prevent oozing during homing and auto bed leveling
G4 S10 ; allow partial nozzle warmup
G28 ; home all axisG1 Z50 F240
G1 X7.6 Y10 F3000
M104 S210 ; set final nozzle temp
M190 S60 ; wait for bed temp to stabilize
M109 S210 ; wait for nozzle temp to stabilize
G1 Z0.28 F240
G92 E0
G1 Y140 E10 F1500 ; prime the nozzle
G1 X4 F5000
G92 E0
G1 Y10 E10 F1200 ; prime the nozzle
G92 E0
G21 ; set units to millimeters
G90 ; use absolute coordinates
M83 ; use relative distances for extrusion
; Filament gcode
M107
;LAYER_CHANGE
;Z:0.35
;HEIGHT:0.35
;BEFORE_LAYER_CHANGE
G92 E0
;0.35


G1 E-1 F3600
G1 Z.35 F7800
;AFTER_LAYER_CHANGE
;0.35
G1 X132.706 Y70.174
G1 E1 F2400
;TYPE:Perimeter
;WIDTH:0.42
G1 F1800
G1 X132.736 Y70.093 E.00433
G1 X137.563 Y17.181 E2.66647
G1 X152.306 Y17.181 E.7399
G1 X146.834 Y77.051 E3.01717
G1 X144.481 Y81.758 E.26409
G1 X143.553 Y83.168 E.08471
G1 X53.307 Y162.819 E6.04079
G1 X27.892 Y162.819 E1.27552
G1 X132.564 Y70.434 E7.00651
G1 X132.652 Y70.314 E.00749
G1 X132.397 Y70.018 F7800
;TYPE:External perimeter
G1 F1800
G1 X137.248 Y16.836 E2.68008
G1 X152.684 Y16.836 E.77466
G1 X147.171 Y77.147 E3.03939
G1 X144.78 Y81.93 E.26837
G1 X143.816 Y83.396 E.08805
G1 X53.438 Y163.164 E6.04965
G1 X27.129 Y163.164 E1.32034
G1 X27.129 Y163.032 E.00661
G1 X132.345 Y70.157 E7.04326
G1 X133.381 Y69.838 F7800
G1 E-.7 F3600
;WIPE_START
G1 F6240
G1 X132.392 Y69.639 E-.285
;WIPE_END
G1 E-.015 F3600
G1 X152.135 Y17.922 F7800
G1 E1 F2400
;TYPE:Solid infill
;WIDTH:0.420412
G1 F1800
G1 X151.652 Y17.44 E.03431
G1 X151.163 Y17.44 E.02454
G1 X151.951 Y18.227 E.05596
G1 X151.91 Y18.675 E.02258
G1 X150.675 Y17.44 E.08775
G1 X150.187 Y17.44 E.02454
G1 X151.869 Y19.122 E.11955
G1 X151.828 Y19.569 E.02258
G1 X149.699 Y17.44 E.15134
G1 X149.21 Y17.44 E.02454
G1 X151.787 Y20.017 E.18314
G1 X151.747 Y20.464 E.02258
G1 X148.722 Y17.44 E.21493
G1 X148.234 Y17.44 E.02454
G1 X151.706 Y20.912 E.24672
G1 X151.665 Y21.359 E.02258
G1 X147.745 Y17.44 E.27852
G1 X147.257 Y17.44 E.02454
G1 X151.624 Y21.807 E.31031
G1 X151.583 Y22.254 E.02258
G1 X146.769 Y17.44 E.3421
G1 X146.28 Y17.44 E.02454
G1 X151.542 Y22.701 E.3739
G1 X151.501 Y23.149 E.02258
G1 X145.792 Y17.44 E.40569
G1 X145.304 Y17.44 E.02454
G1 X151.46 Y23.596 E.43748
G1 X151.419 Y24.044 E.02258
G1 X144.815 Y17.44 E.46928
G1 X144.327 Y17.44 E.02454
G1 X151.378 Y24.491 E.50107
G1 X151.338 Y24.939 E.02258
G1 X143.839 Y17.44 E.53287
G1 X143.35 Y17.44 E.02454
G1 X151.297 Y25.386 E.56466
G1 X151.256 Y25.833 E.02258
G1 X142.862 Y17.44 E.59645
G1 X142.374 Y17.44 E.02454
G1 X151.215 Y26.281 E.62825
G1 X151.174 Y26.728 E.02258
G1 X141.885 Y17.44 E.66004
G1 X141.397 Y17.44 E.02454
G1 X151.133 Y27.176 E.69183
G1 X151.092 Y27.623 E.02258
G1 X140.909 Y17.44 E.72363
G1 X140.42 Y17.44 E.02454
G1 X151.051 Y28.071 E.75542
G1 X151.01 Y28.518 E.02258
G1 X139.932 Y17.44 E.78721
G1 X139.444 Y17.44 E.02454
G1 X150.969 Y28.965 E.81901
G1 X150.929 Y29.413 E.02258
G1 X138.955 Y17.44 E.8508
G1 X138.467 Y17.44 E.02454
G1 X150.888 Y29.86 E.8826
G1 X150.847 Y30.308 E.02258
G1 X137.979 Y17.44 E.91439
G1 X137.799 Y17.44 E.009
G1 X137.774 Y17.723 E.01429
G1 X150.806 Y30.755 E.92605
G1 X150.765 Y31.203 E.02258
G1 X137.733 Y18.17 E.92605
G1 X137.692 Y18.618 E.02258
G1 X150.724 Y31.65 E.92604
G1 X150.683 Y32.097 E.02258
G1 X137.651 Y19.065 E.92604
G1 X137.61 Y19.513 E.02258
G1 X150.642 Y32.545 E.92603
G1 X150.601 Y32.992 E.02258
G1 X137.569 Y19.96 E.92603
G1 X137.529 Y20.408 E.02258
G1 X150.56 Y33.44 E.92602
G1 X150.52 Y33.887 E.02258
M73 P0 R161
G1 X137.488 Y20.855 E.92602
G1 X137.447 Y21.303 E.02258
G1 X150.479 Y34.335 E.92601
G1 X150.438 Y34.782 E.02258
G1 X137.406 Y21.75 E.926
G1 X137.365 Y22.198 E.02258
G1 X150.397 Y35.229 E.926
G1 X150.356 Y35.677 E.02258
G1 X137.324 Y22.645 E.92599
G1 X137.284 Y23.093 E.02258
G1 X150.315 Y36.124 E.92599
G1 X150.274 Y36.572 E.02258
G1 X137.243 Y23.54 E.92598
G1 X137.202 Y23.988 E.02258
G1 X150.233 Y37.019 E.92598
G1 X150.192 Y37.467 E.02258
G1 X137.161 Y24.435 E.92597
G1 X137.12 Y24.883 E.02258
G1 X150.151 Y37.914 E.92597
G1 X150.111 Y38.361 E.02258
G1 X137.08 Y25.33 E.92596
G1 X137.039 Y25.778 E.02258
G1 X150.07 Y38.809 E.92596
G1 X150.029 Y39.256 E.02258
G1 X136.998 Y26.225 E.92595
G1 X136.957 Y26.673 E.02258
G1 X149.988 Y39.704 E.92594
G1 X149.947 Y40.151 E.02258
G1 X136.916 Y27.12 E.92594
G1 X136.875 Y27.568 E.02258
G1 X149.906 Y40.599 E.92593
G1 X149.865 Y41.046 E.02258
G1 X136.835 Y28.016 E.92593
G1 X136.794 Y28.463 E.02258
G1 X149.824 Y41.493 E.92592
G1 X149.783 Y41.941 E.02258
G1 X136.753 Y28.911 E.92592
G1 X136.712 Y29.358 E.02258
G1 X149.742 Y42.388 E.92591
G1 X149.702 Y42.836 E.02258
G1 X136.671 Y29.806 E.92591
G1 X136.631 Y30.253 E.02258
G1 X149.661 Y43.283 E.9259
G1 X149.62 Y43.731 E.02258
G1 X136.59 Y30.701 E.9259
G1 X136.549 Y31.148 E.02258
G1 X149.579 Y44.178 E.92589
G1 X149.538 Y44.625 E.02258
G1 X136.508 Y31.596 E.92588
G1 X136.467 Y32.043 E.02258
G1 X149.497 Y45.073 E.92588
G1 X149.456 Y45.52 E.02258
G1 X136.426 Y32.491 E.92587
G1 X136.386 Y32.938 E.02258
G1 X149.415 Y45.968 E.92587
G1 X149.374 Y46.415 E.02258
G1 X136.345 Y33.386 E.92586
G1 X136.304 Y33.833 E.02258
G1 X149.333 Y46.863 E.92586
G1 X149.293 Y47.31 E.02258
G1 X136.263 Y34.281 E.92585
G1 X136.222 Y34.728 E.02258
G1 X149.252 Y47.757 E.92585
G1 X149.211 Y48.205 E.02258
G1 X136.181 Y35.176 E.92584
G1 X136.141 Y35.623 E.02258
G1 X149.17 Y48.652 E.92584
G1 X149.129 Y49.1 E.02258
G1 X136.1 Y36.071 E.92583
G1 X136.059 Y36.518 E.02258
G1 X149.088 Y49.547 E.92582
G1 X149.047 Y49.995 E.02258
G1 X136.018 Y36.966 E.92582
G1 X135.977 Y37.413 E.02258
G1 X149.006 Y50.442 E.92581
G1 X148.965 Y50.89 E.02258
G1 X135.937 Y37.861 E.92581
G1 X135.896 Y38.308 E.02258
G1 X148.924 Y51.337 E.9258
G1 X148.884 Y51.784 E.02258
G1 X135.855 Y38.756 E.9258
G1 X135.814 Y39.203 E.02258
G1 X148.843 Y52.232 E.92579
G1 X148.802 Y52.679 E.02258
G1 X135.773 Y39.651 E.92579
G1 X135.732 Y40.098 E.02258
G1 X148.761 Y53.127 E.92578
G1 X148.72 Y53.574 E.02258
G1 X135.692 Y40.546 E.92578
G1 X135.651 Y40.993 E.02258
G1 X148.679 Y54.022 E.92577
G1 X148.638 Y54.469 E.02258
G1 X135.61 Y41.441 E.92577
G1 X135.569 Y41.888 E.02258
G1 X148.597 Y54.916 E.92576
G1 X148.556 Y55.364 E.02258
G1 X135.528 Y42.336 E.92575
G1 X135.487 Y42.783 E.02258
G1 X148.515 Y55.811 E.92575
G1 X148.475 Y56.259 E.02258
G1 X135.447 Y43.231 E.92574
G1 X135.406 Y43.678 E.02258
G1 X148.434 Y56.706 E.92574
G1 X148.393 Y57.154 E.02258
G1 X135.365 Y44.126 E.92573
G1 X135.324 Y44.573 E.02258
G1 X148.352 Y57.601 E.92573
G1 X148.311 Y58.048 E.02258
G1 X135.283 Y45.021 E.92572
G1 X135.243 Y45.468 E.02258
G1 X148.27 Y58.496 E.92572
G1 X148.229 Y58.943 E.02258
G1 X135.202 Y45.916 E.92571
G1 X135.161 Y46.363 E.02258
G1 X148.188 Y59.391 E.92571
G1 X148.147 Y59.838 E.02258
M73 P1 R161
G1 X135.12 Y46.811 E.9257
G1 X135.079 Y47.258 E.02258
G1 X148.107 Y60.286 E.92569
G1 X148.066 Y60.733 E.02258
G1 X135.038 Y47.706 E.92569
G1 X134.998 Y48.153 E.02258
G1 X148.025 Y61.18 E.92568
G1 X147.984 Y61.628 E.02258
G1 X134.957 Y48.601 E.92568
G1 X134.916 Y49.048 E.02258
G1 X147.943 Y62.075 E.92567
G1 X147.902 Y62.523 E.02258
G1 X134.875 Y49.496 E.92567
G1 X134.834 Y49.943 E.02258
G1 X147.861 Y62.97 E.92566
G1 X147.82 Y63.418 E.02258
G1 X134.793 Y50.391 E.92566
G1 X134.753 Y50.838 E.02258
G1 X147.779 Y63.865 E.92565
G1 X147.738 Y64.312 E.02258
G1 X134.712 Y51.286 E.92565
G1 X134.671 Y51.733 E.02258
G1 X147.698 Y64.76 E.92564
G1 X147.657 Y65.207 E.02258
G1 X134.63 Y52.181 E.92563
G1 X134.589 Y52.628 E.02258
G1 X147.616 Y65.655 E.92563
G1 X147.575 Y66.102 E.02258
G1 X134.549 Y53.076 E.92562
G1 X134.508 Y53.523 E.02258
G1 X147.534 Y66.55 E.92562
G1 X147.493 Y66.997 E.02258
G1 X134.467 Y53.971 E.92561
G1 X134.426 Y54.418 E.02258
G1 X147.452 Y67.444 E.92561
G1 X147.411 Y67.892 E.02258
G1 X134.385 Y54.866 E.9256
G1 X134.344 Y55.313 E.02258
G1 X147.37 Y68.339 E.9256
G1 X147.329 Y68.787 E.02258
G1 X134.304 Y55.761 E.92559
G1 X134.263 Y56.208 E.02258
G1 X147.289 Y69.234 E.92559
G1 X147.248 Y69.682 E.02258
G1 X134.222 Y56.656 E.92558
G1 X134.181 Y57.103 E.02258
G1 X147.207 Y70.129 E.92557
G1 X147.166 Y70.576 E.02258
G1 X134.14 Y57.551 E.92557
G1 X134.1 Y57.998 E.02258
G1 X147.125 Y71.024 E.92556
G1 X147.084 Y71.471 E.02258
G1 X134.059 Y58.446 E.92556
G1 X134.018 Y58.893 E.02258
G1 X147.043 Y71.919 E.92555
G1 X147.002 Y72.366 E.02258
G1 X133.977 Y59.341 E.92555
G1 X133.936 Y59.788 E.02258
G1 X146.961 Y72.814 E.92554
G1 X146.92 Y73.261 E.02258
G1 X133.895 Y60.236 E.92554
G1 X133.855 Y60.684 E.02258
M73 P1 R160
G1 X146.88 Y73.708 E.92553
G1 X146.839 Y74.156 E.02258
G1 X133.814 Y61.131 E.92553
G1 X133.773 Y61.579 E.02258
G1 X146.798 Y74.603 E.92552
G1 X146.757 Y75.051 E.02258
G1 X133.732 Y62.026 E.92551
G1 X133.691 Y62.474 E.02258
G1 X146.716 Y75.498 E.92551
G1 X146.675 Y75.946 E.02258
G1 X133.65 Y62.921 E.9255
G1 X133.61 Y63.369 E.02258
G1 X146.634 Y76.393 E.9255
G1 X146.593 Y76.84 E.02258
G1 X133.569 Y63.816 E.92549
G1 X133.528 Y64.264 E.02258
G1 X146.468 Y77.204 E.91951
G1 X146.305 Y77.529 E.01829
G1 X133.487 Y64.711 E.91085
G1 X133.446 Y65.159 E.02258
G1 X146.143 Y77.855 E.90218
G1 X145.98 Y78.18 E.01829
G1 X133.406 Y65.606 E.89351
G1 X133.365 Y66.054 E.02258
G1 X145.817 Y78.506 E.88485
G1 X145.654 Y78.832 E.01829
G1 X133.324 Y66.501 E.87618
G1 X133.283 Y66.949 E.02258
G1 X145.492 Y79.157 E.86752
G1 X145.329 Y79.483 E.01829
G1 X133.242 Y67.396 E.85885
G1 X133.201 Y67.844 E.02258
G1 X145.166 Y79.808 E.85019
G1 X145.003 Y80.134 E.01829
G1 X133.161 Y68.291 E.84152
G1 X133.12 Y68.739 E.02258
G1 X144.841 Y80.459 E.83286
G1 X144.678 Y80.785 E.01829
G1 X133.079 Y69.186 E.82419
G1 X133.038 Y69.634 E.02258
G1 X144.515 Y81.111 E.81553
G1 X144.352 Y81.436 E.01829
G1 X132.997 Y70.081 E.80686
G1 X132.935 Y70.354 E.01407
G1 X132.874 Y70.446 E.00554
G1 X144.177 Y81.749 E.80318
G1 X143.983 Y82.044 E.01772
G1 X132.644 Y70.705 E.80571
G1 X132.385 Y70.934 E.01738
G1 X143.789 Y82.338 E.81038
G1 X143.596 Y82.633 E.01772
G1 X132.126 Y71.163 E.81504
G1 X131.866 Y71.392 E.01738
G1 X143.402 Y82.927 E.8197
G1 X143.356 Y82.997 E.0042
G1 X143.158 Y83.172 E.01326
G1 X131.607 Y71.621 E.82081
G1 X131.347 Y71.85 E.01738
G1 X142.899 Y83.401 E.82081
G1 X142.639 Y83.63 E.01738
G1 X131.088 Y72.078 E.82081
G1 X130.829 Y72.307 E.01738
G1 X142.38 Y83.859 E.82081
G1 X142.12 Y84.087 E.01738
G1 X130.569 Y72.536 E.82081
G1 X130.31 Y72.765 E.01738
G1 X141.861 Y84.316 E.8208
G1 X141.602 Y84.545 E.01738
G1 X130.05 Y72.994 E.8208
G1 X129.791 Y73.223 E.01738
G1 X141.342 Y84.774 E.8208
G1 X141.083 Y85.003 E.01738
G1 X129.532 Y73.452 E.8208
G1 X129.272 Y73.681 E.01738
G1 X140.823 Y85.232 E.8208
G1 X140.564 Y85.461 E.01738
G1 X129.013 Y73.91 E.8208
G1 X128.754 Y74.139 E.01738
G1 X140.305 Y85.69 E.8208
G1 X140.045 Y85.919 E.01738
G1 X128.494 Y74.368 E.8208
G1 X128.235 Y74.597 E.01738
G1 X139.786 Y86.148 E.8208
G1 X139.526 Y86.377 E.01738
G1 X127.975 Y74.826 E.8208
G1 X127.716 Y75.055 E.01738
G1 X139.267 Y86.606 E.8208
G1 X139.008 Y86.835 E.01738
G1 X127.457 Y75.284 E.8208
G1 X127.197 Y75.513 E.01738
G1 X138.748 Y87.064 E.8208
G1 X138.489 Y87.293 E.01738
G1 X126.938 Y75.742 E.8208
G1 X126.678 Y75.971 E.01738
G1 X138.23 Y87.522 E.8208
G1 X137.97 Y87.751 E.01738
G1 X126.419 Y76.199 E.8208
G1 X126.16 Y76.428 E.01738
G1 X137.711 Y87.979 E.8208
G1 X137.451 Y88.208 E.01738
G1 X125.9 Y76.657 E.8208
G1 X125.641 Y76.886 E.01738
G1 X137.192 Y88.437 E.8208
G1 X136.933 Y88.666 E.01738
G1 X125.382 Y77.115 E.8208
G1 X125.122 Y77.344 E.01738
G1 X136.673 Y88.895 E.8208
G1 X136.414 Y89.124 E.01738
G1 X124.863 Y77.573 E.8208
G1 X124.603 Y77.802 E.01738
G1 X136.154 Y89.353 E.8208
G1 X135.895 Y89.582 E.01738
G1 X124.344 Y78.031 E.8208
G1 X124.085 Y78.26 E.01738
G1 X135.636 Y89.811 E.8208
G1 X135.376 Y90.04 E.01738
G1 X123.825 Y78.489 E.82079
G1 X123.566 Y78.718 E.01738
G1 X135.117 Y90.269 E.82079
G1 X134.857 Y90.498 E.01738
G1 X123.306 Y78.947 E.82079
G1 X123.047 Y79.176 E.01738
G1 X134.598 Y90.727 E.82079
G1 X134.339 Y90.956 E.01738
G1 X122.788 Y79.405 E.82079
G1 X122.528 Y79.634 E.01738
G1 X134.079 Y91.185 E.82079
G1 X133.82 Y91.414 E.01738
G1 X122.269 Y79.863 E.82079
G1 X122.01 Y80.092 E.01738
G1 X133.56 Y91.642 E.82079
G1 X133.301 Y91.871 E.01738
G1 X121.75 Y80.32 E.82079
G1 X121.491 Y80.549 E.01738
G1 X133.042 Y92.1 E.82079
G1 X132.782 Y92.329 E.01738
G1 X121.231 Y80.778 E.82079
G1 X120.972 Y81.007 E.01738
G1 X132.523 Y92.558 E.82079
G1 X132.264 Y92.787 E.01738
G1 X120.713 Y81.236 E.82079
G1 X120.453 Y81.465 E.01738
G1 X132.004 Y93.016 E.82079
G1 X131.745 Y93.245 E.01738
G1 X120.194 Y81.694 E.82079
G1 X119.934 Y81.923 E.01738
G1 X131.485 Y93.474 E.82079
G1 X131.226 Y93.703 E.01738
G1 X119.675 Y82.152 E.82079
G1 X119.416 Y82.381 E.01738
G1 X130.967 Y93.932 E.82079
G1 X130.707 Y94.161 E.01738
G1 X119.156 Y82.61 E.82079
G1 X118.897 Y82.839 E.01738
G1 X130.448 Y94.39 E.82079
G1 X130.188 Y94.619 E.01738
G1 X118.638 Y83.068 E.82079
G1 X118.378 Y83.297 E.01738
G1 X129.929 Y94.848 E.82079
G1 X129.67 Y95.077 E.01738
G1 X118.119 Y83.526 E.82079
G1 X117.859 Y83.755 E.01738
G1 X129.41 Y95.306 E.82079
G1 X129.151 Y95.534 E.01738
G1 X117.6 Y83.984 E.82079
G1 X117.341 Y84.213 E.01738
G1 X128.891 Y95.763 E.82079
G1 X128.632 Y95.992 E.01738
G1 X117.081 Y84.441 E.82078
G1 X116.822 Y84.67 E.01738
G1 X128.373 Y96.221 E.82078
G1 X128.113 Y96.45 E.01738
G1 X116.562 Y84.899 E.82078
G1 X116.303 Y85.128 E.01738
G1 X127.854 Y96.679 E.82078
G1 X127.595 Y96.908 E.01738
G1 X116.044 Y85.357 E.82078
G1 X115.784 Y85.586 E.01738
G1 X127.335 Y97.137 E.82078
G1 X127.076 Y97.366 E.01738
G1 X115.525 Y85.815 E.82078
G1 X115.266 Y86.044 E.01738
G1 X126.816 Y97.595 E.82078
G1 X126.557 Y97.824 E.01738
G1 X115.006 Y86.273 E.82078
G1 X114.747 Y86.502 E.01738
G1 X126.298 Y98.053 E.82078
G1 X126.038 Y98.282 E.01738
G1 X114.487 Y86.731 E.82078
G1 X114.228 Y86.96 E.01738
G1 X125.779 Y98.511 E.82078
G1 X125.519 Y98.74 E.01738
G1 X113.969 Y87.189 E.82078
G1 X113.709 Y87.418 E.01738
G1 X125.26 Y98.969 E.82078
G1 X125.001 Y99.197 E.01738
G1 X113.45 Y87.647 E.82078
G1 X113.19 Y87.876 E.01738
G1 X124.741 Y99.426 E.82078
G1 X124.482 Y99.655 E.01738
M73 P1 R159
G1 X112.931 Y88.105 E.82078
G1 X112.672 Y88.334 E.01738
G1 X124.222 Y99.884 E.82078
G1 X123.963 Y100.113 E.01738
G1 X112.412 Y88.562 E.82078
G1 X112.153 Y88.791 E.01738
G1 X123.704 Y100.342 E.82078
G1 X123.444 Y100.571 E.01738
G1 X111.894 Y89.02 E.82078
G1 X111.634 Y89.249 E.01738
G1 X123.185 Y100.8 E.82078
G1 X122.925 Y101.029 E.01738
G1 X111.375 Y89.478 E.82078
G1 X111.115 Y89.707 E.01738
G1 X122.666 Y101.258 E.82078
G1 X122.407 Y101.487 E.01738
G1 X110.856 Y89.936 E.82078
G1 X110.597 Y90.165 E.01738
G1 X122.147 Y101.716 E.82077
G1 X121.888 Y101.945 E.01738
G1 X110.337 Y90.394 E.82077
G1 X110.078 Y90.623 E.01738
G1 X121.629 Y102.174 E.82077
G1 X121.369 Y102.403 E.01738
G1 X109.818 Y90.852 E.82077
G1 X109.559 Y91.081 E.01738
G1 X121.11 Y102.632 E.82077
G1 X120.85 Y102.86 E.01738
G1 X109.3 Y91.31 E.82077
G1 X109.04 Y91.539 E.01738
G1 X120.591 Y103.089 E.82077
G1 X120.332 Y103.318 E.01738
G1 X108.781 Y91.768 E.82077
G1 X108.522 Y91.997 E.01738
G1 X120.072 Y103.547 E.82077
G1 X119.813 Y103.776 E.01738
G1 X108.262 Y92.226 E.82077
G1 X108.003 Y92.455 E.01738
G1 X119.553 Y104.005 E.82077
G1 X119.294 Y104.234 E.01738
G1 X107.743 Y92.683 E.82077
G1 X107.484 Y92.912 E.01738
G1 X119.035 Y104.463 E.82077
G1 X118.775 Y104.692 E.01738
G1 X107.225 Y93.141 E.82077
G1 X106.965 Y93.37 E.01738
G1 X118.516 Y104.921 E.82077
G1 X118.256 Y105.15 E.01738
G1 X106.706 Y93.599 E.82077
G1 X106.446 Y93.828 E.01738
G1 X117.997 Y105.379 E.82077
G1 X117.738 Y105.608 E.01738
