; generated by PrusaSlicer 2.5.0+win64 on 2022-12-07 at 00:17:07 UTC

; 

; external perimeters extrusion width = 1.00mm
; perimeters extrusion width = 1.00mm
; infill extrusion width = 1.00mm
; solid infill extrusion width = 1.00mm
; top infill extrusion width = 1.00mm
; support material extrusion width = 1.00mm
; first layer extrusion width = 0.42mm

M73 P0 R249
M107
;TYPE:Custom
G90 ; use absolute coordinates
M83 ; extruder relative mode
M140 S60 ; set final bed temp
M104 S150 ; set temporary nozzle temp to prevent oozing during homing and auto bed leveling
G4 S10 ; allow partial nozzle warmup
G28 ; home all axisG1 Z50 F240
G1 X7.6 Y10 F3000
M104 S210 ; set final nozzle temp
M190 S60 ; wait for bed temp to stabilize
M109 S210 ; wait for nozzle temp to stabilize
G1 Z0.28 F240
G92 E0
G1 Y140 E10 F1500 ; prime the nozzle
G1 X4 F5000
G92 E0
M73 P0 R248
G1 Y10 E10 F1200 ; prime the nozzle
G92 E0
G21 ; set units to millimeters
G90 ; use absolute coordinates
M83 ; use relative distances for extrusion
; Filament gcode
M107
;LAYER_CHANGE
;Z:0.35
;HEIGHT:0.35
;BEFORE_LAYER_CHANGE
G92 E0
;0.35


G1 E-1 F3600
G1 Z.35 F7800
;AFTER_LAYER_CHANGE
;0.35
G1 X124.155 Y136.619
G1 E1 F2400
;TYPE:Perimeter
;WIDTH:0.42
G1 F1800
G1 X162.645 Y83.117 E3.3077
G1 X162.645 Y133.305 E2.51872
G1 X154.547 Y133.682 E.40687
G1 X124.304 Y136.605 E1.52482
G1 X123.43 Y137.036 F7800
;TYPE:External perimeter
G1 F1800
G1 X162.99 Y82.047 E3.3996
G1 X162.99 Y133.634 E2.58894
G1 X154.58 Y134.025 E.42253
G1 X123.58 Y137.022 E1.56303
G1 X124.22 Y136.423 F7800
G1 X121.827 Y137.958
;TYPE:Perimeter
G1 F1800
G1 X115.233 Y147.122 E.56662
G1 X105.124 Y162.82 E.93702
G1 X17.355 Y162.82 E4.40479
G1 X17.355 Y148.051 E.74118
G1 X121.678 Y137.972 E5.25994
G1 X122.552 Y137.541 F7800
;TYPE:External perimeter
G1 F1800
G1 X115.523 Y147.309 E.60394
G1 X105.312 Y163.165 E.94646
G1 X17.01 Y163.165 E4.43154
G1 X17.01 Y147.738 E.77421
G1 X122.403 Y137.556 E5.31386
G1 X121.794 Y138.194 F7800
G1 X120.994 Y138.142
;TYPE:Solid infill
;WIDTH:0.4203
G1 F1800
G1 X121.216 Y138.364 E.01577
G1 X121.012 Y138.648 E.01757
G1 X120.691 Y138.327 E.02278
G1 X120.246 Y138.37 E.02246
G1 X120.808 Y138.932 E.03989
G1 X120.603 Y139.216 E.01757
G1 X119.801 Y138.413 E.057
G1 X119.356 Y138.456 E.02246
G1 X120.399 Y139.5 E.07411
G1 X120.195 Y139.784 E.01757
G1 X118.911 Y138.499 E.09122
G1 X118.465 Y138.542 E.02246
G1 X119.99 Y140.067 E.10833
G1 X119.786 Y140.351 E.01757
G1 X118.02 Y138.585 E.12544
G1 X117.575 Y138.628 E.02246
G1 X119.582 Y140.635 E.14255
G1 X119.378 Y140.919 E.01757
G1 X117.13 Y138.671 E.15966
G1 X116.685 Y138.714 E.02246
G1 X119.173 Y141.203 E.17677
G1 X118.969 Y141.487 E.01757
G1 X116.24 Y138.757 E.19388
G1 X115.794 Y138.8 E.02246
G1 X118.765 Y141.771 E.211
G1 X118.56 Y142.055 E.01757
G1 X115.349 Y138.843 E.22811
G1 X114.904 Y138.886 E.02246
G1 X118.356 Y142.339 E.24522
G1 X118.152 Y142.622 E.01757
G1 X114.459 Y138.929 E.26233
G1 X114.014 Y138.973 E.02246
G1 X117.948 Y142.906 E.27944
G1 X117.743 Y143.19 E.01757
G1 X113.569 Y139.016 E.29655
G1 X113.123 Y139.059 E.02246
G1 X117.539 Y143.474 E.31366
G1 X117.335 Y143.758 E.01757
G1 X112.678 Y139.102 E.33077
G1 X112.233 Y139.145 E.02246
G1 X117.13 Y144.042 E.34788
G1 X116.926 Y144.326 E.01757
G1 X111.788 Y139.188 E.36499
G1 X111.343 Y139.231 E.02246
G1 X116.722 Y144.61 E.3821
G1 X116.518 Y144.893 E.01757
G1 X110.898 Y139.274 E.39921
G1 X110.452 Y139.317 E.02246
G1 X116.313 Y145.177 E.41632
G1 X116.109 Y145.461 E.01757
G1 X110.007 Y139.36 E.43343
G1 X109.562 Y139.403 E.02246
G1 X115.905 Y145.745 E.45054
G1 X115.7 Y146.029 E.01757
G1 X109.117 Y139.446 E.46765
G1 X108.672 Y139.489 E.02246
G1 X115.496 Y146.313 E.48476
G1 X115.292 Y146.597 E.01757
G1 X108.227 Y139.532 E.50187
G1 X107.782 Y139.575 E.02246
G1 X115.088 Y146.881 E.51898
G1 X114.893 Y147.174 E.01769
G1 X107.336 Y139.618 E.53679
G1 X106.891 Y139.661 E.02246
G1 X114.702 Y147.471 E.55483
G1 X114.511 Y147.768 E.01774
G1 X106.446 Y139.704 E.57287
G1 X106.001 Y139.747 E.02246
G1 X114.319 Y148.065 E.5909
G1 X114.128 Y148.362 E.01774
G1 X105.556 Y139.79 E.60894
G1 X105.111 Y139.833 E.02246
G1 X113.937 Y148.659 E.62698
G1 X113.746 Y148.956 E.01774
G1 X104.665 Y139.876 E.64502
G1 X104.22 Y139.919 E.02246
G1 X113.554 Y149.253 E.66305
G1 X113.363 Y149.55 E.01774
G1 X103.775 Y139.962 E.68109
G1 X103.33 Y140.005 E.02246
G1 X113.172 Y149.847 E.69913
G1 X112.981 Y150.144 E.01774
G1 X102.885 Y140.048 E.71717
G1 X102.44 Y140.091 E.02246
G1 X112.789 Y150.441 E.73521
G1 X112.598 Y150.738 E.01774
G1 X101.994 Y140.134 E.75324
G1 X101.549 Y140.177 E.02246
G1 X112.407 Y151.034 E.77128
G1 X112.216 Y151.331 E.01774
G1 X101.104 Y140.22 E.78932
G1 X100.659 Y140.263 E.02246
G1 X112.025 Y151.628 E.80736
G1 X111.833 Y151.925 E.01774
G1 X100.214 Y140.306 E.82539
G1 X99.769 Y140.349 E.02246
G1 X111.642 Y152.222 E.84343
G1 X111.451 Y152.519 E.01774
G1 X99.323 Y140.392 E.86147
G1 X98.878 Y140.435 E.02246
G1 X111.26 Y152.816 E.87951
G1 X111.068 Y153.113 E.01774
G1 X98.433 Y140.478 E.89754
G1 X97.988 Y140.521 E.02246
G1 X110.877 Y153.41 E.91558
G1 X110.686 Y153.707 E.01774
G1 X97.543 Y140.564 E.93362
G1 X97.098 Y140.607 E.02246
G1 X110.495 Y154.004 E.95166
G1 X110.303 Y154.301 E.01774
G1 X96.652 Y140.65 E.96969
G1 X96.207 Y140.693 E.02246
G1 X110.112 Y154.598 E.98773
G1 X109.921 Y154.895 E.01774
G1 X95.762 Y140.736 E1.00577
G1 X95.317 Y140.779 E.02246
G1 X109.73 Y155.192 E1.02381
G1 X109.538 Y155.489 E.01774
G1 X94.872 Y140.822 E1.04185
G1 X94.427 Y140.865 E.02246
M73 P0 R247
G1 X109.347 Y155.785 E1.05988
G1 X109.156 Y156.082 E.01774
G1 X93.982 Y140.908 E1.07792
G1 X93.536 Y140.951 E.02246
G1 X108.965 Y156.379 E1.09596
G1 X108.773 Y156.676 E.01774
G1 X93.091 Y140.994 E1.114
G1 X92.646 Y141.037 E.02246
G1 X108.582 Y156.973 E1.13203
G1 X108.391 Y157.27 E.01774
G1 X92.201 Y141.08 E1.15007
G1 X91.756 Y141.123 E.02246
G1 X108.2 Y157.567 E1.16811
G1 X108.009 Y157.864 E.01774
G1 X91.311 Y141.166 E1.18615
G1 X90.865 Y141.209 E.02246
G1 X107.817 Y158.161 E1.20418
G1 X107.626 Y158.458 E.01774
G1 X90.42 Y141.252 E1.22222
G1 X89.975 Y141.295 E.02246
G1 X107.435 Y158.755 E1.24026
G1 X107.244 Y159.052 E.01774
G1 X89.53 Y141.338 E1.2583
G1 X89.085 Y141.381 E.02246
G1 X107.052 Y159.349 E1.27634
G1 X106.861 Y159.646 E.01774
G1 X88.64 Y141.424 E1.29437
G1 X88.194 Y141.467 E.02246
G1 X106.67 Y159.943 E1.31241
G1 X106.479 Y160.239 E.01774
G1 X87.749 Y141.51 E1.33045
G1 X87.304 Y141.553 E.02246
G1 X106.287 Y160.536 E1.34849
G1 X106.096 Y160.833 E.01774
G1 X86.859 Y141.596 E1.36652
G1 X86.414 Y141.639 E.02246
G1 X105.905 Y161.13 E1.38456
G1 X105.714 Y161.427 E.01774
G1 X85.969 Y141.682 E1.4026
G1 X85.523 Y141.725 E.02246
G1 X105.522 Y161.724 E1.42064
G1 X105.331 Y162.021 E.01774
G1 X85.078 Y141.768 E1.43867
G1 X84.633 Y141.811 E.02246
G1 X105.14 Y162.318 E1.45671
G1 X104.983 Y162.562 E.01455
G1 X104.895 Y162.562 E.00441
G1 X84.188 Y141.854 E1.47095
G1 X83.743 Y141.897 E.02246
G1 X104.407 Y162.562 E1.4679
G1 X103.919 Y162.562 E.02452
G1 X83.298 Y141.94 E1.46484
G1 X82.852 Y141.983 E.02246
G1 X103.431 Y162.562 E1.46179
G1 X102.943 Y162.562 E.02452
G1 X82.407 Y142.026 E1.45873
G1 X81.962 Y142.069 E.02246
G1 X102.454 Y162.562 E1.45568
G1 X101.966 Y162.562 E.02452
G1 X81.517 Y142.112 E1.45262
G1 X81.072 Y142.155 E.02246
G1 X101.478 Y162.562 E1.44957
G1 X100.99 Y162.562 E.02452
G1 X80.627 Y142.198 E1.44651
G1 X80.182 Y142.241 E.02246
G1 X100.502 Y162.562 E1.44346
G1 X100.014 Y162.562 E.02452
G1 X79.736 Y142.284 E1.4404
G1 X79.291 Y142.327 E.02246
G1 X99.525 Y162.562 E1.43735
G1 X99.037 Y162.562 E.02452
G1 X78.846 Y142.37 E1.43429
G1 X78.401 Y142.413 E.02246
G1 X98.549 Y162.562 E1.43124
G1 X98.061 Y162.562 E.02452
G1 X77.956 Y142.456 E1.42818
G1 X77.511 Y142.499 E.02246
G1 X97.573 Y162.562 E1.42513
G1 X97.085 Y162.562 E.02452
G1 X77.065 Y142.542 E1.42207
G1 X76.62 Y142.585 E.02246
G1 X96.596 Y162.562 E1.41902
G1 X96.108 Y162.562 E.02452
G1 X76.175 Y142.628 E1.41596
G1 X75.73 Y142.671 E.02246
G1 X95.62 Y162.562 E1.4129
G1 X95.132 Y162.562 E.02452
G1 X75.285 Y142.714 E1.40985
G1 X74.84 Y142.757 E.02246
G1 X94.644 Y162.562 E1.40679
G1 X94.156 Y162.562 E.02452
G1 X74.394 Y142.8 E1.40374
G1 X73.949 Y142.843 E.02246
G1 X93.667 Y162.562 E1.40068
G1 X93.179 Y162.562 E.02452
G1 X73.504 Y142.886 E1.39763
G1 X73.059 Y142.929 E.02246
G1 X92.691 Y162.562 E1.39457
G1 X92.203 Y162.562 E.02452
G1 X72.614 Y142.972 E1.39152
G1 X72.169 Y143.015 E.02246
G1 X91.715 Y162.562 E1.38846
G1 X91.227 Y162.562 E.02452
G1 X71.723 Y143.058 E1.38541
G1 X71.278 Y143.101 E.02246
G1 X90.738 Y162.562 E1.38235
G1 X90.25 Y162.562 E.02452
G1 X70.833 Y143.144 E1.3793
G1 X70.388 Y143.187 E.02246
G1 X89.762 Y162.562 E1.37624
G1 X89.274 Y162.562 E.02452
G1 X69.943 Y143.23 E1.37319
G1 X69.498 Y143.273 E.02246
G1 X88.786 Y162.562 E1.37013
G1 X88.298 Y162.562 E.02452
G1 X69.052 Y143.316 E1.36708
G1 X68.607 Y143.359 E.02246
G1 X87.809 Y162.562 E1.36402
G1 X87.321 Y162.562 E.02452
G1 X68.162 Y143.402 E1.36097
G1 X67.717 Y143.446 E.02246
G1 X86.833 Y162.562 E1.35791
G1 X86.345 Y162.562 E.02452
G1 X67.272 Y143.489 E1.35486
G1 X66.827 Y143.532 E.02246
G1 X85.857 Y162.562 E1.3518
G1 X85.369 Y162.562 E.02452
M73 P0 R246
G1 X66.382 Y143.575 E1.34875
G1 X65.936 Y143.618 E.02246
G1 X84.88 Y162.562 E1.34569
G1 X84.392 Y162.562 E.02452
G1 X65.491 Y143.661 E1.34264
G1 X65.046 Y143.704 E.02246
G1 X83.904 Y162.562 E1.33958
G1 X83.416 Y162.562 E.02452
G1 X64.601 Y143.747 E1.33652
G1 X64.156 Y143.79 E.02246
G1 X82.928 Y162.562 E1.33347
G1 X82.439 Y162.562 E.02452
G1 X63.711 Y143.833 E1.33041
G1 X63.265 Y143.876 E.02246
G1 X81.951 Y162.562 E1.32736
G1 X81.463 Y162.562 E.02452
G1 X62.82 Y143.919 E1.3243
G1 X62.375 Y143.962 E.02246
G1 X80.975 Y162.562 E1.32125
G1 X80.487 Y162.562 E.02452
G1 X61.93 Y144.005 E1.31819
G1 X61.485 Y144.048 E.02246
G1 X79.999 Y162.562 E1.31514
G1 X79.51 Y162.562 E.02452
G1 X61.04 Y144.091 E1.31208
G1 X60.594 Y144.134 E.02246
G1 X79.022 Y162.562 E1.30903
G1 X78.534 Y162.562 E.02452
G1 X60.149 Y144.177 E1.30597
G1 X59.704 Y144.22 E.02246
G1 X78.046 Y162.562 E1.30292
G1 X77.558 Y162.562 E.02452
G1 X59.259 Y144.263 E1.29986
G1 X58.814 Y144.306 E.02246
G1 X77.07 Y162.562 E1.29681
G1 X76.581 Y162.562 E.02452
G1 X58.369 Y144.349 E1.29375
G1 X57.923 Y144.392 E.02246
G1 X76.093 Y162.562 E1.2907
G1 X75.605 Y162.562 E.02452
G1 X57.478 Y144.435 E1.28764
G1 X57.033 Y144.478 E.02246
G1 X75.117 Y162.562 E1.28459
G1 X74.629 Y162.562 E.02452
G1 X56.588 Y144.521 E1.28153
G1 X56.143 Y144.564 E.02246
G1 X74.141 Y162.562 E1.27848
G1 X73.652 Y162.562 E.02452
G1 X55.698 Y144.607 E1.27542
G1 X55.252 Y144.65 E.02246
G1 X73.164 Y162.562 E1.27237
G1 X72.676 Y162.562 E.02452
M73 P1 R246
G1 X54.807 Y144.693 E1.26931
G1 X54.362 Y144.736 E.02246
G1 X72.188 Y162.562 E1.26626
G1 X71.7 Y162.562 E.02452
G1 X53.917 Y144.779 E1.2632
G1 X53.472 Y144.822 E.02246
G1 X71.212 Y162.562 E1.26015
G1 X70.723 Y162.562 E.02452
G1 X53.027 Y144.865 E1.25709
G1 X52.582 Y144.908 E.02246
G1 X70.235 Y162.562 E1.25403
G1 X69.747 Y162.562 E.02452
G1 X52.136 Y144.951 E1.25098
G1 X51.691 Y144.994 E.02246
G1 X69.259 Y162.562 E1.24792
G1 X68.771 Y162.562 E.02452
G1 X51.246 Y145.037 E1.24487
G1 X50.801 Y145.08 E.02246
G1 X68.283 Y162.562 E1.24181
G1 X67.794 Y162.562 E.02452
G1 X50.356 Y145.123 E1.23876
G1 X49.911 Y145.166 E.02246
G1 X67.306 Y162.562 E1.2357
G1 X66.818 Y162.562 E.02452
G1 X49.465 Y145.209 E1.23265
G1 X49.02 Y145.252 E.02246
G1 X66.33 Y162.562 E1.22959
G1 X65.842 Y162.562 E.02452
G1 X48.575 Y145.295 E1.22654
G1 X48.13 Y145.338 E.02246
G1 X65.353 Y162.562 E1.22348
G1 X64.865 Y162.562 E.02452
G1 X47.685 Y145.381 E1.22043
G1 X47.24 Y145.424 E.02246
G1 X64.377 Y162.562 E1.21737
G1 X63.889 Y162.562 E.02452
G1 X46.794 Y145.467 E1.21432
G1 X46.349 Y145.51 E.02246
G1 X63.401 Y162.562 E1.21126
G1 X62.913 Y162.562 E.02452
G1 X45.904 Y145.553 E1.20821
G1 X45.459 Y145.596 E.02246
G1 X62.424 Y162.562 E1.20515
G1 X61.936 Y162.562 E.02452
G1 X45.014 Y145.639 E1.2021
G1 X44.569 Y145.682 E.02246
G1 X61.448 Y162.562 E1.19904
G1 X60.96 Y162.562 E.02452
G1 X44.123 Y145.725 E1.19599
G1 X43.678 Y145.768 E.02246
G1 X60.472 Y162.562 E1.19293
G1 X59.984 Y162.562 E.02452
G1 X43.233 Y145.811 E1.18988
G1 X42.788 Y145.854 E.02246
G1 X59.495 Y162.562 E1.18682
G1 X59.007 Y162.562 E.02452
G1 X42.343 Y145.897 E1.18377
G1 X41.898 Y145.94 E.02246
G1 X58.519 Y162.562 E1.18071
G1 X58.031 Y162.562 E.02452
G1 X41.452 Y145.983 E1.17765
G1 X41.007 Y146.026 E.02246
G1 X57.543 Y162.562 E1.1746
G1 X57.055 Y162.562 E.02452
G1 X40.562 Y146.069 E1.17154
G1 X40.117 Y146.112 E.02246
G1 X56.566 Y162.562 E1.16849
G1 X56.078 Y162.562 E.02452
G1 X39.672 Y146.155 E1.16543
G1 X39.227 Y146.198 E.02246
G1 X55.59 Y162.562 E1.16238
G1 X55.102 Y162.562 E.02452
G1 X38.782 Y146.241 E1.15932
G1 X38.336 Y146.284 E.02246
G1 X54.614 Y162.562 E1.15627
G1 X54.126 Y162.562 E.02452
G1 X37.891 Y146.327 E1.15321
G1 X37.446 Y146.37 E.02246
G1 X53.637 Y162.562 E1.15016
G1 X53.149 Y162.562 E.02452
G1 X37.001 Y146.413 E1.1471
G1 X36.556 Y146.456 E.02246
M73 P1 R245
G1 X52.661 Y162.562 E1.14405
G1 X52.173 Y162.562 E.02452
G1 X36.111 Y146.499 E1.14099
G1 X35.665 Y146.542 E.02246
G1 X51.685 Y162.562 E1.13794
G1 X51.197 Y162.562 E.02452
G1 X35.22 Y146.585 E1.13488
G1 X34.775 Y146.628 E.02246
G1 X50.708 Y162.562 E1.13183
G1 X50.22 Y162.562 E.02452
G1 X34.33 Y146.671 E1.12877
G1 X33.885 Y146.714 E.02246
G1 X49.732 Y162.562 E1.12572
G1 X49.244 Y162.562 E.02452
G1 X33.44 Y146.757 E1.12266
G1 X32.994 Y146.8 E.02246
G1 X48.756 Y162.562 E1.11961
G1 X48.268 Y162.562 E.02452
G1 X32.549 Y146.843 E1.11655
G1 X32.104 Y146.886 E.02246
G1 X47.779 Y162.562 E1.1135
G1 X47.291 Y162.562 E.02452
G1 X31.659 Y146.929 E1.11044
G1 X31.214 Y146.972 E.02246
G1 X46.803 Y162.562 E1.10739
G1 X46.315 Y162.562 E.02452
G1 X30.769 Y147.015 E1.10433
G1 X30.323 Y147.058 E.02246
G1 X45.827 Y162.562 E1.10127
G1 X45.338 Y162.562 E.02452
G1 X29.878 Y147.101 E1.09822
G1 X29.433 Y147.144 E.02246
G1 X44.85 Y162.562 E1.09516
G1 X44.362 Y162.562 E.02452
G1 X28.988 Y147.187 E1.09211
G1 X28.543 Y147.23 E.02246
G1 X43.874 Y162.562 E1.08905
G1 X43.386 Y162.562 E.02452
G1 X28.098 Y147.273 E1.086
G1 X27.652 Y147.316 E.02246
G1 X42.898 Y162.562 E1.08294
G1 X42.409 Y162.562 E.02452
G1 X27.207 Y147.359 E1.07989
G1 X26.762 Y147.402 E.02246
G1 X41.921 Y162.562 E1.07683
G1 X41.433 Y162.562 E.02452
G1 X26.317 Y147.445 E1.07378
G1 X25.872 Y147.488 E.02246
G1 X40.945 Y162.562 E1.07072
G1 X40.457 Y162.562 E.02452
G1 X25.427 Y147.531 E1.06767
G1 X24.982 Y147.574 E.02246
G1 X39.969 Y162.562 E1.06461
G1 X39.48 Y162.562 E.02452
G1 X24.536 Y147.617 E1.06156
G1 X24.091 Y147.66 E.02246
G1 X38.992 Y162.562 E1.0585
G1 X38.504 Y162.562 E.02452
G1 X23.646 Y147.703 E1.05545
G1 X23.201 Y147.746 E.02246
G1 X38.016 Y162.562 E1.05239
G1 X37.528 Y162.562 E.02452
G1 X22.756 Y147.789 E1.04934
G1 X22.311 Y147.832 E.02246
G1 X37.04 Y162.562 E1.04628
G1 X36.551 Y162.562 E.02452
G1 X21.865 Y147.875 E1.04323
G1 X21.42 Y147.919 E.02246
G1 X36.063 Y162.562 E1.04017
G1 X35.575 Y162.562 E.02452
G1 X20.975 Y147.962 E1.03712
G1 X20.53 Y148.005 E.02246
G1 X35.087 Y162.562 E1.03406
G1 X34.599 Y162.562 E.02452
G1 X20.085 Y148.048 E1.03101
G1 X19.64 Y148.091 E.02246
G1 X34.111 Y162.562 E1.02795
G1 X33.622 Y162.562 E.02452
G1 X19.194 Y148.134 E1.02489
G1 X18.749 Y148.177 E.02246
G1 X33.134 Y162.562 E1.02184
G1 X32.646 Y162.562 E.02452
G1 X18.304 Y148.22 E1.01878
G1 X17.859 Y148.263 E.02246
G1 X32.158 Y162.562 E1.01573
G1 X31.67 Y162.562 E.02452
G1 X17.613 Y148.505 E.9985
G1 X17.613 Y148.993 E.02452
G1 X31.182 Y162.562 E.96382
G1 X30.693 Y162.562 E.02452
G1 X17.613 Y149.481 E.92915
G1 X17.613 Y149.97 E.02452
G1 X30.205 Y162.562 E.89447
G1 X29.717 Y162.562 E.02452
G1 X17.613 Y150.458 E.85979
G1 X17.613 Y150.946 E.02452
G1 X29.229 Y162.562 E.82512
G1 X28.741 Y162.562 E.02452
G1 X17.613 Y151.434 E.79044
G1 X17.613 Y151.922 E.02452
G1 X28.253 Y162.562 E.75576
G1 X27.764 Y162.562 E.02452
G1 X17.613 Y152.41 E.72108
G1 X17.613 Y152.899 E.02452
G1 X27.276 Y162.562 E.68641
G1 X26.788 Y162.562 E.02452
G1 X17.613 Y153.387 E.65173
G1 X17.613 Y153.875 E.02452
G1 X26.3 Y162.562 E.61705
