; generated by PrusaSlicer 2.5.0+win64 on 2022-12-07 at 00:17:09 UTC

; 

; external perimeters extrusion width = 1.00mm
; perimeters extrusion width = 1.00mm
; infill extrusion width = 1.00mm
; solid infill extrusion width = 1.00mm
; top infill extrusion width = 1.00mm
; support material extrusion width = 1.00mm
; first layer extrusion width = 0.42mm

M73 P0 R160
M107
;TYPE:Custom
G90 ; use absolute coordinates
M83 ; extruder relative mode
M140 S60 ; set final bed temp
M104 S150 ; set temporary nozzle temp to prevent oozing during homing and auto bed leveling
G4 S10 ; allow partial nozzle warmup
G28 ; home all axisG1 Z50 F240
G1 X7.6 Y10 F3000
M104 S210 ; set final nozzle temp
M190 S60 ; wait for bed temp to stabilize
M109 S210 ; wait for nozzle temp to stabilize
G1 Z0.28 F240
G92 E0
G1 Y140 E10 F1500 ; prime the nozzle
G1 X4 F5000
G92 E0
G1 Y10 E10 F1200 ; prime the nozzle
G92 E0
G21 ; set units to millimeters
G90 ; use absolute coordinates
M83 ; use relative distances for extrusion
; Filament gcode
M107
;LAYER_CHANGE
;Z:0.35
;HEIGHT:0.35
;BEFORE_LAYER_CHANGE
G92 E0
;0.35


G1 E-1 F3600
M73 P0 R159
G1 Z.35 F7800
;AFTER_LAYER_CHANGE
;0.35
G1 X93.405 Y17.182
G1 E1 F2400
;TYPE:Perimeter
;WIDTH:0.42
G1 F1800
G1 X107.235 Y17.182 E.69409
G1 X98.157 Y162.818 E7.32306
G1 X84.294 Y162.818 E.69573
G1 X93.395 Y17.332 E7.31564
G1 X93.081 Y16.837 F7800
;TYPE:External perimeter
G1 F1800
G1 X107.602 Y16.837 E.72877
G1 X98.481 Y163.163 E7.35775
G1 X83.927 Y163.163 E.73041
G1 X93.071 Y16.987 E7.35032
G1 X93.953 Y17.326 F7800
G1 E-.7 F3600
;WIPE_START
G1 F6240
G1 X93.591 Y16.981 E-.285
;WIPE_END
G1 E-.015 F3600
G1 X107.084 Y17.942 F7800
G1 E1 F2400
;TYPE:Solid infill
;WIDTH:0.420896
G1 F1800
G1 X106.582 Y17.441 E.03571
G1 X106.093 Y17.441 E.02461
G1 X106.909 Y18.256 E.05805
G1 X106.88 Y18.717 E.02321
G1 X105.604 Y17.441 E.09081
G1 X105.115 Y17.441 E.02461
G1 X106.851 Y19.177 E.12356
G1 X106.823 Y19.637 E.02321
G1 X104.626 Y17.441 E.15632
G1 X104.137 Y17.441 E.02461
G1 X106.794 Y20.098 E.18907
G1 X106.765 Y20.558 E.02321
G1 X103.648 Y17.441 E.22183
G1 X103.159 Y17.441 E.02461
G1 X106.737 Y21.018 E.25458
G1 X106.708 Y21.479 E.02321
G1 X102.67 Y17.441 E.28734
G1 X102.181 Y17.441 E.02461
G1 X106.679 Y21.939 E.32009
G1 X106.651 Y22.399 E.02321
G1 X101.692 Y17.441 E.35285
G1 X101.203 Y17.441 E.02461
G1 X106.622 Y22.86 E.3856
G1 X106.593 Y23.32 E.02321
G1 X100.714 Y17.441 E.41836
G1 X100.225 Y17.441 E.02461
G1 X106.565 Y23.78 E.45112
G1 X106.536 Y24.241 E.02321
G1 X99.736 Y17.441 E.48387
G1 X99.247 Y17.441 E.02461
G1 X106.507 Y24.701 E.51663
G1 X106.478 Y25.161 E.02321
G1 X98.758 Y17.441 E.54938
G1 X98.269 Y17.441 E.02461
G1 X106.45 Y25.621 E.58214
G1 X106.421 Y26.082 E.02321
G1 X97.78 Y17.441 E.61489
G1 X97.291 Y17.441 E.02461
G1 X106.392 Y26.542 E.64765
G1 X106.364 Y27.002 E.02321
G1 X96.802 Y17.441 E.6804
G1 X96.313 Y17.441 E.02461
G1 X106.335 Y27.463 E.71316
G1 X106.306 Y27.923 E.02321
G1 X95.824 Y17.441 E.74592
G1 X95.335 Y17.441 E.02461
G1 X106.278 Y28.383 E.77867
G1 X106.249 Y28.844 E.02321
G1 X94.846 Y17.441 E.81143
G1 X94.357 Y17.441 E.02461
G1 X106.22 Y29.304 E.84418
G1 X106.192 Y29.764 E.02321
G1 X93.868 Y17.441 E.87694
G1 X93.648 Y17.441 E.01108
G1 X93.632 Y17.694 E.01276
G1 X106.163 Y30.225 E.89169
G1 X106.134 Y30.685 E.02321
G1 X93.603 Y18.154 E.89169
G1 X93.574 Y18.614 E.0232
G1 X106.105 Y31.145 E.8917
G1 X106.077 Y31.606 E.02321
G1 X93.545 Y19.074 E.89171
G1 X93.517 Y19.534 E.0232
G1 X106.048 Y32.066 E.89172
G1 X106.019 Y32.526 E.02321
G1 X93.488 Y19.995 E.89172
G1 X93.459 Y20.455 E.0232
G1 X105.991 Y32.987 E.89173
G1 X105.962 Y33.447 E.02321
G1 X93.43 Y20.915 E.89174
G1 X93.401 Y21.375 E.0232
G1 X105.933 Y33.907 E.89174
G1 X105.905 Y34.368 E.02321
G1 X93.373 Y21.836 E.89175
G1 X93.344 Y22.296 E.0232
G1 X105.876 Y34.828 E.89176
G1 X105.847 Y35.288 E.02321
G1 X93.315 Y22.756 E.89176
G1 X93.286 Y23.216 E.0232
G1 X105.819 Y35.749 E.89177
G1 X105.79 Y36.209 E.02321
G1 X93.257 Y23.676 E.89178
G1 X93.229 Y24.137 E.0232
G1 X105.761 Y36.669 E.89178
G1 X105.732 Y37.13 E.02321
G1 X93.2 Y24.597 E.89179
G1 X93.171 Y25.057 E.0232
G1 X105.704 Y37.59 E.8918
G1 X105.675 Y38.05 E.02321
G1 X93.142 Y25.517 E.89181
G1 X93.113 Y25.978 E.0232
G1 X105.646 Y38.51 E.89181
G1 X105.618 Y38.971 E.02321
G1 X93.085 Y26.438 E.89182
G1 X93.056 Y26.898 E.0232
G1 X105.589 Y39.431 E.89183
G1 X105.56 Y39.891 E.02321
G1 X93.027 Y27.358 E.89183
G1 X92.998 Y27.819 E.0232
G1 X105.532 Y40.352 E.89184
G1 X105.503 Y40.812 E.02321
G1 X92.97 Y28.279 E.89185
G1 X92.941 Y28.739 E.0232
G1 X105.474 Y41.272 E.89185
G1 X105.445 Y41.733 E.02321
G1 X92.912 Y29.199 E.89186
G1 X92.883 Y29.659 E.0232
G1 X105.417 Y42.193 E.89187
G1 X105.388 Y42.653 E.02321
G1 X92.854 Y30.12 E.89187
G1 X92.826 Y30.58 E.0232
G1 X105.359 Y43.114 E.89188
G1 X105.331 Y43.574 E.02321
G1 X92.797 Y31.04 E.89189
G1 X92.768 Y31.5 E.0232
G1 X105.302 Y44.034 E.89189
G1 X105.273 Y44.495 E.02321
G1 X92.739 Y31.961 E.8919
G1 X92.71 Y32.421 E.0232
M73 P0 R158
G1 X105.245 Y44.955 E.89191
G1 X105.216 Y45.415 E.02321
G1 X92.682 Y32.881 E.89192
G1 X92.653 Y33.341 E.0232
G1 X105.187 Y45.876 E.89192
G1 X105.159 Y46.336 E.02321
G1 X92.624 Y33.801 E.89193
G1 X92.595 Y34.262 E.0232
G1 X105.13 Y46.796 E.89194
G1 X105.101 Y47.257 E.02321
G1 X92.566 Y34.722 E.89194
G1 X92.538 Y35.182 E.0232
G1 X105.072 Y47.717 E.89195
G1 X105.044 Y48.177 E.02321
G1 X92.509 Y35.642 E.89196
G1 X92.48 Y36.103 E.0232
G1 X105.015 Y48.638 E.89196
G1 X104.986 Y49.098 E.02321
G1 X92.451 Y36.563 E.89197
G1 X92.423 Y37.023 E.0232
G1 X104.958 Y49.558 E.89198
G1 X104.929 Y50.019 E.02321
G1 X92.394 Y37.483 E.89198
G1 X92.365 Y37.943 E.0232
G1 X104.9 Y50.479 E.89199
G1 X104.872 Y50.939 E.02321
G1 X92.336 Y38.404 E.892
G1 X92.307 Y38.864 E.0232
G1 X104.843 Y51.399 E.89201
G1 X104.814 Y51.86 E.02321
G1 X92.279 Y39.324 E.89201
G1 X92.25 Y39.784 E.0232
G1 X104.786 Y52.32 E.89202
G1 X104.757 Y52.78 E.02321
G1 X92.221 Y40.245 E.89203
G1 X92.192 Y40.705 E.0232
G1 X104.728 Y53.241 E.89203
G1 X104.699 Y53.701 E.02321
G1 X92.163 Y41.165 E.89204
G1 X92.135 Y41.625 E.0232
G1 X104.671 Y54.161 E.89205
G1 X104.642 Y54.622 E.02321
G1 X92.106 Y42.085 E.89205
G1 X92.077 Y42.546 E.0232
G1 X104.613 Y55.082 E.89206
G1 X104.585 Y55.542 E.02321
G1 X92.048 Y43.006 E.89207
G1 X92.019 Y43.466 E.0232
G1 X104.556 Y56.003 E.89207
G1 X104.527 Y56.463 E.02321
G1 X91.991 Y43.926 E.89208
G1 X91.962 Y44.387 E.0232
G1 X104.499 Y56.923 E.89209
G1 X104.47 Y57.384 E.02321
G1 X91.933 Y44.847 E.89209
G1 X91.904 Y45.307 E.0232
G1 X104.441 Y57.844 E.8921
G1 X104.413 Y58.304 E.02321
G1 X91.876 Y45.767 E.89211
G1 X91.847 Y46.227 E.0232
G1 X104.384 Y58.765 E.89212
G1 X104.355 Y59.225 E.02321
G1 X91.818 Y46.688 E.89212
G1 X91.789 Y47.148 E.0232
G1 X104.326 Y59.685 E.89213
G1 X104.298 Y60.146 E.02321
G1 X91.76 Y47.608 E.89214
G1 X91.732 Y48.068 E.0232
G1 X104.269 Y60.606 E.89214
G1 X104.24 Y61.066 E.02321
G1 X91.703 Y48.529 E.89215
G1 X91.674 Y48.989 E.0232
G1 X104.212 Y61.527 E.89216
G1 X104.183 Y61.987 E.02321
G1 X91.645 Y49.449 E.89216
G1 X91.616 Y49.909 E.0232
G1 X104.154 Y62.447 E.89217
G1 X104.126 Y62.908 E.02321
G1 X91.588 Y50.37 E.89218
G1 X91.559 Y50.83 E.0232
G1 X104.097 Y63.368 E.89218
G1 X104.068 Y63.828 E.02321
G1 X91.53 Y51.29 E.89219
G1 X91.501 Y51.75 E.0232
G1 X104.04 Y64.288 E.8922
G1 X104.011 Y64.749 E.02321
G1 X91.472 Y52.21 E.89221
G1 X91.444 Y52.671 E.0232
G1 X103.982 Y65.209 E.89221
G1 X103.953 Y65.669 E.02321
G1 X91.415 Y53.131 E.89222
G1 X91.386 Y53.591 E.0232
M73 P1 R158
G1 X103.925 Y66.13 E.89223
G1 X103.896 Y66.59 E.02321
G1 X91.357 Y54.051 E.89223
G1 X91.329 Y54.512 E.0232
G1 X103.867 Y67.05 E.89224
G1 X103.839 Y67.511 E.02321
G1 X91.3 Y54.972 E.89225
G1 X91.271 Y55.432 E.0232
G1 X103.81 Y67.971 E.89225
G1 X103.781 Y68.431 E.02321
G1 X91.242 Y55.892 E.89226
G1 X91.213 Y56.352 E.0232
G1 X103.753 Y68.892 E.89227
G1 X103.724 Y69.352 E.02321
G1 X91.185 Y56.813 E.89227
G1 X91.156 Y57.273 E.0232
G1 X103.695 Y69.812 E.89228
G1 X103.667 Y70.273 E.02321
G1 X91.127 Y57.733 E.89229
G1 X91.098 Y58.193 E.0232
G1 X103.638 Y70.733 E.89229
G1 X103.609 Y71.193 E.02321
G1 X91.069 Y58.654 E.8923
G1 X91.041 Y59.114 E.0232
G1 X103.58 Y71.654 E.89231
G1 X103.552 Y72.114 E.02321
G1 X91.012 Y59.574 E.89232
G1 X90.983 Y60.034 E.0232
G1 X103.523 Y72.574 E.89232
G1 X103.494 Y73.035 E.02321
G1 X90.954 Y60.494 E.89233
G1 X90.925 Y60.955 E.0232
G1 X103.466 Y73.495 E.89234
G1 X103.437 Y73.955 E.02321
G1 X90.897 Y61.415 E.89234
G1 X90.868 Y61.875 E.0232
G1 X103.408 Y74.416 E.89235
G1 X103.38 Y74.876 E.02321
G1 X90.839 Y62.335 E.89236
G1 X90.81 Y62.796 E.0232
G1 X103.351 Y75.336 E.89236
G1 X103.322 Y75.797 E.02321
G1 X90.782 Y63.256 E.89237
G1 X90.753 Y63.716 E.0232
G1 X103.294 Y76.257 E.89238
G1 X103.265 Y76.717 E.02321
G1 X90.724 Y64.176 E.89238
G1 X90.695 Y64.636 E.0232
G1 X103.236 Y77.177 E.89239
G1 X103.207 Y77.638 E.02321
G1 X90.666 Y65.097 E.8924
G1 X90.638 Y65.557 E.0232
G1 X103.179 Y78.098 E.89241
G1 X103.15 Y78.558 E.02321
G1 X90.609 Y66.017 E.89241
G1 X90.58 Y66.477 E.0232
G1 X103.121 Y79.019 E.89242
G1 X103.093 Y79.479 E.02321
G1 X90.551 Y66.938 E.89243
G1 X90.522 Y67.398 E.0232
G1 X103.064 Y79.939 E.89243
G1 X103.035 Y80.4 E.02321
G1 X90.494 Y67.858 E.89244
G1 X90.465 Y68.318 E.0232
G1 X103.007 Y80.86 E.89245
G1 X102.978 Y81.32 E.02321
G1 X90.436 Y68.778 E.89245
G1 X90.407 Y69.239 E.0232
G1 X102.949 Y81.781 E.89246
G1 X102.921 Y82.241 E.02321
G1 X90.378 Y69.699 E.89247
G1 X90.35 Y70.159 E.0232
G1 X102.892 Y82.701 E.89247
G1 X102.863 Y83.162 E.02321
G1 X90.321 Y70.619 E.89248
G1 X90.292 Y71.08 E.0232
G1 X102.834 Y83.622 E.89249
G1 X102.806 Y84.082 E.02321
G1 X90.263 Y71.54 E.89249
G1 X90.235 Y72 E.0232
G1 X102.777 Y84.543 E.8925
G1 X102.748 Y85.003 E.02321
G1 X90.206 Y72.46 E.89251
G1 X90.177 Y72.921 E.0232
G1 X102.72 Y85.463 E.89252
G1 X102.691 Y85.924 E.02321
G1 X90.148 Y73.381 E.89252
G1 X90.119 Y73.841 E.0232
G1 X102.662 Y86.384 E.89253
G1 X102.634 Y86.844 E.02321
G1 X90.091 Y74.301 E.89254
G1 X90.062 Y74.761 E.0232
M73 P1 R157
G1 X102.605 Y87.305 E.89254
G1 X102.576 Y87.765 E.02321
G1 X90.033 Y75.222 E.89255
G1 X90.004 Y75.682 E.0232
G1 X102.548 Y88.225 E.89256
G1 X102.519 Y88.686 E.02321
G1 X89.975 Y76.142 E.89256
G1 X89.947 Y76.602 E.0232
G1 X102.49 Y89.146 E.89257
G1 X102.461 Y89.606 E.02321
G1 X89.918 Y77.063 E.89258
G1 X89.889 Y77.523 E.0232
G1 X102.433 Y90.066 E.89258
G1 X102.404 Y90.527 E.02321
G1 X89.86 Y77.983 E.89259
G1 X89.831 Y78.443 E.0232
G1 X102.375 Y90.987 E.8926
G1 X102.347 Y91.447 E.02321
G1 X89.803 Y78.903 E.8926
G1 X89.774 Y79.364 E.0232
G1 X102.318 Y91.908 E.89261
G1 X102.289 Y92.368 E.02321
G1 X89.745 Y79.824 E.89262
G1 X89.716 Y80.284 E.0232
G1 X102.261 Y92.828 E.89263
G1 X102.232 Y93.289 E.02321
G1 X89.688 Y80.744 E.89263
G1 X89.659 Y81.205 E.0232
G1 X102.203 Y93.749 E.89264
G1 X102.175 Y94.209 E.02321
G1 X89.63 Y81.665 E.89265
G1 X89.601 Y82.125 E.0232
G1 X102.146 Y94.67 E.89265
G1 X102.117 Y95.13 E.02321
G1 X89.572 Y82.585 E.89266
G1 X89.544 Y83.045 E.0232
G1 X102.088 Y95.59 E.89267
G1 X102.06 Y96.051 E.02321
G1 X89.515 Y83.506 E.89267
G1 X89.486 Y83.966 E.0232
G1 X102.031 Y96.511 E.89268
G1 X102.002 Y96.971 E.02321
G1 X89.457 Y84.426 E.89269
G1 X89.428 Y84.886 E.0232
G1 X101.974 Y97.432 E.89269
G1 X101.945 Y97.892 E.02321
G1 X89.4 Y85.347 E.8927
G1 X89.371 Y85.807 E.0232
G1 X101.916 Y98.352 E.89271
G1 X101.888 Y98.813 E.02321
G1 X89.342 Y86.267 E.89272
G1 X89.313 Y86.727 E.0232
G1 X101.859 Y99.273 E.89272
G1 X101.83 Y99.733 E.02321
G1 X89.285 Y87.187 E.89273
G1 X89.256 Y87.648 E.0232
G1 X101.802 Y100.194 E.89274
G1 X101.773 Y100.654 E.02321
G1 X89.227 Y88.108 E.89274
G1 X89.198 Y88.568 E.0232
G1 X101.744 Y101.114 E.89275
G1 X101.715 Y101.575 E.02321
G1 X89.169 Y89.028 E.89276
G1 X89.141 Y89.489 E.0232
G1 X101.687 Y102.035 E.89276
G1 X101.658 Y102.495 E.02321
G1 X89.112 Y89.949 E.89277
G1 X89.083 Y90.409 E.0232
G1 X101.629 Y102.955 E.89278
G1 X101.601 Y103.416 E.02321
G1 X89.054 Y90.869 E.89278
G1 X89.025 Y91.329 E.0232
G1 X101.572 Y103.876 E.89279
G1 X101.543 Y104.336 E.02321
G1 X88.997 Y91.79 E.8928
G1 X88.968 Y92.25 E.0232
G1 X101.515 Y104.797 E.8928
G1 X101.486 Y105.257 E.02321
G1 X88.939 Y92.71 E.89281
G1 X88.91 Y93.17 E.0232
G1 X101.457 Y105.717 E.89282
G1 X101.429 Y106.178 E.02321
G1 X88.881 Y93.631 E.89283
G1 X88.853 Y94.091 E.0232
G1 X101.4 Y106.638 E.89283
G1 X101.371 Y107.098 E.02321
G1 X88.824 Y94.551 E.89284
G1 X88.795 Y95.011 E.0232
G1 X101.342 Y107.559 E.89285
G1 X101.314 Y108.019 E.02321
G1 X88.766 Y95.472 E.89285
G1 X88.738 Y95.932 E.0232
G1 X101.285 Y108.479 E.89286
G1 X101.256 Y108.94 E.02321
G1 X88.709 Y96.392 E.89287
G1 X88.68 Y96.852 E.0232
G1 X101.228 Y109.4 E.89287
G1 X101.199 Y109.86 E.02321
G1 X88.651 Y97.312 E.89288
G1 X88.622 Y97.773 E.0232
G1 X101.17 Y110.321 E.89289
G1 X101.142 Y110.781 E.02321
G1 X88.594 Y98.233 E.89289
G1 X88.565 Y98.693 E.0232
G1 X101.113 Y111.241 E.8929
G1 X101.084 Y111.702 E.02321
G1 X88.536 Y99.153 E.89291
G1 X88.507 Y99.614 E.0232
G1 X101.056 Y112.162 E.89292
G1 X101.027 Y112.622 E.02321
G1 X88.478 Y100.074 E.89292
G1 X88.45 Y100.534 E.0232
G1 X100.998 Y113.083 E.89293
G1 X100.969 Y113.543 E.02321
G1 X88.421 Y100.994 E.89294
G1 X88.392 Y101.454 E.0232
G1 X100.941 Y114.003 E.89294
G1 X100.912 Y114.464 E.02321
G1 X88.363 Y101.915 E.89295
G1 X88.334 Y102.375 E.0232
G1 X100.883 Y114.924 E.89296
G1 X100.855 Y115.384 E.02321
G1 X88.306 Y102.835 E.89296
G1 X88.277 Y103.295 E.0232
G1 X100.826 Y115.844 E.89297
G1 X100.797 Y116.305 E.02321
G1 X88.248 Y103.756 E.89298
G1 X88.219 Y104.216 E.0232
G1 X100.769 Y116.765 E.89298
G1 X100.74 Y117.225 E.02321
G1 X88.191 Y104.676 E.89299
G1 X88.162 Y105.136 E.0232
G1 X100.711 Y117.686 E.893
G1 X100.683 Y118.146 E.02321
G1 X88.133 Y105.596 E.893
G1 X88.104 Y106.057 E.0232
G1 X100.654 Y118.606 E.89301
G1 X100.625 Y119.067 E.02321
G1 X88.075 Y106.517 E.89302
G1 X88.047 Y106.977 E.0232
G1 X100.596 Y119.527 E.89303
G1 X100.568 Y119.987 E.02321
G1 X88.018 Y107.437 E.89303
G1 X87.989 Y107.898 E.0232
G1 X100.539 Y120.448 E.89304
G1 X100.51 Y120.908 E.02321
G1 X87.96 Y108.358 E.89305
G1 X87.931 Y108.818 E.0232
G1 X100.482 Y121.368 E.89305
G1 X100.453 Y121.829 E.02321
G1 X87.903 Y109.278 E.89306
G1 X87.874 Y109.738 E.0232
G1 X100.424 Y122.289 E.89307
G1 X100.396 Y122.749 E.02321
G1 X87.845 Y110.199 E.89307
G1 X87.816 Y110.659 E.0232
G1 X100.367 Y123.21 E.89308
G1 X100.338 Y123.67 E.02321
G1 X87.787 Y111.119 E.89309
G1 X87.759 Y111.579 E.0232
G1 X100.31 Y124.13 E.89309
G1 X100.281 Y124.591 E.02321
G1 X87.73 Y112.04 E.8931
G1 X87.701 Y112.5 E.0232
G1 X100.252 Y125.051 E.89311
G1 X100.223 Y125.511 E.02321
G1 X87.672 Y112.96 E.89312
G1 X87.644 Y113.42 E.0232
G1 X100.195 Y125.972 E.89312
G1 X100.166 Y126.432 E.02321
G1 X87.615 Y113.88 E.89313
G1 X87.586 Y114.341 E.0232
G1 X100.137 Y126.892 E.89314
G1 X100.109 Y127.353 E.02321
G1 X87.557 Y114.801 E.89314
G1 X87.528 Y115.261 E.0232
G1 X100.08 Y127.813 E.89315
G1 X100.051 Y128.273 E.02321
G1 X87.5 Y115.721 E.89316
G1 X87.471 Y116.182 E.0232
G1 X100.023 Y128.733 E.89316
G1 X99.994 Y129.194 E.02321
G1 X87.442 Y116.642 E.89317
G1 X87.413 Y117.102 E.0232
M73 P1 R156
G1 X99.965 Y129.654 E.89318
G1 X99.937 Y130.114 E.02321
G1 X87.384 Y117.562 E.89318
G1 X87.356 Y118.023 E.0232
G1 X99.908 Y130.575 E.89319
G1 X99.879 Y131.035 E.02321
G1 X87.327 Y118.483 E.8932
G1 X87.298 Y118.943 E.0232
G1 X99.85 Y131.495 E.8932
G1 X99.822 Y131.956 E.02321
G1 X87.269 Y119.403 E.89321
G1 X87.24 Y119.863 E.0232
G1 X99.793 Y132.416 E.89322
G1 X99.764 Y132.876 E.02321
G1 X87.212 Y120.324 E.89323
G1 X87.183 Y120.784 E.0232
G1 X99.736 Y133.337 E.89323
G1 X99.707 Y133.797 E.02321
M73 P2 R156
G1 X87.154 Y121.244 E.89324
G1 X87.125 Y121.704 E.0232
G1 X99.678 Y134.257 E.89325
G1 X99.65 Y134.718 E.02321
G1 X87.097 Y122.165 E.89325
G1 X87.068 Y122.625 E.0232
G1 X99.621 Y135.178 E.89326
G1 X99.592 Y135.638 E.02321
G1 X87.039 Y123.085 E.89327
G1 X87.01 Y123.545 E.0232
G1 X99.564 Y136.099 E.89327
G1 X99.535 Y136.559 E.02321
G1 X86.981 Y124.005 E.89328
G1 X86.953 Y124.466 E.0232
G1 X99.506 Y137.019 E.89329
G1 X99.477 Y137.48 E.02321
G1 X86.924 Y124.926 E.89329
