; generated by PrusaSlicer 2.5.0+win64 on 2022-12-07 at 00:17:24 UTC

; 

; external perimeters extrusion width = 1.00mm
; perimeters extrusion width = 1.00mm
; infill extrusion width = 1.00mm
; solid infill extrusion width = 1.00mm
; top infill extrusion width = 1.00mm
; support material extrusion width = 1.00mm
; first layer extrusion width = 0.42mm

M73 P0 R323
M107
;TYPE:Custom
G90 ; use absolute coordinates
M83 ; extruder relative mode
M140 S60 ; set final bed temp
M104 S150 ; set temporary nozzle temp to prevent oozing during homing and auto bed leveling
G4 S10 ; allow partial nozzle warmup
G28 ; home all axisG1 Z50 F240
G1 X7.6 Y10 F3000
M104 S210 ; set final nozzle temp
M190 S60 ; wait for bed temp to stabilize
M109 S210 ; wait for nozzle temp to stabilize
G1 Z0.28 F240
G92 E0
G1 Y140 E10 F1500 ; prime the nozzle
G1 X4 F5000
G92 E0
G1 Y10 E10 F1200 ; prime the nozzle
G92 E0
G21 ; set units to millimeters
G90 ; use absolute coordinates
M83 ; use relative distances for extrusion
; Filament gcode
M107
;LAYER_CHANGE
;Z:0.35
;HEIGHT:0.35
;BEFORE_LAYER_CHANGE
G92 E0
;0.35


G1 E-1 F3600
G1 Z.35 F7800
;AFTER_LAYER_CHANGE
;0.35
G1 X56.689 Y96.022
G1 E1 F2400
;TYPE:Perimeter
;WIDTH:0.42
G1 F1800
G1 X113.41 Y17.18 E4.87432
G1 X162.646 Y17.18 E2.47098
G1 X162.646 Y82.961 E3.30126
G1 X89.488 Y93.903 E3.71234
G1 X68.705 Y94.863 E1.04413
G1 X56.838 Y96.007 E.59833
G1 X55.964 Y96.438 F7800
;TYPE:External perimeter
G1 F1800
G1 X113.233 Y16.835 E4.92138
G1 X162.991 Y16.835 E2.49716
G1 X162.991 Y83.258 E3.33348
G1 X89.522 Y94.247 E3.72814
G1 X68.721 Y95.208 E1.04501
M73 P0 R322
G1 X56.114 Y96.424 E.63566
G1 X56.758 Y95.831 F7800
G1 X54.358 Y97.362
;TYPE:Perimeter
G1 F1800
G1 X32.34 Y127.969 E1.89222
G1 X17.356 Y151.241 E1.38907
G1 X17.356 Y100.938 E2.52448
G1 X54.208 Y97.376 E1.8581
G1 X55.082 Y96.945 F7800
;TYPE:External perimeter
G1 F1800
G1 X32.62 Y128.171 E1.93042
G1 X17.011 Y152.414 E1.44703
G1 X17.011 Y100.625 E2.59905
G1 X54.933 Y96.96 E1.91202
G1 X54.665 Y96.037 F7800
G1 X53.857 Y97.881
;TYPE:Solid infill
;WIDTH:0.421761
G1 F1800
G1 X53.664 Y97.689 E.01374
G1 X53.217 Y97.732 E.02265
G1 X53.54 Y98.055 E.02306
G1 X53.335 Y98.34 E.01772
G1 X52.77 Y97.775 E.04032
G1 X52.323 Y97.818 E.02265
G1 X53.13 Y98.625 E.05758
G1 X52.925 Y98.911 E.01772
G1 X51.876 Y97.862 E.07484
G1 X51.429 Y97.905 E.02265
G1 X52.72 Y99.196 E.09209
G1 X52.515 Y99.481 E.01772
G1 X50.982 Y97.948 E.10935
G1 X50.535 Y97.991 E.02265
G1 X52.31 Y99.766 E.12661
G1 X52.105 Y100.051 E.01772
G1 X50.088 Y98.034 E.14387
G1 X49.641 Y98.078 E.02265
G1 X51.899 Y100.336 E.16112
G1 X51.694 Y100.621 E.01772
G1 X49.194 Y98.121 E.17838
G1 X48.747 Y98.164 E.02265
G1 X51.489 Y100.906 E.19564
G1 X51.284 Y101.192 E.01772
G1 X48.3 Y98.207 E.2129
G1 X47.853 Y98.25 E.02265
G1 X51.079 Y101.477 E.23015
G1 X50.874 Y101.762 E.01772
G1 X47.406 Y98.294 E.24741
G1 X46.959 Y98.337 E.02265
G1 X50.669 Y102.047 E.26467
G1 X50.464 Y102.332 E.01772
G1 X46.512 Y98.38 E.28193
G1 X46.065 Y98.423 E.02265
G1 X50.259 Y102.617 E.29918
G1 X50.054 Y102.902 E.01772
G1 X45.618 Y98.466 E.31644
G1 X45.171 Y98.51 E.02265
G1 X49.848 Y103.188 E.3337
G1 X49.643 Y103.473 E.01772
G1 X44.724 Y98.553 E.35096
G1 X44.277 Y98.596 E.02265
G1 X49.438 Y103.758 E.36821
G1 X49.233 Y104.043 E.01772
G1 X43.829 Y98.639 E.38547
G1 X43.382 Y98.682 E.02265
G1 X49.028 Y104.328 E.40273
G1 X48.823 Y104.613 E.01772
G1 X42.935 Y98.726 E.41999
G1 X42.488 Y98.769 E.02265
G1 X48.618 Y104.898 E.43724
G1 X48.413 Y105.183 E.01772
G1 X42.041 Y98.812 E.4545
G1 X41.594 Y98.855 E.02265
G1 X48.208 Y105.469 E.47176
G1 X48.002 Y105.754 E.01772
G1 X41.147 Y98.899 E.48902
G1 X40.7 Y98.942 E.02265
G1 X47.797 Y106.039 E.50627
G1 X47.592 Y106.324 E.01772
G1 X40.253 Y98.985 E.52353
G1 X39.806 Y99.028 E.02265
G1 X47.387 Y106.609 E.54079
G1 X47.182 Y106.894 E.01772
G1 X39.359 Y99.071 E.55805
G1 X38.912 Y99.115 E.02265
G1 X46.977 Y107.179 E.5753
G1 X46.772 Y107.464 E.01772
G1 X38.465 Y99.158 E.59256
G1 X38.018 Y99.201 E.02265
G1 X46.567 Y107.75 E.60982
G1 X46.362 Y108.035 E.01772
G1 X37.571 Y99.244 E.62708
G1 X37.124 Y99.287 E.02265
G1 X46.156 Y108.32 E.64433
G1 X45.951 Y108.605 E.01772
G1 X36.677 Y99.331 E.66159
G1 X36.23 Y99.374 E.02265
G1 X45.746 Y108.89 E.67885
G1 X45.541 Y109.175 E.01772
G1 X35.783 Y99.417 E.69611
G1 X35.336 Y99.46 E.02265
G1 X45.336 Y109.46 E.71336
G1 X45.131 Y109.745 E.01772
G1 X34.889 Y99.503 E.73062
G1 X34.442 Y99.547 E.02265
G1 X44.926 Y110.031 E.74788
G1 X44.721 Y110.316 E.01772
G1 X33.995 Y99.59 E.76514
G1 X33.548 Y99.633 E.02265
G1 X44.516 Y110.601 E.78239
G1 X44.311 Y110.886 E.01772
G1 X33.101 Y99.676 E.79965
G1 X32.654 Y99.72 E.02265
G1 X44.105 Y111.171 E.81691
G1 X43.9 Y111.456 E.01772
G1 X32.207 Y99.763 E.83417
G1 X31.76 Y99.806 E.02265
G1 X43.695 Y111.741 E.85143
G1 X43.49 Y112.027 E.01772
G1 X31.313 Y99.849 E.86868
G1 X30.866 Y99.892 E.02265
G1 X43.285 Y112.312 E.88594
G1 X43.08 Y112.597 E.01772
G1 X30.419 Y99.936 E.9032
G1 X29.972 Y99.979 E.02265
G1 X42.875 Y112.882 E.92046
G1 X42.67 Y113.167 E.01772
G1 X29.525 Y100.022 E.93771
G1 X29.078 Y100.065 E.02265
G1 X42.465 Y113.452 E.95497
G1 X42.259 Y113.737 E.01772
G1 X28.631 Y100.108 E.97223
G1 X28.184 Y100.152 E.02265
G1 X42.054 Y114.022 E.98949
G1 X41.849 Y114.308 E.01772
G1 X27.737 Y100.195 E1.00674
G1 X27.289 Y100.238 E.02265
G1 X41.644 Y114.593 E1.024
G1 X41.439 Y114.878 E.01772
G1 X26.842 Y100.281 E1.04126
G1 X26.395 Y100.324 E.02265
G1 X41.234 Y115.163 E1.05852
G1 X41.029 Y115.448 E.01772
G1 X25.948 Y100.368 E1.07577
G1 X25.501 Y100.411 E.02265
G1 X40.824 Y115.733 E1.09303
G1 X40.619 Y116.018 E.01772
G1 X25.054 Y100.454 E1.11029
G1 X24.607 Y100.497 E.02265
G1 X40.413 Y116.303 E1.12755
G1 X40.208 Y116.589 E.01772
G1 X24.16 Y100.541 E1.1448
G1 X23.713 Y100.584 E.02265
G1 X40.003 Y116.874 E1.16206
G1 X39.798 Y117.159 E.01772
G1 X23.266 Y100.627 E1.17932
G1 X22.819 Y100.67 E.02265
G1 X39.593 Y117.444 E1.19658
G1 X39.388 Y117.729 E.01772
G1 X22.372 Y100.713 E1.21383
G1 X21.925 Y100.757 E.02265
G1 X39.183 Y118.014 E1.23109
G1 X38.978 Y118.299 E.01772
G1 X21.478 Y100.8 E1.24835
G1 X21.031 Y100.843 E.02265
G1 X38.773 Y118.584 E1.26561
G1 X38.568 Y118.87 E.01772
G1 X20.584 Y100.886 E1.28286
G1 X20.137 Y100.929 E.02265
G1 X38.362 Y119.155 E1.30012
G1 X38.157 Y119.44 E.01772
G1 X19.69 Y100.973 E1.31738
G1 X19.243 Y101.016 E.02265
G1 X37.952 Y119.725 E1.33464
G1 X37.747 Y120.01 E.01772
G1 X18.796 Y101.059 E1.3519
G1 X18.349 Y101.102 E.02265
G1 X37.542 Y120.295 E1.36916
G1 X37.337 Y120.581 E.01772
G1 X17.902 Y101.145 E1.38642
G1 X17.615 Y101.173 E.01456
G1 X17.615 Y101.348 E.00883
G1 X37.132 Y120.866 E1.39229
G1 X36.927 Y121.151 E.01772
G1 X17.615 Y101.839 E1.37766
G1 X17.615 Y102.329 E.02473
G1 X36.722 Y121.436 E1.36303
G1 X36.517 Y121.721 E.01772
G1 X17.615 Y102.819 E1.3484
G1 X17.615 Y103.309 E.02473
G1 X36.312 Y122.006 E1.33377
G1 X36.106 Y122.291 E.01772
G1 X17.615 Y103.799 E1.31914
G1 X17.615 Y104.29 E.02473
M73 P0 R321
G1 X35.901 Y122.577 E1.30451
G1 X35.696 Y122.862 E.01772
G1 X17.615 Y104.78 E1.28988
G1 X17.615 Y105.27 E.02473
G1 X35.491 Y123.147 E1.27525
G1 X35.286 Y123.432 E.01772
G1 X17.615 Y105.76 E1.26062
G1 X17.615 Y106.251 E.02473
G1 X35.081 Y123.717 E1.24599
G1 X34.876 Y124.002 E.01772
G1 X17.615 Y106.741 E1.23136
G1 X17.615 Y107.231 E.02473
G1 X34.671 Y124.287 E1.21673
G1 X34.466 Y124.573 E.01772
G1 X17.615 Y107.721 E1.2021
G1 X17.615 Y108.212 E.02473
G1 X34.261 Y124.858 E1.18747
G1 X34.056 Y125.143 E.01772
G1 X17.615 Y108.702 E1.17284
G1 X17.615 Y109.192 E.02473
G1 X33.851 Y125.428 E1.15821
G1 X33.645 Y125.713 E.01772
G1 X17.615 Y109.682 E1.14358
G1 X17.615 Y110.173 E.02473
G1 X33.44 Y125.998 E1.12895
G1 X33.235 Y126.284 E.01772
G1 X17.615 Y110.663 E1.11432
G1 X17.615 Y111.153 E.02473
G1 X33.03 Y126.569 E1.09969
G1 X32.825 Y126.854 E.01772
G1 X17.615 Y111.643 E1.08506
G1 X17.615 Y112.134 E.02473
G1 X32.62 Y127.139 E1.07043
G1 X32.415 Y127.424 E.01772
G1 X17.615 Y112.624 E1.0558
G1 X17.615 Y113.114 E.02473
G1 X32.21 Y127.709 E1.04117
G1 X32.011 Y128.001 E.0178
G1 X17.615 Y113.604 E1.02701
G1 X17.615 Y114.094 E.02473
G1 X31.819 Y128.299 E1.01331
G1 X31.627 Y128.598 E.01789
G1 X17.615 Y114.585 E.99962
G1 X17.615 Y115.075 E.02473
G1 X31.435 Y128.896 E.98592
G1 X31.243 Y129.194 E.01789
G1 X17.615 Y115.565 E.97222
G1 X17.615 Y116.055 E.02473
G1 X31.051 Y129.492 E.95852
G1 X30.859 Y129.79 E.01789
G1 X17.615 Y116.546 E.94483
G1 X17.615 Y117.036 E.02473
G1 X30.667 Y130.089 E.93113
G1 X30.475 Y130.387 E.01789
G1 X17.615 Y117.526 E.91743
G1 X17.615 Y118.016 E.02473
G1 X30.283 Y130.685 E.90373
G1 X30.091 Y130.983 E.01789
G1 X17.615 Y118.507 E.89004
G1 X17.615 Y118.997 E.02473
G1 X29.899 Y131.282 E.87634
G1 X29.707 Y131.58 E.01789
G1 X17.615 Y119.487 E.86264
G1 X17.615 Y119.977 E.02473
G1 X29.515 Y131.878 E.84895
G1 X29.323 Y132.176 E.01789
G1 X17.615 Y120.468 E.83525
G1 X17.615 Y120.958 E.02473
G1 X29.131 Y132.474 E.82155
G1 X28.939 Y132.773 E.01789
G1 X17.615 Y121.448 E.80785
G1 X17.615 Y121.938 E.02473
G1 X28.747 Y133.071 E.79416
G1 X28.555 Y133.369 E.01789
G1 X17.615 Y122.429 E.78046
G1 X17.615 Y122.919 E.02473
G1 X28.363 Y133.667 E.76676
G1 X28.171 Y133.966 E.01789
G1 X17.615 Y123.409 E.75306
G1 X17.615 Y123.899 E.02473
G1 X27.979 Y134.264 E.73937
G1 X27.787 Y134.562 E.01789
G1 X17.615 Y124.389 E.72567
G1 X17.615 Y124.88 E.02473
G1 X27.595 Y134.86 E.71197
G1 X27.403 Y135.158 E.01789
G1 X17.615 Y125.37 E.69827
G1 X17.615 Y125.86 E.02473
G1 X27.211 Y135.457 E.68458
G1 X27.019 Y135.755 E.01789
G1 X17.615 Y126.35 E.67088
G1 X17.615 Y126.841 E.02473
G1 X26.827 Y136.053 E.65718
G1 X26.635 Y136.351 E.01789
G1 X17.615 Y127.331 E.64348
G1 X17.615 Y127.821 E.02473
G1 X26.443 Y136.65 E.62979
G1 X26.251 Y136.948 E.01789
G1 X17.615 Y128.311 E.61609
G1 X17.615 Y128.802 E.02473
G1 X26.059 Y137.246 E.60239
G1 X25.867 Y137.544 E.01789
G1 X17.615 Y129.292 E.58869
G1 X17.615 Y129.782 E.02473
G1 X25.675 Y137.842 E.575
G1 X25.483 Y138.141 E.01789
G1 X17.615 Y130.272 E.5613
G1 X17.615 Y130.763 E.02473
G1 X25.291 Y138.439 E.5476
G1 X25.099 Y138.737 E.01789
G1 X17.615 Y131.253 E.5339
G1 X17.615 Y131.743 E.02473
G1 X24.907 Y139.035 E.52021
G1 X24.715 Y139.334 E.01789
G1 X17.615 Y132.233 E.50651
G1 X17.615 Y132.723 E.02473
G1 X24.523 Y139.632 E.49281
G1 X24.331 Y139.93 E.01789
G1 X17.615 Y133.214 E.47912
G1 X17.615 Y133.704 E.02473
G1 X24.139 Y140.228 E.46542
G1 X23.947 Y140.526 E.01789
G1 X17.615 Y134.194 E.45172
G1 X17.615 Y134.684 E.02473
G1 X23.755 Y140.825 E.43802
G1 X23.563 Y141.123 E.01789
G1 X17.615 Y135.175 E.42433
G1 X17.615 Y135.665 E.02473
G1 X23.371 Y141.421 E.41063
G1 X23.179 Y141.719 E.01789
G1 X17.615 Y136.155 E.39693
G1 X17.615 Y136.645 E.02473
G1 X22.987 Y142.018 E.38323
G1 X22.795 Y142.316 E.01789
G1 X17.615 Y137.136 E.36954
G1 X17.615 Y137.626 E.02473
G1 X22.603 Y142.614 E.35584
G1 X22.411 Y142.912 E.01789
G1 X17.615 Y138.116 E.34214
G1 X17.615 Y138.606 E.02473
G1 X22.219 Y143.211 E.32844
G1 X22.027 Y143.509 E.01789
G1 X17.615 Y139.097 E.31475
G1 X17.615 Y139.587 E.02473
G1 X21.835 Y143.807 E.30105
G1 X21.643 Y144.105 E.01789
G1 X17.615 Y140.077 E.28735
G1 X17.615 Y140.567 E.02473
G1 X21.451 Y144.403 E.27365
G1 X21.259 Y144.702 E.01789
G1 X17.615 Y141.058 E.25996
G1 X17.615 Y141.548 E.02473
G1 X21.067 Y145 E.24626
G1 X20.875 Y145.298 E.01789
G1 X17.615 Y142.038 E.23256
G1 X17.615 Y142.528 E.02473
G1 X20.683 Y145.596 E.21886
G1 X20.491 Y145.895 E.01789
G1 X17.615 Y143.018 E.20517
G1 X17.615 Y143.509 E.02473
G1 X20.299 Y146.193 E.19147
G1 X20.107 Y146.491 E.01789
G1 X17.615 Y143.999 E.17777
G1 X17.615 Y144.489 E.02473
G1 X19.915 Y146.789 E.16407
G1 X19.723 Y147.087 E.01789
G1 X17.615 Y144.979 E.15038
G1 X17.615 Y145.47 E.02473
G1 X19.531 Y147.386 E.13668
G1 X19.339 Y147.684 E.01789
G1 X17.615 Y145.96 E.12298
G1 X17.615 Y146.45 E.02473
G1 X19.146 Y147.982 E.10929
G1 X18.954 Y148.28 E.01789
G1 X17.615 Y146.94 E.09559
G1 X17.615 Y147.431 E.02473
G1 X18.762 Y148.579 E.08189
G1 X18.57 Y148.877 E.01789
G1 X17.615 Y147.921 E.06819
G1 X17.615 Y148.411 E.02473
G1 X18.378 Y149.175 E.0545
G1 X18.186 Y149.473 E.01789
G1 X17.615 Y148.901 E.0408
G1 X17.615 Y149.392 E.02473
G1 X17.994 Y149.771 E.0271
G1 X17.802 Y150.07 E.01789
G1 X17.459 Y149.727 E.02447
G1 E-.7 F3600
;WIPE_START
G1 F6240
G1 X17.802 Y150.07 E-.26593
G1 X17.821 Y150.04 E-.01907
;WIPE_END
G1 E-.015 F3600
G1 X161.844 Y17.283 F7800
G1 E1 F2400
;WIDTH:0.420865
G1 F1800
G1 X162.388 Y17.827 E.03869
G1 X162.388 Y18.316 E.0246
G1 X161.51 Y17.439 E.06244
G1 X161.021 Y17.439 E.0246
G1 X162.388 Y18.805 E.09723
G1 X162.388 Y19.294 E.0246
G1 X160.532 Y17.439 E.13203
G1 X160.043 Y17.439 E.0246
G1 X162.388 Y19.783 E.16682
G1 X162.388 Y20.272 E.0246
G1 X159.554 Y17.439 E.20161
G1 X159.065 Y17.439 E.0246
G1 X162.388 Y20.761 E.2364
G1 X162.388 Y21.25 E.0246
G1 X158.576 Y17.439 E.27119
G1 X158.087 Y17.439 E.0246
G1 X162.388 Y21.739 E.30598
G1 X162.388 Y22.228 E.0246
G1 X157.598 Y17.439 E.34077
G1 X157.109 Y17.439 E.0246
G1 X162.388 Y22.717 E.37556
G1 X162.388 Y23.206 E.0246
G1 X156.62 Y17.439 E.41035
G1 X156.131 Y17.439 E.0246
G1 X162.388 Y23.695 E.44514
G1 X162.388 Y24.184 E.0246
G1 X155.642 Y17.439 E.47993
G1 X155.153 Y17.439 E.0246
G1 X162.388 Y24.673 E.51473
G1 X162.388 Y25.162 E.0246
G1 X154.664 Y17.439 E.54952
G1 X154.175 Y17.439 E.0246
G1 X162.388 Y25.651 E.58431
G1 X162.388 Y26.14 E.0246
G1 X153.686 Y17.439 E.6191
G1 X153.197 Y17.439 E.0246
G1 X162.388 Y26.629 E.65389
G1 X162.388 Y27.118 E.0246
G1 X152.708 Y17.439 E.68868
G1 X152.219 Y17.439 E.0246
G1 X162.388 Y27.607 E.72347
G1 X162.388 Y28.096 E.0246
G1 X151.731 Y17.439 E.75826
G1 X151.242 Y17.439 E.0246
G1 X162.388 Y28.585 E.79305
G1 X162.388 Y29.073 E.0246
G1 X150.753 Y17.439 E.82784
G1 X150.264 Y17.439 E.0246
G1 X162.388 Y29.562 E.86264
G1 X162.388 Y30.051 E.0246
G1 X149.775 Y17.439 E.89743
G1 X149.286 Y17.439 E.0246
G1 X162.388 Y30.54 E.93222
G1 X162.388 Y31.029 E.0246
G1 X148.797 Y17.439 E.96701
G1 X148.308 Y17.439 E.0246
G1 X162.388 Y31.518 E1.0018
G1 X162.388 Y32.007 E.0246
G1 X147.819 Y17.439 E1.03659
G1 X147.33 Y17.439 E.0246
M73 P0 R320
G1 X162.388 Y32.496 E1.07138
G1 X162.388 Y32.985 E.0246
G1 X146.841 Y17.439 E1.10617
G1 X146.352 Y17.439 E.0246
G1 X162.388 Y33.474 E1.14096
G1 X162.388 Y33.963 E.0246
G1 X145.863 Y17.439 E1.17575
G1 X145.374 Y17.439 E.0246
G1 X162.388 Y34.452 E1.21055
G1 X162.388 Y34.941 E.0246
G1 X144.885 Y17.439 E1.24534
G1 X144.396 Y17.439 E.0246
G1 X162.388 Y35.43 E1.28013
G1 X162.388 Y35.919 E.0246
G1 X143.907 Y17.439 E1.31492
G1 X143.418 Y17.439 E.0246
G1 X162.388 Y36.408 E1.34971
G1 X162.388 Y36.897 E.0246
G1 X142.929 Y17.439 E1.3845
G1 X142.44 Y17.439 E.0246
G1 X162.388 Y37.386 E1.41929
G1 X162.388 Y37.875 E.0246
G1 X141.951 Y17.439 E1.45408
G1 X141.462 Y17.439 E.0246
G1 X162.388 Y38.364 E1.48887
G1 X162.388 Y38.853 E.0246
G1 X140.973 Y17.439 E1.52366
G1 X140.484 Y17.439 E.0246
G1 X162.388 Y39.342 E1.55845
G1 X162.388 Y39.831 E.0246
G1 X139.995 Y17.439 E1.59325
G1 X139.506 Y17.439 E.0246
G1 X162.388 Y40.32 E1.62804
G1 X162.388 Y40.809 E.0246
G1 X139.017 Y17.439 E1.66283
G1 X138.528 Y17.439 E.0246
G1 X162.388 Y41.298 E1.69762
G1 X162.388 Y41.787 E.0246
G1 X138.039 Y17.439 E1.73241
G1 X137.55 Y17.439 E.0246
G1 X162.388 Y42.276 E1.7672
G1 X162.388 Y42.765 E.0246
G1 X137.061 Y17.439 E1.80199
G1 X136.572 Y17.439 E.0246
G1 X162.388 Y43.254 E1.83678
G1 X162.388 Y43.743 E.0246
G1 X136.083 Y17.439 E1.87157
G1 X135.595 Y17.439 E.0246
G1 X162.388 Y44.232 E1.90636
G1 X162.388 Y44.721 E.0246
G1 X135.106 Y17.439 E1.94116
G1 X134.617 Y17.439 E.0246
G1 X162.388 Y45.209 E1.97595
G1 X162.388 Y45.698 E.0246
G1 X134.128 Y17.439 E2.01074
G1 X133.639 Y17.439 E.0246
G1 X162.388 Y46.187 E2.04553
G1 X162.388 Y46.676 E.0246
G1 X133.15 Y17.439 E2.08032
G1 X132.661 Y17.439 E.0246
G1 X162.388 Y47.165 E2.11511
G1 X162.388 Y47.654 E.0246
G1 X132.172 Y17.439 E2.1499
G1 X131.683 Y17.439 E.0246
G1 X162.388 Y48.143 E2.18469
G1 X162.388 Y48.632 E.0246
G1 X131.194 Y17.439 E2.21948
G1 X130.705 Y17.439 E.0246
G1 X162.388 Y49.121 E2.25427
G1 X162.388 Y49.61 E.0246
M73 P1 R320
G1 X130.216 Y17.439 E2.28906
G1 X129.727 Y17.439 E.0246
G1 X162.388 Y50.099 E2.32386
