; generated by PrusaSlicer 2.5.0+win64 on 2022-12-07 at 00:17:15 UTC

; 

; external perimeters extrusion width = 1.00mm
; perimeters extrusion width = 1.00mm
; infill extrusion width = 1.00mm
; solid infill extrusion width = 1.00mm
; top infill extrusion width = 1.00mm
; support material extrusion width = 1.00mm
; first layer extrusion width = 0.42mm

M73 P0 R159
M107
;TYPE:Custom
G90 ; use absolute coordinates
M83 ; extruder relative mode
M140 S60 ; set final bed temp
M104 S150 ; set temporary nozzle temp to prevent oozing during homing and auto bed leveling
G4 S10 ; allow partial nozzle warmup
G28 ; home all axisG1 Z50 F240
G1 X7.6 Y10 F3000
M104 S210 ; set final nozzle temp
M190 S60 ; wait for bed temp to stabilize
M109 S210 ; wait for nozzle temp to stabilize
G1 Z0.28 F240
G92 E0
G1 Y140 E10 F1500 ; prime the nozzle
G1 X4 F5000
G92 E0
G1 Y10 E10 F1200 ; prime the nozzle
G92 E0
G21 ; set units to millimeters
G90 ; use absolute coordinates
M83 ; use relative distances for extrusion
; Filament gcode
M107
;LAYER_CHANGE
;Z:0.35
;HEIGHT:0.35
;BEFORE_LAYER_CHANGE
G92 E0
;0.35


G1 E-1 F3600
G1 Z.35 F7800
;AFTER_LAYER_CHANGE
;0.35
G1 X111.643 Y162.82
G1 E1 F2400
;TYPE:Perimeter
;WIDTH:0.42
G1 F1800
G1 X96.932 Y162.82 E.73832
G1 X87.998 Y17.18 E7.32283
G1 X102.728 Y17.18 E.73926
G1 X111.634 Y162.67 E7.31524
G1 X112.01 Y163.165 F7800
;TYPE:External perimeter
G1 F1800
G1 X96.607 Y163.165 E.773
G1 X87.631 Y16.835 E7.35751
G1 X103.053 Y16.835 E.77395
G1 X112.001 Y163.015 E7.34992
G1 X111.118 Y162.713 F7800
G1 E-.7 F3600
;WIPE_START
G1 F6240
G1 X111.481 Y163.02 E-.285
;WIPE_END
G1 E-.015 F3600
G1 X102.677 Y18.029 F7800
G1 E1 F2400
;TYPE:Solid infill
;WIDTH:0.420889
G1 F1800
G1 X102.086 Y17.438 E.04202
G1 X101.597 Y17.438 E.0246
G1 X102.543 Y18.384 E.0673
G1 X102.575 Y18.905 E.02626
G1 X101.108 Y17.438 E.10437
G1 X100.619 Y17.438 E.0246
G1 X102.607 Y19.426 E.14143
G1 X102.639 Y19.947 E.02626
G1 X100.13 Y17.438 E.1785
G1 X99.641 Y17.438 E.0246
G1 X102.671 Y20.468 E.21556
G1 X102.702 Y20.989 E.02626
G1 X99.152 Y17.438 E.25262
G1 X98.663 Y17.438 E.0246
G1 X102.734 Y21.51 E.28969
G1 X102.766 Y22.03 E.02626
G1 X98.174 Y17.438 E.32675
G1 X97.685 Y17.438 E.0246
G1 X102.798 Y22.551 E.36382
G1 X102.83 Y23.072 E.02626
G1 X97.196 Y17.438 E.40088
G1 X96.707 Y17.438 E.0246
G1 X102.862 Y23.593 E.43795
G1 X102.894 Y24.114 E.02626
G1 X96.218 Y17.438 E.47501
G1 X95.729 Y17.438 E.0246
G1 X102.926 Y24.635 E.51208
G1 X102.958 Y25.156 E.02626
G1 X95.24 Y17.438 E.54914
G1 X94.751 Y17.438 E.0246
G1 X102.989 Y25.677 E.58621
G1 X103.021 Y26.198 E.02626
M73 P0 R158
G1 X94.262 Y17.438 E.62327
G1 X93.773 Y17.438 E.0246
G1 X103.053 Y26.718 E.66034
G1 X103.085 Y27.239 E.02626
G1 X93.284 Y17.438 E.6974
G1 X92.795 Y17.438 E.0246
G1 X103.117 Y27.76 E.73446
G1 X103.149 Y28.281 E.02626
G1 X92.306 Y17.438 E.77153
G1 X91.817 Y17.438 E.0246
G1 X103.181 Y28.802 E.80859
G1 X103.213 Y29.323 E.02626
G1 X91.328 Y17.438 E.84566
G1 X90.839 Y17.438 E.0246
G1 X103.244 Y29.844 E.88272
G1 X103.276 Y30.365 E.02626
G1 X90.35 Y17.438 E.91979
G1 X89.861 Y17.438 E.0246
G1 X103.308 Y30.886 E.95685
G1 X103.34 Y31.406 E.02626
G1 X89.372 Y17.438 E.99392
G1 X88.883 Y17.438 E.0246
G1 X103.372 Y31.927 E1.03098
G1 X103.404 Y32.448 E.02626
G1 X88.394 Y17.438 E1.06805
G1 X88.273 Y17.438 E.0061
G1 X88.297 Y17.83 E.01975
G1 X103.436 Y32.969 E1.07723
G1 X103.468 Y33.49 E.02626
G1 X88.329 Y18.351 E1.07722
G1 X88.361 Y18.872 E.02626
G1 X103.5 Y34.011 E1.07722
G1 X103.531 Y34.532 E.02626
G1 X88.393 Y19.393 E1.07721
G1 X88.425 Y19.914 E.02626
G1 X103.563 Y35.053 E1.0772
G1 X103.595 Y35.574 E.02626
G1 X88.457 Y20.435 E1.0772
G1 X88.489 Y20.956 E.02626
G1 X103.627 Y36.094 E1.07719
G1 X103.659 Y36.615 E.02626
G1 X88.521 Y21.477 E1.07719
G1 X88.553 Y21.998 E.02626
G1 X103.691 Y37.136 E1.07718
G1 X103.723 Y37.657 E.02626
G1 X88.585 Y22.519 E1.07718
G1 X88.617 Y23.04 E.02626
G1 X103.755 Y38.178 E1.07717
G1 X103.787 Y38.699 E.02626
G1 X88.648 Y23.561 E1.07717
G1 X88.68 Y24.082 E.02626
G1 X103.818 Y39.22 E1.07716
G1 X103.85 Y39.741 E.02626
G1 X88.712 Y24.603 E1.07716
G1 X88.744 Y25.124 E.02626
G1 X103.882 Y40.262 E1.07715
G1 X103.914 Y40.782 E.02626
G1 X88.776 Y25.645 E1.07715
G1 X88.808 Y26.166 E.02626
G1 X103.946 Y41.303 E1.07714
G1 X103.978 Y41.824 E.02626
G1 X88.84 Y26.687 E1.07714
G1 X88.872 Y27.208 E.02626
G1 X104.01 Y42.345 E1.07713
G1 X104.042 Y42.866 E.02626
G1 X88.904 Y27.729 E1.07713
G1 X88.936 Y28.249 E.02626
G1 X104.073 Y43.387 E1.07712
G1 X104.105 Y43.908 E.02626
G1 X88.968 Y28.77 E1.07712
G1 X89 Y29.291 E.02626
G1 X104.137 Y44.429 E1.07711
G1 X104.169 Y44.95 E.02626
G1 X89.032 Y29.812 E1.07711
G1 X89.064 Y30.333 E.02626
G1 X104.201 Y45.47 E1.0771
G1 X104.233 Y45.991 E.02626
G1 X89.096 Y30.854 E1.0771
G1 X89.128 Y31.375 E.02626
G1 X104.265 Y46.512 E1.07709
G1 X104.297 Y47.033 E.02626
G1 X89.16 Y31.896 E1.07709
G1 X89.192 Y32.417 E.02626
G1 X104.329 Y47.554 E1.07708
G1 X104.36 Y48.075 E.02626
G1 X89.224 Y32.938 E1.07708
G1 X89.256 Y33.459 E.02626
G1 X104.392 Y48.596 E1.07707
G1 X104.424 Y49.117 E.02626
G1 X89.288 Y33.98 E1.07707
G1 X89.32 Y34.501 E.02626
G1 X104.456 Y49.638 E1.07706
G1 X104.488 Y50.158 E.02626
G1 X89.352 Y35.022 E1.07706
G1 X89.383 Y35.543 E.02626
G1 X104.52 Y50.679 E1.07705
G1 X104.552 Y51.2 E.02626
G1 X89.415 Y36.064 E1.07705
G1 X89.447 Y36.585 E.02626
G1 X104.584 Y51.721 E1.07704
G1 X104.616 Y52.242 E.02626
G1 X89.479 Y37.106 E1.07704
G1 X89.511 Y37.627 E.02626
G1 X104.647 Y52.763 E1.07703
G1 X104.679 Y53.284 E.02626
G1 X89.543 Y38.148 E1.07703
G1 X89.575 Y38.669 E.02626
G1 X104.711 Y53.805 E1.07702
G1 X104.743 Y54.326 E.02626
G1 X89.607 Y39.19 E1.07702
G1 X89.639 Y39.711 E.02626
G1 X104.775 Y54.846 E1.07701
G1 X104.807 Y55.367 E.02626
G1 X89.671 Y40.232 E1.07701
G1 X89.703 Y40.753 E.02626
G1 X104.839 Y55.888 E1.077
G1 X104.871 Y56.409 E.02626
G1 X89.735 Y41.273 E1.077
G1 X89.767 Y41.794 E.02626
G1 X104.902 Y56.93 E1.07699
G1 X104.934 Y57.451 E.02626
G1 X89.799 Y42.315 E1.07699
G1 X89.831 Y42.836 E.02626
G1 X104.966 Y57.972 E1.07698
G1 X104.998 Y58.493 E.02626
G1 X89.863 Y43.357 E1.07698
G1 X89.895 Y43.878 E.02626
G1 X105.03 Y59.014 E1.07697
G1 X105.062 Y59.534 E.02626
G1 X89.927 Y44.399 E1.07697
G1 X89.959 Y44.92 E.02626
G1 X105.094 Y60.055 E1.07696
G1 X105.126 Y60.576 E.02626
G1 X89.991 Y45.441 E1.07696
G1 X90.023 Y45.962 E.02626
G1 X105.158 Y61.097 E1.07695
G1 X105.189 Y61.618 E.02626
G1 X90.055 Y46.483 E1.07695
G1 X90.086 Y47.004 E.02626
G1 X105.221 Y62.139 E1.07694
G1 X105.253 Y62.66 E.02626
G1 X90.118 Y47.525 E1.07694
G1 X90.15 Y48.046 E.02626
G1 X105.285 Y63.181 E1.07693
G1 X105.317 Y63.702 E.02626
G1 X90.182 Y48.567 E1.07693
G1 X90.214 Y49.088 E.02626
M73 P1 R158
G1 X105.349 Y64.222 E1.07692
G1 X105.381 Y64.743 E.02626
G1 X90.246 Y49.609 E1.07692
G1 X90.278 Y50.13 E.02626
G1 X105.413 Y65.264 E1.07691
G1 X105.445 Y65.785 E.02626
G1 X90.31 Y50.651 E1.07691
G1 X90.342 Y51.172 E.02626
G1 X105.476 Y66.306 E1.0769
G1 X105.508 Y66.827 E.02626
G1 X90.374 Y51.693 E1.0769
G1 X90.406 Y52.214 E.02626
G1 X105.54 Y67.348 E1.07689
G1 X105.572 Y67.869 E.02626
M73 P1 R157
G1 X90.438 Y52.735 E1.07688
G1 X90.47 Y53.256 E.02626
G1 X105.604 Y68.39 E1.07688
G1 X105.636 Y68.91 E.02626
G1 X90.502 Y53.777 E1.07687
G1 X90.534 Y54.297 E.02626
G1 X105.668 Y69.431 E1.07687
G1 X105.7 Y69.952 E.02626
G1 X90.566 Y54.818 E1.07686
G1 X90.598 Y55.339 E.02626
G1 X105.731 Y70.473 E1.07686
G1 X105.763 Y70.994 E.02626
G1 X90.63 Y55.86 E1.07685
G1 X90.662 Y56.381 E.02626
G1 X105.795 Y71.515 E1.07685
G1 X105.827 Y72.036 E.02626
G1 X90.694 Y56.902 E1.07684
G1 X90.726 Y57.423 E.02626
G1 X105.859 Y72.557 E1.07684
G1 X105.891 Y73.078 E.02626
G1 X90.758 Y57.944 E1.07683
G1 X90.79 Y58.465 E.02626
G1 X105.923 Y73.598 E1.07683
G1 X105.955 Y74.119 E.02626
G1 X90.821 Y58.986 E1.07682
G1 X90.853 Y59.507 E.02626
G1 X105.987 Y74.64 E1.07682
G1 X106.018 Y75.161 E.02626
G1 X90.885 Y60.028 E1.07681
G1 X90.917 Y60.549 E.02626
G1 X106.05 Y75.682 E1.07681
G1 X106.082 Y76.203 E.02626
G1 X90.949 Y61.07 E1.0768
G1 X90.981 Y61.591 E.02626
G1 X106.114 Y76.724 E1.0768
G1 X106.146 Y77.245 E.02626
G1 X91.013 Y62.112 E1.07679
G1 X91.045 Y62.633 E.02626
G1 X106.178 Y77.766 E1.07679
G1 X106.21 Y78.286 E.02626
G1 X91.077 Y63.154 E1.07678
G1 X91.109 Y63.675 E.02626
G1 X106.242 Y78.807 E1.07678
G1 X106.274 Y79.328 E.02626
G1 X91.141 Y64.196 E1.07677
G1 X91.173 Y64.717 E.02626
G1 X106.305 Y79.849 E1.07677
G1 X106.337 Y80.37 E.02626
G1 X91.205 Y65.238 E1.07676
G1 X91.237 Y65.759 E.02626
G1 X106.369 Y80.891 E1.07676
G1 X106.401 Y81.412 E.02626
G1 X91.269 Y66.28 E1.07675
G1 X91.301 Y66.801 E.02626
G1 X106.433 Y81.933 E1.07675
G1 X106.465 Y82.454 E.02626
G1 X91.333 Y67.321 E1.07674
G1 X91.365 Y67.842 E.02626
G1 X106.497 Y82.974 E1.07674
G1 X106.529 Y83.495 E.02626
G1 X91.397 Y68.363 E1.07673
G1 X91.429 Y68.884 E.02626
G1 X106.56 Y84.016 E1.07673
G1 X106.592 Y84.537 E.02626
G1 X91.461 Y69.405 E1.07672
G1 X91.493 Y69.926 E.02626
G1 X106.624 Y85.058 E1.07672
G1 X106.656 Y85.579 E.02626
G1 X91.525 Y70.447 E1.07671
G1 X91.556 Y70.968 E.02626
G1 X106.688 Y86.1 E1.07671
G1 X106.72 Y86.621 E.02626
G1 X91.588 Y71.489 E1.0767
G1 X91.62 Y72.01 E.02626
G1 X106.752 Y87.142 E1.0767
G1 X106.784 Y87.662 E.02626
G1 X91.652 Y72.531 E1.07669
G1 X91.684 Y73.052 E.02626
G1 X106.816 Y88.183 E1.07669
G1 X106.847 Y88.704 E.02626
G1 X91.716 Y73.573 E1.07668
G1 X91.748 Y74.094 E.02626
G1 X106.879 Y89.225 E1.07668
G1 X106.911 Y89.746 E.02626
G1 X91.78 Y74.615 E1.07667
G1 X91.812 Y75.136 E.02626
G1 X106.943 Y90.267 E1.07667
G1 X106.975 Y90.788 E.02626
G1 X91.844 Y75.657 E1.07666
G1 X91.876 Y76.178 E.02626
G1 X107.007 Y91.309 E1.07666
G1 X107.039 Y91.83 E.02626
G1 X91.908 Y76.699 E1.07665
G1 X91.94 Y77.22 E.02626
G1 X107.071 Y92.35 E1.07665
G1 X107.103 Y92.871 E.02626
G1 X91.972 Y77.741 E1.07664
G1 X92.004 Y78.262 E.02626
G1 X107.134 Y93.392 E1.07664
G1 X107.166 Y93.913 E.02626
G1 X92.036 Y78.783 E1.07663
G1 X92.068 Y79.304 E.02626
G1 X107.198 Y94.434 E1.07663
G1 X107.23 Y94.955 E.02626
G1 X92.1 Y79.825 E1.07662
G1 X92.132 Y80.345 E.02626
G1 X107.262 Y95.476 E1.07662
G1 X107.294 Y95.997 E.02626
G1 X92.164 Y80.866 E1.07661
G1 X92.196 Y81.387 E.02626
G1 X107.326 Y96.518 E1.07661
G1 X107.358 Y97.038 E.02626
G1 X92.228 Y81.908 E1.0766
G1 X92.26 Y82.429 E.02626
G1 X107.389 Y97.559 E1.0766
G1 X107.421 Y98.08 E.02626
G1 X92.291 Y82.95 E1.07659
G1 X92.323 Y83.471 E.02626
G1 X107.453 Y98.601 E1.07659
G1 X107.485 Y99.122 E.02626
G1 X92.355 Y83.992 E1.07658
G1 X92.387 Y84.513 E.02626
G1 X107.517 Y99.643 E1.07658
G1 X107.549 Y100.164 E.02626
G1 X92.419 Y85.034 E1.07657
G1 X92.451 Y85.555 E.02626
G1 X107.581 Y100.685 E1.07657
G1 X107.613 Y101.206 E.02626
G1 X92.483 Y86.076 E1.07656
G1 X92.515 Y86.597 E.02626
G1 X107.645 Y101.726 E1.07655
G1 X107.676 Y102.247 E.02626
G1 X92.547 Y87.118 E1.07655
G1 X92.579 Y87.639 E.02626
G1 X107.708 Y102.768 E1.07654
G1 X107.74 Y103.289 E.02626
G1 X92.611 Y88.16 E1.07654
G1 X92.643 Y88.681 E.02626
G1 X107.772 Y103.81 E1.07653
G1 X107.804 Y104.331 E.02626
G1 X92.675 Y89.202 E1.07653
G1 X92.707 Y89.723 E.02626
G1 X107.836 Y104.852 E1.07652
G1 X107.868 Y105.373 E.02626
G1 X92.739 Y90.244 E1.07652
G1 X92.771 Y90.765 E.02626
G1 X107.9 Y105.894 E1.07651
G1 X107.932 Y106.414 E.02626
G1 X92.803 Y91.286 E1.07651
G1 X92.835 Y91.807 E.02626
G1 X107.963 Y106.935 E1.0765
G1 X107.995 Y107.456 E.02626
G1 X92.867 Y92.328 E1.0765
G1 X92.899 Y92.849 E.02626
M73 P1 R156
G1 X108.027 Y107.977 E1.07649
G1 X108.059 Y108.498 E.02626
G1 X92.931 Y93.369 E1.07649
G1 X92.963 Y93.89 E.02626
G1 X108.091 Y109.019 E1.07648
G1 X108.123 Y109.54 E.02626
G1 X92.994 Y94.411 E1.07648
G1 X93.026 Y94.932 E.02626
G1 X108.155 Y110.061 E1.07647
G1 X108.187 Y110.582 E.02626
G1 X93.058 Y95.453 E1.07647
G1 X93.09 Y95.974 E.02626
G1 X108.218 Y111.102 E1.07646
G1 X108.25 Y111.623 E.02626
G1 X93.122 Y96.495 E1.07646
G1 X93.154 Y97.016 E.02626
G1 X108.282 Y112.144 E1.07645
G1 X108.314 Y112.665 E.02626
G1 X93.186 Y97.537 E1.07645
G1 X93.218 Y98.058 E.02626
G1 X108.346 Y113.186 E1.07644
G1 X108.378 Y113.707 E.02626
G1 X93.25 Y98.579 E1.07644
G1 X93.282 Y99.1 E.02626
G1 X108.41 Y114.228 E1.07643
G1 X108.442 Y114.749 E.02626
G1 X93.314 Y99.621 E1.07643
G1 X93.346 Y100.142 E.02626
G1 X108.474 Y115.27 E1.07642
G1 X108.505 Y115.79 E.02626
G1 X93.378 Y100.663 E1.07642
G1 X93.41 Y101.184 E.02626
G1 X108.537 Y116.311 E1.07641
G1 X108.569 Y116.832 E.02626
G1 X93.442 Y101.705 E1.07641
G1 X93.474 Y102.226 E.02626
G1 X108.601 Y117.353 E1.0764
G1 X108.633 Y117.874 E.02626
G1 X93.506 Y102.747 E1.0764
G1 X93.538 Y103.268 E.02626
G1 X108.665 Y118.395 E1.07639
G1 X108.697 Y118.916 E.02626
G1 X93.57 Y103.789 E1.07639
G1 X93.602 Y104.31 E.02626
G1 X108.729 Y119.437 E1.07638
G1 X108.761 Y119.958 E.02626
G1 X93.634 Y104.831 E1.07638
G1 X93.666 Y105.352 E.02626
G1 X108.792 Y120.478 E1.07637
G1 X108.824 Y120.999 E.02626
G1 X93.698 Y105.873 E1.07637
G1 X93.729 Y106.393 E.02626
G1 X108.856 Y121.52 E1.07636
G1 X108.888 Y122.041 E.02626
G1 X93.761 Y106.914 E1.07636
G1 X93.793 Y107.435 E.02626
G1 X108.92 Y122.562 E1.07635
G1 X108.952 Y123.083 E.02626
G1 X93.825 Y107.956 E1.07635
G1 X93.857 Y108.477 E.02626
G1 X108.984 Y123.604 E1.07634
G1 X109.016 Y124.125 E.02626
G1 X93.889 Y108.998 E1.07634
G1 X93.921 Y109.519 E.02626
G1 X109.047 Y124.646 E1.07633
G1 X109.079 Y125.166 E.02626
G1 X93.953 Y110.04 E1.07633
G1 X93.985 Y110.561 E.02626
G1 X109.111 Y125.687 E1.07632
G1 X109.143 Y126.208 E.02626
G1 X94.017 Y111.082 E1.07632
G1 X94.049 Y111.603 E.02626
G1 X109.175 Y126.729 E1.07631
G1 X109.207 Y127.25 E.02626
G1 X94.081 Y112.124 E1.07631
G1 X94.113 Y112.645 E.02626
G1 X109.239 Y127.771 E1.0763
G1 X109.271 Y128.292 E.02626
M73 P2 R156
G1 X94.145 Y113.166 E1.0763
G1 X94.177 Y113.687 E.02626
G1 X109.303 Y128.813 E1.07629
G1 X109.334 Y129.334 E.02626
G1 X94.209 Y114.208 E1.07629
G1 X94.241 Y114.729 E.02626
G1 X109.366 Y129.854 E1.07628
G1 X109.398 Y130.375 E.02626
G1 X94.273 Y115.25 E1.07628
G1 X94.305 Y115.771 E.02626
G1 X109.43 Y130.896 E1.07627
G1 X109.462 Y131.417 E.02626
G1 X94.337 Y116.292 E1.07627
G1 X94.369 Y116.813 E.02626
G1 X109.494 Y131.938 E1.07626
G1 X109.526 Y132.459 E.02626
G1 X94.401 Y117.334 E1.07626
G1 X94.433 Y117.855 E.02626
G1 X109.558 Y132.98 E1.07625
G1 X109.59 Y133.501 E.02626
G1 X94.464 Y118.376 E1.07625
G1 X94.496 Y118.897 E.02626
G1 X109.621 Y134.022 E1.07624
G1 X109.653 Y134.542 E.02626
G1 X94.528 Y119.417 E1.07624
G1 X94.56 Y119.938 E.02626
G1 X109.685 Y135.063 E1.07623
G1 X109.717 Y135.584 E.02626
G1 X94.592 Y120.459 E1.07622
G1 X94.624 Y120.98 E.02626
G1 X109.749 Y136.105 E1.07622
G1 X109.781 Y136.626 E.02626
G1 X94.656 Y121.501 E1.07621
G1 X94.688 Y122.022 E.02626
G1 X109.813 Y137.147 E1.07621
G1 X109.845 Y137.668 E.02626
G1 X94.72 Y122.543 E1.0762
G1 X94.752 Y123.064 E.02626
G1 X109.876 Y138.189 E1.0762
G1 X109.908 Y138.71 E.02626
G1 X94.784 Y123.585 E1.07619
G1 X94.816 Y124.106 E.02626
G1 X109.94 Y139.23 E1.07619
G1 X109.972 Y139.751 E.02626
G1 X94.848 Y124.627 E1.07618
G1 X94.88 Y125.148 E.02626
G1 X110.004 Y140.272 E1.07618
G1 X110.036 Y140.793 E.02626
G1 X94.912 Y125.669 E1.07617
G1 X94.944 Y126.19 E.02626
G1 X110.068 Y141.314 E1.07617
G1 X110.1 Y141.835 E.02626
G1 X94.976 Y126.711 E1.07616
G1 X95.008 Y127.232 E.02626
G1 X110.132 Y142.356 E1.07616
G1 X110.163 Y142.877 E.02626
G1 X95.04 Y127.753 E1.07615
G1 X95.072 Y128.274 E.02626
G1 X110.195 Y143.398 E1.07615
G1 X110.227 Y143.918 E.02626
G1 X95.104 Y128.795 E1.07614
G1 X95.136 Y129.316 E.02626
G1 X110.259 Y144.439 E1.07614
G1 X110.291 Y144.96 E.02626
G1 X95.168 Y129.837 E1.07613
G1 X95.199 Y130.358 E.02626
G1 X110.323 Y145.481 E1.07613
G1 X110.355 Y146.002 E.02626
G1 X95.231 Y130.879 E1.07612
G1 X95.263 Y131.4 E.02626
G1 X110.387 Y146.523 E1.07612
G1 X110.419 Y147.044 E.02626
G1 X95.295 Y131.921 E1.07611
G1 X95.327 Y132.441 E.02626
G1 X110.45 Y147.565 E1.07611
G1 X110.482 Y148.086 E.02626
G1 X95.359 Y132.962 E1.0761
G1 X95.391 Y133.483 E.02626
M73 P2 R155
G1 X110.514 Y148.606 E1.0761
G1 X110.546 Y149.127 E.02626
G1 X95.423 Y134.004 E1.07609
G1 X95.455 Y134.525 E.02626
G1 X110.578 Y149.648 E1.07609
