; generated by PrusaSlicer 2.5.0+win64 on 2022-12-07 at 00:17:18 UTC

; 

; external perimeters extrusion width = 1.00mm
; perimeters extrusion width = 1.00mm
; infill extrusion width = 1.00mm
; solid infill extrusion width = 1.00mm
; top infill extrusion width = 1.00mm
; support material extrusion width = 1.00mm
; first layer extrusion width = 0.42mm

M73 P0 R115
M107
;TYPE:Custom
G90 ; use absolute coordinates
M83 ; extruder relative mode
M140 S60 ; set final bed temp
M104 S150 ; set temporary nozzle temp to prevent oozing during homing and auto bed leveling
G4 S10 ; allow partial nozzle warmup
G28 ; home all axisG1 Z50 F240
G1 X7.6 Y10 F3000
M104 S210 ; set final nozzle temp
M190 S60 ; wait for bed temp to stabilize
M109 S210 ; wait for nozzle temp to stabilize
G1 Z0.28 F240
G92 E0
G1 Y140 E10 F1500 ; prime the nozzle
G1 X4 F5000
G92 E0
G1 Y10 E10 F1200 ; prime the nozzle
G92 E0
G21 ; set units to millimeters
G90 ; use absolute coordinates
M83 ; use relative distances for extrusion
; Filament gcode
M107
;LAYER_CHANGE
;Z:0.35
;HEIGHT:0.35
;BEFORE_LAYER_CHANGE
G92 E0
;0.35


G1 E-1 F3600
G1 Z.35 F7800
;AFTER_LAYER_CHANGE
;0.35
G1 X167.876 Y99.969
G1 E1 F2400
;TYPE:Support material
;WIDTH:0.42
G1 F1800
G1 X164.483 Y99.969 E.17027
G1 X164.483 Y106.754 E.34053
G1 X161.09 Y106.754 E.17027
G1 X161.09 Y120.325 E.68106
G1 X157.698 Y120.325 E.17027
G1 X157.698 Y133.896 E.68106
G1 X154.305 Y133.896 E.17027
G1 X154.305 Y137.288 E.17027
G1 X144.44 Y137.288 E.49509
G1 X144.44 Y133.896 E.17027
G1 X141.047 Y133.896 E.17027
G1 X141.047 Y117.245 E.83563
G1 X144.44 Y117.245 E.17027
G1 X144.44 Y107.067 E.5108
G1 X147.832 Y107.067 E.17027
G1 X147.832 Y100.281 E.34053
G1 X151.225 Y100.281 E.17027
G1 X151.225 Y90.103 E.5108
G1 X158.01 Y90.103 E.34053
G1 X158.01 Y32.427 E2.89452
G1 X167.876 Y32.427 E.49509
G1 X167.876 Y99.917 E3.38702
G1 X167.408 Y99.813 F7800
G1 F1800
G1 X167.408 Y32.738 E3.36625
G1 X167.025 Y32.738 E.01923
G1 X167.025 Y99.658 E3.35846
G1 X166.642 Y99.658 E.01923
G1 X166.642 Y32.738 E3.35846
G1 X166.259 Y32.738 E.01923
G1 X166.259 Y99.658 E3.35846
G1 X165.876 Y99.658 E.01923
G1 X165.876 Y32.738 E3.35846
G1 X165.492 Y32.738 E.01923
G1 X165.492 Y99.658 E3.35846
G1 X165.109 Y99.658 E.01923
M73 P0 R114
G1 X165.109 Y32.738 E3.35846
G1 X164.726 Y32.738 E.01923
G1 X164.726 Y99.658 E3.35846
G1 X164.343 Y99.658 E.01923
G1 X164.343 Y32.738 E3.35846
G1 X163.96 Y32.738 E.01923
G1 X163.96 Y106.444 E3.69899
G1 X163.576 Y106.444 E.01923
G1 X163.576 Y32.738 E3.69899
G1 X163.193 Y32.738 E.01923
G1 X163.193 Y106.444 E3.69899
G1 X162.81 Y106.444 E.01923
G1 X162.81 Y32.738 E3.69899
G1 X162.427 Y32.738 E.01923
G1 X162.427 Y106.444 E3.69899
G1 X162.043 Y106.444 E.01923
G1 X162.043 Y32.738 E3.69899
G1 X161.66 Y32.738 E.01923
G1 X161.66 Y106.444 E3.69899
G1 X161.277 Y106.444 E.01923
G1 X161.277 Y32.738 E3.69899
G1 X160.894 Y32.738 E.01923
G1 X160.894 Y106.444 E3.69899
G1 X160.78 Y106.444 E.00572
G1 X160.78 Y120.014 E.68106
G1 X160.511 Y120.014 E.01351
G1 X160.511 Y32.738 E4.38005
G1 X160.127 Y32.738 E.01923
M73 P1 R114
G1 X160.127 Y120.014 E4.38005
G1 X159.744 Y120.014 E.01923
G1 X159.744 Y32.738 E4.38005
G1 X159.361 Y32.738 E.01923
G1 X159.361 Y120.014 E4.38005
G1 X158.978 Y120.014 E.01923
G1 X158.978 Y32.738 E4.38005
G1 X158.595 Y32.738 E.01923
G1 X158.595 Y120.014 E4.38005
G1 X158.211 Y120.014 E.01923
G1 X158.211 Y90.414 E1.48553
G1 X157.828 Y90.414 E.01923
G1 X157.828 Y120.014 E1.48553
G1 X157.445 Y120.014 E.01923
G1 X157.445 Y90.414 E1.48553
G1 X157.062 Y90.414 E.01923
G1 X157.062 Y133.585 E2.1666
G1 X156.679 Y133.585 E.01923
G1 X156.679 Y90.414 E2.1666
G1 X156.295 Y90.414 E.01923
G1 X156.295 Y133.585 E2.1666
G1 X155.912 Y133.585 E.01923
G1 X155.912 Y90.414 E2.1666
G1 X155.529 Y90.414 E.01923
G1 X155.529 Y133.585 E2.1666
G1 X155.146 Y133.585 E.01923
G1 X155.146 Y90.414 E2.1666
G1 X154.762 Y90.414 E.01923
M73 P1 R113
G1 X154.762 Y133.585 E2.1666
G1 X154.379 Y133.585 E.01923
G1 X154.379 Y90.414 E2.1666
G1 X153.996 Y90.414 E.01923
G1 X153.994 Y136.978 E2.33686
G1 X153.613 Y136.978 E.01915
G1 X153.613 Y90.414 E2.33686
G1 X153.23 Y90.414 E.01923
G1 X153.23 Y136.978 E2.33686
G1 X152.846 Y136.978 E.01923
G1 X152.846 Y90.414 E2.33686
G1 X152.463 Y90.414 E.01923
G1 X152.463 Y136.978 E2.33686
G1 X152.08 Y136.978 E.01923
G1 X152.08 Y90.414 E2.33686
G1 X151.697 Y90.414 E.01923
G1 X151.697 Y136.978 E2.33686
G1 X151.314 Y136.978 E.01923
G1 X151.314 Y100.592 E1.82606
G1 X150.93 Y100.592 E.01923
G1 X150.93 Y136.978 E1.82606
G1 X150.547 Y136.978 E.01923
G1 X150.547 Y100.592 E1.82606
G1 X150.164 Y100.592 E.01923
G1 X150.164 Y136.978 E1.82606
G1 X149.781 Y136.978 E.01923
G1 X149.781 Y100.592 E1.82606
G1 X149.398 Y100.592 E.01923
G1 X149.398 Y136.978 E1.82606
G1 X149.014 Y136.978 E.01923
G1 X149.014 Y100.592 E1.82606
G1 X148.631 Y100.592 E.01923
G1 X148.631 Y136.978 E1.82606
G1 X148.248 Y136.978 E.01923
G1 X148.248 Y100.592 E1.82606
G1 X148.143 Y100.592 E.00528
G1 X148.143 Y107.377 E.34053
G1 X147.865 Y107.377 E.01395
G1 X147.865 Y136.978 E1.48553
G1 X147.481 Y136.978 E.01923
G1 X147.481 Y107.377 E1.48553
G1 X147.098 Y107.377 E.01923
G1 X147.098 Y136.978 E1.48553
G1 X146.715 Y136.978 E.01923
G1 X146.715 Y107.377 E1.48553
G1 X146.332 Y107.377 E.01923
G1 X146.332 Y136.978 E1.48553
G1 X145.949 Y136.978 E.01923
G1 X145.949 Y107.377 E1.48553
G1 X145.565 Y107.377 E.01923
G1 X145.565 Y136.978 E1.48553
G1 X145.182 Y136.978 E.01923
G1 X145.182 Y107.377 E1.48553
G1 X144.799 Y107.377 E.01923
G1 X144.799 Y136.978 E1.48553
G1 X144.75 Y136.978 E.00246
G1 X144.75 Y133.585 E.17027
G1 X144.416 Y133.585 E.01677
G1 X144.416 Y117.555 E.80447
G1 X144.033 Y117.555 E.01923
G1 X144.033 Y133.585 E.80447
G1 X143.649 Y133.585 E.01923
G1 X143.649 Y117.555 E.80447
G1 X143.266 Y117.555 E.01923
G1 X143.266 Y133.585 E.80447
G1 X142.883 Y133.585 E.01923
G1 X142.883 Y117.555 E.80447
G1 X142.5 Y117.555 E.01923
G1 X142.5 Y133.585 E.80447
G1 X142.117 Y133.585 E.01923
G1 X142.117 Y117.555 E.80447
G1 X141.733 Y117.555 E.01923
G1 X141.733 Y133.74 E.81226
G1 E-.7 F3600
;WIPE_START
G1 F6240
G1 X141.733 Y133.22 E-.285
;WIPE_END
G1 E-.015 F3600
G1 X17.355 Y81.207 F7800
G1 E1 F2400
;TYPE:Perimeter
;WIDTH:0.42
M73 P2 R113
G1 F1800
G1 X17.355 Y59.46 E1.09135
G1 X38.097 Y37.253 E1.52504
G1 X58.406 Y37.253 E1.01923
G1 X17.457 Y81.097 E3.01079
G1 X17.01 Y82.081 F7800
;TYPE:External perimeter
G1 F1800
G1 X17.01 Y59.324 E1.14207
G1 X37.947 Y36.908 E1.53938
G1 X59.2 Y36.908 E1.0666
G1 X17.112 Y81.971 E3.09453
G1 X17.154 Y81.092 F7800
G1 E-.7 F3600
;WIPE_START
G1 F6240
G1 X17.11 Y81.451 E-.285
;WIPE_END
G1 E-.015 F3600
G1 X57.842 Y37.705 F7800
G1 E1 F2400
;TYPE:Solid infill
;WIDTH:0.420144
G1 F1800
G1 X57.648 Y37.511 E.01376
G1 X57.16 Y37.511 E.0245
G1 X57.497 Y37.848 E.02388
G1 X57.261 Y38.1 E.01733
G1 X56.672 Y37.511 E.0418
G1 X56.184 Y37.511 E.0245
G1 X57.025 Y38.352 E.05971
G1 X56.79 Y38.605 E.01733
G1 X55.696 Y37.511 E.07763
G1 X55.208 Y37.511 E.0245
G1 X56.554 Y38.857 E.09554
G1 X56.318 Y39.109 E.01733
G1 X54.721 Y37.511 E.11345
G1 X54.233 Y37.511 E.0245
G1 X56.083 Y39.362 E.13137
G1 X55.847 Y39.614 E.01733
G1 X53.745 Y37.511 E.14928
G1 X53.257 Y37.511 E.0245
G1 X55.611 Y39.866 E.1672
G1 X55.376 Y40.119 E.01733
G1 X52.769 Y37.511 E.18511
G1 X52.281 Y37.511 E.0245
G1 X55.14 Y40.371 E.20303
G1 X54.905 Y40.623 E.01733
G1 X51.793 Y37.511 E.22094
G1 X51.305 Y37.511 E.0245
G1 X54.669 Y40.875 E.23886
G1 X54.433 Y41.128 E.01733
G1 X50.817 Y37.511 E.25677
G1 X50.329 Y37.511 E.0245
G1 X54.198 Y41.38 E.27468
G1 X53.962 Y41.632 E.01733
G1 X49.841 Y37.511 E.2926
G1 X49.353 Y37.511 E.0245
G1 X53.726 Y41.885 E.31051
G1 X53.491 Y42.137 E.01733
G1 X48.865 Y37.511 E.32843
G1 X48.377 Y37.511 E.0245
G1 X53.255 Y42.389 E.34634
G1 X53.019 Y42.642 E.01733
G1 X47.889 Y37.511 E.36426
G1 X47.401 Y37.511 E.0245
G1 X52.784 Y42.894 E.38217
G1 X52.548 Y43.146 E.01733
G1 X46.913 Y37.511 E.40009
G1 X46.425 Y37.511 E.0245
G1 X52.312 Y43.398 E.418
G1 X52.077 Y43.651 E.01733
G1 X45.937 Y37.511 E.43591
G1 X45.449 Y37.511 E.0245
G1 X51.841 Y43.903 E.45383
G1 X51.605 Y44.155 E.01733
G1 X44.962 Y37.511 E.47174
G1 X44.474 Y37.511 E.0245
G1 X51.37 Y44.408 E.48966
G1 X51.134 Y44.66 E.01733
G1 X43.986 Y37.511 E.50757
G1 X43.498 Y37.511 E.0245
G1 X50.899 Y44.912 E.52549
G1 X50.663 Y45.165 E.01733
M73 P2 R112
G1 X43.01 Y37.511 E.5434
G1 X42.522 Y37.511 E.0245
G1 X50.427 Y45.417 E.56132
G1 X50.192 Y45.669 E.01733
G1 X42.034 Y37.511 E.57923
G1 X41.546 Y37.511 E.0245
G1 X49.956 Y45.922 E.59714
G1 X49.72 Y46.174 E.01733
G1 X41.058 Y37.511 E.61506
G1 X40.57 Y37.511 E.0245
G1 X49.485 Y46.426 E.63297
G1 X49.249 Y46.678 E.01733
G1 X40.082 Y37.511 E.65089
G1 X39.594 Y37.511 E.0245
G1 X49.013 Y46.931 E.6688
G1 X48.778 Y47.183 E.01733
G1 X39.106 Y37.511 E.68672
G1 X38.618 Y37.511 E.0245
G1 X48.542 Y47.435 E.70463
G1 X48.306 Y47.688 E.01733
G1 X38.171 Y37.552 E.71964
G1 X37.936 Y37.805 E.01733
G1 X48.071 Y47.94 E.71964
G1 X47.835 Y48.192 E.01733
G1 X37.7 Y38.057 E.71964
G1 X37.464 Y38.309 E.01733
G1 X47.6 Y48.445 E.71964
G1 X47.364 Y48.697 E.01733
G1 X37.229 Y38.562 E.71964
G1 X36.993 Y38.814 E.01733
G1 X47.128 Y48.949 E.71964
G1 X46.893 Y49.202 E.01733
G1 X36.757 Y39.066 E.71964
G1 X36.522 Y39.318 E.01733
G1 X46.657 Y49.454 E.71964
G1 X46.421 Y49.706 E.01733
G1 X36.286 Y39.571 E.71964
G1 X36.05 Y39.823 E.01733
G1 X46.186 Y49.958 E.71964
G1 X45.95 Y50.211 E.01733
G1 X35.815 Y40.075 E.71964
G1 X35.579 Y40.328 E.01733
G1 X45.714 Y50.463 E.71964
G1 X45.479 Y50.715 E.01733
G1 X35.343 Y40.58 E.71964
G1 X35.108 Y40.832 E.01733
G1 X45.243 Y50.968 E.71964
G1 X45.007 Y51.22 E.01733
G1 X34.872 Y41.085 E.71964
G1 X34.636 Y41.337 E.01733
G1 X44.772 Y51.472 E.71964
G1 X44.536 Y51.725 E.01733
G1 X34.401 Y41.589 E.71964
G1 X34.165 Y41.841 E.01733
G1 X44.3 Y51.977 E.71964
G1 X44.065 Y52.229 E.01733
G1 X33.929 Y42.094 E.71964
G1 X33.694 Y42.346 E.01733
G1 X43.829 Y52.481 E.71965
G1 X43.594 Y52.734 E.01733
G1 X33.458 Y42.598 E.71965
G1 X33.223 Y42.851 E.01733
G1 X43.358 Y52.986 E.71965
G1 X43.122 Y53.238 E.01733
G1 X32.987 Y43.103 E.71965
G1 X32.751 Y43.355 E.01733
G1 X42.887 Y53.491 E.71965
G1 X42.651 Y53.743 E.01733
G1 X32.516 Y43.608 E.71965
G1 X32.28 Y43.86 E.01733
G1 X42.415 Y53.995 E.71965
G1 X42.18 Y54.248 E.01733
G1 X32.044 Y44.112 E.71965
G1 X31.809 Y44.364 E.01733
G1 X41.944 Y54.5 E.71965
G1 X41.708 Y54.752 E.01733
G1 X31.573 Y44.617 E.71965
G1 X31.337 Y44.869 E.01733
G1 X41.473 Y55.005 E.71965
G1 X41.237 Y55.257 E.01733
G1 X31.102 Y45.121 E.71965
G1 X30.866 Y45.374 E.01733
G1 X41.001 Y55.509 E.71965
G1 X40.766 Y55.761 E.01733
G1 X30.63 Y45.626 E.71965
G1 X30.395 Y45.878 E.01733
G1 X40.53 Y56.014 E.71965
G1 X40.295 Y56.266 E.01733
G1 X30.159 Y46.131 E.71965
G1 X29.923 Y46.383 E.01733
G1 X40.059 Y56.518 E.71965
G1 X39.823 Y56.771 E.01733
G1 X29.688 Y46.635 E.71965
G1 X29.452 Y46.887 E.01733
G1 X39.588 Y57.023 E.71965
G1 X39.352 Y57.275 E.01733
G1 X29.216 Y47.14 E.71965
G1 X28.981 Y47.392 E.01733
G1 X39.116 Y57.528 E.71965
G1 X38.881 Y57.78 E.01733
G1 X28.745 Y47.644 E.71965
G1 X28.509 Y47.897 E.01733
G1 X38.645 Y58.032 E.71966
G1 X38.409 Y58.284 E.01733
G1 X28.274 Y48.149 E.71966
G1 X28.038 Y48.401 E.01733
G1 X38.174 Y58.537 E.71966
G1 X37.938 Y58.789 E.01733
G1 X27.803 Y48.654 E.71966
G1 X27.567 Y48.906 E.01733
G1 X37.702 Y59.041 E.71966
G1 X37.467 Y59.294 E.01733
G1 X27.331 Y49.158 E.71966
G1 X27.096 Y49.41 E.01733
G1 X37.231 Y59.546 E.71966
G1 X36.995 Y59.798 E.01733
G1 X26.86 Y49.663 E.71966
G1 X26.624 Y49.915 E.01733
G1 X36.76 Y60.051 E.71966
G1 X36.524 Y60.303 E.01733
G1 X26.389 Y50.167 E.71966
G1 X26.153 Y50.42 E.01733
G1 X36.289 Y60.555 E.71966
G1 X36.053 Y60.808 E.01733
G1 X25.917 Y50.672 E.71966
G1 X25.682 Y50.924 E.01733
G1 X35.817 Y61.06 E.71966
G1 X35.582 Y61.312 E.01733
G1 X25.446 Y51.177 E.71966
G1 X25.21 Y51.429 E.01733
G1 X35.346 Y61.564 E.71966
G1 X35.11 Y61.817 E.01733
G1 X24.975 Y51.681 E.71966
G1 X24.739 Y51.933 E.01733
G1 X34.875 Y62.069 E.71966
G1 X34.639 Y62.321 E.01733
G1 X24.503 Y52.186 E.71966
G1 X24.268 Y52.438 E.01733
G1 X34.403 Y62.574 E.71966
G1 X34.168 Y62.826 E.01733
G1 X24.032 Y52.69 E.71966
G1 X23.796 Y52.943 E.01733
G1 X33.932 Y63.078 E.71966
G1 X33.696 Y63.331 E.01733
G1 X23.561 Y53.195 E.71966
G1 X23.325 Y53.447 E.01733
G1 X33.461 Y63.583 E.71966
G1 X33.225 Y63.835 E.01733
G1 X23.089 Y53.7 E.71967
G1 X22.854 Y53.952 E.01733
G1 X32.99 Y64.088 E.71967
G1 X32.754 Y64.34 E.01733
G1 X22.618 Y54.204 E.71967
G1 X22.383 Y54.456 E.01733
G1 X32.518 Y64.592 E.71967
G1 X32.283 Y64.844 E.01733
G1 X22.147 Y54.709 E.71967
G1 X21.911 Y54.961 E.01733
G1 X32.047 Y65.097 E.71967
G1 X31.811 Y65.349 E.01733
G1 X21.676 Y55.213 E.71967
G1 X21.44 Y55.466 E.01733
G1 X31.576 Y65.601 E.71967
G1 X31.34 Y65.854 E.01733
G1 X21.204 Y55.718 E.71967
G1 X20.969 Y55.97 E.01733
G1 X31.104 Y66.106 E.71967
G1 X30.869 Y66.358 E.01733
G1 X20.733 Y56.223 E.71967
G1 X20.497 Y56.475 E.01733
G1 X30.633 Y66.611 E.71967
G1 X30.397 Y66.863 E.01733
G1 X20.262 Y56.727 E.71967
G1 X20.026 Y56.979 E.01733
G1 X30.162 Y67.115 E.71967
G1 X29.926 Y67.367 E.01733
G1 X19.79 Y57.232 E.71967
G1 X19.555 Y57.484 E.01733
G1 X29.69 Y67.62 E.71967
G1 X29.455 Y67.872 E.01733
G1 X19.319 Y57.736 E.71967
G1 X19.083 Y57.989 E.01733
G1 X29.219 Y68.124 E.71967
G1 X28.984 Y68.377 E.01733
G1 X18.848 Y58.241 E.71967
G1 X18.612 Y58.493 E.01733
G1 X28.748 Y68.629 E.71967
G1 X28.512 Y68.881 E.01733
G1 X18.376 Y58.746 E.71967
G1 X18.141 Y58.998 E.01733
G1 X28.277 Y69.134 E.71967
G1 X28.041 Y69.386 E.01733
G1 X17.905 Y59.25 E.71968
G1 X17.67 Y59.502 E.01733
G1 X27.805 Y69.638 E.71968
G1 X27.57 Y69.891 E.01733
G1 X17.614 Y59.934 E.70692
G1 X17.614 Y60.422 E.0245
G1 X27.334 Y70.143 E.69019
G1 X27.098 Y70.395 E.01733
M73 P3 R112
G1 X17.614 Y60.91 E.67346
G1 X17.614 Y61.398 E.0245
G1 X26.863 Y70.647 E.65673
G1 X26.627 Y70.9 E.01733
G1 X17.614 Y61.886 E.63999
G1 X17.614 Y62.374 E.0245
G1 X26.391 Y71.152 E.62326
G1 X26.156 Y71.404 E.01733
G1 X17.614 Y62.862 E.60653
G1 X17.614 Y63.35 E.0245
G1 X25.92 Y71.657 E.5898
G1 X25.685 Y71.909 E.01733
G1 X17.614 Y63.838 E.57307
G1 X17.614 Y64.326 E.0245
G1 X25.449 Y72.161 E.55634
G1 X25.213 Y72.414 E.01733
G1 X17.614 Y64.814 E.53961
G1 X17.614 Y65.302 E.0245
G1 X24.978 Y72.666 E.52287
G1 X24.742 Y72.918 E.01733
G1 X17.614 Y65.79 E.50614
G1 X17.614 Y66.278 E.0245
G1 X24.506 Y73.171 E.48941
G1 X24.271 Y73.423 E.01733
G1 X17.614 Y66.766 E.47268
G1 X17.614 Y67.254 E.0245
G1 X24.035 Y73.675 E.45595
G1 X23.799 Y73.927 E.01733
G1 X17.614 Y67.742 E.43922
G1 X17.614 Y68.23 E.0245
G1 X23.564 Y74.18 E.42248
G1 X23.328 Y74.432 E.01733
G1 X17.614 Y68.717 E.40575
G1 X17.614 Y69.205 E.0245
G1 X23.092 Y74.684 E.38902
G1 X22.857 Y74.937 E.01733
G1 X17.614 Y69.693 E.37229
G1 X17.614 Y70.181 E.0245
G1 X22.621 Y75.189 E.35556
G1 X22.386 Y75.441 E.01733
M73 P3 R111
G1 X17.614 Y70.669 E.33883
G1 X17.614 Y71.157 E.0245
G1 X22.15 Y75.694 E.3221
G1 X21.914 Y75.946 E.01733
G1 X17.614 Y71.645 E.30536
G1 X17.614 Y72.133 E.0245
G1 X21.679 Y76.198 E.28863
G1 X21.443 Y76.45 E.01733
G1 X17.614 Y72.621 E.2719
G1 X17.614 Y73.109 E.0245
G1 X21.207 Y76.703 E.25517
G1 X20.972 Y76.955 E.01733
G1 X17.614 Y73.597 E.23844
G1 X17.614 Y74.085 E.0245
G1 X20.736 Y77.207 E.22171
G1 X20.5 Y77.46 E.01733
G1 X17.614 Y74.573 E.20497
G1 X17.614 Y75.061 E.0245
G1 X20.265 Y77.712 E.18824
G1 X20.029 Y77.964 E.01733
G1 X17.614 Y75.549 E.17151
G1 X17.614 Y76.037 E.0245
G1 X19.793 Y78.217 E.15478
G1 X19.558 Y78.469 E.01733
G1 X17.614 Y76.525 E.13805
G1 X17.614 Y77.013 E.0245
G1 X19.322 Y78.721 E.12132
G1 X19.086 Y78.974 E.01733
G1 X17.614 Y77.501 E.10459
G1 X17.614 Y77.989 E.0245
G1 X18.851 Y79.226 E.08785
G1 X18.615 Y79.478 E.01733
G1 X17.614 Y78.476 E.07112
G1 X17.614 Y78.964 E.0245
G1 X18.38 Y79.73 E.05439
G1 X18.144 Y79.983 E.01733
G1 X17.614 Y79.452 E.03766
G1 X17.614 Y79.94 E.0245
G1 X17.908 Y80.235 E.02093
G1 X17.673 Y80.487 E.01733
G1 X17.458 Y80.273 E.01522
M106 S255
;LAYER_CHANGE
;Z:0.85
;HEIGHT:0.5
;BEFORE_LAYER_CHANGE
G92 E0
;0.85


G1 E-.7 F3600
;WIPE_START
G1 F6240
G1 X17.673 Y80.487 E-.1661
G1 X17.821 Y80.329 E-.1189
;WIPE_END
G1 E-.015 F3600
G1 Z.85 F7800
;AFTER_LAYER_CHANGE
;0.85
