; generated by PrusaSlicer 2.5.0+win64 on 2022-12-07 at 00:17:17 UTC

; 

; external perimeters extrusion width = 1.00mm
; perimeters extrusion width = 1.00mm
; infill extrusion width = 1.00mm
; solid infill extrusion width = 1.00mm
; top infill extrusion width = 1.00mm
; support material extrusion width = 1.00mm
; first layer extrusion width = 0.42mm

M73 P0 R202
M107
;TYPE:Custom
G90 ; use absolute coordinates
M83 ; extruder relative mode
M140 S60 ; set final bed temp
M104 S150 ; set temporary nozzle temp to prevent oozing during homing and auto bed leveling
G4 S10 ; allow partial nozzle warmup
G28 ; home all axisG1 Z50 F240
G1 X7.6 Y10 F3000
M104 S210 ; set final nozzle temp
M190 S60 ; wait for bed temp to stabilize
M109 S210 ; wait for nozzle temp to stabilize
G1 Z0.28 F240
G92 E0
G1 Y140 E10 F1500 ; prime the nozzle
G1 X4 F5000
G92 E0
G1 Y10 E10 F1200 ; prime the nozzle
G92 E0
G21 ; set units to millimeters
G90 ; use absolute coordinates
M83 ; use relative distances for extrusion
; Filament gcode
M107
;LAYER_CHANGE
;Z:0.35
;HEIGHT:0.35
;BEFORE_LAYER_CHANGE
G92 E0
;0.35


G1 E-1 F3600
G1 Z.35 F7800
;AFTER_LAYER_CHANGE
;0.35
G1 X68.78 Y162.82
G1 E1 F2400
;TYPE:Perimeter
;WIDTH:0.42
G1 F1800
G1 X48.476 Y162.82 E1.01894
G1 X162.645 Y40.575 E8.39447
G1 X162.645 Y62.321 E1.09135
G1 X68.882 Y162.711 E6.89386
G1 X68.857 Y163.165 F7800
;TYPE:External perimeter
G1 F1800
G1 X47.682 Y163.165 E1.06268
G1 X162.99 Y39.7 E8.47821
G1 X162.99 Y62.457 E1.14207
M73 P0 R201
G1 X68.983 Y163.108 E6.91183
G1 X68.119 Y162.49 F7800
G1 E-.7 F3600
;WIPE_START
G1 F6240
G1 X68.463 Y163.11 E-.285
;WIPE_END
G1 E-.015 F3600
G1 X162.542 Y41.509 F7800
G1 E1 F2400
;TYPE:Solid infill
;WIDTH:0.420355
G1 F1800
G1 X162.327 Y41.294 E.01524
G1 X162.091 Y41.547 E.01735
G1 X162.387 Y41.842 E.02096
G1 X162.387 Y42.33 E.02453
G1 X161.856 Y41.799 E.03771
G1 X161.62 Y42.052 E.01735
G1 X162.387 Y42.818 E.05447
G1 X162.387 Y43.306 E.02453
G1 X161.384 Y42.304 E.07122
G1 X161.148 Y42.557 E.01735
G1 X162.387 Y43.795 E.08797
G1 X162.387 Y44.283 E.02453
G1 X160.913 Y42.809 E.10472
G1 X160.677 Y43.061 E.01735
G1 X162.387 Y44.771 E.12147
G1 X162.387 Y45.259 E.02453
G1 X160.441 Y43.314 E.13822
G1 X160.205 Y43.566 E.01735
G1 X162.387 Y45.748 E.15498
G1 X162.387 Y46.236 E.02453
G1 X159.969 Y43.819 E.17173
G1 X159.734 Y44.071 E.01735
G1 X162.387 Y46.724 E.18848
G1 X162.387 Y47.212 E.02453
G1 X159.498 Y44.324 E.20523
G1 X159.262 Y44.576 E.01735
G1 X162.387 Y47.701 E.22198
G1 X162.387 Y48.189 E.02453
G1 X159.026 Y44.829 E.23873
G1 X158.79 Y45.081 E.01735
G1 X162.387 Y48.677 E.25549
G1 X162.387 Y49.165 E.02453
G1 X158.555 Y45.334 E.27224
G1 X158.319 Y45.586 E.01735
G1 X162.387 Y49.654 E.28899
G1 X162.387 Y50.142 E.02453
G1 X158.083 Y45.839 E.30574
G1 X157.847 Y46.091 E.01735
G1 X162.387 Y50.63 E.32249
G1 X162.387 Y51.118 E.02453
G1 X157.612 Y46.343 E.33924
G1 X157.376 Y46.596 E.01735
G1 X162.387 Y51.607 E.356
G1 X162.387 Y52.095 E.02453
G1 X157.14 Y46.848 E.37275
G1 X156.904 Y47.101 E.01735
G1 X162.387 Y52.583 E.3895
G1 X162.387 Y53.071 E.02453
G1 X156.668 Y47.353 E.40625
G1 X156.433 Y47.606 E.01735
G1 X162.387 Y53.56 E.423
G1 X162.387 Y54.048 E.02453
G1 X156.197 Y47.858 E.43975
G1 X155.961 Y48.111 E.01735
G1 X162.387 Y54.536 E.45651
G1 X162.387 Y55.024 E.02453
G1 X155.725 Y48.363 E.47326
G1 X155.489 Y48.616 E.01735
G1 X162.387 Y55.513 E.49001
G1 X162.387 Y56.001 E.02453
G1 X155.254 Y48.868 E.50676
G1 X155.018 Y49.121 E.01735
G1 X162.387 Y56.489 E.52351
G1 X162.387 Y56.977 E.02453
G1 X154.782 Y49.373 E.54026
G1 X154.546 Y49.626 E.01735
G1 X162.387 Y57.466 E.55702
G1 X162.387 Y57.954 E.02453
G1 X154.311 Y49.878 E.57377
G1 X154.075 Y50.13 E.01735
G1 X162.387 Y58.442 E.59052
G1 X162.387 Y58.93 E.02453
G1 X153.839 Y50.383 E.60727
G1 X153.603 Y50.635 E.01735
G1 X162.387 Y59.419 E.62402
G1 X162.387 Y59.907 E.02453
G1 X153.367 Y50.888 E.64077
G1 X153.132 Y51.14 E.01735
G1 X162.387 Y60.395 E.65753
G1 X162.387 Y60.883 E.02453
G1 X152.896 Y51.393 E.67428
G1 X152.66 Y51.645 E.01735
G1 X162.387 Y61.372 E.69103
G1 X162.387 Y61.86 E.02453
G1 X152.424 Y51.898 E.70778
G1 X152.189 Y52.15 E.01735
G1 X162.324 Y62.286 E.7201
G1 X162.088 Y62.538 E.01735
G1 X151.953 Y52.403 E.7201
G1 X151.717 Y52.655 E.01735
G1 X161.853 Y62.791 E.7201
G1 X161.617 Y63.043 E.01735
G1 X151.481 Y52.908 E.7201
G1 X151.245 Y53.16 E.01735
G1 X161.381 Y63.296 E.7201
G1 X161.145 Y63.548 E.01735
G1 X151.01 Y53.412 E.7201
G1 X150.774 Y53.665 E.01735
G1 X160.909 Y63.801 E.7201
G1 X160.674 Y64.053 E.01735
G1 X150.538 Y53.917 E.7201
G1 X150.302 Y54.17 E.01735
G1 X160.438 Y64.305 E.7201
G1 X160.202 Y64.558 E.01735
G1 X150.066 Y54.422 E.7201
G1 X149.831 Y54.675 E.01735
G1 X159.966 Y64.81 E.72009
G1 X159.73 Y65.063 E.01735
G1 X149.595 Y54.927 E.72009
G1 X149.359 Y55.18 E.01735
G1 X159.495 Y65.315 E.72009
G1 X159.259 Y65.568 E.01735
G1 X149.123 Y55.432 E.72009
G1 X148.888 Y55.685 E.01735
G1 X159.023 Y65.82 E.72009
G1 X158.787 Y66.073 E.01735
G1 X148.652 Y55.937 E.72009
G1 X148.416 Y56.19 E.01735
G1 X158.551 Y66.325 E.72009
G1 X158.316 Y66.578 E.01735
G1 X148.18 Y56.442 E.72009
G1 X147.944 Y56.695 E.01735
G1 X158.08 Y66.83 E.72009
G1 X157.844 Y67.082 E.01735
G1 X147.709 Y56.947 E.72009
G1 X147.473 Y57.199 E.01735
G1 X157.608 Y67.335 E.72009
G1 X157.372 Y67.587 E.01735
G1 X147.237 Y57.452 E.72009
G1 X147.001 Y57.704 E.01735
G1 X157.137 Y67.84 E.72009
G1 X156.901 Y68.092 E.01735
G1 X146.765 Y57.957 E.72009
G1 X146.53 Y58.209 E.01735
G1 X156.665 Y68.345 E.72009
G1 X156.429 Y68.597 E.01735
G1 X146.294 Y58.462 E.72009
G1 X146.058 Y58.714 E.01735
G1 X156.194 Y68.85 E.72009
G1 X155.958 Y69.102 E.01735
G1 X145.822 Y58.967 E.72009
G1 X145.587 Y59.219 E.01735
G1 X155.722 Y69.355 E.72008
G1 X155.486 Y69.607 E.01735
G1 X145.351 Y59.472 E.72008
G1 X145.115 Y59.724 E.01735
G1 X155.25 Y69.859 E.72008
G1 X155.015 Y70.112 E.01735
G1 X144.879 Y59.977 E.72008
G1 X144.643 Y60.229 E.01735
G1 X154.779 Y70.364 E.72008
G1 X154.543 Y70.617 E.01735
G1 X144.408 Y60.481 E.72008
G1 X144.172 Y60.734 E.01735
G1 X154.307 Y70.869 E.72008
G1 X154.071 Y71.122 E.01735
G1 X143.936 Y60.986 E.72008
G1 X143.7 Y61.239 E.01735
G1 X153.836 Y71.374 E.72008
G1 X153.6 Y71.627 E.01735
G1 X143.464 Y61.491 E.72008
G1 X143.229 Y61.744 E.01735
G1 X153.364 Y71.879 E.72008
G1 X153.128 Y72.132 E.01735
G1 X142.993 Y61.996 E.72008
G1 X142.757 Y62.249 E.01735
G1 X152.892 Y72.384 E.72008
G1 X152.657 Y72.636 E.01735
G1 X142.521 Y62.501 E.72008
G1 X142.286 Y62.754 E.01735
G1 X152.421 Y72.889 E.72008
G1 X152.185 Y73.141 E.01735
G1 X142.05 Y63.006 E.72008
G1 X141.814 Y63.259 E.01735
G1 X151.949 Y73.394 E.72008
G1 X151.713 Y73.646 E.01735
G1 X141.578 Y63.511 E.72008
G1 X141.342 Y63.764 E.01735
G1 X151.478 Y73.899 E.72007
G1 X151.242 Y74.151 E.01735
G1 X141.107 Y64.016 E.72007
G1 X140.871 Y64.268 E.01735
G1 X151.006 Y74.404 E.72007
G1 X150.77 Y74.656 E.01735
G1 X140.635 Y64.521 E.72007
G1 X140.399 Y64.773 E.01735
G1 X150.534 Y74.909 E.72007
G1 X150.299 Y75.161 E.01735
G1 X140.163 Y65.026 E.72007
G1 X139.928 Y65.278 E.01735
G1 X150.063 Y75.414 E.72007
G1 X149.827 Y75.666 E.01735
G1 X139.692 Y65.531 E.72007
G1 X139.456 Y65.783 E.01735
G1 X149.591 Y75.918 E.72007
G1 X149.356 Y76.171 E.01735
G1 X139.22 Y66.036 E.72007
G1 X138.985 Y66.288 E.01735
G1 X149.12 Y76.423 E.72007
G1 X148.884 Y76.676 E.01735
G1 X138.749 Y66.541 E.72007
G1 X138.513 Y66.793 E.01735
G1 X148.648 Y76.928 E.72007
G1 X148.412 Y77.181 E.01735
G1 X138.277 Y67.046 E.72007
G1 X138.041 Y67.298 E.01735
G1 X148.177 Y77.433 E.72007
G1 X147.941 Y77.686 E.01735
G1 X137.806 Y67.55 E.72007
G1 X137.57 Y67.803 E.01735
G1 X147.705 Y77.938 E.72007
G1 X147.469 Y78.191 E.01735
G1 X137.334 Y68.055 E.72007
G1 X137.098 Y68.308 E.01735
G1 X147.233 Y78.443 E.72006
G1 X146.998 Y78.695 E.01735
G1 X136.863 Y68.56 E.72006
G1 X136.627 Y68.813 E.01735
G1 X146.762 Y78.948 E.72006
G1 X146.526 Y79.2 E.01735
G1 X136.391 Y69.065 E.72006
G1 X136.155 Y69.318 E.01735
G1 X146.29 Y79.453 E.72006
G1 X146.054 Y79.705 E.01735
G1 X135.919 Y69.57 E.72006
G1 X135.684 Y69.823 E.01735
G1 X145.819 Y79.958 E.72006
G1 X145.583 Y80.21 E.01735
G1 X135.448 Y70.075 E.72006
G1 X135.212 Y70.328 E.01735
G1 X145.347 Y80.463 E.72006
G1 X145.111 Y80.715 E.01735
G1 X134.976 Y70.58 E.72006
G1 X134.74 Y70.833 E.01735
G1 X144.875 Y80.968 E.72006
G1 X144.64 Y81.22 E.01735
M73 P0 R200
G1 X134.505 Y71.085 E.72006
G1 X134.269 Y71.337 E.01735
G1 X144.404 Y81.472 E.72006
G1 X144.168 Y81.725 E.01735
G1 X134.033 Y71.59 E.72006
G1 X133.797 Y71.842 E.01735
G1 X143.932 Y81.977 E.72006
G1 X143.697 Y82.23 E.01735
G1 X133.562 Y72.095 E.72006
G1 X133.326 Y72.347 E.01735
G1 X143.461 Y82.482 E.72006
G1 X143.225 Y82.735 E.01735
G1 X133.09 Y72.6 E.72006
G1 X132.854 Y72.852 E.01735
G1 X142.989 Y82.987 E.72005
G1 X142.753 Y83.24 E.01735
G1 X132.618 Y73.105 E.72005
G1 X132.383 Y73.357 E.01735
G1 X142.518 Y83.492 E.72005
G1 X142.282 Y83.745 E.01735
G1 X132.147 Y73.61 E.72005
G1 X131.911 Y73.862 E.01735
G1 X142.046 Y83.997 E.72005
G1 X141.81 Y84.249 E.01735
G1 X131.675 Y74.115 E.72005
G1 X131.439 Y74.367 E.01735
G1 X141.574 Y84.502 E.72005
G1 X141.339 Y84.754 E.01735
G1 X131.204 Y74.619 E.72005
G1 X130.968 Y74.872 E.01735
G1 X141.103 Y85.007 E.72005
G1 X140.867 Y85.259 E.01735
G1 X130.732 Y75.124 E.72005
G1 X130.496 Y75.377 E.01735
G1 X140.631 Y85.512 E.72005
G1 X140.395 Y85.764 E.01735
G1 X130.261 Y75.629 E.72005
G1 X130.025 Y75.882 E.01735
G1 X140.16 Y86.017 E.72005
G1 X139.924 Y86.269 E.01735
G1 X129.789 Y76.134 E.72005
G1 X129.553 Y76.387 E.01735
G1 X139.688 Y86.522 E.72005
G1 X139.452 Y86.774 E.01735
G1 X129.317 Y76.639 E.72005
G1 X129.082 Y76.892 E.01735
G1 X139.216 Y87.027 E.72005
G1 X138.981 Y87.279 E.01735
G1 X128.846 Y77.144 E.72005
G1 X128.61 Y77.397 E.01735
G1 X138.745 Y87.531 E.72004
G1 X138.509 Y87.784 E.01735
G1 X128.374 Y77.649 E.72004
G1 X128.138 Y77.902 E.01735
G1 X138.273 Y88.036 E.72004
G1 X138.037 Y88.289 E.01735
G1 X127.903 Y78.154 E.72004
G1 X127.667 Y78.406 E.01735
G1 X137.802 Y88.541 E.72004
G1 X137.566 Y88.794 E.01735
G1 X127.431 Y78.659 E.72004
G1 X127.195 Y78.911 E.01735
G1 X137.33 Y89.046 E.72004
G1 X137.094 Y89.299 E.01735
G1 X126.96 Y79.164 E.72004
G1 X126.724 Y79.416 E.01735
G1 X136.859 Y89.551 E.72004
G1 X136.623 Y89.804 E.01735
G1 X126.488 Y79.669 E.72004
G1 X126.252 Y79.921 E.01735
G1 X136.387 Y90.056 E.72004
G1 X136.151 Y90.308 E.01735
G1 X126.016 Y80.174 E.72004
G1 X125.781 Y80.426 E.01735
G1 X135.915 Y90.561 E.72004
G1 X135.68 Y90.813 E.01735
G1 X125.545 Y80.679 E.72004
G1 X125.309 Y80.931 E.01735
G1 X135.444 Y91.066 E.72004
G1 X135.208 Y91.318 E.01735
G1 X125.073 Y81.184 E.72004
G1 X124.837 Y81.436 E.01735
G1 X134.972 Y91.571 E.72004
G1 X134.736 Y91.823 E.01735
G1 X124.602 Y81.688 E.72004
G1 X124.366 Y81.941 E.01735
G1 X134.501 Y92.076 E.72003
G1 X134.265 Y92.328 E.01735
G1 X124.13 Y82.193 E.72003
G1 X123.894 Y82.446 E.01735
G1 X134.029 Y92.581 E.72003
G1 X133.793 Y92.833 E.01735
G1 X123.659 Y82.698 E.72003
G1 X123.423 Y82.951 E.01735
G1 X133.557 Y93.085 E.72003
G1 X133.322 Y93.338 E.01735
G1 X123.187 Y83.203 E.72003
G1 X122.951 Y83.456 E.01735
G1 X133.086 Y93.59 E.72003
G1 X132.85 Y93.843 E.01735
G1 X122.715 Y83.708 E.72003
G1 X122.48 Y83.961 E.01735
G1 X132.614 Y94.095 E.72003
G1 X132.378 Y94.348 E.01735
G1 X122.244 Y84.213 E.72003
G1 X122.008 Y84.466 E.01735
G1 X132.143 Y94.6 E.72003
G1 X131.907 Y94.853 E.01735
G1 X121.772 Y84.718 E.72003
G1 X121.537 Y84.971 E.01735
G1 X131.671 Y95.105 E.72003
G1 X131.435 Y95.358 E.01735
G1 X121.301 Y85.223 E.72003
G1 X121.065 Y85.475 E.01735
G1 X131.2 Y95.61 E.72003
G1 X130.964 Y95.862 E.01735
M73 P1 R200
G1 X120.829 Y85.728 E.72003
G1 X120.593 Y85.98 E.01735
G1 X130.728 Y96.115 E.72003
G1 X130.492 Y96.367 E.01735
G1 X120.358 Y86.233 E.72003
G1 X120.122 Y86.485 E.01735
G1 X130.256 Y96.62 E.72002
G1 X130.021 Y96.872 E.01735
G1 X119.886 Y86.738 E.72002
G1 X119.65 Y86.99 E.01735
G1 X129.785 Y97.125 E.72002
G1 X129.549 Y97.377 E.01735
G1 X119.414 Y87.243 E.72002
G1 X119.179 Y87.495 E.01735
G1 X129.313 Y97.63 E.72002
G1 X129.077 Y97.882 E.01735
G1 X118.943 Y87.748 E.72002
G1 X118.707 Y88 E.01735
G1 X128.842 Y98.135 E.72002
G1 X128.606 Y98.387 E.01735
G1 X118.471 Y88.253 E.72002
G1 X118.236 Y88.505 E.01735
G1 X128.37 Y98.639 E.72002
G1 X128.134 Y98.892 E.01735
G1 X118 Y88.757 E.72002
G1 X117.764 Y89.01 E.01735
G1 X127.898 Y99.144 E.72002
G1 X127.663 Y99.397 E.01735
G1 X117.528 Y89.262 E.72002
G1 X117.292 Y89.515 E.01735
G1 X127.427 Y99.649 E.72002
G1 X127.191 Y99.902 E.01735
G1 X117.057 Y89.767 E.72002
G1 X116.821 Y90.02 E.01735
G1 X126.955 Y100.154 E.72002
G1 X126.719 Y100.407 E.01735
G1 X116.585 Y90.272 E.72002
G1 X116.349 Y90.525 E.01735
G1 X126.484 Y100.659 E.72002
G1 X126.248 Y100.912 E.01735
G1 X116.113 Y90.777 E.72002
G1 X115.878 Y91.03 E.01735
G1 X126.012 Y101.164 E.72001
G1 X125.776 Y101.417 E.01735
G1 X115.642 Y91.282 E.72001
G1 X115.406 Y91.535 E.01735
G1 X125.54 Y101.669 E.72001
G1 X125.305 Y101.921 E.01735
G1 X115.17 Y91.787 E.72001
G1 X114.935 Y92.04 E.01735
G1 X125.069 Y102.174 E.72001
G1 X124.833 Y102.426 E.01735
G1 X114.699 Y92.292 E.72001
G1 X114.463 Y92.544 E.01735
G1 X124.597 Y102.679 E.72001
G1 X124.362 Y102.931 E.01735
G1 X114.227 Y92.797 E.72001
G1 X113.991 Y93.049 E.01735
G1 X124.126 Y103.184 E.72001
G1 X123.89 Y103.436 E.01735
G1 X113.756 Y93.302 E.72001
G1 X113.52 Y93.554 E.01735
G1 X123.654 Y103.689 E.72001
G1 X123.418 Y103.941 E.01735
G1 X113.284 Y93.807 E.72001
G1 X113.048 Y94.059 E.01735
G1 X123.183 Y104.194 E.72001
G1 X122.947 Y104.446 E.01735
G1 X112.812 Y94.312 E.72001
G1 X112.577 Y94.564 E.01735
G1 X122.711 Y104.698 E.72001
G1 X122.475 Y104.951 E.01735
G1 X112.341 Y94.817 E.72001
G1 X112.105 Y95.069 E.01735
G1 X122.239 Y105.203 E.72001
G1 X122.004 Y105.456 E.01735
G1 X111.869 Y95.322 E.72001
G1 X111.634 Y95.574 E.01735
G1 X121.768 Y105.708 E.72
G1 X121.532 Y105.961 E.01735
G1 X111.398 Y95.826 E.72
G1 X111.162 Y96.079 E.01735
G1 X121.296 Y106.213 E.72
G1 X121.06 Y106.466 E.01735
G1 X110.926 Y96.331 E.72
G1 X110.69 Y96.584 E.01735
G1 X120.825 Y106.718 E.72
G1 X120.589 Y106.971 E.01735
G1 X110.455 Y96.836 E.72
G1 X110.219 Y97.089 E.01735
G1 X120.353 Y107.223 E.72
G1 X120.117 Y107.475 E.01735
G1 X109.983 Y97.341 E.72
G1 X109.747 Y97.594 E.01735
G1 X119.881 Y107.728 E.72
G1 X119.646 Y107.98 E.01735
G1 X109.512 Y97.846 E.72
G1 X109.276 Y98.099 E.01735
G1 X119.41 Y108.233 E.72
G1 X119.174 Y108.485 E.01735
G1 X109.04 Y98.351 E.72
G1 X108.804 Y98.604 E.01735
G1 X118.938 Y108.738 E.72
G1 X118.703 Y108.99 E.01735
G1 X108.568 Y98.856 E.72
G1 X108.333 Y99.109 E.01735
G1 X118.467 Y109.243 E.72
G1 X118.231 Y109.495 E.01735
G1 X108.097 Y99.361 E.72
G1 X107.861 Y99.613 E.01735
G1 X117.995 Y109.748 E.72
G1 X117.759 Y110 E.01735
M73 P1 R199
G1 X107.625 Y99.866 E.71999
G1 X107.389 Y100.118 E.01735
G1 X117.524 Y110.252 E.71999
G1 X117.288 Y110.505 E.01735
G1 X107.154 Y100.371 E.71999
G1 X106.918 Y100.623 E.01735
G1 X117.052 Y110.757 E.71999
G1 X116.816 Y111.01 E.01735
G1 X106.682 Y100.876 E.71999
G1 X106.446 Y101.128 E.01735
G1 X116.58 Y111.262 E.71999
G1 X116.345 Y111.515 E.01735
G1 X106.211 Y101.381 E.71999
G1 X105.975 Y101.633 E.01735
G1 X116.109 Y111.767 E.71999
G1 X115.873 Y112.02 E.01735
G1 X105.739 Y101.886 E.71999
G1 X105.503 Y102.138 E.01735
G1 X115.637 Y112.272 E.71999
G1 X115.401 Y112.525 E.01735
G1 X105.267 Y102.391 E.71999
G1 X105.032 Y102.643 E.01735
G1 X115.166 Y112.777 E.71999
G1 X114.93 Y113.03 E.01735
G1 X104.796 Y102.895 E.71999
G1 X104.56 Y103.148 E.01735
G1 X114.694 Y113.282 E.71999
G1 X114.458 Y113.534 E.01735
G1 X104.324 Y103.4 E.71999
G1 X104.088 Y103.653 E.01735
G1 X114.222 Y113.787 E.71999
G1 X113.987 Y114.039 E.01735
G1 X103.853 Y103.905 E.71999
G1 X103.617 Y104.158 E.01735
G1 X113.751 Y114.292 E.71999
G1 X113.515 Y114.544 E.01735
G1 X103.381 Y104.41 E.71998
G1 X103.145 Y104.663 E.01735
G1 X113.279 Y114.797 E.71998
G1 X113.044 Y115.049 E.01735
G1 X102.91 Y104.915 E.71998
G1 X102.674 Y105.168 E.01735
G1 X112.808 Y115.302 E.71998
G1 X112.572 Y115.554 E.01735
G1 X102.438 Y105.42 E.71998
G1 X102.202 Y105.673 E.01735
G1 X112.336 Y115.807 E.71998
G1 X112.1 Y116.059 E.01735
