; generated by PrusaSlicer 2.5.0+win64 on 2022-12-07 at 00:17:27 UTC

; 

; external perimeters extrusion width = 1.00mm
; perimeters extrusion width = 1.00mm
; infill extrusion width = 1.00mm
; solid infill extrusion width = 1.00mm
; top infill extrusion width = 1.00mm
; support material extrusion width = 1.00mm
; first layer extrusion width = 0.42mm

M73 P0 R161
M107
;TYPE:Custom
G90 ; use absolute coordinates
M83 ; extruder relative mode
M140 S60 ; set final bed temp
M104 S150 ; set temporary nozzle temp to prevent oozing during homing and auto bed leveling
G4 S10 ; allow partial nozzle warmup
G28 ; home all axisG1 Z50 F240
G1 X7.6 Y10 F3000
M104 S210 ; set final nozzle temp
M190 S60 ; wait for bed temp to stabilize
M109 S210 ; wait for nozzle temp to stabilize
G1 Z0.28 F240
G92 E0
G1 Y140 E10 F1500 ; prime the nozzle
G1 X4 F5000
G92 E0
G1 Y10 E10 F1200 ; prime the nozzle
G92 E0
G21 ; set units to millimeters
G90 ; use absolute coordinates
M83 ; use relative distances for extrusion
; Filament gcode
M107
;LAYER_CHANGE
;Z:0.35
;HEIGHT:0.35
;BEFORE_LAYER_CHANGE
G92 E0
;0.35


G1 E-1 F3600
G1 Z.35 F7800
;AFTER_LAYER_CHANGE
;0.35
G1 X79.951 Y162.82
G1 E1 F2400
;TYPE:Perimeter
;WIDTH:0.42
G1 F1800
G1 X85.226 Y69.494 E4.69113
G1 X88.49 Y17.182 E2.63043
G1 X102.327 Y17.182 E.69443
G1 X99.006 Y70.437 E2.67785
G1 X93.786 Y162.82 E4.64372
G1 X80.101 Y162.82 E.68679
G1 X79.586 Y163.165 F7800
;TYPE:External perimeter
G1 F1800
G1 X84.882 Y69.472 E4.70955
G1 X88.166 Y16.837 E2.64669
G1 X102.694 Y16.837 E.72911
G1 X99.35 Y70.459 E2.69627
G1 X94.112 Y163.165 E4.65997
G1 X79.736 Y163.165 E.72147
G1 X79.693 Y162.171 F7800
G1 E-.7 F3600
;WIPE_START
G1 F6240
G1 X79.764 Y162.646 E-.285
;WIPE_END
G1 E-.015 F3600
G1 X101.519 Y17.285 F7800
G1 E1 F2400
;TYPE:Solid infill
;WIDTH:0.420745
G1 F1800
G1 X102.029 Y17.796 E.0363
G1 X102.001 Y18.256 E.02319
G1 X101.185 Y17.441 E.05799
G1 X100.697 Y17.441 E.02458
G1 X101.972 Y18.716 E.09071
G1 X101.943 Y19.176 E.02319
G1 X100.208 Y17.441 E.12344
G1 X99.719 Y17.441 E.02458
G1 X101.915 Y19.636 E.15617
G1 X101.886 Y20.096 E.02319
G1 X99.23 Y17.441 E.18889
G1 X98.741 Y17.441 E.02458
G1 X101.857 Y20.556 E.22162
G1 X101.828 Y21.016 E.02319
G1 X98.253 Y17.441 E.25434
G1 X97.764 Y17.441 E.02458
G1 X101.8 Y21.477 E.28707
G1 X101.771 Y21.937 E.02319
G1 X97.275 Y17.441 E.3198
G1 X96.786 Y17.441 E.02458
G1 X101.742 Y22.397 E.35252
G1 X101.714 Y22.857 E.02319
G1 X96.297 Y17.441 E.38525
G1 X95.809 Y17.441 E.02458
G1 X101.685 Y23.317 E.41798
G1 X101.656 Y23.777 E.02319
G1 X95.32 Y17.441 E.4507
G1 X94.831 Y17.441 E.02458
G1 X101.628 Y24.237 E.48343
G1 X101.599 Y24.697 E.02319
G1 X94.342 Y17.441 E.51615
M73 P0 R160
G1 X93.853 Y17.441 E.02458
G1 X101.57 Y25.157 E.54888
G1 X101.542 Y25.618 E.02319
G1 X93.365 Y17.441 E.58161
G1 X92.876 Y17.441 E.02458
G1 X101.513 Y26.078 E.61433
G1 X101.484 Y26.538 E.02319
G1 X92.387 Y17.441 E.64706
G1 X91.898 Y17.441 E.02458
G1 X101.455 Y26.998 E.67979
G1 X101.427 Y27.458 E.02319
G1 X91.409 Y17.441 E.71251
G1 X90.921 Y17.441 E.02458
G1 X101.398 Y27.918 E.74524
G1 X101.369 Y28.378 E.02319
G1 X90.432 Y17.441 E.77796
G1 X89.943 Y17.441 E.02458
G1 X101.341 Y28.838 E.81069
G1 X101.312 Y29.298 E.02319
G1 X89.454 Y17.441 E.84342
G1 X88.965 Y17.441 E.02458
G1 X101.283 Y29.759 E.87614
G1 X101.255 Y30.219 E.02319
G1 X88.718 Y17.682 E.89173
G1 X88.689 Y18.142 E.02319
G1 X101.226 Y30.679 E.89173
G1 X101.197 Y31.139 E.02319
G1 X88.66 Y18.602 E.89173
G1 X88.631 Y19.062 E.02319
G1 X101.169 Y31.599 E.89173
G1 X101.14 Y32.059 E.02319
G1 X88.603 Y19.522 E.89173
G1 X88.574 Y19.982 E.02319
G1 X101.111 Y32.519 E.89173
G1 X101.083 Y32.979 E.02319
G1 X88.545 Y20.442 E.89173
G1 X88.517 Y20.902 E.02319
G1 X101.054 Y33.439 E.89173
G1 X101.025 Y33.9 E.02319
G1 X88.488 Y21.362 E.89174
G1 X88.459 Y21.822 E.02319
G1 X100.996 Y34.36 E.89174
G1 X100.968 Y34.82 E.02319
G1 X88.43 Y22.283 E.89174
G1 X88.402 Y22.743 E.02319
G1 X100.939 Y35.28 E.89174
G1 X100.91 Y35.74 E.02319
G1 X88.373 Y23.203 E.89174
G1 X88.344 Y23.663 E.02319
G1 X100.882 Y36.2 E.89174
G1 X100.853 Y36.66 E.02319
G1 X88.316 Y24.123 E.89174
G1 X88.287 Y24.583 E.02319
G1 X100.824 Y37.12 E.89174
G1 X100.796 Y37.58 E.02319
G1 X88.258 Y25.043 E.89174
G1 X88.23 Y25.503 E.02319
G1 X100.767 Y38.041 E.89175
G1 X100.738 Y38.501 E.02319
G1 X88.201 Y25.963 E.89175
G1 X88.172 Y26.423 E.02319
G1 X100.71 Y38.961 E.89175
G1 X100.681 Y39.421 E.02319
G1 X88.143 Y26.883 E.89175
G1 X88.115 Y27.344 E.02319
G1 X100.652 Y39.881 E.89175
G1 X100.623 Y40.341 E.02319
G1 X88.086 Y27.804 E.89175
G1 X88.057 Y28.264 E.02319
G1 X100.595 Y40.801 E.89175
G1 X100.566 Y41.261 E.02319
G1 X88.029 Y28.724 E.89175
G1 X88 Y29.184 E.02319
G1 X100.537 Y41.721 E.89175
G1 X100.509 Y42.182 E.02319
G1 X87.971 Y29.644 E.89176
G1 X87.942 Y30.104 E.02319
G1 X100.48 Y42.642 E.89176
G1 X100.451 Y43.102 E.02319
G1 X87.914 Y30.564 E.89176
G1 X87.885 Y31.024 E.02319
G1 X100.423 Y43.562 E.89176
G1 X100.394 Y44.022 E.02319
G1 X87.856 Y31.484 E.89176
G1 X87.828 Y31.945 E.02319
G1 X100.365 Y44.482 E.89176
G1 X100.337 Y44.942 E.02319
G1 X87.799 Y32.405 E.89176
G1 X87.77 Y32.865 E.02319
G1 X100.308 Y45.402 E.89176
G1 X100.279 Y45.862 E.02319
G1 X87.742 Y33.325 E.89177
G1 X87.713 Y33.785 E.02319
G1 X100.251 Y46.323 E.89177
G1 X100.222 Y46.783 E.02319
G1 X87.684 Y34.245 E.89177
G1 X87.655 Y34.705 E.02319
G1 X100.193 Y47.243 E.89177
G1 X100.164 Y47.703 E.02319
G1 X87.627 Y35.165 E.89177
G1 X87.598 Y35.625 E.02319
G1 X100.136 Y48.163 E.89177
G1 X100.107 Y48.623 E.02319
G1 X87.569 Y36.085 E.89177
G1 X87.541 Y36.545 E.02319
G1 X100.078 Y49.083 E.89177
G1 X100.05 Y49.543 E.02319
G1 X87.512 Y37.006 E.89177
G1 X87.483 Y37.466 E.02319
G1 X100.021 Y50.003 E.89178
G1 X99.992 Y50.464 E.02319
G1 X87.454 Y37.926 E.89178
G1 X87.426 Y38.386 E.02319
G1 X99.964 Y50.924 E.89178
G1 X99.935 Y51.384 E.02319
G1 X87.397 Y38.846 E.89178
G1 X87.368 Y39.306 E.02319
G1 X99.906 Y51.844 E.89178
G1 X99.878 Y52.304 E.02319
G1 X87.34 Y39.766 E.89178
G1 X87.311 Y40.226 E.02319
G1 X99.849 Y52.764 E.89178
G1 X99.82 Y53.224 E.02319
G1 X87.282 Y40.686 E.89178
G1 X87.254 Y41.146 E.02319
G1 X99.791 Y53.684 E.89178
G1 X99.763 Y54.144 E.02319
G1 X87.225 Y41.606 E.89179
G1 X87.196 Y42.067 E.02319
G1 X99.734 Y54.605 E.89179
G1 X99.705 Y55.065 E.02319
G1 X87.167 Y42.527 E.89179
G1 X87.139 Y42.987 E.02319
G1 X99.677 Y55.525 E.89179
G1 X99.648 Y55.985 E.02319
G1 X87.11 Y43.447 E.89179
G1 X87.081 Y43.907 E.02319
G1 X99.619 Y56.445 E.89179
G1 X99.591 Y56.905 E.02319
G1 X87.053 Y44.367 E.89179
G1 X87.024 Y44.827 E.02319
G1 X99.562 Y57.365 E.89179
G1 X99.533 Y57.825 E.02319
G1 X86.995 Y45.287 E.8918
G1 X86.966 Y45.747 E.02319
G1 X99.505 Y58.285 E.8918
G1 X99.476 Y58.746 E.02319
G1 X86.938 Y46.207 E.8918
G1 X86.909 Y46.668 E.02319
G1 X99.447 Y59.206 E.8918
G1 X99.419 Y59.666 E.02319
G1 X86.88 Y47.128 E.8918
G1 X86.852 Y47.588 E.02319
G1 X99.39 Y60.126 E.8918
G1 X99.361 Y60.586 E.02319
G1 X86.823 Y48.048 E.8918
G1 X86.794 Y48.508 E.02319
G1 X99.332 Y61.046 E.8918
G1 X99.304 Y61.506 E.02319
G1 X86.766 Y48.968 E.8918
G1 X86.737 Y49.428 E.02319
G1 X99.275 Y61.966 E.89181
G1 X99.246 Y62.426 E.02319
G1 X86.708 Y49.888 E.89181
G1 X86.679 Y50.348 E.02319
G1 X99.218 Y62.887 E.89181
G1 X99.189 Y63.347 E.02319
G1 X86.651 Y50.808 E.89181
G1 X86.622 Y51.268 E.02319
G1 X99.16 Y63.807 E.89181
G1 X99.132 Y64.267 E.02319
G1 X86.593 Y51.729 E.89181
G1 X86.565 Y52.189 E.02319
G1 X99.103 Y64.727 E.89181
G1 X99.074 Y65.187 E.02319
G1 X86.536 Y52.649 E.89181
G1 X86.507 Y53.109 E.02319
M73 P1 R160
G1 X99.046 Y65.647 E.89181
G1 X99.017 Y66.107 E.02319
G1 X86.478 Y53.569 E.89182
G1 X86.45 Y54.029 E.02319
G1 X98.988 Y66.567 E.89182
G1 X98.959 Y67.028 E.02319
G1 X86.421 Y54.489 E.89182
G1 X86.392 Y54.949 E.02319
G1 X98.931 Y67.488 E.89182
G1 X98.902 Y67.948 E.02319
G1 X86.364 Y55.409 E.89182
G1 X86.335 Y55.869 E.02319
M73 P1 R159
G1 X98.873 Y68.408 E.89182
G1 X98.845 Y68.868 E.02319
G1 X86.306 Y56.33 E.89182
G1 X86.278 Y56.79 E.02319
G1 X98.816 Y69.328 E.89182
G1 X98.787 Y69.788 E.02319
G1 X86.249 Y57.25 E.89182
G1 X86.22 Y57.71 E.02319
G1 X98.759 Y70.248 E.89183
G1 X98.732 Y70.71 E.02326
G1 X86.191 Y58.17 E.89194
G1 X86.163 Y58.63 E.02319
G1 X98.705 Y71.173 E.89212
G1 X98.679 Y71.635 E.02331
G1 X86.134 Y59.09 E.8923
G1 X86.105 Y59.55 E.02319
G1 X98.653 Y72.098 E.89249
G1 X98.627 Y72.561 E.02331
G1 X86.077 Y60.01 E.89267
G1 X86.048 Y60.47 E.02319
G1 X98.601 Y73.023 E.89285
G1 X98.575 Y73.486 E.02331
G1 X86.019 Y60.93 E.89303
G1 X85.99 Y61.391 E.02319
G1 X98.549 Y73.949 E.89321
G1 X98.522 Y74.411 E.02331
G1 X85.962 Y61.851 E.8934
G1 X85.933 Y62.311 E.02319
G1 X98.496 Y74.874 E.89358
G1 X98.47 Y75.337 E.02331
G1 X85.904 Y62.771 E.89376
G1 X85.876 Y63.231 E.02319
G1 X98.444 Y75.799 E.89394
G1 X98.418 Y76.262 E.02331
G1 X85.847 Y63.691 E.89412
G1 X85.818 Y64.151 E.02319
G1 X98.392 Y76.725 E.89431
G1 X98.366 Y77.187 E.02331
G1 X85.79 Y64.611 E.89449
G1 X85.761 Y65.071 E.02319
G1 X98.339 Y77.65 E.89467
G1 X98.313 Y78.113 E.02331
G1 X85.732 Y65.531 E.89485
G1 X85.703 Y65.992 E.02319
G1 X98.287 Y78.575 E.89504
G1 X98.261 Y79.038 E.02331
G1 X85.675 Y66.452 E.89522
G1 X85.646 Y66.912 E.02319
G1 X98.235 Y79.5 E.8954
G1 X98.209 Y79.963 E.02331
G1 X85.617 Y67.372 E.89558
G1 X85.589 Y67.832 E.02319
G1 X98.183 Y80.426 E.89576
G1 X98.156 Y80.888 E.02331
G1 X85.56 Y68.292 E.89595
G1 X85.531 Y68.752 E.02319
G1 X98.13 Y81.351 E.89613
G1 X98.104 Y81.814 E.02331
G1 X85.502 Y69.212 E.89631
G1 X85.475 Y69.673 E.02322
G1 X98.078 Y82.276 E.89644
G1 X98.052 Y82.739 E.02331
G1 X85.448 Y70.136 E.89644
G1 X85.422 Y70.598 E.02331
G1 X98.026 Y83.202 E.89644
G1 X98 Y83.664 E.02331
G1 X85.396 Y71.061 E.89644
G1 X85.37 Y71.524 E.02331
G1 X97.973 Y84.127 E.89644
G1 X97.947 Y84.59 E.02331
G1 X85.344 Y71.986 E.89644
G1 X85.318 Y72.449 E.02331
G1 X97.921 Y85.052 E.89644
G1 X97.895 Y85.515 E.02331
G1 X85.292 Y72.912 E.89644
G1 X85.265 Y73.374 E.02331
G1 X97.869 Y85.978 E.89644
G1 X97.843 Y86.44 E.02331
G1 X85.239 Y73.837 E.89644
G1 X85.213 Y74.3 E.02331
G1 X97.816 Y86.903 E.89644
G1 X97.79 Y87.366 E.02331
G1 X85.187 Y74.762 E.89644
G1 X85.161 Y75.225 E.02331
G1 X97.764 Y87.828 E.89644
G1 X97.738 Y88.291 E.02331
G1 X85.135 Y75.688 E.89644
G1 X85.108 Y76.15 E.02331
G1 X97.712 Y88.754 E.89644
G1 X97.686 Y89.216 E.02331
G1 X85.082 Y76.613 E.89644
G1 X85.056 Y77.075 E.02331
G1 X97.66 Y89.679 E.89644
G1 X97.633 Y90.142 E.02331
G1 X85.03 Y77.538 E.89644
G1 X85.004 Y78.001 E.02331
G1 X97.607 Y90.604 E.89644
G1 X97.581 Y91.067 E.02331
G1 X84.978 Y78.463 E.89645
G1 X84.952 Y78.926 E.02331
G1 X97.555 Y91.53 E.89645
G1 X97.529 Y91.992 E.02331
G1 X84.925 Y79.389 E.89645
G1 X84.899 Y79.851 E.02331
G1 X97.503 Y92.455 E.89645
G1 X97.477 Y92.917 E.02331
G1 X84.873 Y80.314 E.89645
G1 X84.847 Y80.777 E.02331
G1 X97.45 Y93.38 E.89645
G1 X97.424 Y93.843 E.02331
G1 X84.821 Y81.239 E.89645
G1 X84.795 Y81.702 E.02331
G1 X97.398 Y94.305 E.89645
G1 X97.372 Y94.768 E.02331
G1 X84.769 Y82.165 E.89645
G1 X84.742 Y82.627 E.02331
G1 X97.346 Y95.231 E.89645
G1 X97.32 Y95.693 E.02331
G1 X84.716 Y83.09 E.89645
G1 X84.69 Y83.553 E.02331
G1 X97.294 Y96.156 E.89645
G1 X97.267 Y96.619 E.02331
G1 X84.664 Y84.015 E.89645
G1 X84.638 Y84.478 E.02331
G1 X97.241 Y97.081 E.89645
G1 X97.215 Y97.544 E.02331
G1 X84.612 Y84.941 E.89645
G1 X84.585 Y85.403 E.02331
G1 X97.189 Y98.007 E.89645
G1 X97.163 Y98.469 E.02331
G1 X84.559 Y85.866 E.89645
G1 X84.533 Y86.328 E.02331
G1 X97.137 Y98.932 E.89645
G1 X97.111 Y99.395 E.02331
G1 X84.507 Y86.791 E.89645
G1 X84.481 Y87.254 E.02331
G1 X97.084 Y99.857 E.89645
G1 X97.058 Y100.32 E.02331
G1 X84.455 Y87.716 E.89645
G1 X84.429 Y88.179 E.02331
G1 X97.032 Y100.783 E.89645
G1 X97.006 Y101.245 E.02331
G1 X84.402 Y88.642 E.89645
G1 X84.376 Y89.104 E.02331
G1 X96.98 Y101.708 E.89645
G1 X96.954 Y102.171 E.02331
G1 X84.35 Y89.567 E.89646
G1 X84.324 Y90.03 E.02331
G1 X96.928 Y102.633 E.89646
G1 X96.901 Y103.096 E.02331
G1 X84.298 Y90.492 E.89646
G1 X84.272 Y90.955 E.02331
G1 X96.875 Y103.559 E.89646
G1 X96.849 Y104.021 E.02331
G1 X84.246 Y91.418 E.89646
G1 X84.219 Y91.88 E.02331
G1 X96.823 Y104.484 E.89646
G1 X96.797 Y104.947 E.02331
G1 X84.193 Y92.343 E.89646
G1 X84.167 Y92.806 E.02331
G1 X96.771 Y105.409 E.89646
G1 X96.745 Y105.872 E.02331
G1 X84.141 Y93.268 E.89646
G1 X84.115 Y93.731 E.02331
G1 X96.718 Y106.335 E.89646
G1 X96.692 Y106.797 E.02331
G1 X84.089 Y94.194 E.89646
G1 X84.062 Y94.656 E.02331
G1 X96.666 Y107.26 E.89646
G1 X96.64 Y107.722 E.02331
G1 X84.036 Y95.119 E.89646
G1 X84.01 Y95.581 E.02331
G1 X96.614 Y108.185 E.89646
G1 X96.588 Y108.648 E.02331
G1 X83.984 Y96.044 E.89646
G1 X83.958 Y96.507 E.02331
G1 X96.562 Y109.11 E.89646
G1 X96.535 Y109.573 E.02331
G1 X83.932 Y96.969 E.89646
G1 X83.906 Y97.432 E.02331
G1 X96.509 Y110.036 E.89646
G1 X96.483 Y110.498 E.02331
M73 P1 R158
G1 X83.879 Y97.895 E.89646
G1 X83.853 Y98.357 E.02331
G1 X96.457 Y110.961 E.89646
G1 X96.431 Y111.424 E.02331
G1 X83.827 Y98.82 E.89646
G1 X83.801 Y99.283 E.02331
G1 X96.405 Y111.886 E.89646
G1 X96.379 Y112.349 E.02331
G1 X83.775 Y99.745 E.89646
G1 X83.749 Y100.208 E.02331
G1 X96.352 Y112.812 E.89647
G1 X96.326 Y113.274 E.02331
G1 X83.723 Y100.671 E.89647
G1 X83.696 Y101.133 E.02331
G1 X96.3 Y113.737 E.89647
G1 X96.274 Y114.2 E.02331
G1 X83.67 Y101.596 E.89647
G1 X83.644 Y102.059 E.02331
G1 X96.248 Y114.662 E.89647
G1 X96.222 Y115.125 E.02331
G1 X83.618 Y102.521 E.89647
G1 X83.592 Y102.984 E.02331
G1 X96.196 Y115.588 E.89647
G1 X96.169 Y116.05 E.02331
G1 X83.566 Y103.447 E.89647
G1 X83.539 Y103.909 E.02331
G1 X96.143 Y116.513 E.89647
G1 X96.117 Y116.976 E.02331
G1 X83.513 Y104.372 E.89647
G1 X83.487 Y104.834 E.02331
G1 X96.091 Y117.438 E.89647
G1 X96.065 Y117.901 E.02331
G1 X83.461 Y105.297 E.89647
G1 X83.435 Y105.76 E.02331
G1 X96.039 Y118.364 E.89647
G1 X96.013 Y118.826 E.02331
G1 X83.409 Y106.222 E.89647
G1 X83.383 Y106.685 E.02331
G1 X95.986 Y119.289 E.89647
G1 X95.96 Y119.752 E.02331
G1 X83.356 Y107.148 E.89647
G1 X83.33 Y107.61 E.02331
G1 X95.934 Y120.214 E.89647
G1 X95.908 Y120.677 E.02331
G1 X83.304 Y108.073 E.89647
G1 X83.278 Y108.536 E.02331
G1 X95.882 Y121.14 E.89647
G1 X95.856 Y121.602 E.02331
G1 X83.252 Y108.998 E.89647
G1 X83.226 Y109.461 E.02331
G1 X95.83 Y122.065 E.89647
G1 X95.803 Y122.527 E.02331
G1 X83.2 Y109.924 E.89647
G1 X83.173 Y110.386 E.02331
G1 X95.777 Y122.99 E.89647
G1 X95.751 Y123.453 E.02331
G1 X83.147 Y110.849 E.89648
G1 X83.121 Y111.312 E.02331
G1 X95.725 Y123.915 E.89648
G1 X95.699 Y124.378 E.02331
G1 X83.095 Y111.774 E.89648
G1 X83.069 Y112.237 E.02331
G1 X95.673 Y124.841 E.89648
G1 X95.647 Y125.303 E.02331
G1 X83.043 Y112.7 E.89648
G1 X83.016 Y113.162 E.02331
G1 X95.62 Y125.766 E.89648
G1 X95.594 Y126.229 E.02331
G1 X82.99 Y113.625 E.89648
G1 X82.964 Y114.087 E.02331
G1 X95.568 Y126.691 E.89648
G1 X95.542 Y127.154 E.02331
G1 X82.938 Y114.55 E.89648
G1 X82.912 Y115.013 E.02331
G1 X95.516 Y127.617 E.89648
G1 X95.49 Y128.079 E.02331
G1 X82.886 Y115.475 E.89648
G1 X82.86 Y115.938 E.02331
G1 X95.464 Y128.542 E.89648
G1 X95.437 Y129.005 E.02331
G1 X82.833 Y116.401 E.89648
G1 X82.807 Y116.863 E.02331
G1 X95.411 Y129.467 E.89648
G1 X95.385 Y129.93 E.02331
G1 X82.781 Y117.326 E.89648
G1 X82.755 Y117.789 E.02331
G1 X95.359 Y130.393 E.89648
G1 X95.333 Y130.855 E.02331
G1 X82.729 Y118.251 E.89648
G1 X82.703 Y118.714 E.02331
G1 X95.307 Y131.318 E.89648
G1 X95.281 Y131.781 E.02331
G1 X82.677 Y119.177 E.89648
G1 X82.65 Y119.639 E.02331
G1 X95.254 Y132.243 E.89648
G1 X95.228 Y132.706 E.02331
G1 X82.624 Y120.102 E.89648
G1 X82.598 Y120.565 E.02331
G1 X95.202 Y133.169 E.89648
G1 X95.176 Y133.631 E.02331
G1 X82.572 Y121.027 E.89648
G1 X82.546 Y121.49 E.02331
M73 P2 R158
G1 X95.15 Y134.094 E.89649
G1 X95.124 Y134.557 E.02331
G1 X82.52 Y121.953 E.89649
G1 X82.493 Y122.415 E.02331
G1 X95.097 Y135.019 E.89649
G1 X95.071 Y135.482 E.02331
G1 X82.467 Y122.878 E.89649
G1 X82.441 Y123.34 E.02331
G1 X95.045 Y135.945 E.89649
G1 X95.019 Y136.407 E.02331
G1 X82.415 Y123.803 E.89649
G1 X82.389 Y124.266 E.02331
G1 X94.993 Y136.87 E.89649
G1 X94.967 Y137.332 E.02331
G1 X82.363 Y124.728 E.89649
G1 X82.337 Y125.191 E.02331
