; generated by PrusaSlicer 2.5.0+win64 on 2022-12-07 at 00:17:28 UTC

; 

; external perimeters extrusion width = 1.00mm
; perimeters extrusion width = 1.00mm
; infill extrusion width = 1.00mm
; solid infill extrusion width = 1.00mm
; top infill extrusion width = 1.00mm
; support material extrusion width = 1.00mm
; first layer extrusion width = 0.42mm

M73 P0 R173
M107
;TYPE:Custom
G90 ; use absolute coordinates
M83 ; extruder relative mode
M140 S60 ; set final bed temp
M104 S150 ; set temporary nozzle temp to prevent oozing during homing and auto bed leveling
G4 S10 ; allow partial nozzle warmup
G28 ; home all axisG1 Z50 F240
G1 X7.6 Y10 F3000
M104 S210 ; set final nozzle temp
M190 S60 ; wait for bed temp to stabilize
M109 S210 ; wait for nozzle temp to stabilize
G1 Z0.28 F240
G92 E0
G1 Y140 E10 F1500 ; prime the nozzle
G1 X4 F5000
G92 E0
G1 Y10 E10 F1200 ; prime the nozzle
G92 E0
G21 ; set units to millimeters
G90 ; use absolute coordinates
M83 ; use relative distances for extrusion
; Filament gcode
M107
;LAYER_CHANGE
;Z:0.35
;HEIGHT:0.35
;BEFORE_LAYER_CHANGE
G92 E0
;0.35


G1 E-1 F3600
G1 Z.35 F7800
;AFTER_LAYER_CHANGE
;0.35
G1 X122.039 Y162.82
G1 E1 F2400
;TYPE:Perimeter
;WIDTH:0.42
G1 F1800
G1 X97.992 Y162.82 E1.20684
G1 X105.906 Y153.395 E.61764
G1 X106.265 Y153.496 E.01872
G1 X106.391 Y153.453 E.0067
G1 X106.678 Y153.246 E.01774
G1 X106.784 Y152.991 E.01389
G1 X106.706 Y152.49 E.02546
G1 X114.265 Y17.18 E6.80123
G1 X128.235 Y17.18 E.70108
G1 X120.804 Y153.552 E6.85411
G1 X121.849 Y161.875 E.42099
M73 P0 R172
G1 X122.009 Y162.673 E.04084
G1 X122.461 Y163.165 F7800
;TYPE:External perimeter
G1 F1800
G1 X97.252 Y163.165 E1.26514
G1 X105.845 Y152.931 E.67066
G1 X106.042 Y153.116 E.01354
G1 X106.195 Y153.159 E.00798
G1 X106.356 Y153.077 E.00904
G1 X106.434 Y152.984 E.00611
G1 X106.359 Y152.517 E.02374
G1 X113.939 Y16.835 E6.81992
G1 X128.599 Y16.835 E.73573
G1 X121.148 Y153.571 E6.87239
G1 X122.192 Y161.832 E.41788
G1 X122.431 Y163.018 E.06073
G1 X121.573 Y162.705 F7800
G1 E-.7 F3600
;WIPE_START
G1 F6240
G1 X121.911 Y163.021 E-.285
;WIPE_END
G1 E-.015 F3600
G1 X127.428 Y17.283 F7800
G1 E1 F2400
;TYPE:Solid infill
;WIDTH:0.420657
G1 F1800
G1 X127.942 Y17.797 E.03656
G1 X127.917 Y18.261 E.02334
G1 X127.094 Y17.438 E.05848
G1 X126.606 Y17.438 E.02457
G1 X127.891 Y18.724 E.09143
G1 X127.866 Y19.188 E.02334
G1 X126.117 Y17.438 E.12439
G1 X125.628 Y17.438 E.02457
G1 X127.841 Y19.651 E.15734
G1 X127.816 Y20.115 E.02334
G1 X125.14 Y17.438 E.19029
G1 X124.651 Y17.438 E.02457
G1 X127.79 Y20.578 E.22325
G1 X127.765 Y21.041 E.02334
G1 X124.162 Y17.438 E.2562
G1 X123.673 Y17.438 E.02457
G1 X127.74 Y21.505 E.28915
G1 X127.715 Y21.968 E.02334
G1 X123.185 Y17.438 E.32211
G1 X122.696 Y17.438 E.02457
G1 X127.689 Y22.432 E.35506
G1 X127.664 Y22.895 E.02334
G1 X122.207 Y17.438 E.38802
G1 X121.719 Y17.438 E.02457
G1 X127.639 Y23.359 E.42097
G1 X127.614 Y23.822 E.02334
G1 X121.23 Y17.438 E.45392
G1 X120.741 Y17.438 E.02457
G1 X127.588 Y24.285 E.48688
G1 X127.563 Y24.749 E.02334
G1 X120.253 Y17.438 E.51983
G1 X119.764 Y17.438 E.02457
G1 X127.538 Y25.212 E.55278
G1 X127.513 Y25.676 E.02334
G1 X119.275 Y17.438 E.58574
G1 X118.787 Y17.438 E.02457
G1 X127.487 Y26.139 E.61869
G1 X127.462 Y26.602 E.02334
G1 X118.298 Y17.438 E.65164
G1 X117.809 Y17.438 E.02457
G1 X127.437 Y27.066 E.6846
G1 X127.412 Y27.529 E.02334
G1 X117.321 Y17.438 E.71755
G1 X116.832 Y17.438 E.02457
G1 X127.386 Y27.993 E.7505
G1 X127.361 Y28.456 E.02334
G1 X116.343 Y17.438 E.78346
G1 X115.855 Y17.438 E.02457
G1 X127.336 Y28.92 E.81641
G1 X127.311 Y29.383 E.02334
G1 X115.366 Y17.438 E.84936
G1 X114.877 Y17.438 E.02457
G1 X127.285 Y29.846 E.88232
G1 X127.26 Y30.31 E.02334
G1 X114.503 Y17.553 E.90714
G1 X114.477 Y18.016 E.02331
G1 X127.235 Y30.773 E.90718
G1 X127.21 Y31.237 E.02334
G1 X114.451 Y18.478 E.90722
G1 X114.425 Y18.941 E.02331
G1 X127.184 Y31.7 E.90727
G1 X127.159 Y32.164 E.02334
G1 X114.4 Y19.404 E.90731
G1 X114.374 Y19.867 E.02331
G1 X127.134 Y32.627 E.90735
G1 X127.109 Y33.09 E.02334
G1 X114.348 Y20.33 E.90739
G1 X114.322 Y20.793 E.02331
G1 X127.083 Y33.554 E.90744
G1 X127.058 Y34.017 E.02334
G1 X114.296 Y21.255 E.90748
G1 X114.27 Y21.718 E.02331
G1 X127.033 Y34.481 E.90752
G1 X127.008 Y34.944 E.02334
G1 X114.244 Y22.181 E.90757
G1 X114.219 Y22.644 E.02331
G1 X126.982 Y35.408 E.90761
G1 X126.957 Y35.871 E.02334
G1 X114.193 Y23.107 E.90765
G1 X114.167 Y23.57 E.02331
G1 X126.932 Y36.334 E.9077
G1 X126.907 Y36.798 E.02334
G1 X114.141 Y24.032 E.90774
G1 X114.115 Y24.495 E.02331
G1 X126.881 Y37.261 E.90778
G1 X126.856 Y37.725 E.02334
G1 X114.089 Y24.958 E.90782
G1 X114.063 Y25.421 E.02331
G1 X126.831 Y38.188 E.90787
G1 X126.806 Y38.652 E.02334
G1 X114.038 Y25.884 E.90791
G1 X114.012 Y26.346 E.02331
G1 X126.78 Y39.115 E.90795
G1 X126.755 Y39.578 E.02334
G1 X113.986 Y26.809 E.908
G1 X113.96 Y27.272 E.02331
G1 X126.73 Y40.042 E.90804
G1 X126.705 Y40.505 E.02334
G1 X113.934 Y27.735 E.90808
G1 X113.908 Y28.198 E.02331
G1 X126.679 Y40.969 E.90812
G1 X126.654 Y41.432 E.02334
G1 X113.882 Y28.661 E.90817
G1 X113.857 Y29.123 E.02331
G1 X126.629 Y41.895 E.90821
G1 X126.604 Y42.359 E.02334
G1 X113.831 Y29.586 E.90825
G1 X113.805 Y30.049 E.02331
G1 X126.578 Y42.822 E.9083
G1 X126.553 Y43.286 E.02334
G1 X113.779 Y30.512 E.90834
G1 X113.753 Y30.975 E.02331
G1 X126.528 Y43.749 E.90838
G1 X126.503 Y44.213 E.02334
G1 X113.727 Y31.437 E.90843
G1 X113.702 Y31.9 E.02331
G1 X126.477 Y44.676 E.90847
G1 X126.452 Y45.139 E.02334
G1 X113.676 Y32.363 E.90851
G1 X113.65 Y32.826 E.02331
G1 X126.427 Y45.603 E.90855
G1 X126.402 Y46.066 E.02334
G1 X113.624 Y33.289 E.9086
G1 X113.598 Y33.752 E.02331
G1 X126.376 Y46.53 E.90864
G1 X126.351 Y46.993 E.02334
G1 X113.572 Y34.214 E.90868
G1 X113.546 Y34.677 E.02331
G1 X126.326 Y47.457 E.90873
G1 X126.3 Y47.92 E.02334
G1 X113.521 Y35.14 E.90877
G1 X113.495 Y35.603 E.02331
G1 X126.275 Y48.383 E.90881
G1 X126.25 Y48.847 E.02334
G1 X113.469 Y36.066 E.90885
G1 X113.443 Y36.528 E.02331
G1 X126.225 Y49.31 E.9089
G1 X126.199 Y49.774 E.02334
G1 X113.417 Y36.991 E.90894
G1 X113.391 Y37.454 E.02331
G1 X126.174 Y50.237 E.90898
G1 X126.149 Y50.701 E.02334
G1 X113.365 Y37.917 E.90903
G1 X113.34 Y38.38 E.02331
G1 X126.124 Y51.164 E.90907
G1 X126.098 Y51.627 E.02334
G1 X113.314 Y38.843 E.90911
G1 X113.288 Y39.305 E.02331
G1 X126.073 Y52.091 E.90915
G1 X126.048 Y52.554 E.02334
G1 X113.262 Y39.768 E.9092
G1 X113.236 Y40.231 E.02331
G1 X126.023 Y53.018 E.90924
G1 X125.997 Y53.481 E.02334
G1 X113.21 Y40.694 E.90928
G1 X113.184 Y41.157 E.02331
M73 P0 R171
G1 X125.972 Y53.945 E.90933
G1 X125.947 Y54.408 E.02334
G1 X113.159 Y41.619 E.90937
G1 X113.133 Y42.082 E.02331
G1 X125.922 Y54.871 E.90941
G1 X125.896 Y55.335 E.02334
G1 X113.107 Y42.545 E.90946
G1 X113.081 Y43.008 E.02331
G1 X125.871 Y55.798 E.9095
G1 X125.846 Y56.262 E.02334
G1 X113.055 Y43.471 E.90954
G1 X113.029 Y43.934 E.02331
G1 X125.821 Y56.725 E.90958
G1 X125.795 Y57.188 E.02334
G1 X113.003 Y44.396 E.90963
G1 X112.978 Y44.859 E.02331
G1 X125.77 Y57.652 E.90967
G1 X125.745 Y58.115 E.02334
G1 X112.952 Y45.322 E.90971
G1 X112.926 Y45.785 E.02331
G1 X125.72 Y58.579 E.90976
G1 X125.694 Y59.042 E.02334
G1 X112.9 Y46.248 E.9098
G1 X112.874 Y46.711 E.02331
G1 X125.669 Y59.506 E.90984
G1 X125.644 Y59.969 E.02334
G1 X112.848 Y47.173 E.90988
G1 X112.822 Y47.636 E.02331
G1 X125.619 Y60.432 E.90993
G1 X125.593 Y60.896 E.02334
G1 X112.797 Y48.099 E.90997
G1 X112.771 Y48.562 E.02331
G1 X125.568 Y61.359 E.91001
G1 X125.543 Y61.823 E.02334
G1 X112.745 Y49.025 E.91006
G1 X112.719 Y49.487 E.02331
G1 X125.518 Y62.286 E.9101
G1 X125.492 Y62.75 E.02334
G1 X112.693 Y49.95 E.91014
G1 X112.667 Y50.413 E.02331
G1 X125.467 Y63.213 E.91019
G1 X125.442 Y63.676 E.02334
G1 X112.641 Y50.876 E.91023
G1 X112.616 Y51.339 E.02331
G1 X125.417 Y64.14 E.91027
G1 X125.391 Y64.603 E.02334
G1 X112.59 Y51.802 E.91031
G1 X112.564 Y52.264 E.02331
G1 X125.366 Y65.067 E.91036
G1 X125.341 Y65.53 E.02334
G1 X112.538 Y52.727 E.9104
G1 X112.512 Y53.19 E.02331
G1 X125.316 Y65.994 E.91044
G1 X125.29 Y66.457 E.02334
G1 X112.486 Y53.653 E.91049
G1 X112.46 Y54.116 E.02331
G1 X125.265 Y66.92 E.91053
G1 X125.24 Y67.384 E.02334
G1 X112.435 Y54.578 E.91057
G1 X112.409 Y55.041 E.02331
G1 X125.215 Y67.847 E.91061
G1 X125.189 Y68.311 E.02334
G1 X112.383 Y55.504 E.91066
G1 X112.357 Y55.967 E.02331
G1 X125.164 Y68.774 E.9107
G1 X125.139 Y69.237 E.02334
M73 P1 R171
G1 X112.331 Y56.43 E.91074
G1 X112.305 Y56.893 E.02331
G1 X125.114 Y69.701 E.91079
G1 X125.088 Y70.164 E.02334
G1 X112.279 Y57.355 E.91083
G1 X112.254 Y57.818 E.02331
G1 X125.063 Y70.628 E.91087
G1 X125.038 Y71.091 E.02334
G1 X112.228 Y58.281 E.91092
G1 X112.202 Y58.744 E.02331
G1 X125.013 Y71.555 E.91096
G1 X124.987 Y72.018 E.02334
G1 X112.176 Y59.207 E.911
G1 X112.15 Y59.669 E.02331
G1 X124.962 Y72.481 E.91104
G1 X124.937 Y72.945 E.02334
G1 X112.124 Y60.132 E.91109
G1 X112.098 Y60.595 E.02331
G1 X124.912 Y73.408 E.91113
G1 X124.886 Y73.872 E.02334
G1 X112.073 Y61.058 E.91117
G1 X112.047 Y61.521 E.02331
G1 X124.861 Y74.335 E.91122
G1 X124.836 Y74.799 E.02334
G1 X112.021 Y61.984 E.91126
G1 X111.995 Y62.446 E.02331
G1 X124.811 Y75.262 E.9113
G1 X124.785 Y75.725 E.02334
G1 X111.969 Y62.909 E.91134
G1 X111.943 Y63.372 E.02331
G1 X124.76 Y76.189 E.91139
G1 X124.735 Y76.652 E.02334
G1 X111.917 Y63.835 E.91143
G1 X111.892 Y64.298 E.02331
G1 X124.71 Y77.116 E.91147
G1 X124.684 Y77.579 E.02334
G1 X111.866 Y64.761 E.91152
G1 X111.84 Y65.223 E.02331
G1 X124.659 Y78.043 E.91156
G1 X124.634 Y78.506 E.02334
G1 X111.814 Y65.686 E.9116
G1 X111.788 Y66.149 E.02331
G1 X124.609 Y78.969 E.91165
G1 X124.583 Y79.433 E.02334
G1 X111.762 Y66.612 E.91169
G1 X111.736 Y67.075 E.02331
G1 X124.558 Y79.896 E.91173
G1 X124.533 Y80.36 E.02334
G1 X111.711 Y67.537 E.91177
G1 X111.685 Y68 E.02331
G1 X124.508 Y80.823 E.91182
G1 X124.482 Y81.287 E.02334
G1 X111.659 Y68.463 E.91186
G1 X111.633 Y68.926 E.02331
G1 X124.457 Y81.75 E.9119
G1 X124.432 Y82.213 E.02334
G1 X111.607 Y69.389 E.91195
G1 X111.581 Y69.852 E.02331
G1 X124.407 Y82.677 E.91199
G1 X124.381 Y83.14 E.02334
G1 X111.555 Y70.314 E.91203
G1 X111.53 Y70.777 E.02331
G1 X124.356 Y83.604 E.91207
G1 X124.331 Y84.067 E.02334
G1 X111.504 Y71.24 E.91212
G1 X111.478 Y71.703 E.02331
G1 X124.306 Y84.53 E.91216
G1 X124.28 Y84.994 E.02334
G1 X111.452 Y72.166 E.9122
G1 X111.426 Y72.628 E.02331
G1 X124.255 Y85.457 E.91225
G1 X124.23 Y85.921 E.02334
G1 X111.4 Y73.091 E.91229
G1 X111.374 Y73.554 E.02331
G1 X124.205 Y86.384 E.91233
G1 X124.179 Y86.848 E.02334
G1 X111.349 Y74.017 E.91238
G1 X111.323 Y74.48 E.02331
G1 X124.154 Y87.311 E.91242
G1 X124.129 Y87.774 E.02334
G1 X111.297 Y74.943 E.91246
G1 X111.271 Y75.405 E.02331
G1 X124.104 Y88.238 E.9125
G1 X124.078 Y88.701 E.02334
G1 X111.245 Y75.868 E.91255
G1 X111.219 Y76.331 E.02331
G1 X124.053 Y89.165 E.91259
G1 X124.028 Y89.628 E.02334
G1 X111.194 Y76.794 E.91263
G1 X111.168 Y77.257 E.02331
G1 X124.003 Y90.092 E.91268
G1 X123.977 Y90.555 E.02334
G1 X111.142 Y77.719 E.91272
G1 X111.116 Y78.182 E.02331
G1 X123.952 Y91.018 E.91276
G1 X123.927 Y91.482 E.02334
G1 X111.09 Y78.645 E.9128
G1 X111.064 Y79.108 E.02331
G1 X123.902 Y91.945 E.91285
G1 X123.876 Y92.409 E.02334
G1 X111.038 Y79.571 E.91289
G1 X111.013 Y80.034 E.02331
G1 X123.851 Y92.872 E.91293
G1 X123.826 Y93.336 E.02334
G1 X110.987 Y80.496 E.91298
G1 X110.961 Y80.959 E.02331
G1 X123.801 Y93.799 E.91302
G1 X123.775 Y94.262 E.02334
G1 X110.935 Y81.422 E.91306
G1 X110.909 Y81.885 E.02331
G1 X123.75 Y94.726 E.91311
G1 X123.725 Y95.189 E.02334
G1 X110.883 Y82.348 E.91315
G1 X110.857 Y82.81 E.02331
M73 P1 R170
G1 X123.7 Y95.653 E.91319
G1 X123.674 Y96.116 E.02334
G1 X110.832 Y83.273 E.91323
G1 X110.806 Y83.736 E.02331
G1 X123.649 Y96.58 E.91328
G1 X123.624 Y97.043 E.02334
G1 X110.78 Y84.199 E.91332
G1 X110.754 Y84.662 E.02331
G1 X123.599 Y97.506 E.91336
G1 X123.573 Y97.97 E.02334
G1 X110.728 Y85.125 E.91341
G1 X110.702 Y85.587 E.02331
G1 X123.548 Y98.433 E.91345
G1 X123.523 Y98.897 E.02334
G1 X110.676 Y86.05 E.91349
G1 X110.651 Y86.513 E.02331
G1 X123.498 Y99.36 E.91353
G1 X123.472 Y99.823 E.02334
G1 X110.625 Y86.976 E.91358
G1 X110.599 Y87.439 E.02331
G1 X123.447 Y100.287 E.91362
G1 X123.422 Y100.75 E.02334
G1 X110.573 Y87.902 E.91366
G1 X110.547 Y88.364 E.02331
G1 X123.397 Y101.214 E.91371
G1 X123.371 Y101.677 E.02334
G1 X110.521 Y88.827 E.91375
G1 X110.495 Y89.29 E.02331
G1 X123.346 Y102.141 E.91379
G1 X123.321 Y102.604 E.02334
G1 X110.47 Y89.753 E.91383
G1 X110.444 Y90.216 E.02331
G1 X123.296 Y103.067 E.91388
G1 X123.27 Y103.531 E.02334
G1 X110.418 Y90.678 E.91392
G1 X110.392 Y91.141 E.02331
G1 X123.245 Y103.994 E.91396
G1 X123.22 Y104.458 E.02334
G1 X110.366 Y91.604 E.91401
G1 X110.34 Y92.067 E.02331
G1 X123.195 Y104.921 E.91405
G1 X123.169 Y105.385 E.02334
G1 X110.314 Y92.53 E.91409
G1 X110.289 Y92.993 E.02331
G1 X123.144 Y105.848 E.91414
G1 X123.119 Y106.311 E.02334
G1 X110.263 Y93.455 E.91418
G1 X110.237 Y93.918 E.02331
G1 X123.094 Y106.775 E.91422
G1 X123.068 Y107.238 E.02334
G1 X110.211 Y94.381 E.91426
G1 X110.185 Y94.844 E.02331
G1 X123.043 Y107.702 E.91431
G1 X123.018 Y108.165 E.02334
G1 X110.159 Y95.307 E.91435
G1 X110.133 Y95.769 E.02331
G1 X122.993 Y108.629 E.91439
G1 X122.967 Y109.092 E.02334
G1 X110.108 Y96.232 E.91444
G1 X110.082 Y96.695 E.02331
G1 X122.942 Y109.555 E.91448
G1 X122.917 Y110.019 E.02334
G1 X110.056 Y97.158 E.91452
G1 X110.03 Y97.621 E.02331
G1 X122.892 Y110.482 E.91456
G1 X122.866 Y110.946 E.02334
G1 X110.004 Y98.084 E.91461
G1 X109.978 Y98.546 E.02331
G1 X122.841 Y111.409 E.91465
G1 X122.816 Y111.873 E.02334
G1 X109.952 Y99.009 E.91469
G1 X109.927 Y99.472 E.02331
G1 X122.79 Y112.336 E.91474
G1 X122.765 Y112.799 E.02334
G1 X109.901 Y99.935 E.91478
G1 X109.875 Y100.398 E.02331
G1 X122.74 Y113.263 E.91482
G1 X122.715 Y113.726 E.02334
G1 X109.849 Y100.86 E.91487
G1 X109.823 Y101.323 E.02331
G1 X122.689 Y114.19 E.91491
G1 X122.664 Y114.653 E.02334
G1 X109.797 Y101.786 E.91495
G1 X109.771 Y102.249 E.02331
G1 X122.639 Y115.116 E.91499
G1 X122.614 Y115.58 E.02334
G1 X109.746 Y102.712 E.91504
G1 X109.72 Y103.175 E.02331
G1 X122.588 Y116.043 E.91508
G1 X122.563 Y116.507 E.02334
G1 X109.694 Y103.637 E.91512
G1 X109.668 Y104.1 E.02331
G1 X122.538 Y116.97 E.91517
G1 X122.513 Y117.434 E.02334
G1 X109.642 Y104.563 E.91521
G1 X109.616 Y105.026 E.02331
G1 X122.487 Y117.897 E.91525
G1 X122.462 Y118.36 E.02334
G1 X109.59 Y105.489 E.91529
G1 X109.565 Y105.952 E.02331
G1 X122.437 Y118.824 E.91534
G1 X122.412 Y119.287 E.02334
G1 X109.539 Y106.414 E.91538
G1 X109.513 Y106.877 E.02331
G1 X122.386 Y119.751 E.91542
G1 X122.361 Y120.214 E.02334
G1 X109.487 Y107.34 E.91547
G1 X109.461 Y107.803 E.02331
G1 X122.336 Y120.678 E.91551
G1 X122.311 Y121.141 E.02334
G1 X109.435 Y108.266 E.91555
G1 X109.409 Y108.728 E.02331
G1 X122.285 Y121.604 E.9156
G1 X122.26 Y122.068 E.02334
G1 X109.384 Y109.191 E.91564
G1 X109.358 Y109.654 E.02331
G1 X122.235 Y122.531 E.91568
G1 X122.21 Y122.995 E.02334
G1 X109.332 Y110.117 E.91572
G1 X109.306 Y110.58 E.02331
G1 X122.184 Y123.458 E.91577
G1 X122.159 Y123.922 E.02334
G1 X109.28 Y111.043 E.91581
G1 X109.254 Y111.505 E.02331
G1 X122.134 Y124.385 E.91585
G1 X122.109 Y124.848 E.02334
G1 X109.228 Y111.968 E.9159
G1 X109.203 Y112.431 E.02331
G1 X122.083 Y125.312 E.91594
G1 X122.058 Y125.775 E.02334
G1 X109.177 Y112.894 E.91598
G1 X109.151 Y113.357 E.02331
G1 X122.033 Y126.239 E.91602
G1 X122.008 Y126.702 E.02334
G1 X109.125 Y113.819 E.91607
G1 X109.099 Y114.282 E.02331
G1 X121.982 Y127.166 E.91611
G1 X121.957 Y127.629 E.02334
G1 X109.073 Y114.745 E.91615
G1 X109.047 Y115.208 E.02331
G1 X121.932 Y128.092 E.9162
G1 X121.907 Y128.556 E.02334
G1 X109.022 Y115.671 E.91624
G1 X108.996 Y116.134 E.02331
G1 X121.881 Y129.019 E.91628
G1 X121.856 Y129.483 E.02334
G1 X108.97 Y116.596 E.91633
G1 X108.944 Y117.059 E.02331
G1 X121.831 Y129.946 E.91637
G1 X121.806 Y130.409 E.02334
G1 X108.918 Y117.522 E.91641
G1 X108.892 Y117.985 E.02331
G1 X121.78 Y130.873 E.91645
G1 X121.755 Y131.336 E.02334
G1 X108.867 Y118.448 E.9165
G1 X108.841 Y118.91 E.02331
G1 X121.73 Y131.8 E.91654
