; generated by PrusaSlicer 2.5.0+win64 on 2022-12-07 at 00:17:35 UTC

; 

; external perimeters extrusion width = 1.00mm
; perimeters extrusion width = 1.00mm
; infill extrusion width = 1.00mm
; solid infill extrusion width = 1.00mm
; top infill extrusion width = 1.00mm
; support material extrusion width = 1.00mm
; first layer extrusion width = 0.42mm

M73 P0 R160
M107
;TYPE:Custom
G90 ; use absolute coordinates
M83 ; extruder relative mode
M140 S60 ; set final bed temp
M104 S150 ; set temporary nozzle temp to prevent oozing during homing and auto bed leveling
G4 S10 ; allow partial nozzle warmup
G28 ; home all axisG1 Z50 F240
G1 X7.6 Y10 F3000
M104 S210 ; set final nozzle temp
M190 S60 ; wait for bed temp to stabilize
M109 S210 ; wait for nozzle temp to stabilize
G1 Z0.28 F240
G92 E0
G1 Y140 E10 F1500 ; prime the nozzle
G1 X4 F5000
G92 E0
G1 Y10 E10 F1200 ; prime the nozzle
G92 E0
G21 ; set units to millimeters
G90 ; use absolute coordinates
M83 ; use relative distances for extrusion
; Filament gcode
M107
;LAYER_CHANGE
;Z:0.35
;HEIGHT:0.35
;BEFORE_LAYER_CHANGE
G92 E0
;0.35


G1 E-1 F3600
G1 Z.35 F7800
;AFTER_LAYER_CHANGE
;0.35
G1 X90.364 Y103.971
G1 E1 F2400
;TYPE:Support material
;WIDTH:0.42
G1 F1800
G1 X90.419 Y104.074 E.00587
G1 X90.145 Y104.555 E.02778
G1 X90.141 Y104.924 E.01853
G1 X90.422 Y105.44 E.02947
G1 X89.638 Y106.778 E.07783
G1 X89.627 Y107.139 E.01812
G1 X89.926 Y107.734 E.03342
G1 X90.992 Y109.7 E.11224
G1 X89.349 Y109.7 E.08246
G1 X89.349 Y117.798 E.40642
G1 X94.152 Y117.798 E.24104
G1 X92.689 Y115.079 E.15495
G1 X92.693 Y114.674 E.02035
G1 X93.199 Y113.772 E.05187
G1 X95.818 Y118.604 E.27578
G1 X95.672 Y118.862 E.01487
G1 X95.669 Y119.227 E.0183
G1 X96.634 Y121.02 E.10221
G1 X96.634 Y130.556 E.47857
G1 X93.241 Y130.556 E.17027
G1 X93.241 Y137.341 E.34053
G1 X89.849 Y137.341 E.17027
G1 X89.849 Y154.305 E.85133
G1 X86.456 Y154.305 E.17027
G1 X86.456 Y161.09 E.34053
G1 X83.063 Y161.09 E.17027
G1 X83.063 Y167.876 E.34053
G1 X69.805 Y167.876 E.66536
G1 X69.805 Y147.832 E1.00589
G1 X73.198 Y147.832 E.17027
M73 P0 R159
G1 X73.198 Y137.654 E.5108
G1 X76.591 Y137.654 E.17027
G1 X76.591 Y127.476 E.5108
G1 X79.984 Y127.476 E.17027
G1 X79.984 Y117.298 E.5108
G1 X83.376 Y117.298 E.17027
G1 X83.376 Y107.12 E.5108
G1 X86.769 Y107.12 E.17027
G1 X86.769 Y103.727 E.17027
G1 X90.236 Y103.727 E.174
G1 X90.34 Y103.925 E.01122
G1 E-.7 F3600
;WIPE_START
G1 F6240
G1 X90.236 Y103.727 E-.1225
G1 X89.94 Y103.727 E-.1625
;WIPE_END
G1 E-.015 F3600
G1 X96.137 Y130.401 F7800
G1 E1 F2400
G1 F1800
G1 X96.137 Y120.75 E.48431
G1 X95.753 Y120.038 E.04059
G1 X95.753 Y130.246 E.51227
G1 X95.37 Y130.246 E.01923
G1 X95.37 Y118.43 E.593
G1 X94.987 Y117.722 E.04036
G1 X94.987 Y130.246 E.62848
G1 X94.604 Y130.246 E.01923
G1 X94.604 Y117.015 E.66397
G1 X94.221 Y116.308 E.04036
G1 X94.221 Y117.27 E.04828
G1 X93.837 Y116.558 E.04062
G1 X93.837 Y115.601 E.04799
G1 X93.454 Y114.894 E.04036
G1 X93.454 Y115.845 E.04772
G1 X93.071 Y115.133 E.04059
G1 X93.071 Y114.318 E.04091
G1 E-.7 F3600
;WIPE_START
G1 F6240
G1 X93.071 Y114.838 E-.285
;WIPE_END
G1 E-.015 F3600
G1 X94.221 Y130.401 F7800
G1 E1 F2400
G1 F1800
G1 X94.221 Y118.109 E.6169
G1 X93.837 Y118.109 E.01923
G1 X93.837 Y130.246 E.60911
G1 X93.454 Y130.246 E.01923
G1 X93.454 Y118.109 E.60911
G1 X93.071 Y118.109 E.01923
G1 X93.071 Y130.246 E.60911
G1 X92.931 Y130.246 E.00702
G1 X92.931 Y137.031 E.34053
G1 X92.688 Y137.031 E.01221
G1 X92.688 Y118.109 E.94964
G1 X92.304 Y118.109 E.01923
G1 X92.304 Y137.031 E.94964
G1 X91.921 Y137.031 E.01923
G1 X91.921 Y118.109 E.94964
G1 X91.538 Y118.109 E.01923
G1 X91.538 Y137.031 E.94964
G1 X91.155 Y137.031 E.01923
G1 X91.155 Y118.109 E.94964
G1 X90.772 Y118.109 E.01923
G1 X90.772 Y137.031 E.94964
G1 X90.388 Y137.031 E.01923
G1 X90.388 Y118.109 E.94964
G1 X90.005 Y118.109 E.01923
G1 X90.005 Y137.031 E.94964
G1 X89.622 Y137.031 E.01923
G1 X89.622 Y118.109 E.94964
G1 X89.239 Y118.109 E.01923
G1 X89.239 Y153.994 E1.80097
G1 X88.856 Y153.994 E.01923
G1 X88.856 Y104.038 E2.50713
G1 X89.239 Y104.038 E.01923
G1 X89.239 Y109.389 E.26858
G1 X89.622 Y109.389 E.01923
G1 X89.622 Y107.82 E.07874
G1 X90.005 Y108.531 E.04051
G1 X90.005 Y109.389 E.04309
G1 X90.388 Y109.389 E.01923
G1 X90.388 Y108.912 E.02395
G1 E-.7 F3600
;WIPE_START
G1 F6240
G1 X90.388 Y109.389 E-.26158
G1 X90.346 Y109.389 E-.02342
;WIPE_END
G1 E-.015 F3600
G1 X90.005 Y105.844 F7800
G1 E1 F2400
G1 F1800
G1 X90.005 Y105.324 E.02611
G1 X89.83 Y105.002 E.01841
G1 X89.835 Y104.471 E.02663
G1 X90.005 Y104.173 E.01723
G1 X90.005 Y104.038 E.00679
G1 X89.622 Y104.038 E.01923
G1 X89.622 Y106.498 E.12349
G1 X88.472 Y154.15 F7800
G1 F1800
G1 X88.472 Y104.038 E2.51492
G1 X88.089 Y104.038 E.01923
G1 X88.089 Y153.994 E2.50713
G1 X87.706 Y153.994 E.01923
G1 X87.706 Y104.038 E2.50713
G1 X87.323 Y104.038 E.01923
G1 X87.323 Y153.994 E2.50713
G1 X86.94 Y153.994 E.01923
G1 X86.94 Y107.43 E2.33686
G1 X86.556 Y107.43 E.01923
G1 X86.556 Y153.994 E2.33686
G1 X86.173 Y153.994 E.01923
G1 X86.173 Y107.43 E2.33686
G1 X85.79 Y107.43 E.01923
G1 X85.79 Y160.78 E2.67739
G1 X85.407 Y160.78 E.01923
G1 X85.407 Y107.43 E2.67739
G1 X85.023 Y107.43 E.01923
G1 X85.023 Y160.78 E2.67739
G1 X84.64 Y160.78 E.01923
G1 X84.64 Y107.43 E2.67739
G1 X84.257 Y107.43 E.01923
G1 X84.257 Y160.78 E2.67739
G1 X83.874 Y160.78 E.01923
G1 X83.874 Y107.43 E2.67739
G1 X83.687 Y107.43 E.00939
G1 X83.687 Y117.608 E.5108
G1 X83.491 Y117.608 E.00984
G1 X83.491 Y160.78 E2.1666
G1 X83.107 Y160.78 E.01923
G1 X83.107 Y117.608 E2.1666
G1 X82.724 Y117.608 E.01923
G1 X82.724 Y167.565 E2.50713
G1 X82.341 Y167.565 E.01923
G1 X82.341 Y117.608 E2.50713
G1 X81.958 Y117.608 E.01923
G1 X81.958 Y167.565 E2.50713
G1 X81.575 Y167.565 E.01923
G1 X81.575 Y117.608 E2.50713
G1 X81.191 Y117.608 E.01923
G1 X81.191 Y167.565 E2.50713
G1 X80.808 Y167.565 E.01923
G1 X80.808 Y117.608 E2.50713
G1 X80.425 Y117.608 E.01923
G1 X80.425 Y167.565 E2.50713
G1 X80.042 Y167.565 E.01923
G1 X80.042 Y127.787 E1.99633
G1 X79.659 Y127.787 E.01923
G1 X79.659 Y167.565 E1.99633
G1 X79.275 Y167.565 E.01923
M73 P0 R158
G1 X79.275 Y127.787 E1.99633
G1 X78.892 Y127.787 E.01923
G1 X78.892 Y167.565 E1.99633
G1 X78.509 Y167.565 E.01923
G1 X78.509 Y127.787 E1.99633
G1 X78.126 Y127.787 E.01923
G1 X78.126 Y167.565 E1.99633
G1 X77.742 Y167.565 E.01923
G1 X77.743 Y127.787 E1.99633
G1 X77.359 Y127.787 E.01923
G1 X77.359 Y167.565 E1.99633
G1 X76.976 Y167.565 E.01923
G1 X76.976 Y127.787 E1.99633
G1 X76.901 Y127.787 E.00375
G1 X76.901 Y137.965 E.5108
G1 X76.593 Y137.965 E.01548
G1 X76.593 Y167.565 E1.48553
G1 X76.21 Y167.565 E.01923
G1 X76.21 Y137.965 E1.48553
G1 X75.826 Y137.965 E.01923
G1 X75.826 Y167.565 E1.48553
G1 X75.443 Y167.565 E.01923
G1 X75.443 Y137.965 E1.48553
G1 X75.06 Y137.965 E.01923
G1 X75.06 Y167.565 E1.48553
G1 X74.677 Y167.565 E.01923
G1 X74.677 Y137.965 E1.48553
G1 X74.294 Y137.965 E.01923
G1 X74.294 Y167.565 E1.48553
G1 X73.91 Y167.565 E.01923
M73 P1 R158
G1 X73.91 Y137.965 E1.48553
G1 X73.527 Y137.965 E.01923
G1 X73.527 Y167.565 E1.48553
G1 X73.144 Y167.565 E.01923
G1 X73.144 Y148.143 E.97474
G1 X72.761 Y148.143 E.01923
G1 X72.761 Y167.565 E.97474
G1 X72.378 Y167.565 E.01923
G1 X72.378 Y148.143 E.97474
G1 X71.994 Y148.143 E.01923
G1 X71.994 Y167.565 E.97474
G1 X71.611 Y167.565 E.01923
G1 X71.611 Y148.143 E.97474
G1 X71.228 Y148.143 E.01923
G1 X71.228 Y167.565 E.97474
G1 X70.845 Y167.565 E.01923
G1 X70.845 Y148.143 E.97474
G1 X70.462 Y148.143 E.01923
G1 X70.462 Y167.72 E.98253
G1 E-.7 F3600
;WIPE_START
G1 F6240
G1 X70.462 Y167.2 E-.285
;WIPE_END
G1 E-.015 F3600
G1 X92.237 Y117.543 F7800
G1 E1 F2400
;TYPE:Support material interface
;WIDTH:1
G1 F1800
G1 X92.237 Y113.221 E.58168
G1 X91.344 Y111.574 E.25214
G1 X91.344 Y117.142 E.74929
G1 X90.452 Y117.142 E.12014
G1 X90.452 Y109.955 E.96727
G1 E-.7 F3600
;WIPE_START
G1 F6240
G1 X90.452 Y110.475 E-.285
;WIPE_END
G1 E-.015 F3600
G1 X107.01 Y104.73 F7800
G1 E1 F2400
;TYPE:Perimeter
;WIDTH:0.42
G1 F1800
G1 X107.095 Y104.887 E.00896
G1 X107.419 Y105.041 E.01803
G1 X107.529 Y105.051 E.00555
G1 X107.529 Y122.653 E.88337
G1 X98.513 Y121.842 E.45434
G1 X97.014 Y119.056 E.15874
G1 X97.122 Y118.863 E.01112
G1 X97.188 Y118.594 E.01391
G1 X97.126 Y118.363 E.01199
G1 X90.973 Y107.001 E.64847
G1 X91.727 Y105.715 E.07482
G1 X91.798 Y105.455 E.01352
G1 X91.735 Y105.206 E.01289
G1 X91.488 Y104.753 E.02589
G1 X94.21 Y99.976 E.27591
G1 X94.275 Y99.781 E.01031
G1 X94.216 Y99.474 E.01569
G1 X94.037 Y99.143 E.01889
G1 X102.417 Y84.403 E.85094
G1 X102.477 Y84.237 E.00887
G1 X102.439 Y83.799 E.02206
G1 X102.339 Y83.113 E.03477
G1 X102.422 Y82.831 E.01476
G1 X102.424 Y82.676 E.00779
G1 X101.964 Y79.322 E.16989
G1 X101.883 Y77.702 E.08137
G1 X102.833 Y66.003 E.58909
G1 X105.557 Y17.181 E2.45396
G1 X107.529 Y17.181 E.099
G1 X107.529 Y103.368 E4.32535
G1 X107.016 Y104.27 E.05209
G1 X106.968 Y104.383 E.00619
G1 X106.962 Y104.592 E.01048
G1 X107.305 Y104.59 F7800
;TYPE:External perimeter
G1 F1800
G1 X107.45 Y104.697 E.00906
G1 X107.874 Y104.735 E.02138
G1 X107.874 Y123.03 E.91813
G1 X98.297 Y122.169 E.48259
G1 X96.62 Y119.053 E.17757
G1 X96.822 Y118.694 E.02063
G1 X96.823 Y118.528 E.00836
G1 X90.581 Y106.989 E.6584
G1 X91.442 Y105.512 E.0858
G1 X91.432 Y105.371 E.00711
G1 X91.093 Y104.749 E.03553
G1 X93.918 Y99.791 E.28637
G1 X93.913 Y99.638 E.00769
G1 X93.642 Y99.139 E.02849
G1 X102.132 Y84.198 E.8624
G1 X101.972 Y82.986 E.06135
G1 X102.061 Y82.832 E.00895
G1 X102.082 Y82.722 E.00559
G1 X101.621 Y79.354 E.17064
G1 X101.538 Y77.697 E.08326
G1 X102.489 Y65.983 E.58979
G1 X105.231 Y16.836 E2.47033
G1 X107.874 Y16.836 E.13267
G1 X107.874 Y103.459 E4.34725
G1 X107.316 Y104.44 E.05666
G1 X107.23 Y104.754 F7800
G1 E-.7 F3600
;WIPE_START
G1 F6240
G1 X107.45 Y104.697 E-.15911
G1 X107.679 Y104.718 E-.12589
;WIPE_END
G1 E-.015 F3600
G1 X107.426 Y17.983 F7800
G1 E1 F2400
;TYPE:Solid infill
;WIDTH:0.420647
G1 F1800
G1 X106.882 Y17.44 E.03864
G1 X106.394 Y17.44 E.02457
G1 X107.271 Y18.316 E.06235
G1 X107.271 Y18.805 E.02457
G1 X105.905 Y17.44 E.0971
G1 X105.801 Y17.44 E.00522
G1 X105.781 Y17.804 E.01836
G1 X107.271 Y19.294 E.10592
G1 X107.271 Y19.782 E.02457
G1 X105.755 Y18.267 E.10776
G1 X105.729 Y18.73 E.02331
G1 X107.271 Y20.271 E.10959
G1 X107.271 Y20.76 E.02457
G1 X105.704 Y19.193 E.11143
G1 X105.678 Y19.656 E.02331
G1 X107.271 Y21.248 E.11327
G1 X107.271 Y21.737 E.02457
G1 X105.652 Y20.118 E.1151
G1 X105.626 Y20.581 E.02331
G1 X107.271 Y22.226 E.11694
G1 X107.271 Y22.714 E.02457
G1 X105.6 Y21.044 E.11877
G1 X105.574 Y21.507 E.02331
G1 X107.271 Y23.203 E.12061
G1 X107.271 Y23.692 E.02457
G1 X105.549 Y21.97 E.12244
G1 X105.523 Y22.433 E.02331
G1 X107.271 Y24.18 E.12428
G1 X107.271 Y24.669 E.02457
G1 X105.497 Y22.895 E.12612
G1 X105.471 Y23.358 E.02331
G1 X107.271 Y25.158 E.12795
G1 X107.271 Y25.646 E.02457
G1 X105.445 Y23.821 E.12979
G1 X105.42 Y24.284 E.02331
G1 X107.271 Y26.135 E.13162
G1 X107.271 Y26.624 E.02457
G1 X105.394 Y24.747 E.13346
G1 X105.368 Y25.21 E.02331
G1 X107.271 Y27.112 E.1353
G1 X107.271 Y27.601 E.02457
G1 X105.342 Y25.672 E.13713
G1 X105.316 Y26.135 E.02331
G1 X107.271 Y28.09 E.13897
G1 X107.271 Y28.578 E.02457
G1 X105.29 Y26.598 E.1408
G1 X105.265 Y27.061 E.02331
G1 X107.271 Y29.067 E.14264
G1 X107.271 Y29.556 E.02457
G1 X105.239 Y27.524 E.14447
G1 X105.213 Y27.987 E.02331
G1 X107.271 Y30.044 E.14631
G1 X107.271 Y30.533 E.02457
G1 X105.187 Y28.45 E.14815
G1 X105.161 Y28.912 E.02331
G1 X107.271 Y31.022 E.14998
G1 X107.271 Y31.51 E.02457
G1 X105.136 Y29.375 E.15182
G1 X105.11 Y29.838 E.02331
G1 X107.271 Y31.999 E.15365
G1 X107.271 Y32.488 E.02457
G1 X105.084 Y30.301 E.15549
G1 X105.058 Y30.764 E.02331
G1 X107.271 Y32.976 E.15733
G1 X107.271 Y33.465 E.02457
G1 X105.032 Y31.227 E.15916
G1 X105.006 Y31.689 E.02331
G1 X107.271 Y33.954 E.161
G1 X107.271 Y34.442 E.02457
G1 X104.981 Y32.152 E.16283
G1 X104.955 Y32.615 E.02331
G1 X107.271 Y34.931 E.16467
G1 X107.271 Y35.42 E.02457
G1 X104.929 Y33.078 E.16651
G1 X104.903 Y33.541 E.02331
G1 X107.271 Y35.908 E.16834
G1 X107.271 Y36.397 E.02457
G1 X104.877 Y34.004 E.17018
G1 X104.852 Y34.467 E.02331
G1 X107.271 Y36.886 E.17201
G1 X107.271 Y37.374 E.02457
G1 X104.826 Y34.929 E.17385
G1 X104.8 Y35.392 E.02331
G1 X107.271 Y37.863 E.17568
G1 X107.271 Y38.352 E.02457
G1 X104.774 Y35.855 E.17752
G1 X104.748 Y36.318 E.02331
G1 X107.271 Y38.84 E.17936
G1 X107.271 Y39.329 E.02457
G1 X104.722 Y36.781 E.18119
G1 X104.697 Y37.244 E.02331
G1 X107.271 Y39.818 E.18303
G1 X107.271 Y40.306 E.02457
G1 X104.671 Y37.706 E.18486
G1 X104.645 Y38.169 E.02331
G1 X107.271 Y40.795 E.1867
G1 X107.271 Y41.284 E.02457
G1 X104.619 Y38.632 E.18854
G1 X104.593 Y39.095 E.02331
G1 X107.271 Y41.772 E.19037
G1 X107.271 Y42.261 E.02457
G1 X104.568 Y39.558 E.19221
G1 X104.542 Y40.021 E.02331
G1 X107.271 Y42.75 E.19404
G1 X107.271 Y43.238 E.02457
G1 X104.516 Y40.483 E.19588
G1 X104.49 Y40.946 E.02331
G1 X107.271 Y43.727 E.19771
G1 X107.271 Y44.216 E.02457
G1 X104.464 Y41.409 E.19955
G1 X104.438 Y41.872 E.02331
G1 X107.271 Y44.704 E.20139
G1 X107.271 Y45.193 E.02457
G1 X104.413 Y42.335 E.20322
G1 X104.387 Y42.798 E.02331
G1 X107.271 Y45.681 E.20506
G1 X107.271 Y46.17 E.02457
G1 X104.361 Y43.261 E.20689
G1 X104.335 Y43.723 E.02331
G1 X107.271 Y46.659 E.20873
G1 X107.271 Y47.147 E.02457
G1 X104.309 Y44.186 E.21057
G1 X104.284 Y44.649 E.02331
G1 X107.271 Y47.636 E.2124
G1 X107.271 Y48.125 E.02457
G1 X104.258 Y45.112 E.21424
G1 X104.232 Y45.575 E.02331
G1 X107.271 Y48.613 E.21607
G1 X107.271 Y49.102 E.02457
G1 X104.206 Y46.038 E.21791
G1 X104.18 Y46.5 E.02331
G1 X107.271 Y49.591 E.21974
G1 X107.271 Y50.079 E.02457
G1 X104.154 Y46.963 E.22158
G1 X104.129 Y47.426 E.02331
G1 X107.271 Y50.568 E.22342
G1 X107.271 Y51.057 E.02457
G1 X104.103 Y47.889 E.22525
G1 X104.077 Y48.352 E.02331
G1 X107.271 Y51.545 E.22709
G1 X107.271 Y52.034 E.02457
G1 X104.051 Y48.815 E.22892
G1 X104.025 Y49.277 E.02331
G1 X107.271 Y52.523 E.23076
G1 X107.271 Y53.011 E.02457
G1 X104 Y49.74 E.2326
G1 X103.974 Y50.203 E.02331
G1 X107.271 Y53.5 E.23443
G1 X107.271 Y53.989 E.02457
G1 X103.948 Y50.666 E.23627
G1 X103.922 Y51.129 E.02331
G1 X107.271 Y54.477 E.2381
G1 X107.271 Y54.966 E.02457
G1 X103.896 Y51.592 E.23994
G1 X103.87 Y52.055 E.02331
G1 X107.271 Y55.455 E.24178
G1 X107.271 Y55.943 E.02457
G1 X103.845 Y52.517 E.24361
G1 X103.819 Y52.98 E.02331
G1 X107.271 Y56.432 E.24545
G1 X107.271 Y56.921 E.02457
G1 X103.793 Y53.443 E.24728
G1 X103.767 Y53.906 E.02331
G1 X107.271 Y57.409 E.24912
G1 X107.271 Y57.898 E.02457
G1 X103.741 Y54.369 E.25095
G1 X103.716 Y54.832 E.02331
G1 X107.271 Y58.387 E.25279
G1 X107.271 Y58.875 E.02457
M73 P1 R157
G1 X103.69 Y55.294 E.25463
G1 X103.664 Y55.757 E.02331
G1 X107.271 Y59.364 E.25646
G1 X107.271 Y59.853 E.02457
G1 X103.638 Y56.22 E.2583
G1 X103.612 Y56.683 E.02331
G1 X107.271 Y60.341 E.26013
G1 X107.271 Y60.83 E.02457
G1 X103.586 Y57.146 E.26197
G1 X103.561 Y57.609 E.02331
G1 X107.271 Y61.319 E.26381
G1 X107.271 Y61.807 E.02457
G1 X103.535 Y58.072 E.26564
G1 X103.509 Y58.534 E.02331
G1 X107.271 Y62.296 E.26748
G1 X107.271 Y62.785 E.02457
G1 X103.483 Y58.997 E.26931
G1 X103.457 Y59.46 E.02331
G1 X107.271 Y63.273 E.27115
G1 X107.271 Y63.762 E.02457
G1 X103.432 Y59.923 E.27298
G1 X103.406 Y60.386 E.02331
G1 X107.271 Y64.251 E.27482
G1 X107.271 Y64.739 E.02457
G1 X103.38 Y60.849 E.27666
G1 X103.354 Y61.311 E.02331
G1 X107.271 Y65.228 E.27849
G1 X107.271 Y65.717 E.02457
G1 X103.328 Y61.774 E.28033
G1 X103.302 Y62.237 E.02331
G1 X107.271 Y66.205 E.28216
G1 X107.271 Y66.694 E.02457
G1 X103.277 Y62.7 E.284
G1 X103.251 Y63.163 E.02331
G1 X107.271 Y67.183 E.28584
G1 X107.271 Y67.671 E.02457
G1 X103.225 Y63.626 E.28767
G1 X103.199 Y64.088 E.02331
G1 X107.271 Y68.16 E.28951
G1 X107.271 Y68.649 E.02457
G1 X103.173 Y64.551 E.29134
G1 X103.148 Y65.014 E.02331
G1 X107.271 Y69.137 E.29318
G1 X107.271 Y69.626 E.02457
G1 X103.122 Y65.477 E.29502
G1 X103.096 Y65.94 E.02331
G1 X107.271 Y70.115 E.29685
G1 X107.271 Y70.603 E.02457
G1 X103.061 Y66.394 E.29933
G1 X103.024 Y66.846 E.0228
G1 X107.271 Y71.092 E.30194
G1 X107.271 Y71.581 E.02457
G1 X102.988 Y67.298 E.30455
