; generated by PrusaSlicer 2.5.0+win64 on 2022-12-07 at 00:17:43 UTC

; 

; external perimeters extrusion width = 1.00mm
; perimeters extrusion width = 1.00mm
; infill extrusion width = 1.00mm
; solid infill extrusion width = 1.00mm
; top infill extrusion width = 1.00mm
; support material extrusion width = 1.00mm
; first layer extrusion width = 0.42mm

M73 P0 R554
M107
;TYPE:Custom
G90 ; use absolute coordinates
M83 ; extruder relative mode
M140 S60 ; set final bed temp
M104 S150 ; set temporary nozzle temp to prevent oozing during homing and auto bed leveling
G4 S10 ; allow partial nozzle warmup
G28 ; home all axisG1 Z50 F240
G1 X7.6 Y10 F3000
M104 S210 ; set final nozzle temp
M190 S60 ; wait for bed temp to stabilize
M109 S210 ; wait for nozzle temp to stabilize
G1 Z0.28 F240
G92 E0
G1 Y140 E10 F1500 ; prime the nozzle
G1 X4 F5000
G92 E0
G1 Y10 E10 F1200 ; prime the nozzle
G92 E0
G21 ; set units to millimeters
G90 ; use absolute coordinates
M83 ; use relative distances for extrusion
; Filament gcode
M107
;LAYER_CHANGE
;Z:0.35
;HEIGHT:0.35
;BEFORE_LAYER_CHANGE
G92 E0
;0.35


G1 E-1 F3600
G1 Z.35 F7800
;AFTER_LAYER_CHANGE
;0.35
G1 X113.558 Y62.702
G1 E1 F2400
;TYPE:Support material
;WIDTH:0.42
G1 F1800
G1 X110.165 Y62.702 E.17027
G1 X110.165 Y125.247 E3.1389
G1 X110.015 Y127.163 E.09644
G1 X106.772 Y127.163 E.16275
G1 X106.772 Y157.698 E1.53239
G1 X103.379 Y157.698 E.17027
G1 X103.379 Y167.876 E.5108
G1 X42.624 Y167.876 E3.04908
G1 X42.624 Y124.083 E2.19775
G1 X46.016 Y124.083 E.17027
G1 X46.016 Y110.513 E.68106
G1 X49.409 Y110.513 E.17027
G1 X49.409 Y90.156 E1.02159
G1 X52.802 Y90.156 E.17027
G1 X52.802 Y69.8 E1.02159
G1 X56.195 Y69.8 E.17027
G1 X56.195 Y49.444 E1.02159
G1 X59.587 Y49.444 E.17027
G1 X59.587 Y32.481 E.85133
G1 X62.98 Y32.481 E.17027
G1 X62.98 Y12.124 E1.02159
G1 X113.558 Y12.124 E2.53828
G1 X113.558 Y62.65 E2.53569
G1 X112.958 Y62.547 F7800
G1 F1800
G1 X112.958 Y12.435 E2.51492
G1 X112.575 Y12.435 E.01923
G1 X112.575 Y62.392 E2.50713
G1 X112.191 Y62.392 E.01923
G1 X112.191 Y12.435 E2.50713
G1 X111.808 Y12.435 E.01923
G1 X111.808 Y62.392 E2.50713
G1 X111.425 Y62.392 E.01923
G1 X111.425 Y12.435 E2.50713
G1 X111.042 Y12.435 E.01923
G1 X111.042 Y62.392 E2.50713
G1 X110.658 Y62.392 E.01923
G1 X110.658 Y12.435 E2.50713
G1 X110.275 Y12.435 E.01923
G1 X110.275 Y62.392 E2.50713
G1 X109.892 Y62.392 E.01923
G1 X109.892 Y12.435 E2.50713
G1 X109.509 Y12.435 E.01923
G1 X109.509 Y126.853 E5.74218
G1 X109.126 Y126.853 E.01923
G1 X109.126 Y12.435 E5.74218
G1 X108.742 Y12.435 E.01923
M73 P0 R553
G1 X108.742 Y126.853 E5.74218
G1 X108.359 Y126.853 E.01923
G1 X108.359 Y12.435 E5.74218
G1 X107.976 Y12.435 E.01923
G1 X107.976 Y126.853 E5.74218
G1 X107.593 Y126.853 E.01923
G1 X107.593 Y12.435 E5.74218
G1 X107.21 Y12.435 E.01923
G1 X107.21 Y126.853 E5.74218
G1 X106.826 Y126.853 E.01923
G1 X106.826 Y12.435 E5.74218
G1 X106.443 Y12.435 E.01923
G1 X106.443 Y157.387 E7.27457
G1 X106.06 Y157.387 E.01923
G1 X106.06 Y12.435 E7.27457
G1 X105.677 Y12.435 E.01923
G1 X105.677 Y157.387 E7.27457
G1 X105.294 Y157.387 E.01923
G1 X105.294 Y12.435 E7.27457
G1 X104.91 Y12.435 E.01923
G1 X104.91 Y157.387 E7.27457
G1 X104.527 Y157.387 E.01923
G1 X104.527 Y12.435 E7.27457
G1 X104.144 Y12.435 E.01923
G1 X104.144 Y157.387 E7.27457
G1 X103.761 Y157.387 E.01923
G1 X103.761 Y12.435 E7.27457
G1 X103.377 Y12.435 E.01923
M73 P0 R552
G1 X103.377 Y157.387 E7.27457
G1 X103.069 Y157.387 E.01548
G1 X103.069 Y167.565 E.5108
G1 X102.994 Y167.565 E.00376
G1 X102.994 Y12.435 E7.78536
G1 X102.611 Y12.435 E.01923
G1 X102.611 Y167.565 E7.78536
G1 X102.228 Y167.565 E.01923
G1 X102.228 Y12.435 E7.78536
G1 X101.845 Y12.435 E.01923
G1 X101.845 Y167.565 E7.78536
G1 X101.461 Y167.565 E.01923
G1 X101.461 Y12.435 E7.78536
G1 X101.078 Y12.435 E.01923
G1 X101.078 Y167.565 E7.78536
G1 X100.695 Y167.565 E.01923
G1 X100.695 Y12.435 E7.78536
G1 X100.312 Y12.435 E.01923
G1 X100.312 Y167.565 E7.78536
G1 X99.929 Y167.565 E.01923
G1 X99.929 Y12.435 E7.78536
G1 X99.545 Y12.435 E.01923
G1 X99.545 Y167.565 E7.78536
G1 X99.162 Y167.565 E.01923
M73 P0 R551
G1 X99.162 Y12.435 E7.78536
G1 X98.779 Y12.435 E.01923
G1 X98.779 Y167.565 E7.78536
G1 X98.396 Y167.565 E.01923
G1 X98.396 Y12.435 E7.78536
G1 X98.013 Y12.435 E.01923
G1 X98.013 Y167.565 E7.78536
G1 X97.629 Y167.565 E.01923
G1 X97.629 Y12.435 E7.78536
G1 X97.246 Y12.435 E.01923
G1 X97.246 Y167.565 E7.78536
G1 X96.863 Y167.565 E.01923
G1 X96.863 Y12.435 E7.78536
G1 X96.48 Y12.435 E.01923
G1 X96.48 Y167.565 E7.78536
G1 X96.096 Y167.565 E.01923
G1 X96.096 Y12.435 E7.78536
G1 X95.713 Y12.435 E.01923
G1 X95.713 Y167.565 E7.78536
G1 X95.33 Y167.565 E.01923
G1 X95.33 Y12.435 E7.78536
G1 X94.947 Y12.435 E.01923
G1 X94.947 Y167.565 E7.78536
G1 X94.564 Y167.565 E.01923
M73 P0 R550
G1 X94.564 Y12.435 E7.78536
G1 X94.18 Y12.435 E.01923
G1 X94.18 Y167.565 E7.78536
G1 X93.797 Y167.565 E.01923
G1 X93.797 Y12.435 E7.78536
G1 X93.414 Y12.435 E.01923
G1 X93.414 Y167.565 E7.78536
G1 X93.031 Y167.565 E.01923
G1 X93.031 Y12.435 E7.78536
G1 X92.648 Y12.435 E.01923
G1 X92.648 Y167.565 E7.78536
G1 X92.264 Y167.565 E.01923
G1 X92.264 Y12.435 E7.78536
G1 X91.881 Y12.435 E.01923
G1 X91.881 Y167.565 E7.78536
G1 X91.498 Y167.565 E.01923
G1 X91.498 Y12.435 E7.78536
G1 X91.115 Y12.435 E.01923
G1 X91.115 Y167.565 E7.78536
G1 X90.732 Y167.565 E.01923
G1 X90.732 Y12.435 E7.78536
G1 X90.348 Y12.435 E.01923
M73 P0 R549
G1 X90.348 Y167.565 E7.78536
G1 X89.965 Y167.565 E.01923
G1 X89.965 Y12.435 E7.78536
G1 X89.582 Y12.435 E.01923
G1 X89.582 Y167.565 E7.78536
G1 X89.199 Y167.565 E.01923
G1 X89.199 Y12.435 E7.78536
G1 X88.815 Y12.435 E.01923
G1 X88.815 Y167.565 E7.78536
G1 X88.432 Y167.565 E.01923
G1 X88.432 Y12.435 E7.78536
G1 X88.049 Y12.435 E.01923
G1 X88.049 Y167.565 E7.78536
G1 X87.666 Y167.565 E.01923
G1 X87.666 Y12.435 E7.78536
G1 X87.283 Y12.435 E.01923
M73 P1 R549
G1 X87.283 Y167.565 E7.78536
G1 X86.899 Y167.565 E.01923
G1 X86.899 Y12.435 E7.78536
G1 X86.516 Y12.435 E.01923
G1 X86.516 Y167.565 E7.78536
G1 X86.133 Y167.565 E.01923
G1 X86.133 Y12.435 E7.78536
G1 X85.75 Y12.435 E.01923
M73 P1 R548
G1 X85.75 Y167.565 E7.78536
G1 X85.367 Y167.565 E.01923
G1 X85.367 Y12.435 E7.78536
G1 X84.983 Y12.435 E.01923
G1 X84.983 Y167.565 E7.78536
G1 X84.6 Y167.565 E.01923
G1 X84.6 Y12.435 E7.78536
G1 X84.217 Y12.435 E.01923
G1 X84.217 Y167.565 E7.78536
G1 X83.834 Y167.565 E.01923
G1 X83.834 Y12.435 E7.78536
G1 X83.451 Y12.435 E.01923
G1 X83.451 Y167.565 E7.78536
G1 X83.067 Y167.565 E.01923
G1 X83.067 Y12.435 E7.78536
G1 X82.684 Y12.435 E.01923
G1 X82.684 Y167.565 E7.78536
G1 X82.301 Y167.565 E.01923
G1 X82.301 Y12.435 E7.78536
G1 X81.918 Y12.435 E.01923
G1 X81.918 Y167.565 E7.78536
G1 X81.534 Y167.565 E.01923
M73 P1 R547
G1 X81.534 Y12.435 E7.78536
G1 X81.151 Y12.435 E.01923
G1 X81.151 Y167.565 E7.78536
G1 X80.768 Y167.565 E.01923
G1 X80.768 Y12.435 E7.78536
G1 X80.385 Y12.435 E.01923
G1 X80.385 Y167.565 E7.78536
G1 X80.002 Y167.565 E.01923
G1 X80.002 Y12.435 E7.78536
G1 X79.618 Y12.435 E.01923
G1 X79.618 Y167.565 E7.78536
G1 X79.235 Y167.565 E.01923
G1 X79.235 Y12.435 E7.78536
G1 X78.852 Y12.435 E.01923
G1 X78.852 Y167.565 E7.78536
G1 X78.469 Y167.565 E.01923
G1 X78.469 Y12.435 E7.78536
G1 X78.086 Y12.435 E.01923
G1 X78.086 Y167.565 E7.78536
G1 X77.702 Y167.565 E.01923
G1 X77.702 Y12.435 E7.78536
G1 X77.319 Y12.435 E.01923
G1 X77.319 Y167.565 E7.78536
G1 X76.936 Y167.565 E.01923
M73 P1 R546
G1 X76.936 Y12.435 E7.78536
G1 X76.553 Y12.435 E.01923
G1 X76.553 Y167.565 E7.78536
G1 X76.17 Y167.565 E.01923
G1 X76.17 Y12.435 E7.78536
G1 X75.786 Y12.435 E.01923
G1 X75.786 Y167.565 E7.78536
G1 X75.403 Y167.565 E.01923
G1 X75.403 Y12.435 E7.78536
G1 X75.02 Y12.435 E.01923
G1 X75.02 Y167.565 E7.78536
G1 X74.637 Y167.565 E.01923
G1 X74.637 Y12.435 E7.78536
G1 X74.254 Y12.435 E.01923
G1 X74.253 Y167.565 E7.78536
G1 X73.87 Y167.565 E.01923
G1 X73.87 Y12.435 E7.78536
G1 X73.487 Y12.435 E.01923
G1 X73.487 Y167.565 E7.78536
G1 X73.104 Y167.565 E.01923
G1 X73.104 Y12.435 E7.78536
G1 X72.721 Y12.435 E.01923
M73 P1 R545
G1 X72.721 Y167.565 E7.78536
G1 X72.337 Y167.565 E.01923
G1 X72.337 Y12.435 E7.78536
G1 X71.954 Y12.435 E.01923
G1 X71.954 Y167.565 E7.78536
G1 X71.571 Y167.565 E.01923
G1 X71.571 Y12.435 E7.78536
G1 X71.188 Y12.435 E.01923
G1 X71.188 Y167.565 E7.78536
G1 X70.805 Y167.565 E.01923
G1 X70.805 Y12.435 E7.78536
G1 X70.421 Y12.435 E.01923
G1 X70.421 Y167.565 E7.78536
G1 X70.038 Y167.565 E.01923
G1 X70.038 Y12.435 E7.78536
G1 X69.655 Y12.435 E.01923
G1 X69.655 Y167.565 E7.78536
G1 X69.272 Y167.565 E.01923
G1 X69.272 Y12.435 E7.78536
G1 X68.889 Y12.435 E.01923
G1 X68.889 Y167.565 E7.78536
G1 X68.505 Y167.565 E.01923
G1 X68.505 Y12.435 E7.78536
G1 X68.122 Y12.435 E.01923
M73 P1 R544
G1 X68.122 Y167.565 E7.78536
G1 X67.739 Y167.565 E.01923
G1 X67.739 Y12.435 E7.78536
G1 X67.356 Y12.435 E.01923
G1 X67.356 Y167.565 E7.78536
G1 X66.973 Y167.565 E.01923
G1 X66.973 Y12.435 E7.78536
G1 X66.589 Y12.435 E.01923
G1 X66.589 Y167.565 E7.78536
G1 X66.206 Y167.565 E.01923
G1 X66.206 Y12.435 E7.78536
G1 X65.823 Y12.435 E.01923
G1 X65.823 Y167.565 E7.78536
G1 X65.44 Y167.565 E.01923
G1 X65.44 Y12.435 E7.78536
G1 X65.056 Y12.435 E.01923
G1 X65.056 Y167.565 E7.78536
G1 X64.673 Y167.565 E.01923
G1 X64.673 Y12.435 E7.78536
G1 X64.29 Y12.435 E.01923
G1 X64.29 Y167.565 E7.78536
G1 X63.907 Y167.565 E.01923
M73 P1 R543
G1 X63.907 Y12.435 E7.78536
G1 X63.524 Y12.435 E.01923
G1 X63.524 Y167.565 E7.78536
G1 X63.14 Y167.565 E.01923
G1 X63.14 Y32.791 E6.76377
G1 X62.757 Y32.791 E.01923
M73 P2 R543
G1 X62.757 Y167.565 E6.76377
G1 X62.374 Y167.565 E.01923
G1 X62.374 Y32.791 E6.76377
G1 X61.991 Y32.791 E.01923
G1 X61.991 Y167.565 E6.76377
G1 X61.608 Y167.565 E.01923
G1 X61.608 Y32.791 E6.76377
G1 X61.224 Y32.791 E.01923
G1 X61.224 Y167.565 E6.76377
G1 X60.841 Y167.565 E.01923
G1 X60.841 Y32.791 E6.76377
G1 X60.458 Y32.791 E.01923
G1 X60.458 Y167.565 E6.76377
G1 X60.075 Y167.565 E.01923
G1 X60.075 Y32.791 E6.76377
G1 X59.898 Y32.791 E.00889
G1 X59.898 Y49.754 E.85133
G1 X59.692 Y49.754 E.01035
G1 X59.692 Y167.565 E5.91244
G1 X59.308 Y167.565 E.01923
G1 X59.308 Y49.754 E5.91244
G1 X58.925 Y49.754 E.01923
M73 P2 R542
G1 X58.925 Y167.565 E5.91244
G1 X58.542 Y167.565 E.01923
G1 X58.542 Y49.754 E5.91244
G1 X58.159 Y49.754 E.01923
G1 X58.159 Y167.565 E5.91244
G1 X57.775 Y167.565 E.01923
G1 X57.775 Y49.754 E5.91244
G1 X57.392 Y49.754 E.01923
G1 X57.392 Y167.565 E5.91244
G1 X57.009 Y167.565 E.01923
G1 X57.009 Y49.754 E5.91244
G1 X56.626 Y49.754 E.01923
G1 X56.626 Y167.565 E5.91244
G1 X56.243 Y167.565 E.01923
G1 X56.243 Y70.111 E4.89085
G1 X55.859 Y70.111 E.01923
G1 X55.859 Y167.565 E4.89085
G1 X55.476 Y167.565 E.01923
G1 X55.476 Y70.111 E4.89085
G1 X55.093 Y70.111 E.01923
G1 X55.093 Y167.565 E4.89085
G1 X54.71 Y167.565 E.01923
G1 X54.71 Y70.111 E4.89085
G1 X54.327 Y70.111 E.01923
G1 X54.327 Y167.565 E4.89085
G1 X53.943 Y167.565 E.01923
G1 X53.943 Y70.111 E4.89085
G1 X53.56 Y70.111 E.01923
G1 X53.56 Y167.565 E4.89085
G1 X53.177 Y167.565 E.01923
G1 X53.177 Y70.111 E4.89085
G1 X53.112 Y70.111 E.00325
M73 P2 R541
G1 X53.112 Y90.467 E1.02159
G1 X52.794 Y90.467 E.01599
G1 X52.794 Y167.565 E3.86925
G1 X52.411 Y167.565 E.01923
G1 X52.411 Y90.467 E3.86925
G1 X52.027 Y90.467 E.01923
G1 X52.027 Y167.565 E3.86925
G1 X51.644 Y167.565 E.01923
G1 X51.644 Y90.467 E3.86925
G1 X51.261 Y90.467 E.01923
G1 X51.261 Y167.565 E3.86925
G1 X50.878 Y167.565 E.01923
G1 X50.878 Y90.467 E3.86925
G1 X50.494 Y90.467 E.01923
G1 X50.494 Y167.565 E3.86925
G1 X50.111 Y167.565 E.01923
G1 X50.111 Y90.467 E3.86925
G1 X49.728 Y90.467 E.01923
G1 X49.728 Y167.565 E3.86925
G1 X49.345 Y167.565 E.01923
G1 X49.345 Y110.823 E2.84766
G1 X48.962 Y110.823 E.01923
G1 X48.962 Y167.565 E2.84766
G1 X48.578 Y167.565 E.01923
G1 X48.578 Y110.823 E2.84766
G1 X48.195 Y110.823 E.01923
G1 X48.195 Y167.565 E2.84766
G1 X47.812 Y167.565 E.01923
G1 X47.812 Y110.823 E2.84766
G1 X47.429 Y110.823 E.01923
G1 X47.429 Y167.565 E2.84766
G1 X47.046 Y167.565 E.01923
G1 X47.046 Y110.823 E2.84766
G1 X46.662 Y110.823 E.01923
G1 X46.662 Y167.565 E2.84766
G1 X46.279 Y167.565 E.01923
G1 X46.279 Y124.394 E2.1666
G1 X45.896 Y124.394 E.01923
G1 X45.896 Y167.565 E2.1666
G1 X45.513 Y167.565 E.01923
G1 X45.513 Y124.394 E2.1666
G1 X45.13 Y124.394 E.01923
G1 X45.13 Y167.565 E2.1666
G1 X44.746 Y167.565 E.01923
G1 X44.746 Y124.394 E2.1666
G1 X44.363 Y124.394 E.01923
G1 X44.363 Y167.565 E2.1666
G1 X43.98 Y167.565 E.01923
G1 X43.98 Y124.394 E2.1666
G1 X43.597 Y124.394 E.01923
G1 X43.597 Y167.565 E2.1666
G1 X43.213 Y167.565 E.01923
G1 X43.213 Y124.239 E2.17438
G1 E-.7 F3600
;WIPE_START
G1 F6240
G1 X43.213 Y124.759 E-.285
;WIPE_END
G1 E-.015 F3600
G1 X131.658 Y17.183 F7800
G1 E1 F2400
;TYPE:Perimeter
;WIDTH:0.42
G1 F1800
G1 X125.455 Y124.22 E5.38077
G1 X122.431 Y162.817 E1.94295
G1 X108.498 Y162.817 E.69923
M73 P2 R540
G1 X111.574 Y123.446 E1.98191
G1 X117.73 Y17.183 E5.34183
G1 X131.508 Y17.183 E.69143
G1 X132.023 Y16.838 F7800
;TYPE:External perimeter
G1 F1800
G1 X125.799 Y124.244 E5.39929
G1 X122.75 Y163.162 E1.95914
G1 X108.125 Y163.162 E.73395
G1 X111.23 Y123.426 E2.00027
G1 X117.405 Y16.838 E5.35817
G1 X131.873 Y16.838 E.72611
G1 X131.92 Y17.833 F7800
G1 X130.851 Y17.286
;TYPE:Solid infill
;WIDTH:0.420336
G1 F1800
G1 X131.363 Y17.798 E.03636
G1 X131.336 Y18.26 E.02322
G1 X130.518 Y17.442 E.05812
G1 X130.03 Y17.442 E.02453
G1 X131.309 Y18.721 E.0909
G1 X131.283 Y19.183 E.02322
G1 X129.542 Y17.442 E.12369
G1 X129.053 Y17.442 E.02453
G1 X131.256 Y19.644 E.15647
G1 X131.229 Y20.106 E.02322
G1 X128.565 Y17.442 E.18926
G1 X128.077 Y17.442 E.02453
G1 X131.202 Y20.567 E.22204
G1 X131.176 Y21.028 E.02322
G1 X127.589 Y17.442 E.25483
G1 X127.1 Y17.442 E.02453
G1 X131.149 Y21.49 E.28761
G1 X131.122 Y21.951 E.02322
G1 X126.612 Y17.442 E.3204
G1 X126.124 Y17.442 E.02453
G1 X131.095 Y22.413 E.35318
G1 X131.069 Y22.874 E.02322
G1 X125.636 Y17.442 E.38597
G1 X125.148 Y17.442 E.02453
G1 X131.042 Y23.336 E.41875
G1 X131.015 Y23.797 E.02322
G1 X124.659 Y17.442 E.45154
G1 X124.171 Y17.442 E.02453
G1 X130.988 Y24.259 E.48432
G1 X130.962 Y24.72 E.02322
G1 X123.683 Y17.442 E.5171
G1 X123.195 Y17.442 E.02453
G1 X130.935 Y25.182 E.54989
G1 X130.908 Y25.643 E.02322
G1 X122.706 Y17.442 E.58267
G1 X122.218 Y17.442 E.02453
G1 X130.881 Y26.105 E.61546
G1 X130.855 Y26.566 E.02322
G1 X121.73 Y17.442 E.64824
G1 X121.242 Y17.442 E.02453
G1 X130.828 Y27.028 E.68103
G1 X130.801 Y27.489 E.02322
G1 X120.754 Y17.442 E.71381
G1 X120.265 Y17.442 E.02453
G1 X130.775 Y27.951 E.7466
G1 X130.748 Y28.412 E.02322
G1 X119.777 Y17.442 E.77938
G1 X119.289 Y17.442 E.02453
G1 X130.721 Y28.874 E.81217
G1 X130.694 Y29.335 E.02322
G1 X118.801 Y17.442 E.84495
G1 X118.312 Y17.442 E.02453
G1 X130.668 Y29.797 E.87774
G1 X130.641 Y30.258 E.02322
G1 X117.966 Y17.583 E.90045
G1 X117.939 Y18.045 E.02322
G1 X130.614 Y30.72 E.90045
G1 X130.587 Y31.181 E.02322
G1 X117.913 Y18.506 E.90045
G1 X117.886 Y18.968 E.02322
G1 X130.561 Y31.643 E.90045
G1 X130.534 Y32.104 E.02322
G1 X117.859 Y19.429 E.90045
G1 X117.832 Y19.891 E.02322
G1 X130.507 Y32.566 E.90045
G1 X130.48 Y33.027 E.02322
G1 X117.806 Y20.352 E.90045
G1 X117.779 Y20.814 E.02322
G1 X130.454 Y33.488 E.90045
G1 X130.427 Y33.95 E.02322
G1 X117.752 Y21.275 E.90045
G1 X117.725 Y21.737 E.02322
G1 X130.4 Y34.411 E.90045
G1 X130.373 Y34.873 E.02322
G1 X117.699 Y22.198 E.90045
G1 X117.672 Y22.66 E.02322
G1 X130.347 Y35.334 E.90045
G1 X130.32 Y35.796 E.02322
G1 X117.645 Y23.121 E.90045
G1 X117.618 Y23.583 E.02322
G1 X130.293 Y36.257 E.90045
G1 X130.266 Y36.719 E.02322
G1 X117.592 Y24.044 E.90045
G1 X117.565 Y24.506 E.02322
G1 X130.24 Y37.18 E.90045
G1 X130.213 Y37.642 E.02322
G1 X117.538 Y24.967 E.90045
G1 X117.512 Y25.429 E.02322
G1 X130.186 Y38.103 E.90045
G1 X130.159 Y38.565 E.02322
G1 X117.485 Y25.89 E.90044
G1 X117.458 Y26.352 E.02322
G1 X130.133 Y39.026 E.90044
G1 X130.106 Y39.488 E.02322
G1 X117.431 Y26.813 E.90044
G1 X117.405 Y27.275 E.02322
G1 X130.079 Y39.949 E.90044
G1 X130.053 Y40.411 E.02322
G1 X117.378 Y27.736 E.90044
G1 X117.351 Y28.198 E.02322
G1 X130.026 Y40.872 E.90044
