; generated by PrusaSlicer 2.5.0+win64 on 2022-12-07 at 00:17:47 UTC

; 

; external perimeters extrusion width = 1.00mm
; perimeters extrusion width = 1.00mm
; infill extrusion width = 1.00mm
; solid infill extrusion width = 1.00mm
; top infill extrusion width = 1.00mm
; support material extrusion width = 1.00mm
; first layer extrusion width = 0.42mm

M73 P0 R161
M107
;TYPE:Custom
G90 ; use absolute coordinates
M83 ; extruder relative mode
M140 S60 ; set final bed temp
M104 S150 ; set temporary nozzle temp to prevent oozing during homing and auto bed leveling
G4 S10 ; allow partial nozzle warmup
G28 ; home all axisG1 Z50 F240
G1 X7.6 Y10 F3000
M104 S210 ; set final nozzle temp
M190 S60 ; wait for bed temp to stabilize
M109 S210 ; wait for nozzle temp to stabilize
G1 Z0.28 F240
G92 E0
G1 Y140 E10 F1500 ; prime the nozzle
G1 X4 F5000
G92 E0
M73 P0 R160
G1 Y10 E10 F1200 ; prime the nozzle
G92 E0
G21 ; set units to millimeters
G90 ; use absolute coordinates
M83 ; use relative distances for extrusion
; Filament gcode
M107
;LAYER_CHANGE
;Z:0.35
;HEIGHT:0.35
;BEFORE_LAYER_CHANGE
G92 E0
;0.35


G1 E-1 F3600
G1 Z.35 F7800
;AFTER_LAYER_CHANGE
;0.35
G1 X82.279 Y162.82
G1 E1 F2400
;TYPE:Perimeter
;WIDTH:0.42
G1 F1800
G1 X90.506 Y17.18 E7.32074
G1 X104.328 Y17.18 E.69366
G1 X96.098 Y162.82 E7.32075
G1 X82.429 Y162.82 E.68598
G1 X81.914 Y163.165 F7800
;TYPE:External perimeter
G1 F1800
G1 X90.18 Y16.835 E7.35541
G1 X104.693 Y16.835 E.72833
G1 X96.424 Y163.165 E7.35542
G1 X82.064 Y163.165 E.72065
G1 X82.003 Y162.169 F7800
G1 E-.7 F3600
;WIPE_START
G1 F6240
G1 X82.093 Y162.646 E-.285
;WIPE_END
G1 E-.015 F3600
G1 X103.522 Y17.283 F7800
G1 E1 F2400
;TYPE:Solid infill
;WIDTH:0.420076
G1 F1800
G1 X104.034 Y17.795 E.03635
G1 X104.008 Y18.257 E.02322
G1 X103.189 Y17.438 E.05811
G1 X102.702 Y17.438 E.02449
G1 X103.982 Y18.719 E.09089
G1 X103.956 Y19.181 E.02322
G1 X102.214 Y17.438 E.12367
G1 X101.726 Y17.438 E.02449
G1 X103.93 Y19.642 E.15645
G1 X103.904 Y20.104 E.02322
G1 X101.238 Y17.438 E.18923
G1 X100.75 Y17.438 E.02449
G1 X103.878 Y20.566 E.22201
G1 X103.851 Y21.028 E.02322
G1 X100.262 Y17.438 E.25479
G1 X99.775 Y17.438 E.02449
G1 X103.825 Y21.489 E.28757
G1 X103.799 Y21.951 E.02322
G1 X99.287 Y17.438 E.32035
G1 X98.799 Y17.438 E.02449
G1 X103.773 Y22.413 E.35313
G1 X103.747 Y22.875 E.02322
G1 X98.311 Y17.438 E.38591
G1 X97.823 Y17.438 E.02449
G1 X103.721 Y23.336 E.41869
G1 X103.695 Y23.798 E.02322
G1 X97.335 Y17.438 E.45147
G1 X96.847 Y17.438 E.02449
G1 X103.669 Y24.26 E.48425
G1 X103.643 Y24.722 E.02322
G1 X96.36 Y17.438 E.51703
G1 X95.872 Y17.438 E.02449
G1 X103.617 Y25.183 E.54981
G1 X103.591 Y25.645 E.02322
G1 X95.384 Y17.438 E.58259
G1 X94.896 Y17.438 E.02449
G1 X103.564 Y26.107 E.61537
G1 X103.538 Y26.569 E.02322
G1 X94.408 Y17.438 E.64815
G1 X93.92 Y17.438 E.02449
G1 X103.512 Y27.03 E.68093
G1 X103.486 Y27.492 E.02322
G1 X93.432 Y17.438 E.71371
G1 X92.945 Y17.438 E.02449
G1 X103.46 Y27.954 E.74649
G1 X103.434 Y28.416 E.02322
G1 X92.457 Y17.438 E.77927
G1 X91.969 Y17.438 E.02449
G1 X103.408 Y28.877 E.81205
G1 X103.382 Y29.339 E.02322
G1 X91.481 Y17.438 E.84483
G1 X90.993 Y17.438 E.02449
G1 X103.356 Y29.801 E.87761
G1 X103.33 Y30.263 E.02322
G1 X90.738 Y17.671 E.8939
G1 X90.711 Y18.132 E.02322
G1 X103.304 Y30.725 E.8939
G1 X103.277 Y31.186 E.02322
G1 X90.685 Y18.594 E.8939
G1 X90.659 Y19.056 E.02322
G1 X103.251 Y31.648 E.8939
G1 X103.225 Y32.11 E.02322
G1 X90.633 Y19.518 E.8939
G1 X90.607 Y19.98 E.02322
G1 X103.199 Y32.572 E.8939
G1 X103.173 Y33.033 E.02322
G1 X90.581 Y20.441 E.8939
G1 X90.555 Y20.903 E.02322
G1 X103.147 Y33.495 E.8939
G1 X103.121 Y33.957 E.02322
G1 X90.529 Y21.365 E.89389
G1 X90.503 Y21.827 E.02322
G1 X103.095 Y34.419 E.89389
G1 X103.069 Y34.88 E.02322
G1 X90.477 Y22.288 E.89389
G1 X90.451 Y22.75 E.02322
G1 X103.043 Y35.342 E.89389
G1 X103.016 Y35.804 E.02322
G1 X90.425 Y23.212 E.89389
G1 X90.398 Y23.674 E.02322
G1 X102.99 Y36.266 E.89389
G1 X102.964 Y36.727 E.02322
G1 X90.372 Y24.136 E.89389
G1 X90.346 Y24.597 E.02322
G1 X102.938 Y37.189 E.89389
G1 X102.912 Y37.651 E.02322
G1 X90.32 Y25.059 E.89389
G1 X90.294 Y25.521 E.02322
G1 X102.886 Y38.113 E.89389
G1 X102.86 Y38.574 E.02322
G1 X90.268 Y25.983 E.89389
G1 X90.242 Y26.444 E.02322
G1 X102.834 Y39.036 E.89389
G1 X102.808 Y39.498 E.02322
G1 X90.216 Y26.906 E.89389
G1 X90.19 Y27.368 E.02322
G1 X102.782 Y39.96 E.89389
G1 X102.756 Y40.422 E.02322
G1 X90.164 Y27.83 E.89389
G1 X90.138 Y28.291 E.02322
G1 X102.729 Y40.883 E.89389
G1 X102.703 Y41.345 E.02322
G1 X90.112 Y28.753 E.89388
G1 X90.085 Y29.215 E.02322
G1 X102.677 Y41.807 E.89388
M73 P0 R159
G1 X102.651 Y42.269 E.02322
G1 X90.059 Y29.677 E.89388
G1 X90.033 Y30.139 E.02322
G1 X102.625 Y42.73 E.89388
G1 X102.599 Y43.192 E.02322
G1 X90.007 Y30.6 E.89388
G1 X89.981 Y31.062 E.02322
G1 X102.573 Y43.654 E.89388
G1 X102.547 Y44.116 E.02322
G1 X89.955 Y31.524 E.89388
G1 X89.929 Y31.986 E.02322
G1 X102.521 Y44.577 E.89388
G1 X102.495 Y45.039 E.02322
G1 X89.903 Y32.447 E.89388
G1 X89.877 Y32.909 E.02322
G1 X102.469 Y45.501 E.89388
G1 X102.442 Y45.963 E.02322
G1 X89.851 Y33.371 E.89388
G1 X89.825 Y33.833 E.02322
G1 X102.416 Y46.424 E.89388
G1 X102.39 Y46.886 E.02322
G1 X89.799 Y34.294 E.89388
G1 X89.772 Y34.756 E.02322
G1 X102.364 Y47.348 E.89388
G1 X102.338 Y47.81 E.02322
G1 X89.746 Y35.218 E.89388
G1 X89.72 Y35.68 E.02322
G1 X102.312 Y48.271 E.89388
G1 X102.286 Y48.733 E.02322
G1 X89.694 Y36.142 E.89387
G1 X89.668 Y36.603 E.02322
G1 X102.26 Y49.195 E.89387
G1 X102.234 Y49.657 E.02322
G1 X89.642 Y37.065 E.89387
G1 X89.616 Y37.527 E.02322
G1 X102.208 Y50.119 E.89387
G1 X102.182 Y50.58 E.02322
G1 X89.59 Y37.989 E.89387
G1 X89.564 Y38.45 E.02322
G1 X102.155 Y51.042 E.89387
G1 X102.129 Y51.504 E.02322
G1 X89.538 Y38.912 E.89387
G1 X89.512 Y39.374 E.02322
G1 X102.103 Y51.966 E.89387
G1 X102.077 Y52.427 E.02322
G1 X89.486 Y39.836 E.89387
G1 X89.459 Y40.297 E.02322
G1 X102.051 Y52.889 E.89387
G1 X102.025 Y53.351 E.02322
G1 X89.433 Y40.759 E.89387
G1 X89.407 Y41.221 E.02322
G1 X101.999 Y53.813 E.89387
G1 X101.973 Y54.274 E.02322
G1 X89.381 Y41.683 E.89387
G1 X89.355 Y42.145 E.02322
G1 X101.947 Y54.736 E.89387
G1 X101.921 Y55.198 E.02322
G1 X89.329 Y42.606 E.89387
G1 X89.303 Y43.068 E.02322
G1 X101.894 Y55.66 E.89386
G1 X101.868 Y56.121 E.02322
G1 X89.277 Y43.53 E.89386
G1 X89.251 Y43.992 E.02322
G1 X101.842 Y56.583 E.89386
G1 X101.816 Y57.045 E.02322
G1 X89.225 Y44.453 E.89386
G1 X89.199 Y44.915 E.02322
G1 X101.79 Y57.507 E.89386
G1 X101.764 Y57.968 E.02322
G1 X89.172 Y45.377 E.89386
G1 X89.146 Y45.839 E.02322
G1 X101.738 Y58.43 E.89386
G1 X101.712 Y58.892 E.02322
G1 X89.12 Y46.3 E.89386
G1 X89.094 Y46.762 E.02322
G1 X101.686 Y59.354 E.89386
G1 X101.66 Y59.815 E.02322
G1 X89.068 Y47.224 E.89386
G1 X89.042 Y47.686 E.02322
G1 X101.634 Y60.277 E.89386
G1 X101.607 Y60.739 E.02322
G1 X89.016 Y48.148 E.89386
G1 X88.99 Y48.609 E.02322
G1 X101.581 Y61.201 E.89386
G1 X101.555 Y61.663 E.02322
G1 X88.964 Y49.071 E.89386
G1 X88.938 Y49.533 E.02322
G1 X101.529 Y62.124 E.89386
G1 X101.503 Y62.586 E.02322
G1 X88.912 Y49.995 E.89386
G1 X88.886 Y50.456 E.02322
G1 X101.477 Y63.048 E.89385
G1 X101.451 Y63.51 E.02322
G1 X88.859 Y50.918 E.89385
G1 X88.833 Y51.38 E.02322
G1 X101.425 Y63.971 E.89385
G1 X101.399 Y64.433 E.02322
G1 X88.807 Y51.842 E.89385
G1 X88.781 Y52.303 E.02322
G1 X101.373 Y64.895 E.89385
G1 X101.347 Y65.357 E.02322
M73 P1 R159
G1 X88.755 Y52.765 E.89385
G1 X88.729 Y53.227 E.02322
G1 X101.32 Y65.818 E.89385
G1 X101.294 Y66.28 E.02322
G1 X88.703 Y53.689 E.89385
G1 X88.677 Y54.151 E.02322
G1 X101.268 Y66.742 E.89385
G1 X101.242 Y67.204 E.02322
G1 X88.651 Y54.612 E.89385
G1 X88.625 Y55.074 E.02322
G1 X101.216 Y67.665 E.89385
G1 X101.19 Y68.127 E.02322
G1 X88.599 Y55.536 E.89385
G1 X88.573 Y55.998 E.02322
G1 X101.164 Y68.589 E.89385
G1 X101.138 Y69.051 E.02322
G1 X88.546 Y56.459 E.89385
G1 X88.52 Y56.921 E.02322
G1 X101.112 Y69.512 E.89385
G1 X101.086 Y69.974 E.02322
G1 X88.494 Y57.383 E.89385
G1 X88.468 Y57.845 E.02322
G1 X101.059 Y70.436 E.89384
G1 X101.033 Y70.898 E.02322
G1 X88.442 Y58.306 E.89384
G1 X88.416 Y58.768 E.02322
G1 X101.007 Y71.36 E.89384
G1 X100.981 Y71.821 E.02322
G1 X88.39 Y59.23 E.89384
G1 X88.364 Y59.692 E.02322
G1 X100.955 Y72.283 E.89384
G1 X100.929 Y72.745 E.02322
G1 X88.338 Y60.154 E.89384
G1 X88.312 Y60.615 E.02322
G1 X100.903 Y73.207 E.89384
G1 X100.877 Y73.668 E.02322
G1 X88.286 Y61.077 E.89384
G1 X88.26 Y61.539 E.02322
G1 X100.851 Y74.13 E.89384
G1 X100.825 Y74.592 E.02322
G1 X88.233 Y62.001 E.89384
G1 X88.207 Y62.462 E.02322
G1 X100.799 Y75.054 E.89384
G1 X100.772 Y75.515 E.02322
G1 X88.181 Y62.924 E.89384
G1 X88.155 Y63.386 E.02322
G1 X100.746 Y75.977 E.89384
G1 X100.72 Y76.439 E.02322
G1 X88.129 Y63.848 E.89384
G1 X88.103 Y64.309 E.02322
G1 X100.694 Y76.901 E.89384
G1 X100.668 Y77.362 E.02322
G1 X88.077 Y64.771 E.89384
G1 X88.051 Y65.233 E.02322
G1 X100.642 Y77.824 E.89383
G1 X100.616 Y78.286 E.02322
G1 X88.025 Y65.695 E.89383
G1 X87.999 Y66.157 E.02322
G1 X100.59 Y78.748 E.89383
G1 X100.564 Y79.209 E.02322
G1 X87.973 Y66.618 E.89383
G1 X87.947 Y67.08 E.02322
G1 X100.538 Y79.671 E.89383
G1 X100.512 Y80.133 E.02322
G1 X87.92 Y67.542 E.89383
G1 X87.894 Y68.004 E.02322
G1 X100.485 Y80.595 E.89383
G1 X100.459 Y81.056 E.02322
G1 X87.868 Y68.465 E.89383
G1 X87.842 Y68.927 E.02322
G1 X100.433 Y81.518 E.89383
G1 X100.407 Y81.98 E.02322
G1 X87.816 Y69.389 E.89383
G1 X87.79 Y69.851 E.02322
G1 X100.381 Y82.442 E.89383
G1 X100.355 Y82.904 E.02322
G1 X87.764 Y70.312 E.89383
G1 X87.738 Y70.774 E.02322
G1 X100.329 Y83.365 E.89383
G1 X100.303 Y83.827 E.02322
G1 X87.712 Y71.236 E.89383
G1 X87.686 Y71.698 E.02322
M73 P1 R158
G1 X100.277 Y84.289 E.89383
G1 X100.251 Y84.751 E.02322
G1 X87.66 Y72.16 E.89383
G1 X87.634 Y72.621 E.02322
G1 X100.225 Y85.212 E.89382
G1 X100.198 Y85.674 E.02322
G1 X87.607 Y73.083 E.89382
G1 X87.581 Y73.545 E.02322
G1 X100.172 Y86.136 E.89382
G1 X100.146 Y86.598 E.02322
G1 X87.555 Y74.007 E.89382
G1 X87.529 Y74.468 E.02322
G1 X100.12 Y87.059 E.89382
G1 X100.094 Y87.521 E.02322
G1 X87.503 Y74.93 E.89382
G1 X87.477 Y75.392 E.02322
G1 X100.068 Y87.983 E.89382
G1 X100.042 Y88.445 E.02322
G1 X87.451 Y75.854 E.89382
G1 X87.425 Y76.315 E.02322
G1 X100.016 Y88.906 E.89382
G1 X99.99 Y89.368 E.02322
G1 X87.399 Y76.777 E.89382
G1 X87.373 Y77.239 E.02322
G1 X99.964 Y89.83 E.89382
G1 X99.937 Y90.292 E.02322
G1 X87.347 Y77.701 E.89382
G1 X87.321 Y78.163 E.02322
G1 X99.911 Y90.753 E.89382
G1 X99.885 Y91.215 E.02322
G1 X87.294 Y78.624 E.89382
G1 X87.268 Y79.086 E.02322
G1 X99.859 Y91.677 E.89382
G1 X99.833 Y92.139 E.02322
G1 X87.242 Y79.548 E.89382
G1 X87.216 Y80.01 E.02322
G1 X99.807 Y92.601 E.89381
G1 X99.781 Y93.062 E.02322
G1 X87.19 Y80.471 E.89381
G1 X87.164 Y80.933 E.02322
G1 X99.755 Y93.524 E.89381
G1 X99.729 Y93.986 E.02322
G1 X87.138 Y81.395 E.89381
G1 X87.112 Y81.857 E.02322
G1 X99.703 Y94.448 E.89381
G1 X99.677 Y94.909 E.02322
G1 X87.086 Y82.319 E.89381
G1 X87.06 Y82.78 E.02322
G1 X99.65 Y95.371 E.89381
G1 X99.624 Y95.833 E.02322
G1 X87.034 Y83.242 E.89381
G1 X87.007 Y83.704 E.02322
G1 X99.598 Y96.295 E.89381
G1 X99.572 Y96.756 E.02322
G1 X86.981 Y84.166 E.89381
G1 X86.955 Y84.627 E.02322
G1 X99.546 Y97.218 E.89381
G1 X99.52 Y97.68 E.02322
G1 X86.929 Y85.089 E.89381
G1 X86.903 Y85.551 E.02322
G1 X99.494 Y98.142 E.89381
G1 X99.468 Y98.603 E.02322
G1 X86.877 Y86.013 E.89381
G1 X86.851 Y86.474 E.02322
G1 X99.442 Y99.065 E.89381
G1 X99.416 Y99.527 E.02322
G1 X86.825 Y86.936 E.89381
G1 X86.799 Y87.398 E.02322
G1 X99.39 Y99.989 E.8938
G1 X99.363 Y100.45 E.02322
G1 X86.773 Y87.86 E.8938
G1 X86.747 Y88.322 E.02322
G1 X99.337 Y100.912 E.8938
G1 X99.311 Y101.374 E.02322
G1 X86.721 Y88.783 E.8938
G1 X86.694 Y89.245 E.02322
G1 X99.285 Y101.836 E.8938
G1 X99.259 Y102.297 E.02322
G1 X86.668 Y89.707 E.8938
G1 X86.642 Y90.169 E.02322
G1 X99.233 Y102.759 E.8938
G1 X99.207 Y103.221 E.02322
G1 X86.616 Y90.63 E.8938
G1 X86.59 Y91.092 E.02322
G1 X99.181 Y103.683 E.8938
G1 X99.155 Y104.145 E.02322
G1 X86.564 Y91.554 E.8938
G1 X86.538 Y92.016 E.02322
G1 X99.129 Y104.606 E.8938
G1 X99.103 Y105.068 E.02322
G1 X86.512 Y92.477 E.8938
G1 X86.486 Y92.939 E.02322
G1 X99.076 Y105.53 E.8938
G1 X99.05 Y105.992 E.02322
G1 X86.46 Y93.401 E.8938
G1 X86.434 Y93.863 E.02322
G1 X99.024 Y106.453 E.8938
G1 X98.998 Y106.915 E.02322
G1 X86.408 Y94.325 E.8938
G1 X86.381 Y94.786 E.02322
G1 X98.972 Y107.377 E.89379
G1 X98.946 Y107.839 E.02322
G1 X86.355 Y95.248 E.89379
G1 X86.329 Y95.71 E.02322
G1 X98.92 Y108.3 E.89379
G1 X98.894 Y108.762 E.02322
G1 X86.303 Y96.172 E.89379
G1 X86.277 Y96.633 E.02322
G1 X98.868 Y109.224 E.89379
G1 X98.842 Y109.686 E.02322
G1 X86.251 Y97.095 E.89379
G1 X86.225 Y97.557 E.02322
G1 X98.815 Y110.147 E.89379
G1 X98.789 Y110.609 E.02322
G1 X86.199 Y98.019 E.89379
G1 X86.173 Y98.48 E.02322
G1 X98.763 Y111.071 E.89379
G1 X98.737 Y111.533 E.02322
G1 X86.147 Y98.942 E.89379
G1 X86.121 Y99.404 E.02322
G1 X98.711 Y111.994 E.89379
G1 X98.685 Y112.456 E.02322
G1 X86.095 Y99.866 E.89379
G1 X86.068 Y100.328 E.02322
G1 X98.659 Y112.918 E.89379
G1 X98.633 Y113.38 E.02322
G1 X86.042 Y100.789 E.89379
G1 X86.016 Y101.251 E.02322
G1 X98.607 Y113.842 E.89379
G1 X98.581 Y114.303 E.02322
G1 X85.99 Y101.713 E.89379
G1 X85.964 Y102.175 E.02322
G1 X98.555 Y114.765 E.89378
G1 X98.528 Y115.227 E.02322
G1 X85.938 Y102.636 E.89378
G1 X85.912 Y103.098 E.02322
G1 X98.502 Y115.689 E.89378
G1 X98.476 Y116.15 E.02322
G1 X85.886 Y103.56 E.89378
G1 X85.86 Y104.022 E.02322
G1 X98.45 Y116.612 E.89378
G1 X98.424 Y117.074 E.02322
G1 X85.834 Y104.483 E.89378
G1 X85.808 Y104.945 E.02322
G1 X98.398 Y117.536 E.89378
G1 X98.372 Y117.997 E.02322
G1 X85.782 Y105.407 E.89378
G1 X85.755 Y105.869 E.02322
G1 X98.346 Y118.459 E.89378
G1 X98.32 Y118.921 E.02322
G1 X85.729 Y106.331 E.89378
G1 X85.703 Y106.792 E.02322
G1 X98.294 Y119.383 E.89378
G1 X98.268 Y119.844 E.02322
G1 X85.677 Y107.254 E.89378
G1 X85.651 Y107.716 E.02322
G1 X98.241 Y120.306 E.89378
G1 X98.215 Y120.768 E.02322
G1 X85.625 Y108.178 E.89378
G1 X85.599 Y108.639 E.02322
G1 X98.189 Y121.23 E.89378
G1 X98.163 Y121.691 E.02322
G1 X85.573 Y109.101 E.89378
G1 X85.547 Y109.563 E.02322
G1 X98.137 Y122.153 E.89377
G1 X98.111 Y122.615 E.02322
G1 X85.521 Y110.025 E.89377
G1 X85.495 Y110.486 E.02322
G1 X98.085 Y123.077 E.89377
G1 X98.059 Y123.538 E.02322
G1 X85.469 Y110.948 E.89377
G1 X85.442 Y111.41 E.02322
G1 X98.033 Y124 E.89377
G1 X98.007 Y124.462 E.02322
G1 X85.416 Y111.872 E.89377
G1 X85.39 Y112.334 E.02322
G1 X97.98 Y124.924 E.89377
G1 X97.954 Y125.386 E.02322
G1 X85.364 Y112.795 E.89377
G1 X85.338 Y113.257 E.02322
G1 X97.928 Y125.847 E.89377
G1 X97.902 Y126.309 E.02322
G1 X85.312 Y113.719 E.89377
G1 X85.286 Y114.181 E.02322
M73 P1 R157
G1 X97.876 Y126.771 E.89377
G1 X97.85 Y127.233 E.02322
G1 X85.26 Y114.642 E.89377
G1 X85.234 Y115.104 E.02322
G1 X97.824 Y127.694 E.89377
G1 X97.798 Y128.156 E.02322
G1 X85.208 Y115.566 E.89377
G1 X85.182 Y116.028 E.02322
G1 X97.772 Y128.618 E.89377
G1 X97.746 Y129.08 E.02322
G1 X85.156 Y116.489 E.89376
G1 X85.129 Y116.951 E.02322
G1 X97.72 Y129.541 E.89376
G1 X97.693 Y130.003 E.02322
G1 X85.103 Y117.413 E.89376
G1 X85.077 Y117.875 E.02322
G1 X97.667 Y130.465 E.89376
G1 X97.641 Y130.927 E.02322
G1 X85.051 Y118.337 E.89376
G1 X85.025 Y118.798 E.02322
G1 X97.615 Y131.388 E.89376
G1 X97.589 Y131.85 E.02322
G1 X84.999 Y119.26 E.89376
G1 X84.973 Y119.722 E.02322
G1 X97.563 Y132.312 E.89376
G1 X97.537 Y132.774 E.02322
G1 X84.947 Y120.184 E.89376
G1 X84.921 Y120.645 E.02322
G1 X97.511 Y133.235 E.89376
G1 X97.485 Y133.697 E.02322
M73 P2 R157
G1 X84.895 Y121.107 E.89376
G1 X84.869 Y121.569 E.02322
G1 X97.459 Y134.159 E.89376
G1 X97.433 Y134.621 E.02322
G1 X84.842 Y122.031 E.89376
G1 X84.816 Y122.492 E.02322
G1 X97.406 Y135.083 E.89376
G1 X97.38 Y135.544 E.02322
G1 X84.79 Y122.954 E.89376
G1 X84.764 Y123.416 E.02322
G1 X97.354 Y136.006 E.89376
G1 X97.328 Y136.468 E.02322
G1 X84.738 Y123.878 E.89375
G1 X84.712 Y124.34 E.02322
G1 X97.302 Y136.93 E.89375
G1 X97.276 Y137.391 E.02322
G1 X84.686 Y124.801 E.89375
G1 X84.66 Y125.263 E.02322
G1 X97.25 Y137.853 E.89375
