; generated by PrusaSlicer 2.5.0+win64 on 2022-12-07 at 00:17:58 UTC

; 

; external perimeters extrusion width = 1.00mm
; perimeters extrusion width = 1.00mm
; infill extrusion width = 1.00mm
; solid infill extrusion width = 1.00mm
; top infill extrusion width = 1.00mm
; support material extrusion width = 1.00mm
; first layer extrusion width = 0.42mm

M73 P0 R137
M107
;TYPE:Custom
G90 ; use absolute coordinates
M83 ; extruder relative mode
M140 S60 ; set final bed temp
M104 S150 ; set temporary nozzle temp to prevent oozing during homing and auto bed leveling
G4 S10 ; allow partial nozzle warmup
G28 ; home all axisG1 Z50 F240
G1 X7.6 Y10 F3000
M104 S210 ; set final nozzle temp
M190 S60 ; wait for bed temp to stabilize
M109 S210 ; wait for nozzle temp to stabilize
G1 Z0.28 F240
G92 E0
G1 Y140 E10 F1500 ; prime the nozzle
G1 X4 F5000
G92 E0
G1 Y10 E10 F1200 ; prime the nozzle
G92 E0
G21 ; set units to millimeters
G90 ; use absolute coordinates
M83 ; use relative distances for extrusion
; Filament gcode
M107
;LAYER_CHANGE
;Z:0.35
;HEIGHT:0.35
;BEFORE_LAYER_CHANGE
G92 E0
;0.35


G1 E-1 F3600
G1 Z.35 F7800
;AFTER_LAYER_CHANGE
;0.35
G1 X97.471 Y130.423
G1 E1 F2400
;TYPE:Perimeter
;WIDTH:0.42
G1 F1800
G1 X97.74 Y129.92 E.02865
G1 X97.736 Y129.718 E.01013
G1 X94.804 Y116.189 E.69471
G1 X91.727 Y95.786 E1.03556
G1 X91.659 Y94.097 E.0848
G1 X95.799 Y43.208 E2.56235
G1 X97.267 Y17.182 E1.30823
G1 X101.487 Y17.182 E.21179
G1 X101.487 Y151.78 E6.75493
G1 X95.209 Y162.82 E.63737
G1 X79.042 Y162.82 E.81136
G1 X97.396 Y130.554 E1.86298
G1 X97.213 Y130.184 F7800
;TYPE:External perimeter
G1 F1800
G1 X97.377 Y129.919 E.01562
G1 X97.399 Y129.791 E.00652
G1 X94.464 Y116.252 E.69526
G1 X91.383 Y95.818 E1.03706
G1 X91.313 Y94.09 E.0868
G1 X95.455 Y43.18 E2.5634
G1 X96.941 Y16.837 E1.32416
G1 X101.832 Y16.837 E.24546
G1 X101.832 Y151.871 E6.77682
G1 X95.41 Y163.165 E.65201
G1 X78.449 Y163.165 E.85118
G1 X97.137 Y130.313 E1.8968
G1 X97.522 Y130.141 F7800
G1 E-.7 F3600
;WIPE_START
G1 F6240
G1 X97.377 Y129.919 E-.25275
G1 X97.387 Y129.861 E-.03225
;WIPE_END
G1 E-.015 F3600
G1 X100.685 Y17.285 F7800
G1 E1 F2400
;TYPE:Solid infill
;WIDTH:0.420781
G1 F1800
G1 X101.228 Y17.829 E.03867
G1 X101.228 Y18.318 E.02459
G1 X100.351 Y17.441 E.06241
G1 X99.862 Y17.441 E.02459
G1 X101.228 Y18.807 E.09718
G1 X101.228 Y19.296 E.02459
G1 X99.373 Y17.441 E.13196
G1 X98.884 Y17.441 E.02459
G1 X101.228 Y19.784 E.16673
G1 X101.228 Y20.273 E.02459
G1 X98.396 Y17.441 E.2015
G1 X97.907 Y17.441 E.02459
G1 X101.228 Y20.762 E.23628
G1 X101.228 Y21.251 E.02459
G1 X97.506 Y17.529 E.26476
G1 X97.48 Y17.992 E.02331
G1 X101.228 Y21.74 E.26662
G1 X101.228 Y22.229 E.02459
G1 X97.454 Y18.455 E.26847
G1 X97.428 Y18.917 E.02331
G1 X101.228 Y22.718 E.27033
G1 X101.228 Y23.206 E.02459
G1 X97.402 Y19.38 E.27219
G1 X97.376 Y19.843 E.02331
G1 X101.228 Y23.695 E.27404
G1 X101.228 Y24.184 E.02459
G1 X97.35 Y20.306 E.2759
G1 X97.324 Y20.768 E.02331
G1 X101.228 Y24.673 E.27775
G1 X101.228 Y25.162 E.02459
G1 X97.298 Y21.231 E.27961
G1 X97.271 Y21.694 E.02331
G1 X101.228 Y25.651 E.28147
G1 X101.228 Y26.14 E.02459
G1 X97.245 Y22.157 E.28332
G1 X97.219 Y22.619 E.02331
G1 X101.228 Y26.628 E.28518
G1 X101.228 Y27.117 E.02459
G1 X97.193 Y23.082 E.28704
G1 X97.167 Y23.545 E.02331
G1 X101.228 Y27.606 E.28889
G1 X101.228 Y28.095 E.02459
G1 X97.141 Y24.008 E.29075
G1 X97.115 Y24.47 E.02331
G1 X101.228 Y28.584 E.29261
G1 X101.228 Y29.073 E.02459
G1 X97.089 Y24.933 E.29446
G1 X97.063 Y25.396 E.02331
G1 X101.228 Y29.561 E.29632
G1 X101.228 Y30.05 E.02459
G1 X97.037 Y25.859 E.29818
G1 X97.01 Y26.321 E.02331
G1 X101.228 Y30.539 E.30003
G1 X101.228 Y31.028 E.02459
G1 X96.984 Y26.784 E.30189
G1 X96.958 Y27.247 E.02331
G1 X101.228 Y31.517 E.30374
G1 X101.228 Y32.006 E.02459
G1 X96.932 Y27.71 E.3056
G1 X96.906 Y28.172 E.02331
G1 X101.228 Y32.495 E.30746
G1 X101.228 Y32.983 E.02459
G1 X96.88 Y28.635 E.30931
G1 X96.854 Y29.098 E.02331
G1 X101.228 Y33.472 E.31117
G1 X101.228 Y33.961 E.02459
G1 X96.828 Y29.561 E.31303
G1 X96.802 Y30.023 E.02331
G1 X101.228 Y34.45 E.31488
G1 X101.228 Y34.939 E.02459
G1 X96.776 Y30.486 E.31674
G1 X96.75 Y30.949 E.02331
G1 X101.228 Y35.428 E.3186
G1 X101.228 Y35.917 E.02459
G1 X96.723 Y31.412 E.32045
G1 X96.697 Y31.874 E.02331
G1 X101.228 Y36.405 E.32231
G1 X101.228 Y36.894 E.02459
G1 X96.671 Y32.337 E.32417
G1 X96.645 Y32.8 E.02331
G1 X101.228 Y37.383 E.32602
G1 X101.228 Y37.872 E.02459
G1 X96.619 Y33.263 E.32788
G1 X96.593 Y33.725 E.02331
G1 X101.228 Y38.361 E.32973
G1 X101.228 Y38.85 E.02459
G1 X96.567 Y34.188 E.33159
G1 X96.541 Y34.651 E.02331
G1 X101.228 Y39.338 E.33345
G1 X101.228 Y39.827 E.02459
G1 X96.515 Y35.114 E.3353
G1 X96.489 Y35.576 E.02331
G1 X101.228 Y40.316 E.33716
G1 X101.228 Y40.805 E.02459
G1 X96.462 Y36.039 E.33902
G1 X96.436 Y36.502 E.02331
G1 X101.228 Y41.294 E.34087
G1 X101.228 Y41.783 E.02459
G1 X96.41 Y36.965 E.34273
G1 X96.384 Y37.427 E.02331
G1 X101.228 Y42.272 E.34459
G1 X101.228 Y42.76 E.02459
M73 P0 R136
G1 X96.358 Y37.89 E.34644
G1 X96.332 Y38.353 E.02331
G1 X101.228 Y43.249 E.3483
G1 X101.228 Y43.738 E.02459
G1 X96.306 Y38.816 E.35016
G1 X96.28 Y39.278 E.02331
G1 X101.228 Y44.227 E.35201
G1 X101.228 Y44.716 E.02459
G1 X96.254 Y39.741 E.35387
G1 X96.228 Y40.204 E.02331
G1 X101.228 Y45.205 E.35572
G1 X101.228 Y45.694 E.02459
G1 X96.201 Y40.667 E.35758
G1 X96.175 Y41.129 E.02331
G1 X101.228 Y46.182 E.35944
G1 X101.228 Y46.671 E.02459
G1 X96.149 Y41.592 E.36129
G1 X96.123 Y42.055 E.02331
G1 X101.228 Y47.16 E.36315
G1 X101.228 Y47.649 E.02459
G1 X96.097 Y42.518 E.36501
G1 X96.071 Y42.98 E.02331
G1 X101.228 Y48.138 E.36686
G1 X101.228 Y48.627 E.02459
G1 X96.04 Y43.438 E.36907
G1 X96.003 Y43.89 E.02281
G1 X101.228 Y49.116 E.37169
G1 X101.228 Y49.604 E.02459
G1 X95.966 Y44.342 E.37431
G1 X95.93 Y44.794 E.02281
G1 X101.228 Y50.093 E.37692
G1 X101.228 Y50.582 E.02459
G1 X95.893 Y45.247 E.37954
G1 X95.856 Y45.699 E.02281
G1 X101.228 Y51.071 E.38215
G1 X101.228 Y51.56 E.02459
G1 X95.819 Y46.151 E.38477
G1 X95.782 Y46.603 E.02281
G1 X101.228 Y52.049 E.38739
G1 X101.228 Y52.537 E.02459
G1 X95.746 Y47.055 E.39
G1 X95.709 Y47.507 E.02281
G1 X101.228 Y53.026 E.39262
G1 X101.228 Y53.515 E.02459
G1 X95.672 Y47.959 E.39524
G1 X95.635 Y48.411 E.02281
G1 X101.228 Y54.004 E.39785
G1 X101.228 Y54.493 E.02459
G1 X95.599 Y48.863 E.40047
G1 X95.562 Y49.315 E.02281
G1 X101.228 Y54.982 E.40308
G1 X101.228 Y55.471 E.02459
G1 X95.525 Y49.767 E.4057
G1 X95.488 Y50.219 E.02281
G1 X101.228 Y55.959 E.40832
G1 X101.228 Y56.448 E.02459
G1 X95.451 Y50.671 E.41093
G1 X95.415 Y51.123 E.02281
G1 X101.228 Y56.937 E.41355
G1 X101.228 Y57.426 E.02459
G1 X95.378 Y51.576 E.41617
G1 X95.341 Y52.028 E.02281
G1 X101.228 Y57.915 E.41878
G1 X101.228 Y58.404 E.02459
G1 X95.304 Y52.48 E.4214
G1 X95.268 Y52.932 E.02281
G1 X101.228 Y58.893 E.42401
G1 X101.228 Y59.381 E.02459
G1 X95.231 Y53.384 E.42663
G1 X95.194 Y53.836 E.02281
G1 X101.228 Y59.87 E.42925
G1 X101.228 Y60.359 E.02459
G1 X95.157 Y54.288 E.43186
G1 X95.12 Y54.74 E.02281
G1 X101.228 Y60.848 E.43448
G1 X101.228 Y61.337 E.02459
G1 X95.084 Y55.192 E.4371
G1 X95.047 Y55.644 E.02281
G1 X101.228 Y61.826 E.43971
G1 X101.228 Y62.314 E.02459
G1 X95.01 Y56.096 E.44233
G1 X94.973 Y56.548 E.02281
G1 X101.228 Y62.803 E.44494
G1 X101.228 Y63.292 E.02459
G1 X94.937 Y57 E.44756
G1 X94.9 Y57.452 E.02281
G1 X101.228 Y63.781 E.45018
G1 X101.228 Y64.27 E.02459
G1 X94.863 Y57.905 E.45279
G1 X94.826 Y58.357 E.02281
G1 X101.228 Y64.759 E.45541
G1 X101.228 Y65.248 E.02459
G1 X94.789 Y58.809 E.45803
G1 X94.753 Y59.261 E.02281
G1 X101.228 Y65.736 E.46064
G1 X101.228 Y66.225 E.02459
G1 X94.716 Y59.713 E.46326
G1 X94.679 Y60.165 E.02281
G1 X101.228 Y66.714 E.46587
G1 X101.228 Y67.203 E.02459
G1 X94.642 Y60.617 E.46849
G1 X94.606 Y61.069 E.02281
G1 X101.228 Y67.692 E.47111
G1 X101.228 Y68.181 E.02459
G1 X94.569 Y61.521 E.47372
G1 X94.532 Y61.973 E.02281
G1 X101.228 Y68.67 E.47634
G1 X101.228 Y69.158 E.02459
G1 X94.495 Y62.425 E.47896
G1 X94.458 Y62.877 E.02281
G1 X101.228 Y69.647 E.48157
G1 X101.228 Y70.136 E.02459
G1 X94.422 Y63.329 E.48419
G1 X94.385 Y63.782 E.02281
G1 X101.228 Y70.625 E.4868
G1 X101.228 Y71.114 E.02459
G1 X94.348 Y64.234 E.48942
G1 X94.311 Y64.686 E.02281
G1 X101.228 Y71.603 E.49204
G1 X101.228 Y72.092 E.02459
G1 X94.275 Y65.138 E.49465
G1 X94.238 Y65.59 E.02281
G1 X101.228 Y72.58 E.49727
G1 X101.228 Y73.069 E.02459
G1 X94.201 Y66.042 E.49989
G1 X94.164 Y66.494 E.02281
G1 X101.228 Y73.558 E.5025
G1 X101.228 Y74.047 E.02459
G1 X94.127 Y66.946 E.50512
G1 X94.091 Y67.398 E.02281
G1 X101.228 Y74.536 E.50774
G1 X101.228 Y75.025 E.02459
G1 X94.054 Y67.85 E.51035
G1 X94.017 Y68.302 E.02281
G1 X101.228 Y75.513 E.51297
G1 X101.228 Y76.002 E.02459
G1 X93.98 Y68.754 E.51558
G1 X93.943 Y69.206 E.02281
G1 X101.228 Y76.491 E.5182
G1 X101.228 Y76.98 E.02459
G1 X93.907 Y69.658 E.52082
G1 X93.87 Y70.111 E.02281
G1 X101.228 Y77.469 E.52343
G1 X101.228 Y77.958 E.02459
G1 X93.833 Y70.563 E.52605
G1 X93.796 Y71.015 E.02281
G1 X101.228 Y78.447 E.52867
G1 X101.228 Y78.935 E.02459
G1 X93.76 Y71.467 E.53128
G1 X93.723 Y71.919 E.02281
G1 X101.228 Y79.424 E.5339
G1 X101.228 Y79.913 E.02459
G1 X93.686 Y72.371 E.53651
G1 X93.649 Y72.823 E.02281
G1 X101.228 Y80.402 E.53913
G1 X101.228 Y80.891 E.02459
G1 X93.612 Y73.275 E.54175
G1 X93.576 Y73.727 E.02281
G1 X101.228 Y81.38 E.54436
G1 X101.228 Y81.869 E.02459
G1 X93.539 Y74.179 E.54698
G1 X93.502 Y74.631 E.02281
G1 X101.228 Y82.357 E.5496
G1 X101.228 Y82.846 E.02459
G1 X93.465 Y75.083 E.55221
G1 X93.429 Y75.535 E.02281
G1 X101.228 Y83.335 E.55483
G1 X101.228 Y83.824 E.02459
G1 X93.392 Y75.987 E.55744
G1 X93.355 Y76.44 E.02281
G1 X101.228 Y84.313 E.56006
G1 X101.228 Y84.802 E.02459
G1 X93.318 Y76.892 E.56268
G1 X93.281 Y77.344 E.02281
G1 X101.228 Y85.291 E.56529
G1 X101.228 Y85.779 E.02459
G1 X93.245 Y77.796 E.56791
G1 X93.208 Y78.248 E.02281
G1 X101.228 Y86.268 E.57053
G1 X101.228 Y86.757 E.02459
G1 X93.171 Y78.7 E.57314
G1 X93.134 Y79.152 E.02281
G1 X101.228 Y87.246 E.57576
G1 X101.228 Y87.735 E.02459
M73 P1 R136
G1 X93.098 Y79.604 E.57837
G1 X93.061 Y80.056 E.02281
G1 X101.228 Y88.224 E.58099
G1 X101.228 Y88.712 E.02459
G1 X93.024 Y80.508 E.58361
G1 X92.987 Y80.96 E.02281
G1 X101.228 Y89.201 E.58622
G1 X101.228 Y89.69 E.02459
G1 X92.95 Y81.412 E.58884
G1 X92.914 Y81.864 E.02281
G1 X101.228 Y90.179 E.59146
G1 X101.228 Y90.668 E.02459
G1 X92.877 Y82.316 E.59407
G1 X92.84 Y82.769 E.02281
G1 X101.228 Y91.157 E.59669
G1 X101.228 Y91.646 E.02459
G1 X92.803 Y83.221 E.5993
G1 X92.767 Y83.673 E.02281
G1 X101.228 Y92.134 E.60192
G1 X101.228 Y92.623 E.02459
G1 X92.73 Y84.125 E.60454
G1 X92.693 Y84.577 E.02281
G1 X101.228 Y93.112 E.60715
G1 X101.228 Y93.601 E.02459
G1 X92.656 Y85.029 E.60977
G1 X92.619 Y85.481 E.02281
G1 X101.228 Y94.09 E.61239
G1 X101.228 Y94.579 E.02459
G1 X92.583 Y85.933 E.615
G1 X92.546 Y86.385 E.02281
G1 X101.228 Y95.068 E.61762
G1 X101.228 Y95.556 E.02459
G1 X92.509 Y86.837 E.62023
G1 X92.472 Y87.289 E.02281
G1 X101.228 Y96.045 E.62285
G1 X101.228 Y96.534 E.02459
G1 X92.436 Y87.741 E.62547
G1 X92.399 Y88.193 E.02281
G1 X101.228 Y97.023 E.62808
G1 X101.228 Y97.512 E.02459
G1 X92.362 Y88.645 E.6307
G1 X92.325 Y89.098 E.02281
G1 X101.228 Y98.001 E.63332
G1 X101.228 Y98.489 E.02459
G1 X92.288 Y89.55 E.63593
G1 X92.252 Y90.002 E.02281
G1 X101.228 Y98.978 E.63855
G1 X101.228 Y99.467 E.02459
G1 X92.215 Y90.454 E.64117
G1 X92.178 Y90.906 E.02281
G1 X101.228 Y99.956 E.64378
G1 X101.228 Y100.445 E.02459
G1 X92.141 Y91.358 E.6464
G1 X92.105 Y91.81 E.02281
G1 X101.228 Y100.934 E.64901
G1 X101.228 Y101.423 E.02459
G1 X92.068 Y92.262 E.65163
G1 X92.031 Y92.714 E.02281
G1 X101.228 Y101.911 E.65425
G1 X101.228 Y102.4 E.02459
G1 X91.994 Y93.166 E.65686
G1 X91.957 Y93.618 E.02281
G1 X101.228 Y102.889 E.65948
G1 X101.228 Y103.378 E.02459
G1 X91.921 Y94.07 E.6621
G1 X91.918 Y94.103 E.00163
G1 X91.937 Y94.576 E.02381
G1 X101.228 Y103.867 E.66093
G1 X101.228 Y104.356 E.02459
G1 X91.958 Y95.085 E.65947
G1 X91.978 Y95.594 E.02564
G1 X101.228 Y104.845 E.65801
G1 X101.228 Y105.333 E.02459
G1 X92.043 Y96.148 E.65338
G1 X92.13 Y96.724 E.02928
G1 X101.228 Y105.822 E.6472
G1 X101.228 Y106.311 E.02459
G1 X92.217 Y97.3 E.64103
G1 X92.304 Y97.875 E.02928
G1 X101.228 Y106.8 E.63486
G1 X101.228 Y107.289 E.02459
G1 X92.39 Y98.451 E.62868
G1 X92.477 Y99.027 E.02928
G1 X101.228 Y107.778 E.62251
G1 X101.228 Y108.267 E.02459
G1 X92.564 Y99.602 E.61633
G1 X92.651 Y100.178 E.02928
G1 X101.228 Y108.755 E.61016
G1 X101.228 Y109.244 E.02459
G1 X92.738 Y100.753 E.60398
G1 X92.824 Y101.329 E.02928
G1 X101.228 Y109.733 E.59781
G1 X101.228 Y110.222 E.02459
G1 X92.911 Y101.905 E.59163
G1 X92.998 Y102.48 E.02928
G1 X101.228 Y110.711 E.58546
G1 X101.228 Y111.2 E.02459
G1 X93.085 Y103.056 E.57928
G1 X93.172 Y103.632 E.02928
G1 X101.228 Y111.688 E.57311
G1 X101.228 Y112.177 E.02459
G1 X93.258 Y104.207 E.56694
G1 X93.345 Y104.783 E.02928
G1 X101.228 Y112.666 E.56076
G1 X101.228 Y113.155 E.02459
G1 X93.432 Y105.359 E.55459
G1 X93.519 Y105.934 E.02928
G1 X101.228 Y113.644 E.54841
G1 X101.228 Y114.133 E.02459
G1 X93.606 Y106.51 E.54224
G1 X93.692 Y107.086 E.02928
G1 X101.228 Y114.622 E.53606
G1 X101.228 Y115.11 E.02459
G1 X93.779 Y107.661 E.52989
G1 X93.866 Y108.237 E.02928
M73 P1 R135
G1 X101.228 Y115.599 E.52371
G1 X101.228 Y116.088 E.02459
G1 X93.953 Y108.813 E.51754
G1 X94.04 Y109.388 E.02928
G1 X101.228 Y116.577 E.51136
G1 X101.228 Y117.066 E.02459
G1 X94.126 Y109.964 E.50519
G1 X94.213 Y110.54 E.02928
G1 X101.228 Y117.555 E.49902
G1 X101.228 Y118.044 E.02459
G1 X94.3 Y111.115 E.49284
G1 X94.387 Y111.691 E.02928
G1 X101.228 Y118.532 E.48667
G1 X101.228 Y119.021 E.02459
G1 X94.474 Y112.267 E.48049
G1 X94.56 Y112.842 E.02928
G1 X101.228 Y119.51 E.47432
G1 X101.228 Y119.999 E.02459
G1 X94.647 Y113.418 E.46814
G1 X94.734 Y113.993 E.02928
G1 X101.228 Y120.488 E.46197
G1 X101.228 Y120.977 E.02459
G1 X94.821 Y114.569 E.45579
G1 X94.908 Y115.145 E.02928
G1 X101.228 Y121.465 E.44962
G1 X101.228 Y121.954 E.02459
G1 X94.994 Y115.72 E.44344
G1 X95.094 Y116.309 E.03003
G1 X101.228 Y122.443 E.43635
G1 X101.228 Y122.932 E.02459
G1 X95.229 Y116.933 E.42673
G1 X95.365 Y117.557 E.03212
G1 X101.228 Y123.421 E.4171
G1 X101.228 Y123.91 E.02459
G1 X95.5 Y118.181 E.40748
G1 X95.635 Y118.806 E.03212
G1 X101.228 Y124.399 E.39786
G1 X101.228 Y124.887 E.02459
G1 X95.771 Y119.43 E.38823
G1 X95.906 Y120.054 E.03212
G1 X101.228 Y125.376 E.37861
G1 X101.228 Y125.865 E.02459
G1 X96.041 Y120.678 E.36898
G1 X96.176 Y121.302 E.03212
G1 X101.228 Y126.354 E.35936
G1 X101.228 Y126.843 E.02459
G1 X96.312 Y121.926 E.34973
G1 X96.447 Y122.55 E.03212
G1 X101.228 Y127.332 E.34011
G1 X101.228 Y127.821 E.02459
G1 X96.582 Y123.175 E.33049
G1 X96.718 Y123.799 E.03212
G1 X101.228 Y128.309 E.32086
G1 X101.228 Y128.798 E.02459
G1 X96.853 Y124.423 E.31124
G1 X96.988 Y125.047 E.03212
G1 X101.228 Y129.287 E.30161
G1 X101.228 Y129.776 E.02459
G1 X97.124 Y125.671 E.29199
G1 X97.259 Y126.295 E.03212
G1 X101.228 Y130.265 E.28237
G1 X101.228 Y130.754 E.02459
G1 X97.394 Y126.919 E.27274
G1 X97.529 Y127.544 E.03212
G1 X101.228 Y131.243 E.26312
G1 X101.228 Y131.731 E.02459
G1 X97.665 Y128.168 E.25349
G1 X97.8 Y128.792 E.03212
G1 X101.228 Y132.22 E.24387
G1 X101.228 Y132.709 E.02459
G1 X97.935 Y129.416 E.23424
G1 X97.99 Y129.668 E.01295
G1 X98.007 Y129.827 E.00805
G1 X97.995 Y129.965 E.00695
G1 X101.228 Y133.198 E.23
G1 X101.228 Y133.687 E.02459
G1 X97.847 Y130.305 E.24053
G1 X97.662 Y130.61 E.0179
G1 X101.228 Y134.176 E.25367
G1 X101.228 Y134.664 E.02459
G1 X97.485 Y130.921 E.26628
G1 X97.308 Y131.233 E.01803
G1 X101.228 Y135.153 E.27889
G1 X101.228 Y135.642 E.02459
G1 X97.13 Y131.544 E.2915
G1 X96.953 Y131.856 E.01803
G1 X101.228 Y136.131 E.30411
G1 X101.228 Y136.62 E.02459
G1 X96.776 Y132.168 E.31672
G1 X96.599 Y132.479 E.01803
G1 X101.228 Y137.109 E.32932
G1 X101.228 Y137.598 E.02459
G1 X96.421 Y132.791 E.34193
G1 X96.244 Y133.102 E.01803
G1 X101.228 Y138.086 E.35454
G1 X101.228 Y138.575 E.02459
G1 X96.067 Y133.414 E.36715
G1 X95.89 Y133.726 E.01803
G1 X101.228 Y139.064 E.37976
