; generated by PrusaSlicer 2.5.0+win64 on 2022-12-07 at 00:17:57 UTC

; 

; external perimeters extrusion width = 1.00mm
; perimeters extrusion width = 1.00mm
; infill extrusion width = 1.00mm
; solid infill extrusion width = 1.00mm
; top infill extrusion width = 1.00mm
; support material extrusion width = 1.00mm
; first layer extrusion width = 0.42mm

M73 P0 R31
M107
;TYPE:Custom
G90 ; use absolute coordinates
M83 ; extruder relative mode
M140 S60 ; set final bed temp
M104 S150 ; set temporary nozzle temp to prevent oozing during homing and auto bed leveling
G4 S10 ; allow partial nozzle warmup
G28 ; home all axisG1 Z50 F240
G1 X7.6 Y10 F3000
M104 S210 ; set final nozzle temp
M190 S60 ; wait for bed temp to stabilize
M109 S210 ; wait for nozzle temp to stabilize
G1 Z0.28 F240
G92 E0
G1 Y140 E10 F1500 ; prime the nozzle
G1 X4 F5000
G92 E0
G1 Y10 E10 F1200 ; prime the nozzle
G92 E0
G21 ; set units to millimeters
G90 ; use absolute coordinates
M83 ; use relative distances for extrusion
; Filament gcode
M107
;LAYER_CHANGE
;Z:0.35
;HEIGHT:0.35
;BEFORE_LAYER_CHANGE
G92 E0
;0.35


G1 E-1 F3600
G1 Z.35 F7800
;AFTER_LAYER_CHANGE
;0.35
G1 X101.259 Y75.255
G1 E1 F2400
;TYPE:Perimeter
;WIDTH:0.42
G1 F1800
G1 X101.211 Y75.304 E.00345
G1 X100.651 Y76.181 E.0522
G1 X99.097 Y77.88 E.11556
G1 X94.425 Y81.037 E.28297
G1 X93.615 Y81.218 E.04168
G1 X93.383 Y81.357 E.01354
G1 X92.818 Y81.943 E.04085
G1 X91.9 Y82.603 E.05678
G1 X71.561 Y108.988 E1.67189
G1 X71.561 Y84.519 E1.22801
G1 X83.224 Y69.398 E.95837
G1 X107.452 Y69.398 E1.21589
G1 X105.927 Y71.763 E.14121
G1 X105.346 Y72.16 E.03532
G1 X105.204 Y72.307 E.01028
G1 X104.941 Y72.715 E.02434
G1 X101.365 Y75.149 E.21709
G1 X101.502 Y75.49 F7800
;TYPE:External perimeter
G1 F1800
G1 X100.925 Y76.391 E.0537
G1 X99.324 Y78.143 E.1191
G1 X94.564 Y81.36 E.2883
G1 X93.718 Y81.548 E.04351
G1 X93.631 Y81.597 E.00498
G1 X93.042 Y82.207 E.0426
G1 X92.173 Y82.814 E.0532
G1 X89.449 Y86.35 E.224
G1 X89.432 Y86.439 E.00455
G1 X89.306 Y86.535 E.00796
G1 X71.216 Y110 E1.48694
G1 X71.216 Y84.401 E1.28471
M73 P1 R31
G1 X83.055 Y69.053 E.97278
G1 X108.085 Y69.053 E1.25615
G1 X106.179 Y72.008 E.17645
G1 X105.494 Y72.494 E.04217
G1 X105.193 Y72.961 E.02787
G1 X102.002 Y75.131 E.19365
G1 X101.626 Y75.405 E.0234
G1 X100.518 Y75.312 F7800
G1 E-.7 F3600
;WIPE_START
G1 F6240
G1 X101.324 Y75.829 E-.285
;WIPE_END
G1 E-.015 F3600
G1 X106.576 Y69.502 F7800
G1 E1 F2400
;TYPE:Solid infill
;WIDTH:0.421577
G1 F1800
G1 X106.881 Y69.807 E.02174
G1 X106.689 Y70.104 E.01787
G1 X106.241 Y69.657 E.03191
G1 X105.751 Y69.657 E.0247
G1 X106.497 Y70.402 E.05315
G1 X106.305 Y70.7 E.01787
G1 X105.261 Y69.657 E.07439
G1 X104.771 Y69.657 E.0247
G1 X106.113 Y70.998 E.09562
G1 X105.92 Y71.296 E.01787
G1 X104.281 Y69.657 E.11686
G1 X103.791 Y69.657 E.0247
G1 X105.723 Y71.589 E.13775
G1 X105.433 Y71.788 E.01777
G1 X103.301 Y69.657 E.15194
G1 X102.811 Y69.657 E.0247
G1 X105.15 Y71.996 E.16676
G1 X104.991 Y72.16 E.01155
G1 X104.926 Y72.261 E.00606
G1 X102.322 Y69.657 E.18568
G1 X101.832 Y69.657 E.0247
G1 X104.724 Y72.55 E.20626
G1 X104.433 Y72.748 E.01778
G1 X101.342 Y69.657 E.22041
G1 X100.852 Y69.657 E.0247
G1 X104.141 Y72.947 E.23455
G1 X103.85 Y73.145 E.01778
G1 X100.362 Y69.657 E.2487
G1 X99.872 Y69.657 E.0247
G1 X103.558 Y73.344 E.26285
G1 X103.267 Y73.542 E.01778
G1 X99.382 Y69.657 E.277
G1 X98.892 Y69.657 E.0247
G1 X102.975 Y73.74 E.29114
G1 X102.684 Y73.939 E.01778
G1 X98.402 Y69.657 E.30529
G1 X97.912 Y69.657 E.0247
G1 X102.392 Y74.137 E.31944
G1 X102.101 Y74.336 E.01778
G1 X97.422 Y69.657 E.33359
G1 X96.932 Y69.657 E.0247
G1 X101.809 Y74.534 E.34773
G1 X101.517 Y74.733 E.01778
G1 X96.442 Y69.657 E.36188
G1 X95.952 Y69.657 E.0247
M73 P1 R30
G1 X101.226 Y74.931 E.37603
G1 X101.082 Y75.049 E.00938
G1 X100.992 Y75.187 E.0083
G1 X95.462 Y69.657 E.3943
G1 X94.972 Y69.657 E.0247
G1 X100.798 Y75.483 E.41541
G1 X100.604 Y75.779 E.01784
G1 X94.482 Y69.657 E.43651
G1 X93.992 Y69.657 E.0247
G1 X100.403 Y76.068 E.45711
G1 X100.169 Y76.324 E.01748
G1 X93.502 Y69.657 E.47535
G1 X93.012 Y69.657 E.0247
G1 X99.935 Y76.58 E.4936
G1 X99.701 Y76.836 E.01748
G1 X92.522 Y69.657 E.51184
G1 X92.032 Y69.657 E.0247
G1 X99.467 Y77.092 E.53009
G1 X99.233 Y77.348 E.01748
G1 X91.542 Y69.657 E.54833
G1 X91.052 Y69.657 E.0247
G1 X98.999 Y77.604 E.56658
G1 X98.926 Y77.682 E.0054
G1 X98.724 Y77.819 E.0123
G1 X90.562 Y69.657 E.58195
G1 X90.072 Y69.657 E.0247
G1 X98.432 Y78.017 E.59604
G1 X98.14 Y78.214 E.01779
G1 X89.582 Y69.657 E.61013
G1 X89.092 Y69.657 E.0247
G1 X97.847 Y78.412 E.62422
G1 X97.555 Y78.61 E.01779
G1 X88.602 Y69.657 E.63831
G1 X88.112 Y69.657 E.0247
G1 X97.263 Y78.807 E.6524
G1 X96.97 Y79.005 E.01779
G1 X87.622 Y69.657 E.66649
G1 X87.132 Y69.657 E.0247
G1 X96.678 Y79.202 E.68058
G1 X96.385 Y79.4 E.01779
G1 X86.642 Y69.657 E.69467
G1 X86.152 Y69.657 E.0247
G1 X96.093 Y79.598 E.70876
G1 X95.801 Y79.795 E.01779
G1 X85.662 Y69.657 E.72285
G1 X85.172 Y69.657 E.0247
G1 X95.508 Y79.993 E.73694
G1 X95.216 Y80.191 E.01779
G1 X84.682 Y69.657 E.75103
G1 X84.192 Y69.657 E.0247
G1 X94.924 Y80.388 E.76512
G1 X94.631 Y80.586 E.01779
M73 P2 R30
G1 X83.702 Y69.657 E.77921
G1 X83.352 Y69.657 E.01769
G1 X83.291 Y69.735 E.005
G1 X94.339 Y80.783 E.7877
G1 X93.945 Y80.88 E.02043
G1 X83.078 Y70.012 E.77484
G1 X82.864 Y70.289 E.01761
G1 X93.545 Y80.969 E.76151
G1 X93.315 Y81.076 E.01279
G1 X93.238 Y81.153 E.00546
G1 X82.651 Y70.565 E.75487
G1 X82.438 Y70.842 E.01761
G1 X92.994 Y81.398 E.75266
G1 X92.75 Y81.644 E.01747
G1 X82.224 Y71.119 E.75046
G1 X82.011 Y71.395 E.01761
G1 X92.478 Y81.862 E.74629
G1 X92.187 Y82.062 E.01777
G1 X81.797 Y71.672 E.74079
G1 X81.584 Y71.948 E.01761
G1 X91.897 Y82.261 E.73529
G1 X91.74 Y82.391 E.01025
G1 X91.652 Y82.506 E.00733
G1 X81.371 Y72.225 E.73302
G1 X81.157 Y72.502 E.01761
G1 X91.438 Y82.783 E.73302
G1 X91.225 Y83.059 E.01761
G1 X80.944 Y72.778 E.73303
G1 X80.731 Y73.055 E.01761
G1 X91.012 Y83.336 E.73303
G1 X90.798 Y83.613 E.01761
G1 X80.517 Y73.331 E.73303
G1 X80.304 Y73.608 E.01761
G1 X90.585 Y83.889 E.73304
G1 X90.372 Y84.166 E.01761
G1 X80.09 Y73.885 E.73304
G1 X79.877 Y74.161 E.01761
G1 X90.159 Y84.443 E.73305
G1 X89.945 Y84.719 E.01761
G1 X79.664 Y74.438 E.73305
G1 X79.45 Y74.714 E.01761
G1 X89.732 Y84.996 E.73305
G1 X89.519 Y85.273 E.01761
G1 X79.237 Y74.991 E.73306
G1 X79.024 Y75.268 E.01761
G1 X89.305 Y85.549 E.73306
G1 X89.092 Y85.826 E.01761
G1 X78.81 Y75.544 E.73307
G1 X78.597 Y75.821 E.01761
G1 X88.879 Y86.103 E.73307
G1 X88.665 Y86.379 E.01761
G1 X78.384 Y76.097 E.73308
G1 X78.17 Y76.374 E.01761
G1 X88.452 Y86.656 E.73308
G1 X88.239 Y86.933 E.01761
G1 X77.957 Y76.651 E.73308
G1 X77.743 Y76.927 E.01761
G1 X88.025 Y87.209 E.73309
G1 X87.812 Y87.486 E.01761
G1 X77.53 Y77.204 E.73309
G1 X77.317 Y77.481 E.01761
G1 X87.599 Y87.763 E.7331
G1 X87.386 Y88.039 E.01761
G1 X77.103 Y77.757 E.7331
G1 X76.89 Y78.034 E.01761
G1 X87.172 Y88.316 E.7331
G1 X86.959 Y88.593 E.01761
G1 X76.677 Y78.31 E.73311
G1 X76.463 Y78.587 E.01761
G1 X86.746 Y88.869 E.73311
G1 X86.532 Y89.146 E.01761
G1 X76.25 Y78.864 E.73312
G1 X76.036 Y79.14 E.01761
M73 P3 R30
G1 X86.319 Y89.423 E.73312
G1 X86.106 Y89.699 E.01761
G1 X75.823 Y79.417 E.73313
G1 X75.61 Y79.693 E.01761
G1 X85.892 Y89.976 E.73313
G1 X85.679 Y90.253 E.01761
G1 X75.396 Y79.97 E.73313
G1 X75.183 Y80.247 E.01761
G1 X85.466 Y90.529 E.73314
G1 X85.252 Y90.806 E.01761
G1 X74.97 Y80.523 E.73314
G1 X74.756 Y80.8 E.01761
G1 X85.039 Y91.083 E.73315
G1 X84.826 Y91.359 E.01761
G1 X74.543 Y81.076 E.73315
G1 X74.33 Y81.353 E.01761
G1 X84.613 Y91.636 E.73316
G1 X84.399 Y91.913 E.01761
G1 X74.116 Y81.63 E.73316
G1 X73.903 Y81.906 E.01761
G1 X84.186 Y92.189 E.73316
G1 X83.973 Y92.466 E.01761
G1 X73.689 Y82.183 E.73317
G1 X73.476 Y82.459 E.01761
G1 X83.759 Y92.743 E.73317
G1 X83.546 Y93.019 E.01761
G1 X73.263 Y82.736 E.73318
G1 X73.049 Y83.013 E.01761
G1 X83.333 Y93.296 E.73318
G1 X83.119 Y93.573 E.01761
G1 X72.836 Y83.289 E.73318
G1 X72.623 Y83.566 E.01761
G1 X82.906 Y93.849 E.73319
G1 X82.693 Y94.126 E.01761
G1 X72.409 Y83.843 E.73319
G1 X72.196 Y84.119 E.01761
G1 X82.479 Y94.403 E.7332
G1 X82.266 Y94.679 E.01761
G1 X71.983 Y84.396 E.7332
G1 X71.819 Y84.607 E.01346
G1 X71.819 Y84.723 E.00583
G1 X82.053 Y94.956 E.72962
G1 X81.839 Y95.233 E.01761
G1 X71.819 Y85.213 E.71441
G1 X71.819 Y85.703 E.0247
G1 X81.626 Y95.509 E.6992
G1 X81.413 Y95.786 E.01761
G1 X71.819 Y86.193 E.68399
G1 X71.819 Y86.683 E.0247
G1 X81.2 Y96.063 E.66878
G1 X80.986 Y96.339 E.01761
G1 X71.819 Y87.173 E.65358
G1 X71.819 Y87.663 E.0247
G1 X80.773 Y96.616 E.63837
G1 X80.56 Y96.893 E.01761
G1 X71.819 Y88.153 E.62316
G1 X71.819 Y88.643 E.0247
G1 X80.346 Y97.169 E.60795
G1 X80.133 Y97.446 E.01761
G1 X71.819 Y89.132 E.59274
G1 X71.819 Y89.622 E.0247
G1 X79.92 Y97.723 E.57753
G1 X79.706 Y97.999 E.01761
G1 X71.819 Y90.112 E.56232
G1 X71.819 Y90.602 E.0247
G1 X79.493 Y98.276 E.54712
G1 X79.28 Y98.553 E.01761
G1 X71.819 Y91.092 E.53191
G1 X71.819 Y91.582 E.0247
G1 X79.066 Y98.829 E.5167
G1 X78.853 Y99.106 E.01761
G1 X71.819 Y92.072 E.50149
G1 X71.819 Y92.562 E.0247
G1 X78.64 Y99.383 E.48628
G1 X78.427 Y99.659 E.01761
G1 X71.819 Y93.052 E.47107
G1 X71.819 Y93.542 E.0247
M73 P4 R30
G1 X78.213 Y99.936 E.45586
G1 X78 Y100.213 E.01761
G1 X71.819 Y94.032 E.44066
G1 X71.819 Y94.522 E.0247
G1 X77.787 Y100.489 E.42545
G1 X77.573 Y100.766 E.01761
G1 X71.819 Y95.012 E.41024
G1 X71.819 Y95.502 E.0247
G1 X77.36 Y101.043 E.39503
G1 X77.147 Y101.319 E.01761
G1 X71.819 Y95.992 E.37982
G1 X71.819 Y96.482 E.0247
G1 X76.933 Y101.596 E.36461
G1 X76.72 Y101.873 E.01761
G1 X71.819 Y96.972 E.34941
G1 X71.819 Y97.462 E.0247
G1 X76.507 Y102.149 E.3342
G1 X76.293 Y102.426 E.01761
G1 X71.819 Y97.952 E.31899
G1 X71.819 Y98.442 E.0247
G1 X76.08 Y102.703 E.30378
G1 X75.867 Y102.979 E.01761
G1 X71.819 Y98.932 E.28857
G1 X71.819 Y99.422 E.0247
G1 X75.654 Y103.256 E.27336
G1 X75.44 Y103.533 E.01761
G1 X71.819 Y99.912 E.25815
G1 X71.819 Y100.402 E.0247
G1 X75.227 Y103.809 E.24295
G1 X75.014 Y104.086 E.01761
G1 X71.819 Y100.892 E.22774
G1 X71.819 Y101.382 E.0247
G1 X74.8 Y104.363 E.21253
G1 X74.587 Y104.639 E.01761
G1 X71.819 Y101.872 E.19732
G1 X71.819 Y102.362 E.0247
G1 X74.374 Y104.916 E.18211
G1 X74.16 Y105.193 E.01761
G1 X71.819 Y102.852 E.1669
G1 X71.819 Y103.342 E.0247
G1 X73.947 Y105.469 E.1517
G1 X73.734 Y105.746 E.01761
G1 X71.819 Y103.832 E.13649
G1 X71.819 Y104.322 E.0247
G1 X73.52 Y106.023 E.12128
G1 X73.307 Y106.299 E.01761
G1 X71.819 Y104.812 E.10607
G1 X71.819 Y105.302 E.0247
G1 X73.094 Y106.576 E.09086
G1 X72.881 Y106.853 E.01761
G1 X71.819 Y105.792 E.07565
G1 X71.819 Y106.282 E.0247
G1 X72.667 Y107.129 E.06044
G1 X72.454 Y107.406 E.01761
G1 X71.819 Y106.772 E.04524
G1 X71.819 Y107.262 E.0247
G1 X72.241 Y107.683 E.03003
G1 X72.027 Y107.959 E.01761
G1 X71.664 Y107.596 E.02588
M106 S255
;LAYER_CHANGE
;Z:0.85
;HEIGHT:0.5
;BEFORE_LAYER_CHANGE
G92 E0
;0.85


G1 E-.7 F3600
;WIPE_START
G1 F6240
G1 X72.027 Y107.959 E-.28139
G1 X72.031 Y107.954 E-.00361
;WIPE_END
G1 E-.015 F3600
G1 Z.85 F7800
;AFTER_LAYER_CHANGE
;0.85
M104 S205 ; set temperature
G1 X100.612 Y74.747
G1 E1 F2400
;TYPE:Perimeter
;WIDTH:1
G1 F2016.357
G1 X99.849 Y75.925 E.26049
G1 X98.599 Y77.291 E.3436
G1 X94.116 Y80.324 E1.00449
G1 X93.586 Y80.442 E.10078
G1 X93.168 Y80.613 E.0839
G1 X92.913 Y80.819 E.06068
G1 X92.212 Y81.546 E.18734
G1 X91.208 Y82.235 E.22602
G1 X90.906 Y82.521 E.07727
G1 X72.399 Y106.529 E5.62528
G1 X72.399 Y84.592 E4.07092
G1 X83.472 Y70.236 E3.36448
G1 X105.825 Y70.236 E4.14796
G1 X105.258 Y71.115 E.19406
G1 X104.6 Y71.565 E.14798
G1 X104.23 Y71.946 E.09838
G1 X103.956 Y72.372 E.0941
G1 X101.208 Y74.242 E.61683
G1 X100.705 Y74.629 E.11772
G1 X101.311 Y75.295 F7800
;TYPE:External perimeter
G1 F1800
G1 X100.56 Y76.47 E.25882
G1 X99.187 Y77.971 E.37744
G1 X94.476 Y81.159 E1.05555
G1 X93.78 Y81.313 E.13227
M73 P4 R29
G1 X93.556 Y81.439 E.0477
G1 X92.792 Y82.23 E.20409
G1 X91.613 Y83.066 E.26825
G1 X71.506 Y109.149 E6.11145
G1 X71.506 Y84.288 E4.6136
G1 X83.033 Y69.343 E3.50238
G1 X107.463 Y69.343 E4.53335
G1 X105.911 Y71.75 E.53139
G1 X105.104 Y72.302 E.18136
G1 X104.981 Y72.429 E.03279
G1 X104.608 Y73.008 E.12783
G1 X101.416 Y75.188 E.71738
G1 X100.324 Y75.138 F7800
G1 X101.146 Y73.96
;TYPE:Solid infill
;WIDTH:1.01007
G1 F1200
G1 X104.201 Y70.906 E.81073
G1 X102.924 Y70.906 E.23959
G1 X93.681 Y80.149 E2.45324
G1 E-.7 F3600
;WIPE_START
G1 F6240
G1 X94.049 Y79.782 E-.285
;WIPE_END
G1 E-.015 F3600
G1 X79.506 Y96.877 F7800
G1 E1 F2400
G1 F1200
G1 X73.068 Y103.315 E1.70869
G1 X73.068 Y102.039 E.23959
G1 X81.597 Y93.51 E2.26342
G1 X85.907 Y87.923 E1.32433
G1 X73.068 Y100.762 E3.40745
G1 X73.068 Y99.485 E.23959
M73 P5 R29
G1 X101.648 Y70.906 E7.58493
G1 X100.371 Y70.906 E.23959
G1 X73.068 Y98.208 E7.2461
G1 X73.068 Y96.932 E.23959
G1 X99.094 Y70.906 E6.90727
G1 X97.818 Y70.906 E.23959
G1 X73.068 Y95.655 E6.56843
G1 X73.068 Y94.378 E.23959
G1 X96.541 Y70.906 E6.2296
G1 X95.264 Y70.906 E.23959
G1 X73.068 Y93.102 E5.89077
G1 X73.068 Y91.825 E.23959
G1 X93.988 Y70.906 E5.55193
G1 X92.711 Y70.906 E.23959
G1 X73.068 Y90.548 E5.2131
G1 X73.068 Y89.272 E.23959
G1 X91.434 Y70.906 E4.87427
G1 X90.157 Y70.906 E.23959
G1 X73.068 Y87.995 E4.53543
G1 X73.068 Y86.718 E.23959
G1 X88.881 Y70.906 E4.1966
G1 X87.604 Y70.906 E.23959
G1 X73.068 Y85.441 E3.85777
G1 X73.068 Y84.82 E.1166
M73 P6 R29
G1 X75.279 Y81.954 E.67937
G1 X86.327 Y70.906 E2.93212
G1 X85.051 Y70.906 E.23959
G1 X77.368 Y78.589 E2.03904
;LAYER_CHANGE
;Z:1.35
;HEIGHT:0.5
;BEFORE_LAYER_CHANGE
G92 E0
;1.35


G1 E-.7 F3600
;WIPE_START
G1 F6240
G1 X77.735 Y78.221 E-.285
;WIPE_END
G1 E-.015 F3600
G1 Z1.35 F7800
;AFTER_LAYER_CHANGE
;1.35
G1 X100.681 Y74.695
G1 E1 F2400
;TYPE:Perimeter
;WIDTH:1
G1 F2016.357
G1 X99.691 Y76.226 E.33845
G1 X98.663 Y77.35 E.28253
G1 X94.149 Y80.406 E1.01165
G1 X93.738 Y80.498 E.07806
G1 X93.306 Y80.678 E.08685
G1 X93.066 Y80.875 E.05771
G1 X92.14 Y81.834 E.24748
G1 X90.818 Y82.742 E.29762
G1 X90.515 Y83.028 E.07727
G1 X72.399 Y106.529 E5.50647
G1 X72.399 Y84.342 E4.11735
G1 X83.279 Y70.236 E3.30584
G1 X105.719 Y70.236 E4.16412
G1 X105.191 Y71.054 E.18055
G1 X104.282 Y71.676 E.20458
G1 X103.912 Y72.057 E.09838
G1 X103.517 Y72.67 E.13545
G1 X101.208 Y74.242 E.51836
G1 X100.774 Y74.577 E.10173
G1 X101.372 Y75.254 F7800
;TYPE:External perimeter
G1 F1800
G1 X100.401 Y76.772 E.33448
G1 X99.251 Y78.03 E.31633
G1 X94.509 Y81.241 E1.06272
G1 X93.932 Y81.369 E.10959
G1 X93.708 Y81.495 E.0477
G1 X92.719 Y82.519 E.26423
G1 X91.222 Y83.573 E.33984
G1 X71.506 Y109.149 E5.99264
G1 X71.506 Y84.037 E4.66003
G1 X82.84 Y69.343 E3.44374
G1 X107.357 Y69.343 E4.54953
G1 X105.844 Y71.689 E.5179
G1 X104.786 Y72.413 E.23795
G1 X104.663 Y72.54 E.03279
G1 X104.169 Y73.306 E.16917
G1 X101.712 Y74.978 E.55164
G1 X101.489 Y75.159 E.05323
G1 X100.388 Y75.078 F7800
G1 E-.7 F3600
;WIPE_START
G1 F6240
G1 X101.198 Y75.59 E-.285
;WIPE_END
G1 E-.015 F3600
G1 X102.577 Y70.504 F7800
G1 E1 F2400
;TYPE:Solid infill
;WIDTH:1.00674
G1 F1200
G1 X103.552 Y71.479 E.25788
G1 X103.361 Y71.676 E.0512
G1 X103.008 Y72.207 E.11932
G1 X101.707 Y70.906 E.34412
G1 X100.435 Y70.906 E.23783
G1 X102.251 Y72.722 E.48034
G1 X101.494 Y73.237 E.17118
G1 X99.163 Y70.906 E.61656
G1 X97.891 Y70.906 E.23783
G1 X100.738 Y73.752 E.75278
G1 X100.294 Y74.107 E.10613
G1 X100.086 Y74.373 E.06315
G1 X96.619 Y70.906 E.91678
G1 X95.347 Y70.906 E.23783
G1 X99.587 Y75.146 E1.12122
G1 X99.158 Y75.817 E.14894
G1 X99.076 Y75.907 E.02273
G1 X94.075 Y70.906 E1.32238
G1 X92.803 Y70.906 E.23783
G1 X98.468 Y76.571 E1.49804
G1 X98.222 Y76.84 E.06805
G1 X97.771 Y77.146 E.10202
G1 X91.531 Y70.906 E1.64996
G1 X90.259 Y70.906 E.23783
G1 X97.012 Y77.659 E1.78576
G1 X96.254 Y78.173 E.17126
G1 X88.987 Y70.906 E1.92155
G1 X87.715 Y70.906 E.23783
G1 X95.495 Y78.686 E2.05735
G1 X94.737 Y79.2 E.17126
G1 X86.443 Y70.906 E2.19315
G1 X85.171 Y70.906 E.23783
G1 X93.978 Y79.713 E2.32895
G1 X93.878 Y79.782 E.02278
G1 X93.398 Y79.897 E.09214
G1 X93.049 Y80.056 E.07177
G1 X83.899 Y70.906 E2.41949
G1 X83.608 Y70.906 E.05427
G1 X83.181 Y71.46 E.13087
G1 X92.362 Y80.641 E2.42758
G1 X91.737 Y81.288 E.1682
