; generated by PrusaSlicer 2.5.0+win64 on 2022-12-07 at 00:18:04 UTC

; 

; external perimeters extrusion width = 1.00mm
; perimeters extrusion width = 1.00mm
; infill extrusion width = 1.00mm
; solid infill extrusion width = 1.00mm
; top infill extrusion width = 1.00mm
; support material extrusion width = 1.00mm
; first layer extrusion width = 0.42mm

M73 P0 R520
M107
;TYPE:Custom
G90 ; use absolute coordinates
M83 ; extruder relative mode
M140 S60 ; set final bed temp
M104 S150 ; set temporary nozzle temp to prevent oozing during homing and auto bed leveling
G4 S10 ; allow partial nozzle warmup
G28 ; home all axisG1 Z50 F240
G1 X7.6 Y10 F3000
M104 S210 ; set final nozzle temp
M190 S60 ; wait for bed temp to stabilize
M109 S210 ; wait for nozzle temp to stabilize
G1 Z0.28 F240
G92 E0
G1 Y140 E10 F1500 ; prime the nozzle
G1 X4 F5000
G92 E0
G1 Y10 E10 F1200 ; prime the nozzle
G92 E0
G21 ; set units to millimeters
G90 ; use absolute coordinates
M83 ; use relative distances for extrusion
; Filament gcode
M107
;LAYER_CHANGE
;Z:0.35
;HEIGHT:0.35
;BEFORE_LAYER_CHANGE
G92 E0
;0.35


G1 E-1 F3600
G1 Z.35 F7800
;AFTER_LAYER_CHANGE
;0.35
G1 X21.99 Y21.99
G1 E1 F2400
;TYPE:Support material
;WIDTH:0.42
G1 F1800
G1 X12.124 Y21.99 E.49509
G1 X12.124 Y12.124 E.49509
G1 X21.99 Y12.124 E.49509
G1 X21.99 Y21.938 E.4925
G1 X21.405 Y21.834 F7800
G1 F1800
G1 X21.405 Y12.435 E.47173
G1 X21.022 Y12.435 E.01923
G1 X21.022 Y21.679 E.46394
G1 X20.639 Y21.679 E.01923
G1 X20.639 Y12.435 E.46394
G1 X20.256 Y12.435 E.01923
G1 X20.256 Y21.679 E.46394
G1 X19.873 Y21.679 E.01923
G1 X19.873 Y12.435 E.46394
G1 X19.489 Y12.435 E.01923
G1 X19.489 Y21.679 E.46394
G1 X19.106 Y21.679 E.01923
G1 X19.106 Y12.435 E.46394
G1 X18.723 Y12.435 E.01923
G1 X18.723 Y21.679 E.46394
G1 X18.34 Y21.679 E.01923
G1 X18.34 Y12.435 E.46394
G1 X17.957 Y12.435 E.01923
G1 X17.957 Y21.679 E.46394
G1 X17.573 Y21.679 E.01923
G1 X17.573 Y12.435 E.46394
G1 X17.19 Y12.435 E.01923
G1 X17.19 Y21.679 E.46394
G1 X16.807 Y21.679 E.01923
G1 X16.807 Y12.435 E.46394
G1 X16.424 Y12.435 E.01923
G1 X16.424 Y21.679 E.46394
G1 X16.041 Y21.679 E.01923
G1 X16.041 Y12.435 E.46394
G1 X15.657 Y12.435 E.01923
G1 X15.657 Y21.679 E.46394
G1 X15.274 Y21.679 E.01923
G1 X15.274 Y12.435 E.46394
G1 X14.891 Y12.435 E.01923
G1 X14.891 Y21.679 E.46394
G1 X14.508 Y21.679 E.01923
G1 X14.508 Y12.435 E.46394
G1 X14.124 Y12.435 E.01923
G1 X14.124 Y21.679 E.46394
G1 X13.741 Y21.679 E.01923
G1 X13.741 Y12.435 E.46394
G1 X13.358 Y12.435 E.01923
G1 X13.358 Y21.679 E.46394
G1 X12.975 Y21.679 E.01923
G1 X12.975 Y12.435 E.46394
G1 X12.592 Y12.435 E.01923
G1 X12.592 Y21.834 E.47173
G1 E-.7 F3600
;WIPE_START
G1 F6240
G1 X12.592 Y21.314 E-.285
;WIPE_END
G1 E-.015 F3600
G1 X167.876 Y69.487 F7800
G1 E1 F2400
G1 F1800
G1 X154.618 Y69.487 E.66536
G1 X154.618 Y65.702 E.18998
G1 X163.997 Y62.428 E.49853
G1 X163.805 Y61.254 E.05974
G1 X161.52 Y61.221 E.11468
G1 X161.26 Y59.622 E.08131
G1 X167.876 Y59.622 E.33202
G1 X167.876 Y69.436 E.4925
G1 X167.408 Y69.332 F7800
G1 F1800
G1 X167.408 Y59.933 E.47173
G1 X167.025 Y59.933 E.01923
G1 X167.025 Y69.177 E.46394
G1 X166.642 Y69.177 E.01923
G1 X166.642 Y59.933 E.46394
G1 X166.259 Y59.933 E.01923
G1 X166.259 Y69.177 E.46394
G1 X165.876 Y69.177 E.01923
G1 X165.876 Y59.933 E.46394
G1 X165.492 Y59.933 E.01923
G1 X165.492 Y69.177 E.46394
G1 X165.109 Y69.177 E.01923
G1 X165.109 Y59.933 E.46394
G1 X164.726 Y59.933 E.01923
G1 X164.726 Y69.177 E.46394
G1 X164.343 Y69.177 E.01923
G1 X164.343 Y59.933 E.46394
G1 X163.96 Y59.933 E.01923
G1 X163.96 Y60.945 E.05082
G1 X163.576 Y60.94 E.01923
G1 X163.576 Y59.933 E.05055
G1 X163.193 Y59.933 E.01923
G1 X163.193 Y60.934 E.05028
G1 X162.81 Y60.929 E.01923
G1 X162.81 Y59.933 E.05001
G1 X162.427 Y59.933 E.01923
G1 X162.427 Y60.924 E.04974
G1 X162.044 Y60.918 E.01923
G1 X162.044 Y59.933 E.04947
G1 X161.66 Y59.933 E.01923
G1 X161.66 Y61.068 E.05699
G1 E-.7 F3600
;WIPE_START
G1 F6240
G1 X161.66 Y60.548 E-.285
;WIPE_END
G1 E-.015 F3600
G1 X163.96 Y69.332 F7800
G1 E1 F2400
G1 F1800
G1 X163.96 Y62.77 E.32932
G1 X163.576 Y62.904 E.02038
G1 X163.576 Y69.177 E.31479
G1 X163.193 Y69.177 E.01923
G1 X163.193 Y63.038 E.30807
G1 X162.81 Y63.172 E.02037
G1 X162.81 Y69.177 E.30136
G1 X162.427 Y69.177 E.01923
G1 X162.427 Y63.306 E.29464
G1 X162.044 Y63.44 E.02037
G1 X162.044 Y69.177 E.28793
G1 X161.66 Y69.177 E.01923
G1 X161.66 Y63.573 E.28122
G1 X161.277 Y63.707 E.02037
G1 X161.277 Y69.177 E.27451
G1 X160.894 Y69.177 E.01923
G1 X160.894 Y63.841 E.2678
G1 X160.511 Y63.974 E.02037
M73 P0 R519
G1 X160.511 Y69.177 E.2611
G1 X160.127 Y69.177 E.01923
G1 X160.127 Y64.108 E.25439
G1 X159.744 Y64.242 E.02037
G1 X159.744 Y69.177 E.24768
G1 X159.361 Y69.177 E.01923
G1 X159.361 Y64.375 E.24097
G1 X158.978 Y64.509 E.02037
G1 X158.978 Y69.177 E.23426
G1 X158.595 Y69.177 E.01923
G1 X158.595 Y64.643 E.22755
G1 X158.211 Y64.777 E.02037
G1 X158.211 Y69.177 E.22084
G1 X157.828 Y69.177 E.01923
G1 X157.828 Y64.91 E.21413
G1 X157.445 Y65.044 E.02037
G1 X157.445 Y69.177 E.20742
G1 X157.062 Y69.177 E.01923
G1 X157.062 Y65.178 E.20071
G1 X156.679 Y65.311 E.02037
G1 X156.679 Y69.177 E.194
G1 X156.295 Y69.177 E.01923
G1 X156.295 Y65.445 E.18728
G1 X155.912 Y65.579 E.02037
G1 X155.912 Y69.177 E.18057
G1 X155.529 Y69.177 E.01923
G1 X155.529 Y65.713 E.17386
G1 X155.146 Y65.846 E.02037
G1 X155.146 Y69.332 E.17494
G1 E-.7 F3600
;WIPE_START
G1 F6240
G1 X155.146 Y68.812 E-.285
;WIPE_END
G1 E-.015 F3600
G1 X167.876 Y167.876 F7800
G1 E1 F2400
G1 F1800
G1 X117.298 Y167.876 E2.53828
G1 X117.298 Y157.306 E.53046
G1 X125.582 Y144.44 E.76796
G1 X127.476 Y144.44 E.09506
G1 X127.476 Y141.498 E.14761
G1 X160.349 Y90.443 E3.04745
G1 X162.995 Y86.764 E.22739
G1 X167.876 Y86.763 E.24496
G1 X167.876 Y167.824 E4.0681
G1 E-.7 F3600
;WIPE_START
G1 F6240
G1 X167.876 Y167.304 E-.285
;WIPE_END
G1 E-.015 F3600
G1 X127.163 Y154.305 F7800
G1 E1 F2400
G1 F1800
G1 X127.163 Y158.01 E.18597
G1 X130.869 Y158.01 E.18597
G1 X130.869 Y154.305 E.18597
G1 X127.215 Y154.305 E.18337
G1 E-.7 F3600
;WIPE_START
G1 F6240
G1 X127.735 Y154.305 E-.285
;WIPE_END
G1 E-.015 F3600
G1 X167.408 Y167.72 F7800
G1 E1 F2400
G1 F1800
G1 X167.408 Y87.074 E4.04732
G1 X167.025 Y87.074 E.01923
G1 X167.025 Y167.565 E4.03953
G1 X166.642 Y167.565 E.01923
G1 X166.642 Y87.074 E4.03952
G1 X166.259 Y87.074 E.01923
G1 X166.259 Y167.565 E4.03952
G1 X165.876 Y167.565 E.01923
G1 X165.876 Y87.074 E4.03952
G1 X165.492 Y87.074 E.01923
G1 X165.492 Y167.565 E4.03951
G1 X165.109 Y167.565 E.01923
G1 X165.109 Y87.074 E4.03951
G1 X164.726 Y87.074 E.01923
G1 X164.726 Y167.565 E4.0395
G1 X164.343 Y167.565 E.01923
G1 X164.343 Y87.075 E4.0395
G1 X163.96 Y87.075 E.01923
G1 X163.96 Y167.565 E4.0395
G1 X163.576 Y167.565 E.01923
G1 X163.576 Y87.075 E4.03949
G1 X163.193 Y87.075 E.01923
G1 X163.193 Y167.565 E4.03949
G1 X162.81 Y167.565 E.01923
G1 X162.81 Y87.552 E4.01552
G1 X162.427 Y88.086 E.03296
G1 X162.427 Y167.565 E3.98876
G1 X162.044 Y167.565 E.01923
G1 X162.044 Y88.619 E3.96199
G1 X161.66 Y89.152 E.03295
G1 X161.66 Y167.565 E3.93524
G1 X161.277 Y167.565 E.01923
G1 X161.277 Y89.685 E3.90849
G1 X160.894 Y90.217 E.03291
M73 P0 R518
G1 X160.894 Y167.565 E3.88178
G1 X160.511 Y167.565 E.01923
G1 X160.511 Y90.765 E3.85429
G1 X160.127 Y91.36 E.03551
G1 X160.127 Y167.565 E3.82443
G1 X159.744 Y167.565 E.01923
G1 X159.744 Y91.955 E3.79458
G1 X159.361 Y92.55 E.03551
G1 X159.361 Y167.565 E3.76472
G1 X158.978 Y167.565 E.01923
G1 X158.978 Y93.145 E3.73487
G1 X158.595 Y93.739 E.03551
G1 X158.595 Y167.565 E3.70501
G1 X158.211 Y167.565 E.01923
G1 X158.211 Y94.334 E3.67516
G1 X157.828 Y94.93 E.03554
G1 X157.828 Y167.565 E3.64527
G1 X157.445 Y167.565 E.01923
G1 X157.445 Y95.526 E3.61536
G1 X157.062 Y96.121 E.03551
G1 X157.062 Y167.565 E3.5855
G1 X156.679 Y167.565 E.01923
G1 X156.679 Y96.716 E3.55565
G1 X156.295 Y97.311 E.03551
G1 X156.295 Y167.565 E3.52579
G1 X155.912 Y167.565 E.01923
G1 X155.912 Y97.906 E3.49593
G1 X155.529 Y98.5 E.03551
G1 X155.529 Y167.565 E3.46608
G1 X155.146 Y167.565 E.01923
G1 X155.146 Y99.091 E3.43646
G1 X154.763 Y99.69 E.03571
G1 X154.763 Y167.565 E3.40637
G1 X154.379 Y167.565 E.01923
G1 X154.379 Y100.287 E3.37642
G1 X153.996 Y100.883 E.03558
G1 X153.996 Y167.565 E3.34649
G1 X153.613 Y167.565 E.01923
G1 X153.613 Y101.48 E3.31656
G1 X153.23 Y102.076 E.03556
G1 X153.23 Y167.565 E3.28666
G1 X152.846 Y167.565 E.01923
G1 X152.846 Y102.671 E3.25679
G1 X152.463 Y103.266 E.03552
G1 X152.463 Y167.565 E3.22693
G1 X152.08 Y167.565 E.01923
G1 X152.08 Y103.861 E3.19707
G1 X151.697 Y104.456 E.03552
G1 X151.697 Y167.565 E3.1672
G1 X151.314 Y167.565 E.01923
M73 P0 R517
G1 X151.314 Y105.051 E3.13734
G1 X150.93 Y105.646 E.03552
G1 X150.93 Y167.565 E3.10748
G1 X150.547 Y167.565 E.01923
G1 X150.547 Y106.241 E3.07761
G1 X150.164 Y106.836 E.03552
G1 X150.164 Y167.565 E3.04775
G1 X149.781 Y167.565 E.01923
G1 X149.781 Y107.431 E3.01789
G1 X149.398 Y108.026 E.03552
G1 X149.398 Y167.565 E2.98803
G1 X149.014 Y167.565 E.01923
G1 X149.014 Y108.621 E2.95816
G1 X148.631 Y109.216 E.03552
G1 X148.631 Y167.565 E2.9283
G1 X148.248 Y167.565 E.01923
G1 X148.248 Y109.811 E2.89844
G1 X147.865 Y110.406 E.03552
G1 X147.865 Y167.565 E2.86858
G1 X147.482 Y167.565 E.01923
G1 X147.482 Y111.001 E2.83871
G1 X147.098 Y111.596 E.03552
G1 X147.098 Y167.565 E2.80885
G1 X146.715 Y167.565 E.01923
G1 X146.715 Y112.191 E2.77899
G1 X146.332 Y112.787 E.03557
G1 X146.332 Y167.565 E2.74907
G1 X145.949 Y167.565 E.01923
G1 X145.949 Y113.384 E2.71912
G1 X145.565 Y113.976 E.03537
G1 X145.565 Y167.565 E2.68944
G1 X145.182 Y167.565 E.01923
G1 X145.182 Y114.571 E2.65957
G1 X144.799 Y115.166 E.03553
G1 X144.799 Y167.565 E2.62969
G1 X144.416 Y167.565 E.01923
G1 X144.416 Y115.761 E2.59982
G1 X144.033 Y116.357 E.03553
G1 X144.033 Y167.565 E2.56995
G1 X143.649 Y167.565 E.01923
G1 X143.649 Y116.952 E2.54008
G1 X143.266 Y117.547 E.03553
G1 X143.266 Y167.565 E2.51021
G1 X142.883 Y167.565 E.01923
G1 X142.883 Y118.142 E2.48033
G1 X142.5 Y118.738 E.03553
G1 X142.5 Y167.565 E2.45046
G1 X142.117 Y167.565 E.01923
G1 X142.117 Y119.333 E2.42059
G1 X141.733 Y119.928 E.03553
G1 X141.733 Y167.565 E2.39072
G1 X141.35 Y167.565 E.01923
G1 X141.35 Y120.523 E2.36084
G1 X140.967 Y121.119 E.03553
G1 X140.967 Y167.565 E2.33097
G1 X140.584 Y167.565 E.01923
G1 X140.584 Y121.714 E2.3011
G1 X140.201 Y122.309 E.03553
G1 X140.201 Y167.565 E2.27123
G1 X139.817 Y167.565 E.01923
G1 X139.817 Y122.904 E2.24135
G1 X139.434 Y123.499 E.03552
G1 X139.434 Y167.565 E2.2115
G1 X139.051 Y167.565 E.01923
G1 X139.051 Y124.094 E2.18164
G1 X138.668 Y124.689 E.03551
M73 P0 R516
G1 X138.668 Y167.565 E2.15179
G1 X138.284 Y167.565 E.01923
G1 X138.284 Y125.284 E2.12194
G1 X137.901 Y125.879 E.03551
G1 X137.901 Y167.565 E2.09208
G1 X137.518 Y167.565 E.01923
G1 X137.518 Y126.473 E2.06223
G1 X137.135 Y127.068 E.03551
G1 X137.135 Y167.565 E2.03238
G1 X136.752 Y167.565 E.01923
G1 X136.752 Y127.663 E2.00252
G1 X136.368 Y128.258 E.03551
G1 X136.368 Y167.565 E1.97267
G1 X135.985 Y167.565 E.01923
G1 X135.985 Y128.853 E1.94282
G1 X135.602 Y129.448 E.03551
G1 X135.602 Y167.565 E1.91297
G1 X135.219 Y167.565 E.01923
G1 X135.219 Y130.042 E1.88311
G1 X134.836 Y130.637 E.03551
G1 X134.836 Y167.565 E1.85327
G1 X134.452 Y167.565 E.01923
G1 X134.452 Y131.232 E1.82342
G1 X134.069 Y131.827 E.03551
G1 X134.069 Y167.565 E1.79356
G1 X133.686 Y167.565 E.01923
G1 X133.686 Y132.423 E1.76365
G1 X133.303 Y133.019 E.03556
G1 X133.303 Y167.565 E1.73374
G1 X132.92 Y167.565 E.01923
G1 X132.92 Y133.615 E1.70382
G1 X132.536 Y134.208 E.03545
G1 X132.536 Y167.565 E1.67405
G1 X132.153 Y167.565 E.01923
G1 X132.153 Y134.806 E1.64404
G1 X131.77 Y135.401 E.0355
G1 X131.77 Y167.565 E1.61419
G1 X131.387 Y167.565 E.01923
G1 X131.387 Y135.997 E1.58426
G1 X131.004 Y136.594 E.03558
G1 X131.003 Y153.994 E.87326
G1 X130.62 Y153.994 E.01923
G1 X130.62 Y137.19 E.84336
G1 X130.237 Y137.785 E.03552
G1 X130.237 Y153.994 E.81349
G1 X129.854 Y153.994 E.01923
G1 X129.854 Y138.38 E.78364
G1 X129.471 Y138.975 E.03552
G1 X129.471 Y153.994 E.75378
G1 X129.087 Y153.994 E.01923
G1 X129.087 Y139.57 E.72392
G1 X128.704 Y140.165 E.03552
G1 X128.704 Y153.994 E.69406
G1 X128.321 Y153.994 E.01923
G1 X128.321 Y140.76 E.66419
G1 X127.938 Y141.355 E.03552
G1 X127.938 Y153.994 E.63433
G1 X127.555 Y153.994 E.01923
G1 X127.555 Y144.75 E.46394
G1 X127.171 Y144.75 E.01923
G1 X127.171 Y153.994 E.46394
G1 X126.853 Y153.994 E.01598
G1 X126.853 Y158.321 E.21712
G1 X127.171 Y158.321 E.01598
G1 X127.171 Y167.565 E.46394
G1 X127.555 Y167.565 E.01923
G1 X127.555 Y158.321 E.46394
G1 X127.938 Y158.321 E.01923
G1 X127.938 Y167.565 E.46394
G1 X128.321 Y167.565 E.01923
G1 X128.321 Y158.321 E.46394
G1 X128.704 Y158.321 E.01923
G1 X128.704 Y167.565 E.46394
G1 X129.087 Y167.565 E.01923
G1 X129.087 Y158.321 E.46394
G1 X129.471 Y158.321 E.01923
G1 X129.471 Y167.565 E.46394
G1 X129.854 Y167.565 E.01923
G1 X129.854 Y158.321 E.46394
G1 X130.237 Y158.321 E.01923
G1 X130.237 Y167.565 E.46394
G1 X130.62 Y167.565 E.01923
G1 X130.62 Y158.321 E.46394
G1 X131.003 Y158.321 E.01923
G1 X131.003 Y167.72 E.47173
G1 X126.788 Y167.72 F7800
G1 F1800
G1 X126.788 Y144.75 E1.15279
G1 X126.405 Y144.75 E.01923
G1 X126.405 Y167.565 E1.145
G1 X126.022 Y167.565 E.01923
G1 X126.022 Y144.75 E1.145
G1 X125.751 Y144.75 E.01358
G1 X125.639 Y144.925 E.01044
G1 X125.639 Y167.565 E1.13622
G1 X125.255 Y167.565 E.01923
G1 X125.255 Y145.52 E1.10636
G1 X124.872 Y146.115 E.03552
G1 X124.872 Y167.565 E1.0765
G1 X124.489 Y167.565 E.01923
G1 X124.489 Y146.71 E1.04664
G1 X124.106 Y147.305 E.03552
G1 X124.106 Y167.565 E1.01677
G1 X123.723 Y167.565 E.01923
G1 X123.723 Y147.9 E.98691
G1 X123.339 Y148.495 E.03552
G1 X123.339 Y167.565 E.95705
G1 X122.956 Y167.565 E.01923
G1 X122.956 Y149.09 E.92719
G1 X122.573 Y149.685 E.03552
G1 X122.573 Y167.565 E.89733
G1 X122.19 Y167.565 E.01923
G1 X122.19 Y150.28 E.86746
G1 X121.806 Y150.877 E.0356
G1 X121.806 Y167.565 E.83751
G1 X121.423 Y167.565 E.01923
G1 X121.423 Y151.474 E.80754
G1 X121.04 Y152.068 E.03548
G1 X121.04 Y167.565 E.77772
G1 X120.657 Y167.565 E.01923
G1 X120.657 Y152.661 E.74796
G1 X120.274 Y153.252 E.03531
G1 X120.274 Y167.565 E.71835
G1 X119.89 Y167.565 E.01923
G1 X119.89 Y153.852 E.68821
G1 X119.507 Y154.445 E.03543
G1 X119.507 Y167.565 E.65845
G1 X119.124 Y167.565 E.01923
G1 X119.124 Y155.039 E.62865
G1 X118.741 Y155.635 E.03556
G1 X118.741 Y167.565 E.59874
G1 X118.358 Y167.565 E.01923
G1 X118.358 Y156.231 E.56881
G1 X117.974 Y156.827 E.03558
G1 X117.974 Y167.72 E.54667
G1 E-.7 F3600
;WIPE_START
G1 F6240
G1 X117.974 Y167.2 E-.285
;WIPE_END
G1 E-.015 F3600
G1 X115.595 Y76.772 F7800
G1 E1 F2400
;TYPE:Perimeter
;WIDTH:0.42
G1 F1800
G1 X162.645 Y77.441 E2.36147
G1 X162.645 Y85.085 E.38361
G1 X159.296 Y89.742 E.28785
G1 X112.241 Y162.82 E4.36203
G1 X17.355 Y162.82 E4.76195
G1 X17.355 Y98.895 E3.20812
M73 P0 R515
G1 X93.173 Y86.678 E3.85409
G1 X93.301 Y86.641 E.00667
G1 X115.454 Y76.82 E1.21615
G1 X115.336 Y75.661 F7800
G1 F1800
G1 X27.449 Y74.394 E4.41116
G1 X25.125 Y74.128 E.11737
G1 X19.633 Y74.057 E.27565
G1 X19.544 Y74.064 E.00451
G1 X19.485 Y74.129 E.0044
G1 X18.746 Y74.046 E.03728
G1 X17.355 Y74.02 E.06984
G1 X17.355 Y60.167 E.69522
G1 X19.972 Y60.481 E.1323
G1 X160.053 Y62.465 E7.03079
G1 X144.805 Y67.786 E.81048
G1 X132.028 Y68.297 E.64176
G1 X131.839 Y68.341 E.00974
G1 X115.472 Y75.598 E.89849
G1 X115.436 Y76.146 F7800
;TYPE:External perimeter
;WIDTH:0.925111
G1 F1800
G1 X115.416 Y76.127 E.00339
;WIDTH:0.878275
G1 X115.397 Y76.108 E.0032
;WIDTH:0.831439
G1 X115.377 Y76.089 E.00301
;WIDTH:0.784603
G1 X115.357 Y76.07 E.00283
;WIDTH:0.737768
G1 X115.338 Y76.051 E.00264
;WIDTH:0.690932
G1 X115.318 Y76.032 E.00245
;WIDTH:0.644096
G1 X115.298 Y76.013 E.00227
;WIDTH:0.597261
G1 X114.927 Y76.005 E.02818
;WIDTH:0.552945
G1 X114.557 Y75.997 E.02579
;WIDTH:0.50863
G1 X114.186 Y75.989 E.02339
;WIDTH:0.464315
G1 X113.815 Y75.981 E.021
;WIDTH:0.42
G1 X27.427 Y74.738 E4.33593
G1 X25.12 Y74.473 E.1165
G1 X19.629 Y74.402 E.27563
G1 X19.529 Y74.481 E.00638
G1 X18.74 Y74.391 E.03987
G1 X17.01 Y74.345 E.08684
G1 X17.01 Y59.778 E.7311
G1 X19.977 Y60.136 E.15
