; generated by PrusaSlicer 2.5.0+win64 on 2022-12-07 at 00:18:01 UTC

; 

; external perimeters extrusion width = 1.00mm
; perimeters extrusion width = 1.00mm
; infill extrusion width = 1.00mm
; solid infill extrusion width = 1.00mm
; top infill extrusion width = 1.00mm
; support material extrusion width = 1.00mm
; first layer extrusion width = 0.42mm

M73 P0 R159
M107
;TYPE:Custom
G90 ; use absolute coordinates
M83 ; extruder relative mode
M140 S60 ; set final bed temp
M104 S150 ; set temporary nozzle temp to prevent oozing during homing and auto bed leveling
G4 S10 ; allow partial nozzle warmup
G28 ; home all axisG1 Z50 F240
G1 X7.6 Y10 F3000
M104 S210 ; set final nozzle temp
M190 S60 ; wait for bed temp to stabilize
M109 S210 ; wait for nozzle temp to stabilize
G1 Z0.28 F240
G92 E0
G1 Y140 E10 F1500 ; prime the nozzle
G1 X4 F5000
G92 E0
G1 Y10 E10 F1200 ; prime the nozzle
G92 E0
G21 ; set units to millimeters
G90 ; use absolute coordinates
M83 ; use relative distances for extrusion
; Filament gcode
M107
;LAYER_CHANGE
;Z:0.35
;HEIGHT:0.35
;BEFORE_LAYER_CHANGE
G92 E0
;0.35


G1 E-1 F3600
G1 Z.35 F7800
;AFTER_LAYER_CHANGE
;0.35
G1 X17.356 Y110.27
G1 E1 F2400
;TYPE:Perimeter
;WIDTH:0.42
G1 F1800
G1 X17.356 Y93.926 E.82024
G1 X162.644 Y70.113 E7.3887
G1 X162.644 Y110.27 E2.01529
G1 X17.506 Y110.27 E7.28389
G1 X17.011 Y110.615 F7800
;TYPE:External perimeter
G1 F1800
G1 X17.011 Y93.633 E.85225
G1 X162.989 Y69.707 E7.42378
G1 X162.989 Y110.615 E2.05297
G1 X17.161 Y110.615 E7.31851
G1 X17.43 Y109.707 F7800
G1 E-.7 F3600
;WIPE_START
G1 F6240
G1 X17.156 Y110.095 E-.285
;WIPE_END
G1 E-.015 F3600
G1 X162.541 Y70.93 F7800
G1 E1 F2400
;TYPE:Solid infill
;WIDTH:0.420426
G1 F1800
G1 X162.079 Y70.468 E.03283
G1 X161.659 Y70.537 E.02136
G1 X162.385 Y71.263 E.05162
G1 X162.385 Y71.752 E.02454
G1 X161.239 Y70.606 E.08144
G1 X160.82 Y70.674 E.02136
G1 X162.385 Y72.24 E.11125
G1 X162.385 Y72.728 E.02454
G1 X160.4 Y70.743 E.14107
G1 X159.981 Y70.812 E.02136
G1 X162.385 Y73.217 E.17088
G1 X162.385 Y73.705 E.02454
G1 X159.561 Y70.881 E.2007
G1 X159.142 Y70.95 E.02136
G1 X162.385 Y74.193 E.23052
G1 X162.385 Y74.682 E.02454
G1 X158.722 Y71.018 E.26033
G1 X158.302 Y71.087 E.02136
G1 X162.385 Y75.17 E.29015
G1 X162.385 Y75.658 E.02454
G1 X157.883 Y71.156 E.31996
G1 X157.463 Y71.225 E.02136
G1 X162.385 Y76.147 E.34978
G1 X162.385 Y76.635 E.02454
G1 X157.044 Y71.293 E.3796
G1 X156.624 Y71.362 E.02136
G1 X162.385 Y77.124 E.40941
G1 X162.385 Y77.612 E.02454
G1 X156.205 Y71.431 E.43923
G1 X155.785 Y71.5 E.02136
G1 X162.385 Y78.1 E.46904
G1 X162.385 Y78.589 E.02454
G1 X155.365 Y71.568 E.49886
G1 X154.946 Y71.637 E.02136
G1 X162.385 Y79.077 E.52868
G1 X162.385 Y79.565 E.02454
G1 X154.526 Y71.706 E.55849
G1 X154.107 Y71.775 E.02136
G1 X162.385 Y80.054 E.58831
G1 X162.385 Y80.542 E.02454
G1 X153.687 Y71.844 E.61812
G1 X153.267 Y71.912 E.02136
G1 X162.385 Y81.03 E.64794
G1 X162.385 Y81.519 E.02454
G1 X152.848 Y71.981 E.67775
G1 X152.428 Y72.05 E.02136
G1 X162.385 Y82.007 E.70757
G1 X162.385 Y82.495 E.02454
G1 X152.009 Y72.119 E.73739
G1 X151.589 Y72.187 E.02136
G1 X162.385 Y82.984 E.7672
G1 X162.385 Y83.472 E.02454
G1 X151.17 Y72.256 E.79702
G1 X150.75 Y72.325 E.02136
G1 X162.385 Y83.96 E.82683
G1 X162.385 Y84.449 E.02454
G1 X150.33 Y72.394 E.85665
G1 X149.911 Y72.462 E.02136
G1 X162.385 Y84.937 E.88647
G1 X162.385 Y85.425 E.02454
G1 X149.491 Y72.531 E.91628
G1 X149.072 Y72.6 E.02136
G1 X162.385 Y85.914 E.9461
G1 X162.385 Y86.402 E.02454
G1 X148.652 Y72.669 E.97591
G1 X148.232 Y72.738 E.02136
G1 X162.385 Y86.891 E1.00573
G1 X162.385 Y87.379 E.02454
G1 X147.813 Y72.806 E1.03555
G1 X147.393 Y72.875 E.02136
G1 X162.385 Y87.867 E1.06536
G1 X162.385 Y88.356 E.02454
G1 X146.974 Y72.944 E1.09518
G1 X146.554 Y73.013 E.02136
G1 X162.385 Y88.844 E1.12499
G1 X162.385 Y89.332 E.02454
G1 X146.135 Y73.081 E1.15481
G1 X145.715 Y73.15 E.02136
G1 X162.385 Y89.821 E1.18462
G1 X162.385 Y90.309 E.02454
G1 X145.295 Y73.219 E1.21444
G1 X144.876 Y73.288 E.02136
G1 X162.385 Y90.797 E1.24426
G1 X162.385 Y91.286 E.02454
M73 P0 R158
G1 X144.456 Y73.356 E1.27407
G1 X144.037 Y73.425 E.02136
G1 X162.385 Y91.774 E1.30389
G1 X162.385 Y92.262 E.02454
G1 X143.617 Y73.494 E1.3337
G1 X143.198 Y73.563 E.02136
G1 X162.385 Y92.751 E1.36352
G1 X162.385 Y93.239 E.02454
G1 X142.778 Y73.631 E1.39334
G1 X142.358 Y73.7 E.02136
G1 X162.385 Y93.727 E1.42315
G1 X162.385 Y94.216 E.02454
G1 X141.939 Y73.769 E1.45297
G1 X141.519 Y73.838 E.02136
G1 X162.385 Y94.704 E1.48278
G1 X162.385 Y95.192 E.02454
G1 X141.1 Y73.907 E1.5126
G1 X140.68 Y73.975 E.02136
G1 X162.385 Y95.681 E1.54242
G1 X162.385 Y96.169 E.02454
G1 X140.26 Y74.044 E1.57223
G1 X139.841 Y74.113 E.02136
G1 X162.385 Y96.657 E1.60205
G1 X162.385 Y97.146 E.02454
G1 X139.421 Y74.182 E1.63186
G1 X139.002 Y74.25 E.02136
G1 X162.385 Y97.634 E1.66168
G1 X162.385 Y98.123 E.02454
G1 X138.582 Y74.319 E1.6915
G1 X138.163 Y74.388 E.02136
G1 X162.385 Y98.611 E1.72131
G1 X162.385 Y99.099 E.02454
G1 X137.743 Y74.457 E1.75113
G1 X137.323 Y74.525 E.02136
G1 X162.385 Y99.588 E1.78094
G1 X162.385 Y100.076 E.02454
G1 X136.904 Y74.594 E1.81076
G1 X136.484 Y74.663 E.02136
G1 X162.385 Y100.564 E1.84057
G1 X162.385 Y101.053 E.02454
G1 X136.065 Y74.732 E1.87039
G1 X135.645 Y74.801 E.02136
G1 X162.385 Y101.541 E1.90021
G1 X162.385 Y102.029 E.02454
G1 X135.225 Y74.869 E1.93002
G1 X134.806 Y74.938 E.02136
G1 X162.385 Y102.518 E1.95984
G1 X162.385 Y103.006 E.02454
G1 X134.386 Y75.007 E1.98965
G1 X133.967 Y75.076 E.02136
G1 X162.385 Y103.494 E2.01947
G1 X162.385 Y103.983 E.02454
G1 X133.547 Y75.144 E2.04929
G1 X133.128 Y75.213 E.02136
G1 X162.385 Y104.471 E2.0791
G1 X162.385 Y104.959 E.02454
G1 X132.708 Y75.282 E2.10892
G1 X132.288 Y75.351 E.02136
G1 X162.385 Y105.448 E2.13873
G1 X162.385 Y105.936 E.02454
G1 X131.869 Y75.419 E2.16855
G1 X131.449 Y75.488 E.02136
M73 P1 R158
G1 X162.385 Y106.424 E2.19837
G1 X162.385 Y106.913 E.02454
G1 X131.03 Y75.557 E2.22818
G1 X130.61 Y75.626 E.02136
G1 X162.385 Y107.401 E2.258
G1 X162.385 Y107.89 E.02454
G1 X130.191 Y75.695 E2.28781
G1 X129.771 Y75.763 E.02136
G1 X162.385 Y108.378 E2.31763
G1 X162.385 Y108.866 E.02454
G1 X129.351 Y75.832 E2.34744
G1 X128.932 Y75.901 E.02136
G1 X162.385 Y109.355 E2.37726
G1 X162.385 Y109.843 E.02454
G1 X128.512 Y75.97 E2.40708
G1 X128.093 Y76.038 E.02136
G1 X162.065 Y110.011 E2.41415
G1 X161.577 Y110.011 E.02454
G1 X127.673 Y76.107 E2.40926
G1 X127.253 Y76.176 E.02136
G1 X161.089 Y110.011 E2.40437
G1 X160.6 Y110.011 E.02454
G1 X126.834 Y76.245 E2.39949
G1 X126.414 Y76.313 E.02136
G1 X160.112 Y110.011 E2.3946
G1 X159.624 Y110.011 E.02454
G1 X125.995 Y76.382 E2.38971
G1 X125.575 Y76.451 E.02136
M73 P1 R157
G1 X159.135 Y110.011 E2.38483
G1 X158.647 Y110.011 E.02454
G1 X125.156 Y76.52 E2.37994
G1 X124.736 Y76.589 E.02136
G1 X158.159 Y110.011 E2.37505
G1 X157.67 Y110.011 E.02454
G1 X124.316 Y76.657 E2.37017
G1 X123.897 Y76.726 E.02136
G1 X157.182 Y110.011 E2.36528
G1 X156.694 Y110.011 E.02454
G1 X123.477 Y76.795 E2.36039
G1 X123.058 Y76.864 E.02136
G1 X156.205 Y110.011 E2.35551
G1 X155.717 Y110.011 E.02454
G1 X122.638 Y76.932 E2.35062
G1 X122.218 Y77.001 E.02136
G1 X155.229 Y110.011 E2.34573
G1 X154.74 Y110.011 E.02454
G1 X121.799 Y77.07 E2.34085
G1 X121.379 Y77.139 E.02136
G1 X154.252 Y110.011 E2.33596
G1 X153.763 Y110.011 E.02454
G1 X120.96 Y77.207 E2.33107
G1 X120.54 Y77.276 E.02136
G1 X153.275 Y110.011 E2.32618
G1 X152.787 Y110.011 E.02454
G1 X120.121 Y77.345 E2.3213
G1 X119.701 Y77.414 E.02136
G1 X152.298 Y110.011 E2.31641
G1 X151.81 Y110.011 E.02454
G1 X119.281 Y77.483 E2.31152
G1 X118.862 Y77.551 E.02136
G1 X151.322 Y110.011 E2.30664
G1 X150.833 Y110.011 E.02454
G1 X118.442 Y77.62 E2.30175
G1 X118.023 Y77.689 E.02136
G1 X150.345 Y110.011 E2.29686
G1 X149.857 Y110.011 E.02454
G1 X117.603 Y77.758 E2.29198
G1 X117.184 Y77.826 E.02136
G1 X149.368 Y110.011 E2.28709
G1 X148.88 Y110.011 E.02454
G1 X116.764 Y77.895 E2.2822
G1 X116.344 Y77.964 E.02136
G1 X148.392 Y110.011 E2.27732
G1 X147.903 Y110.011 E.02454
G1 X115.925 Y78.033 E2.27243
G1 X115.505 Y78.101 E.02136
G1 X147.415 Y110.011 E2.26754
G1 X146.927 Y110.011 E.02454
G1 X115.086 Y78.17 E2.26266
G1 X114.666 Y78.239 E.02136
G1 X146.438 Y110.011 E2.25777
G1 X145.95 Y110.011 E.02454
G1 X114.246 Y78.308 E2.25288
G1 X113.827 Y78.377 E.02136
G1 X145.462 Y110.011 E2.248
G1 X144.973 Y110.011 E.02454
G1 X113.407 Y78.445 E2.24311
G1 X112.988 Y78.514 E.02136
G1 X144.485 Y110.011 E2.23822
G1 X143.996 Y110.011 E.02454
G1 X112.568 Y78.583 E2.23334
G1 X112.149 Y78.652 E.02136
G1 X143.508 Y110.011 E2.22845
G1 X143.02 Y110.011 E.02454
G1 X111.729 Y78.72 E2.22356
G1 X111.309 Y78.789 E.02136
G1 X142.531 Y110.011 E2.21868
G1 X142.043 Y110.011 E.02454
G1 X110.89 Y78.858 E2.21379
G1 X110.47 Y78.927 E.02136
G1 X141.555 Y110.011 E2.2089
G1 X141.066 Y110.011 E.02454
G1 X110.051 Y78.995 E2.20402
G1 X109.631 Y79.064 E.02136
M73 P1 R156
G1 X140.578 Y110.011 E2.19913
G1 X140.09 Y110.011 E.02454
G1 X109.211 Y79.133 E2.19424
G1 X108.792 Y79.202 E.02136
G1 X139.601 Y110.011 E2.18936
G1 X139.113 Y110.011 E.02454
G1 X108.372 Y79.271 E2.18447
G1 X107.953 Y79.339 E.02136
G1 X138.625 Y110.011 E2.17958
G1 X138.136 Y110.011 E.02454
G1 X107.533 Y79.408 E2.17469
G1 X107.114 Y79.477 E.02136
G1 X137.648 Y110.011 E2.16981
G1 X137.16 Y110.011 E.02454
G1 X106.694 Y79.546 E2.16492
G1 X106.274 Y79.614 E.02136
G1 X136.671 Y110.011 E2.16003
G1 X136.183 Y110.011 E.02454
M73 P2 R156
G1 X105.855 Y79.683 E2.15515
G1 X105.435 Y79.752 E.02136
G1 X135.695 Y110.011 E2.15026
G1 X135.206 Y110.011 E.02454
G1 X105.016 Y79.821 E2.14537
G1 X104.596 Y79.889 E.02136
G1 X134.718 Y110.011 E2.14049
G1 X134.23 Y110.011 E.02454
G1 X104.177 Y79.958 E2.1356
G1 X103.757 Y80.027 E.02136
G1 X133.741 Y110.011 E2.13071
G1 X133.253 Y110.011 E.02454
G1 X103.337 Y80.096 E2.12583
G1 X102.918 Y80.165 E.02136
G1 X132.764 Y110.011 E2.12094
G1 X132.276 Y110.011 E.02454
G1 X102.498 Y80.233 E2.11605
G1 X102.079 Y80.302 E.02136
G1 X131.788 Y110.011 E2.11117
G1 X131.299 Y110.011 E.02454
G1 X101.659 Y80.371 E2.10628
G1 X101.239 Y80.44 E.02136
G1 X130.811 Y110.011 E2.10139
G1 X130.323 Y110.011 E.02454
G1 X100.82 Y80.508 E2.09651
G1 X100.4 Y80.577 E.02136
G1 X129.834 Y110.011 E2.09162
G1 X129.346 Y110.011 E.02454
G1 X99.981 Y80.646 E2.08673
G1 X99.561 Y80.715 E.02136
G1 X128.858 Y110.011 E2.08185
G1 X128.369 Y110.011 E.02454
G1 X99.142 Y80.783 E2.07696
G1 X98.722 Y80.852 E.02136
G1 X127.881 Y110.011 E2.07207
G1 X127.393 Y110.011 E.02454
G1 X98.302 Y80.921 E2.06719
G1 X97.883 Y80.99 E.02136
G1 X126.904 Y110.011 E2.0623
G1 X126.416 Y110.011 E.02454
G1 X97.463 Y81.059 E2.05741
G1 X97.044 Y81.127 E.02136
G1 X125.928 Y110.011 E2.05253
G1 X125.439 Y110.011 E.02454
G1 X96.624 Y81.196 E2.04764
G1 X96.204 Y81.265 E.02136
G1 X124.951 Y110.011 E2.04275
G1 X124.463 Y110.011 E.02454
G1 X95.785 Y81.334 E2.03786
G1 X95.365 Y81.402 E.02136
G1 X123.974 Y110.011 E2.03298
G1 X123.486 Y110.011 E.02454
G1 X94.946 Y81.471 E2.02809
G1 X94.526 Y81.54 E.02136
G1 X122.997 Y110.011 E2.0232
G1 X122.509 Y110.011 E.02454
G1 X94.107 Y81.609 E2.01832
G1 X93.687 Y81.677 E.02136
G1 X122.021 Y110.011 E2.01343
G1 X121.532 Y110.011 E.02454
G1 X93.267 Y81.746 E2.00854
G1 X92.848 Y81.815 E.02136
G1 X121.044 Y110.011 E2.00366
G1 X120.556 Y110.011 E.02454
G1 X92.428 Y81.884 E1.99877
G1 X92.009 Y81.953 E.02136
M73 P2 R155
G1 X120.067 Y110.011 E1.99388
G1 X119.579 Y110.011 E.02454
G1 X91.589 Y82.021 E1.989
G1 X91.17 Y82.09 E.02136
G1 X119.091 Y110.011 E1.98411
G1 X118.602 Y110.011 E.02454
G1 X90.75 Y82.159 E1.97922
G1 X90.33 Y82.228 E.02136
G1 X118.114 Y110.011 E1.97434
G1 X117.626 Y110.011 E.02454
G1 X89.911 Y82.296 E1.96945
G1 X89.491 Y82.365 E.02136
G1 X117.137 Y110.011 E1.96456
G1 X116.649 Y110.011 E.02454
G1 X89.072 Y82.434 E1.95968
G1 X88.652 Y82.503 E.02136
G1 X116.161 Y110.011 E1.95479
G1 X115.672 Y110.011 E.02454
G1 X88.232 Y82.571 E1.9499
G1 X87.813 Y82.64 E.02136
G1 X115.184 Y110.011 E1.94502
G1 X114.696 Y110.011 E.02454
G1 X87.393 Y82.709 E1.94013
G1 X86.974 Y82.778 E.02136
G1 X114.207 Y110.011 E1.93524
G1 X113.719 Y110.011 E.02454
G1 X86.554 Y82.846 E1.93036
G1 X86.135 Y82.915 E.02136
G1 X113.23 Y110.011 E1.92547
G1 X112.742 Y110.011 E.02454
G1 X85.715 Y82.984 E1.92058
G1 X85.295 Y83.053 E.02136
G1 X112.254 Y110.011 E1.9157
G1 X111.765 Y110.011 E.02454
G1 X84.876 Y83.122 E1.91081
G1 X84.456 Y83.19 E.02136
G1 X111.277 Y110.011 E1.90592
G1 X110.789 Y110.011 E.02454
G1 X84.037 Y83.259 E1.90103
G1 X83.617 Y83.328 E.02136
G1 X110.3 Y110.011 E1.89615
G1 X109.812 Y110.011 E.02454
G1 X83.198 Y83.397 E1.89126
G1 X82.778 Y83.465 E.02136
G1 X109.324 Y110.011 E1.88637
G1 X108.835 Y110.011 E.02454
G1 X82.358 Y83.534 E1.88149
G1 X81.939 Y83.603 E.02136
G1 X108.347 Y110.011 E1.8766
G1 X107.859 Y110.011 E.02454
G1 X81.519 Y83.672 E1.87171
G1 X81.1 Y83.74 E.02136
G1 X107.37 Y110.011 E1.86683
G1 X106.882 Y110.011 E.02454
G1 X80.68 Y83.809 E1.86194
G1 X80.26 Y83.878 E.02136
G1 X106.394 Y110.011 E1.85705
G1 X105.905 Y110.011 E.02454
G1 X79.841 Y83.947 E1.85217
G1 X79.421 Y84.016 E.02136
G1 X105.417 Y110.011 E1.84728
G1 X104.929 Y110.011 E.02454
G1 X79.002 Y84.084 E1.84239
G1 X78.582 Y84.153 E.02136
G1 X104.44 Y110.011 E1.83751
G1 X103.952 Y110.011 E.02454
G1 X78.163 Y84.222 E1.83262
G1 X77.743 Y84.291 E.02136
G1 X103.464 Y110.011 E1.82773
G1 X102.975 Y110.011 E.02454
G1 X77.323 Y84.359 E1.82285
G1 X76.904 Y84.428 E.02136
G1 X102.487 Y110.011 E1.81796
G1 X101.998 Y110.011 E.02454
M73 P3 R155
G1 X76.484 Y84.497 E1.81307
G1 X76.065 Y84.566 E.02136
G1 X101.51 Y110.011 E1.80819
G1 X101.022 Y110.011 E.02454
G1 X75.645 Y84.634 E1.8033
G1 X75.225 Y84.703 E.02136
G1 X100.533 Y110.011 E1.79841
G1 X100.045 Y110.011 E.02454
G1 X74.806 Y84.772 E1.79353
G1 X74.386 Y84.841 E.02136
G1 X99.557 Y110.011 E1.78864
G1 X99.068 Y110.011 E.02454
G1 X73.967 Y84.91 E1.78375
G1 X73.547 Y84.978 E.02136
G1 X98.58 Y110.011 E1.77887
G1 X98.092 Y110.011 E.02454
M73 P3 R154
G1 X73.128 Y85.047 E1.77398
G1 X72.708 Y85.116 E.02136
G1 X97.603 Y110.011 E1.76909
G1 X97.115 Y110.011 E.02454
G1 X72.288 Y85.185 E1.76421
G1 X71.869 Y85.253 E.02136
G1 X96.627 Y110.011 E1.75932
G1 X96.138 Y110.011 E.02454
G1 X71.449 Y85.322 E1.75443
G1 X71.03 Y85.391 E.02136
G1 X95.65 Y110.011 E1.74954
G1 X95.162 Y110.011 E.02454
G1 X70.61 Y85.46 E1.74466
G1 X70.191 Y85.528 E.02136
G1 X94.673 Y110.011 E1.73977
G1 X94.185 Y110.011 E.02454
G1 X69.771 Y85.597 E1.73488
G1 X69.351 Y85.666 E.02136
G1 X93.697 Y110.011 E1.73
G1 X93.208 Y110.011 E.02454
G1 X68.932 Y85.735 E1.72511
G1 X68.512 Y85.804 E.02136
G1 X92.72 Y110.011 E1.72022
G1 X92.231 Y110.011 E.02454
G1 X68.093 Y85.872 E1.71534
G1 X67.673 Y85.941 E.02136
G1 X91.743 Y110.011 E1.71045
G1 X91.255 Y110.011 E.02454
G1 X67.253 Y86.01 E1.70556
G1 X66.834 Y86.079 E.02136
G1 X90.766 Y110.011 E1.70068
G1 X90.278 Y110.011 E.02454
G1 X66.414 Y86.147 E1.69579
G1 X65.995 Y86.216 E.02136
G1 X89.79 Y110.011 E1.6909
G1 X89.301 Y110.011 E.02454
G1 X65.575 Y86.285 E1.68602
G1 X65.156 Y86.354 E.02136
G1 X88.813 Y110.011 E1.68113
G1 X88.325 Y110.011 E.02454
G1 X64.736 Y86.422 E1.67624
G1 X64.316 Y86.491 E.02136
G1 X87.836 Y110.011 E1.67136
G1 X87.348 Y110.011 E.02454
G1 X63.897 Y86.56 E1.66647
G1 X63.477 Y86.629 E.02136
G1 X86.86 Y110.011 E1.66158
G1 X86.371 Y110.011 E.02454
G1 X63.058 Y86.698 E1.6567
G1 X62.638 Y86.766 E.02136
G1 X85.883 Y110.011 E1.65181
G1 X85.395 Y110.011 E.02454
G1 X62.218 Y86.835 E1.64692
G1 X61.799 Y86.904 E.02136
G1 X84.906 Y110.011 E1.64204
G1 X84.418 Y110.011 E.02454
G1 X61.379 Y86.973 E1.63715
G1 X60.96 Y87.041 E.02136
G1 X83.93 Y110.011 E1.63226
G1 X83.441 Y110.011 E.02454
G1 X60.54 Y87.11 E1.62738
G1 X60.121 Y87.179 E.02136
G1 X82.953 Y110.011 E1.62249
G1 X82.464 Y110.011 E.02454
G1 X59.701 Y87.248 E1.6176
G1 X59.281 Y87.316 E.02136
G1 X81.976 Y110.011 E1.61271
G1 X81.488 Y110.011 E.02454
G1 X58.862 Y87.385 E1.60783
G1 X58.442 Y87.454 E.02136
G1 X80.999 Y110.011 E1.60294
G1 X80.511 Y110.011 E.02454
G1 X58.023 Y87.523 E1.59805
G1 X57.603 Y87.592 E.02136
G1 X80.023 Y110.011 E1.59317
G1 X79.534 Y110.011 E.02454
G1 X57.184 Y87.66 E1.58828
G1 X56.764 Y87.729 E.02136
