; generated by PrusaSlicer 2.5.0+win64 on 2022-12-07 at 00:17:49 UTC

; 

; external perimeters extrusion width = 1.00mm
; perimeters extrusion width = 1.00mm
; infill extrusion width = 1.00mm
; solid infill extrusion width = 1.00mm
; top infill extrusion width = 1.00mm
; support material extrusion width = 1.00mm
; first layer extrusion width = 0.42mm

M73 P0 R98
M107
;TYPE:Custom
G90 ; use absolute coordinates
M83 ; extruder relative mode
M140 S60 ; set final bed temp
M104 S150 ; set temporary nozzle temp to prevent oozing during homing and auto bed leveling
G4 S10 ; allow partial nozzle warmup
G28 ; home all axisG1 Z50 F240
G1 X7.6 Y10 F3000
M104 S210 ; set final nozzle temp
M190 S60 ; wait for bed temp to stabilize
M109 S210 ; wait for nozzle temp to stabilize
G1 Z0.28 F240
G92 E0
G1 Y140 E10 F1500 ; prime the nozzle
G1 X4 F5000
G92 E0
G1 Y10 E10 F1200 ; prime the nozzle
G92 E0
G21 ; set units to millimeters
G90 ; use absolute coordinates
M83 ; use relative distances for extrusion
; Filament gcode
M107
;LAYER_CHANGE
;Z:0.35
;HEIGHT:0.35
;BEFORE_LAYER_CHANGE
G92 E0
;0.35


G1 E-1 F3600
G1 Z.35 F7800
;AFTER_LAYER_CHANGE
;0.35
G1 X69.428 Y35.304
G1 E1 F2400
;TYPE:Support material
;WIDTH:0.42
G1 F1800
G1 X66.035 Y35.304 E.17027
G1 X66.035 Y38.697 E.17027
G1 X62.643 Y38.697 E.17027
G1 X62.643 Y42.09 E.17027
G1 X52.777 Y42.09 E.49509
G1 X52.777 Y22.046 E1.00589
G1 X69.428 Y22.046 E.83563
G1 X69.428 Y35.253 E.66276
G1 X68.864 Y35.149 F7800
G1 F1800
G1 X68.864 Y22.357 E.64199
G1 X68.481 Y22.357 E.01923
G1 X68.481 Y34.994 E.6342
G1 X68.098 Y34.994 E.01923
G1 X68.098 Y22.357 E.6342
G1 X67.714 Y22.357 E.01923
G1 X67.714 Y34.994 E.6342
G1 X67.331 Y34.994 E.01923
G1 X67.331 Y22.357 E.6342
G1 X66.948 Y22.357 E.01923
G1 X66.948 Y34.994 E.6342
G1 X66.565 Y34.994 E.01923
G1 X66.565 Y22.357 E.6342
G1 X66.182 Y22.357 E.01923
G1 X66.182 Y34.994 E.6342
G1 X65.798 Y34.994 E.01923
G1 X65.798 Y22.357 E.6342
G1 X65.415 Y22.357 E.01923
G1 X65.415 Y38.387 E.80447
G1 X65.032 Y38.387 E.01923
G1 X65.032 Y22.357 E.80447
G1 X64.649 Y22.357 E.01923
G1 X64.649 Y38.387 E.80447
G1 X64.266 Y38.387 E.01923
G1 X64.266 Y22.357 E.80447
G1 X63.882 Y22.357 E.01923
G1 X63.882 Y38.387 E.80447
G1 X63.499 Y38.387 E.01923
G1 X63.499 Y22.357 E.80447
G1 X63.116 Y22.357 E.01923
G1 X63.116 Y38.387 E.80447
G1 X62.733 Y38.387 E.01923
G1 X62.733 Y22.357 E.80447
G1 X62.35 Y22.357 E.01923
G1 X62.35 Y38.387 E.80447
G1 X62.332 Y38.387 E.00087
G1 X62.332 Y41.779 E.17027
G1 X61.966 Y41.779 E.01836
G1 X61.966 Y22.357 E.97474
G1 X61.583 Y22.357 E.01923
G1 X61.583 Y41.779 E.97474
G1 X61.2 Y41.779 E.01923
G1 X61.2 Y22.357 E.97474
G1 X60.817 Y22.357 E.01923
G1 X60.817 Y41.779 E.97474
G1 X60.434 Y41.779 E.01923
G1 X60.434 Y22.357 E.97474
G1 X60.05 Y22.357 E.01923
G1 X60.05 Y41.779 E.97474
G1 X59.667 Y41.779 E.01923
G1 X59.667 Y22.357 E.97474
G1 X59.284 Y22.357 E.01923
G1 X59.284 Y41.779 E.97474
G1 X58.901 Y41.779 E.01923
G1 X58.901 Y22.357 E.97474
G1 X58.517 Y22.357 E.01923
G1 X58.517 Y41.779 E.97474
G1 X58.134 Y41.779 E.01923
G1 X58.134 Y22.357 E.97474
G1 X57.751 Y22.357 E.01923
G1 X57.751 Y41.779 E.97474
G1 X57.368 Y41.779 E.01923
G1 X57.368 Y22.357 E.97474
G1 X56.985 Y22.357 E.01923
G1 X56.985 Y41.779 E.97474
G1 X56.601 Y41.779 E.01923
G1 X56.601 Y22.357 E.97474
G1 X56.218 Y22.357 E.01923
G1 X56.218 Y41.779 E.97474
G1 X55.835 Y41.779 E.01923
G1 X55.835 Y22.357 E.97474
G1 X55.452 Y22.357 E.01923
G1 X55.452 Y41.779 E.97474
G1 X55.069 Y41.779 E.01923
G1 X55.069 Y22.357 E.97474
G1 X54.685 Y22.357 E.01923
M73 P0 R97
G1 X54.685 Y41.779 E.97474
G1 X54.302 Y41.779 E.01923
G1 X54.302 Y22.357 E.97474
G1 X53.919 Y22.357 E.01923
G1 X53.919 Y41.779 E.97474
G1 X53.536 Y41.779 E.01923
G1 X53.536 Y22.357 E.97474
G1 X53.153 Y22.357 E.01923
G1 X53.153 Y41.935 E.98253
G1 E-.7 F3600
;WIPE_START
G1 F6240
G1 X53.153 Y41.415 E-.285
;WIPE_END
G1 E-.015 F3600
G1 X59.311 Y151.092 F7800
G1 E1 F2400
;TYPE:Perimeter
;WIDTH:0.42
G1 F1800
G1 X59.311 Y123.297 E1.3949
G1 X103.673 Y54.64 E4.1023
G1 X103.753 Y54.412 E.01217
G1 X106.529 Y26.936 E1.38592
G1 X120.494 Y26.936 E.70086
G1 X117.415 Y57.424 E1.53787
G1 X117.284 Y57.806 E.02025
G1 X117.227 Y58.33 E.02645
G1 X116.581 Y60.178 E.09825
G1 X116.554 Y60.301 E.00634
G1 X116.427 Y61.674 E.0692
G1 X115.657 Y63.884 E.11745
G1 X59.392 Y150.966 E5.20313
G1 X58.966 Y152.261 F7800
;TYPE:External perimeter
G1 F1800
G1 X58.966 Y123.196 E1.45869
G1 X103.383 Y54.453 E4.10741
G1 X103.41 Y54.377 E.00406
G1 X106.217 Y26.591 E1.40157
G1 X120.876 Y26.591 E.73565
G1 X117.754 Y57.499 E1.55903
M73 P1 R97
G1 X117.615 Y57.904 E.02152
G1 X117.567 Y58.404 E.02521
G1 X116.906 Y60.292 E.10035
G1 X116.767 Y61.748 E.07342
G1 X115.969 Y64.037 E.12164
G1 X59.047 Y152.135 E5.26388
G1 X59.154 Y151.279 F7800
G1 E-.7 F3600
;WIPE_START
G1 F6240
G1 X59.046 Y151.615 E-.285
;WIPE_END
G1 E-.015 F3600
G1 X119.683 Y27.039 F7800
G1 E1 F2400
;TYPE:Solid infill
;WIDTH:0.420746
G1 F1800
G1 X120.174 Y27.531 E.03495
G1 X120.129 Y27.975 E.02244
G1 X119.349 Y27.194 E.05549
G1 X118.86 Y27.194 E.02458
G1 X120.084 Y28.418 E.08706
G1 X120.04 Y28.862 E.02244
G1 X118.372 Y27.194 E.11864
G1 X117.883 Y27.194 E.02458
G1 X119.995 Y29.306 E.15022
G1 X119.95 Y29.75 E.02244
G1 X117.394 Y27.194 E.1818
G1 X116.905 Y27.194 E.02458
G1 X119.905 Y30.194 E.21337
G1 X119.86 Y30.638 E.02244
G1 X116.416 Y27.194 E.24495
G1 X115.928 Y27.194 E.02458
G1 X119.815 Y31.082 E.27653
G1 X119.771 Y31.526 E.02244
G1 X115.439 Y27.194 E.30811
G1 X114.95 Y27.194 E.02458
G1 X119.726 Y31.97 E.33969
G1 X119.681 Y32.414 E.02244
G1 X114.461 Y27.194 E.37126
G1 X113.972 Y27.194 E.02458
G1 X119.636 Y32.858 E.40284
G1 X119.591 Y33.302 E.02244
G1 X113.484 Y27.194 E.43442
G1 X112.995 Y27.194 E.02458
G1 X119.546 Y33.746 E.466
G1 X119.502 Y34.19 E.02244
G1 X112.506 Y27.194 E.49757
G1 X112.017 Y27.194 E.02458
G1 X119.457 Y34.634 E.52915
G1 X119.412 Y35.078 E.02244
G1 X111.528 Y27.194 E.56073
G1 X111.04 Y27.194 E.02458
G1 X119.367 Y35.522 E.59231
G1 X119.322 Y35.966 E.02244
G1 X110.551 Y27.194 E.62388
G1 X110.062 Y27.194 E.02458
G1 X119.277 Y36.41 E.65546
G1 X119.232 Y36.854 E.02244
G1 X109.573 Y27.194 E.68704
G1 X109.084 Y27.194 E.02458
G1 X119.188 Y37.298 E.71862
G1 X119.143 Y37.742 E.02244
G1 X108.596 Y27.194 E.75019
G1 X108.107 Y27.194 E.02458
G1 X119.098 Y38.186 E.78177
G1 X119.053 Y38.63 E.02244
G1 X107.618 Y27.194 E.81335
G1 X107.129 Y27.194 E.02458
G1 X119.008 Y39.074 E.84493
G1 X118.963 Y39.518 E.02244
G1 X106.752 Y27.306 E.86859
G1 X106.707 Y27.75 E.02244
G1 X118.919 Y39.961 E.8686
G1 X118.874 Y40.405 E.02244
G1 X106.662 Y28.194 E.8686
G1 X106.617 Y28.637 E.02244
G1 X118.829 Y40.849 E.8686
G1 X118.784 Y41.293 E.02244
G1 X106.572 Y29.081 E.8686
G1 X106.527 Y29.525 E.02244
G1 X118.739 Y41.737 E.8686
G1 X118.694 Y42.181 E.02244
G1 X106.482 Y29.969 E.8686
G1 X106.438 Y30.413 E.02244
G1 X118.65 Y42.625 E.8686
G1 X118.605 Y43.069 E.02244
G1 X106.393 Y30.857 E.8686
G1 X106.348 Y31.301 E.02244
G1 X118.56 Y43.513 E.8686
G1 X118.515 Y43.957 E.02244
G1 X106.303 Y31.745 E.8686
G1 X106.258 Y32.189 E.02244
G1 X118.47 Y44.401 E.8686
G1 X118.425 Y44.845 E.02244
G1 X106.213 Y32.633 E.8686
G1 X106.168 Y33.077 E.02244
G1 X118.38 Y45.289 E.86861
G1 X118.336 Y45.733 E.02244
G1 X106.124 Y33.521 E.86861
G1 X106.079 Y33.965 E.02244
G1 X118.291 Y46.177 E.86861
G1 X118.246 Y46.621 E.02244
G1 X106.034 Y34.409 E.86861
G1 X105.989 Y34.853 E.02244
G1 X118.201 Y47.065 E.86861
G1 X118.156 Y47.509 E.02244
G1 X105.944 Y35.297 E.86861
G1 X105.899 Y35.741 E.02244
G1 X118.111 Y47.953 E.86861
G1 X118.067 Y48.397 E.02244
G1 X105.854 Y36.185 E.86861
G1 X105.81 Y36.629 E.02244
G1 X118.022 Y48.841 E.86861
G1 X117.977 Y49.285 E.02244
G1 X105.765 Y37.073 E.86861
G1 X105.72 Y37.516 E.02244
G1 X117.932 Y49.729 E.86861
G1 X117.887 Y50.173 E.02244
G1 X105.675 Y37.96 E.86862
G1 X105.63 Y38.404 E.02244
G1 X117.842 Y50.617 E.86862
G1 X117.798 Y51.061 E.02244
G1 X105.585 Y38.848 E.86862
G1 X105.541 Y39.292 E.02244
G1 X117.753 Y51.504 E.86862
G1 X117.708 Y51.948 E.02244
G1 X105.496 Y39.736 E.86862
G1 X105.451 Y40.18 E.02244
G1 X117.663 Y52.392 E.86862
G1 X117.618 Y52.836 E.02244
G1 X105.406 Y40.624 E.86862
G1 X105.361 Y41.068 E.02244
G1 X117.573 Y53.28 E.86862
G1 X117.529 Y53.724 E.02244
G1 X105.316 Y41.512 E.86862
G1 X105.271 Y41.956 E.02244
G1 X117.484 Y54.168 E.86862
G1 X117.439 Y54.612 E.02244
G1 X105.227 Y42.4 E.86862
G1 X105.182 Y42.844 E.02244
G1 X117.394 Y55.056 E.86862
G1 X117.349 Y55.5 E.02244
G1 X105.137 Y43.288 E.86863
G1 X105.092 Y43.732 E.02244
G1 X117.304 Y55.944 E.86863
G1 X117.259 Y56.388 E.02244
M73 P1 R96
G1 X105.047 Y44.176 E.86863
G1 X105.002 Y44.62 E.02244
G1 X117.215 Y56.832 E.86863
G1 X117.17 Y57.276 E.02244
G1 X104.957 Y45.064 E.86863
G1 X104.913 Y45.508 E.02244
G1 X117.064 Y57.659 E.8643
G1 X117.024 Y57.778 E.00632
G1 X116.993 Y58.077 E.01511
G1 X104.868 Y45.952 E.86246
G1 X104.823 Y46.395 E.02244
G1 X116.903 Y58.475 E.8592
G1 X116.776 Y58.838 E.01931
G1 X104.778 Y46.839 E.85341
G1 X104.733 Y47.283 E.02244
G1 X116.65 Y59.2 E.84762
G1 X116.524 Y59.563 E.01931
G1 X104.688 Y47.727 E.84183
G1 X104.643 Y48.171 E.02244
G1 X116.398 Y59.925 E.83604
G1 X116.315 Y60.164 E.01269
G1 X116.3 Y60.316 E.00772
G1 X104.599 Y48.615 E.83227
G1 X104.554 Y49.059 E.02244
G1 X116.256 Y60.762 E.83237
G1 X116.213 Y61.207 E.02251
G1 X104.509 Y49.503 E.83248
G1 X104.464 Y49.947 E.02244
G1 X116.163 Y61.646 E.83213
G1 X116.037 Y62.009 E.0193
G1 X104.419 Y50.391 E.82633
G1 X104.374 Y50.835 E.02244
G1 X115.91 Y62.371 E.82053
G1 X115.784 Y62.733 E.0193
G1 X104.33 Y51.279 E.81473
G1 X104.285 Y51.723 E.02244
G1 X115.658 Y63.096 E.80892
G1 X115.531 Y63.458 E.0193
G1 X104.24 Y52.167 E.80312
G1 X104.195 Y52.611 E.02244
G1 X115.396 Y63.811 E.79667
G1 X115.204 Y64.108 E.01778
G1 X104.15 Y53.055 E.78621
G1 X104.105 Y53.499 E.02244
G1 X115.012 Y64.405 E.77575
G1 X114.82 Y64.702 E.01778
G1 X104.06 Y53.943 E.7653
G1 X104.016 Y54.387 E.02244
G1 X114.628 Y64.999 E.75484
G1 X114.436 Y65.296 E.01778
G1 X103.9 Y54.76 E.74941
G1 X103.708 Y55.057 E.01778
G1 X114.244 Y65.593 E.74941
G1 X114.053 Y65.89 E.01778
G1 X103.516 Y55.354 E.74941
G1 X103.325 Y55.651 E.01778
G1 X113.861 Y66.187 E.74941
G1 X113.669 Y66.484 E.01778
G1 X103.133 Y55.948 E.74941
G1 X102.941 Y56.245 E.01778
G1 X113.477 Y66.781 E.74941
G1 X113.285 Y67.078 E.01778
G1 X102.749 Y56.542 E.74941
G1 X102.557 Y56.839 E.01778
G1 X113.093 Y67.375 E.74941
G1 X112.901 Y67.672 E.01778
G1 X102.365 Y57.135 E.74941
G1 X102.173 Y57.432 E.01778
M73 P2 R96
G1 X112.71 Y67.969 E.74941
G1 X112.518 Y68.266 E.01778
G1 X101.982 Y57.729 E.74941
G1 X101.79 Y58.026 E.01778
G1 X112.326 Y68.562 E.74941
G1 X112.134 Y68.859 E.01778
G1 X101.598 Y58.323 E.74941
G1 X101.406 Y58.62 E.01778
G1 X111.942 Y69.156 E.74941
G1 X111.75 Y69.453 E.01778
G1 X101.214 Y58.917 E.74941
G1 X101.022 Y59.214 E.01778
G1 X111.558 Y69.75 E.74941
G1 X111.367 Y70.047 E.01778
G1 X100.83 Y59.511 E.74941
G1 X100.639 Y59.808 E.01778
G1 X111.175 Y70.344 E.74941
G1 X110.983 Y70.641 E.01778
G1 X100.447 Y60.105 E.74941
G1 X100.255 Y60.402 E.01778
G1 X110.791 Y70.938 E.74941
G1 X110.599 Y71.235 E.01778
G1 X100.063 Y60.699 E.7494
G1 X99.871 Y60.996 E.01778
G1 X110.407 Y71.532 E.7494
G1 X110.215 Y71.829 E.01778
G1 X99.679 Y61.293 E.7494
G1 X99.487 Y61.59 E.01778
G1 X110.024 Y72.126 E.7494
G1 X109.832 Y72.423 E.01778
G1 X99.296 Y61.887 E.7494
G1 X99.104 Y62.184 E.01778
G1 X109.64 Y72.72 E.7494
G1 X109.448 Y73.017 E.01778
G1 X98.912 Y62.48 E.7494
G1 X98.72 Y62.777 E.01778
G1 X109.256 Y73.314 E.7494
G1 X109.064 Y73.611 E.01778
G1 X98.528 Y63.074 E.7494
G1 X98.336 Y63.371 E.01778
G1 X108.872 Y73.907 E.7494
G1 X108.681 Y74.204 E.01778
G1 X98.144 Y63.668 E.7494
G1 X97.953 Y63.965 E.01778
G1 X108.489 Y74.501 E.7494
G1 X108.297 Y74.798 E.01778
G1 X97.761 Y64.262 E.7494
G1 X97.569 Y64.559 E.01778
G1 X108.105 Y75.095 E.7494
G1 X107.913 Y75.392 E.01778
G1 X97.377 Y64.856 E.7494
G1 X97.185 Y65.153 E.01778
G1 X107.721 Y75.689 E.7494
G1 X107.529 Y75.986 E.01778
G1 X96.993 Y65.45 E.7494
G1 X96.801 Y65.747 E.01778
G1 X107.338 Y76.283 E.7494
G1 X107.146 Y76.58 E.01778
G1 X96.61 Y66.044 E.7494
G1 X96.418 Y66.341 E.01778
G1 X106.954 Y76.877 E.7494
G1 X106.762 Y77.174 E.01778
G1 X96.226 Y66.638 E.7494
G1 X96.034 Y66.935 E.01778
G1 X106.57 Y77.471 E.7494
G1 X106.378 Y77.768 E.01778
G1 X95.842 Y67.232 E.7494
G1 X95.65 Y67.529 E.01778
G1 X106.186 Y78.065 E.7494
G1 X105.995 Y78.362 E.01778
G1 X95.458 Y67.826 E.7494
G1 X95.267 Y68.122 E.01778
G1 X105.803 Y78.659 E.7494
G1 X105.611 Y78.955 E.01778
G1 X95.075 Y68.419 E.7494
G1 X94.883 Y68.716 E.01778
G1 X105.419 Y79.252 E.7494
G1 X105.227 Y79.549 E.01778
G1 X94.691 Y69.013 E.7494
G1 X94.499 Y69.31 E.01778
G1 X105.035 Y79.846 E.7494
G1 X104.843 Y80.143 E.01778
G1 X94.307 Y69.607 E.7494
G1 X94.115 Y69.904 E.01778
G1 X104.652 Y80.44 E.7494
G1 X104.46 Y80.737 E.01778
G1 X93.924 Y70.201 E.7494
G1 X93.732 Y70.498 E.01778
G1 X104.268 Y81.034 E.7494
G1 X104.076 Y81.331 E.01778
G1 X93.54 Y70.795 E.7494
G1 X93.348 Y71.092 E.01778
G1 X103.884 Y81.628 E.7494
G1 X103.692 Y81.925 E.01778
G1 X93.156 Y71.389 E.7494
G1 X92.964 Y71.686 E.01778
G1 X103.5 Y82.222 E.7494
G1 X103.309 Y82.519 E.01778
G1 X92.772 Y71.983 E.7494
G1 X92.581 Y72.28 E.01778
G1 X103.117 Y82.816 E.7494
G1 X102.925 Y83.113 E.01778
G1 X92.389 Y72.577 E.7494
G1 X92.197 Y72.874 E.01778
G1 X102.733 Y83.41 E.7494
G1 X102.541 Y83.707 E.01778
G1 X92.005 Y73.171 E.7494
G1 X91.813 Y73.468 E.01778
G1 X102.349 Y84.004 E.7494
G1 X102.157 Y84.3 E.01778
G1 X91.621 Y73.764 E.7494
G1 X91.43 Y74.061 E.01778
G1 X101.966 Y84.597 E.74939
G1 X101.774 Y84.894 E.01778
G1 X91.238 Y74.358 E.74939
G1 X91.046 Y74.655 E.01778
G1 X101.582 Y85.191 E.74939
G1 X101.39 Y85.488 E.01778
G1 X90.854 Y74.952 E.74939
G1 X90.662 Y75.249 E.01778
G1 X101.198 Y85.785 E.74939
G1 X101.006 Y86.082 E.01778
G1 X90.47 Y75.546 E.74939
G1 X90.278 Y75.843 E.01778
G1 X100.814 Y86.379 E.74939
G1 X100.623 Y86.676 E.01778
G1 X90.087 Y76.14 E.74939
G1 X89.895 Y76.437 E.01778
G1 X100.431 Y86.973 E.74939
G1 X100.239 Y87.27 E.01778
G1 X89.703 Y76.734 E.74939
G1 X89.511 Y77.031 E.01778
G1 X100.047 Y87.567 E.74939
G1 X99.855 Y87.864 E.01778
G1 X89.319 Y77.328 E.74939
G1 X89.127 Y77.625 E.01778
G1 X99.663 Y88.161 E.74939
G1 X99.471 Y88.458 E.01778
G1 X88.935 Y77.922 E.74939
G1 X88.744 Y78.219 E.01778
G1 X99.279 Y88.755 E.74939
G1 X99.088 Y89.052 E.01778
G1 X88.552 Y78.516 E.74939
G1 X88.36 Y78.813 E.01778
G1 X98.896 Y89.349 E.74939
G1 X98.704 Y89.645 E.01778
G1 X88.168 Y79.11 E.74939
G1 X87.976 Y79.406 E.01778
M73 P2 R95
G1 X98.512 Y89.942 E.74939
G1 X98.32 Y90.239 E.01778
G1 X87.784 Y79.703 E.74939
G1 X87.592 Y80 E.01778
G1 X98.128 Y90.536 E.74939
G1 X97.936 Y90.833 E.01778
G1 X87.401 Y80.297 E.74939
G1 X87.209 Y80.594 E.01778
G1 X97.745 Y91.13 E.74939
G1 X97.553 Y91.427 E.01778
G1 X87.017 Y80.891 E.74939
G1 X86.825 Y81.188 E.01778
G1 X97.361 Y91.724 E.74939
G1 X97.169 Y92.021 E.01778
G1 X86.633 Y81.485 E.74939
G1 X86.441 Y81.782 E.01778
G1 X96.977 Y92.318 E.74939
G1 X96.785 Y92.615 E.01778
G1 X86.249 Y82.079 E.74939
G1 X86.058 Y82.376 E.01778
G1 X96.593 Y92.912 E.74939
G1 X96.402 Y93.209 E.01778
G1 X85.866 Y82.673 E.74939
G1 X85.674 Y82.97 E.01778
G1 X96.21 Y93.506 E.74939
G1 X96.018 Y93.803 E.01778
G1 X85.482 Y83.267 E.74939
G1 X85.29 Y83.564 E.01778
G1 X95.826 Y94.1 E.74939
G1 X95.634 Y94.397 E.01778
G1 X85.098 Y83.861 E.74939
G1 X84.906 Y84.158 E.01778
G1 X95.442 Y94.693 E.74939
G1 X95.25 Y94.99 E.01778
G1 X84.715 Y84.455 E.74939
G1 X84.523 Y84.751 E.01778
G1 X95.059 Y95.287 E.74939
G1 X94.867 Y95.584 E.01778
G1 X84.331 Y85.048 E.74939
G1 X84.139 Y85.345 E.01778
G1 X94.675 Y95.881 E.74939
G1 X94.483 Y96.178 E.01778
G1 X83.947 Y85.642 E.74939
G1 X83.755 Y85.939 E.01778
G1 X94.291 Y96.475 E.74939
G1 X94.099 Y96.772 E.01778
G1 X83.563 Y86.236 E.74939
G1 X83.372 Y86.533 E.01778
G1 X93.907 Y97.069 E.74939
G1 X93.716 Y97.366 E.01778
G1 X83.18 Y86.83 E.74939
G1 X82.988 Y87.127 E.01778
G1 X93.524 Y97.663 E.74939
G1 X93.332 Y97.96 E.01778
G1 X82.796 Y87.424 E.74938
G1 X82.604 Y87.721 E.01778
G1 X93.14 Y98.257 E.74938
G1 X92.948 Y98.554 E.01778
G1 X82.412 Y88.018 E.74938
