; generated by PrusaSlicer 2.5.0+win64 on 2022-12-07 at 00:17:50 UTC

; 

; external perimeters extrusion width = 1.00mm
; perimeters extrusion width = 1.00mm
; infill extrusion width = 1.00mm
; solid infill extrusion width = 1.00mm
; top infill extrusion width = 1.00mm
; support material extrusion width = 1.00mm
; first layer extrusion width = 0.42mm

M73 P0 R161
M107
;TYPE:Custom
G90 ; use absolute coordinates
M83 ; extruder relative mode
M140 S60 ; set final bed temp
M104 S150 ; set temporary nozzle temp to prevent oozing during homing and auto bed leveling
G4 S10 ; allow partial nozzle warmup
G28 ; home all axisG1 Z50 F240
G1 X7.6 Y10 F3000
M104 S210 ; set final nozzle temp
M190 S60 ; wait for bed temp to stabilize
M109 S210 ; wait for nozzle temp to stabilize
G1 Z0.28 F240
G92 E0
G1 Y140 E10 F1500 ; prime the nozzle
G1 X4 F5000
G92 E0
G1 Y10 E10 F1200 ; prime the nozzle
G92 E0
G21 ; set units to millimeters
G90 ; use absolute coordinates
M83 ; use relative distances for extrusion
; Filament gcode
M107
;LAYER_CHANGE
;Z:0.35
;HEIGHT:0.35
;BEFORE_LAYER_CHANGE
G92 E0
;0.35


G1 E-1 F3600
G1 Z.35 F7800
;AFTER_LAYER_CHANGE
;0.35
G1 X88.334 Y17.18
G1 E1 F2400
;TYPE:Perimeter
;WIDTH:0.42
G1 F1800
G1 X102.153 Y17.18 E.69351
G1 X93.932 Y162.82 E7.32072
G1 X80.121 Y162.82 E.69312
G1 X88.325 Y17.33 E7.31317
G1 X88.008 Y16.835 F7800
;TYPE:External perimeter
G1 F1800
G1 X102.518 Y16.835 E.72818
G1 X94.258 Y163.165 E7.35539
G1 X79.756 Y163.165 E.72779
G1 X87.999 Y16.985 E7.34784
G1 X88.881 Y17.323 F7800
M73 P0 R160
G1 E-.7 F3600
;WIPE_START
G1 F6240
G1 X88.519 Y16.979 E-.285
;WIPE_END
G1 E-.015 F3600
G1 X101.347 Y17.283 F7800
G1 E1 F2400
;TYPE:Solid infill
;WIDTH:0.420042
G1 F1800
G1 X101.859 Y17.795 E.03634
G1 X101.833 Y18.257 E.02321
G1 X101.014 Y17.438 E.0581
G1 X100.526 Y17.438 E.02448
G1 X101.807 Y18.719 E.09087
G1 X101.781 Y19.18 E.02321
G1 X100.039 Y17.438 E.12365
G1 X99.551 Y17.438 E.02448
G1 X101.755 Y19.642 E.15642
G1 X101.728 Y20.104 E.02321
G1 X99.063 Y17.438 E.1892
G1 X98.575 Y17.438 E.02448
G1 X101.702 Y20.566 E.22198
G1 X101.676 Y21.027 E.02321
G1 X98.087 Y17.438 E.25475
G1 X97.6 Y17.438 E.02448
G1 X101.65 Y21.489 E.28753
G1 X101.624 Y21.951 E.02321
G1 X97.112 Y17.438 E.3203
G1 X96.624 Y17.438 E.02448
G1 X101.598 Y22.413 E.35308
G1 X101.572 Y22.874 E.02321
G1 X96.136 Y17.438 E.38585
G1 X95.648 Y17.438 E.02448
G1 X101.546 Y23.336 E.41863
G1 X101.52 Y23.798 E.02321
G1 X95.161 Y17.438 E.4514
G1 X94.673 Y17.438 E.02448
G1 X101.494 Y24.26 E.48418
G1 X101.468 Y24.721 E.02321
G1 X94.185 Y17.438 E.51695
G1 X93.697 Y17.438 E.02448
G1 X101.442 Y25.183 E.54973
G1 X101.416 Y25.645 E.02321
G1 X93.209 Y17.438 E.58251
G1 X92.722 Y17.438 E.02448
G1 X101.39 Y26.107 E.61528
G1 X101.364 Y26.568 E.02321
G1 X92.234 Y17.438 E.64806
G1 X91.746 Y17.438 E.02448
G1 X101.338 Y27.03 E.68083
G1 X101.311 Y27.492 E.02321
G1 X91.258 Y17.438 E.71361
G1 X90.77 Y17.438 E.02448
G1 X101.285 Y27.954 E.74638
G1 X101.259 Y28.415 E.02321
G1 X90.283 Y17.438 E.77916
G1 X89.795 Y17.438 E.02448
G1 X101.233 Y28.877 E.81193
G1 X101.207 Y29.339 E.02321
G1 X89.307 Y17.438 E.84471
G1 X88.819 Y17.438 E.02448
G1 X101.181 Y29.8 E.87748
G1 X101.155 Y30.262 E.02321
G1 X88.565 Y17.672 E.89366
G1 X88.539 Y18.134 E.02321
G1 X101.129 Y30.724 E.89366
G1 X101.103 Y31.186 E.02321
G1 X88.513 Y18.596 E.89366
G1 X88.487 Y19.058 E.02321
G1 X101.077 Y31.647 E.89366
G1 X101.051 Y32.109 E.02321
G1 X88.461 Y19.519 E.89365
G1 X88.435 Y19.981 E.02321
G1 X101.025 Y32.571 E.89365
G1 X100.999 Y33.033 E.02321
G1 X88.409 Y20.443 E.89365
G1 X88.383 Y20.905 E.02321
G1 X100.973 Y33.494 E.89365
G1 X100.947 Y33.956 E.02321
G1 X88.357 Y21.366 E.89365
G1 X88.331 Y21.828 E.02321
G1 X100.92 Y34.418 E.89365
G1 X100.894 Y34.88 E.02321
G1 X88.305 Y22.29 E.89364
G1 X88.279 Y22.752 E.02321
G1 X100.868 Y35.341 E.89364
G1 X100.842 Y35.803 E.02321
G1 X88.253 Y23.213 E.89364
G1 X88.227 Y23.675 E.02321
G1 X100.816 Y36.265 E.89364
G1 X100.79 Y36.727 E.02321
G1 X88.201 Y24.137 E.89364
G1 X88.175 Y24.599 E.02321
G1 X100.764 Y37.188 E.89364
G1 X100.738 Y37.65 E.02321
G1 X88.148 Y25.061 E.89363
G1 X88.122 Y25.522 E.02321
G1 X100.712 Y38.112 E.89363
G1 X100.686 Y38.574 E.02321
G1 X88.096 Y25.984 E.89363
G1 X88.07 Y26.446 E.02321
G1 X100.66 Y39.035 E.89363
G1 X100.634 Y39.497 E.02321
G1 X88.044 Y26.908 E.89363
G1 X88.018 Y27.369 E.02321
G1 X100.608 Y39.959 E.89363
G1 X100.582 Y40.421 E.02321
G1 X87.992 Y27.831 E.89363
G1 X87.966 Y28.293 E.02321
G1 X100.556 Y40.882 E.89362
G1 X100.53 Y41.344 E.02321
G1 X87.94 Y28.755 E.89362
G1 X87.914 Y29.216 E.02321
G1 X100.503 Y41.806 E.89362
G1 X100.477 Y42.268 E.02321
G1 X87.888 Y29.678 E.89362
G1 X87.862 Y30.14 E.02321
G1 X100.451 Y42.729 E.89362
G1 X100.425 Y43.191 E.02321
G1 X87.836 Y30.602 E.89362
G1 X87.81 Y31.063 E.02321
G1 X100.399 Y43.653 E.89361
G1 X100.373 Y44.114 E.02321
G1 X87.784 Y31.525 E.89361
G1 X87.758 Y31.987 E.02321
G1 X100.347 Y44.576 E.89361
G1 X100.321 Y45.038 E.02321
G1 X87.732 Y32.449 E.89361
G1 X87.706 Y32.911 E.02321
G1 X100.295 Y45.5 E.89361
G1 X100.269 Y45.961 E.02321
G1 X87.68 Y33.372 E.89361
G1 X87.654 Y33.834 E.02321
G1 X100.243 Y46.423 E.8936
G1 X100.217 Y46.885 E.02321
G1 X87.628 Y34.296 E.8936
G1 X87.602 Y34.758 E.02321
G1 X100.191 Y47.347 E.8936
G1 X100.165 Y47.808 E.02321
G1 X87.576 Y35.219 E.8936
G1 X87.55 Y35.681 E.02321
G1 X100.139 Y48.27 E.8936
G1 X100.113 Y48.732 E.02321
G1 X87.524 Y36.143 E.8936
G1 X87.497 Y36.605 E.02321
G1 X100.086 Y49.194 E.89359
G1 X100.06 Y49.655 E.02321
G1 X87.471 Y37.066 E.89359
G1 X87.445 Y37.528 E.02321
G1 X100.034 Y50.117 E.89359
G1 X100.008 Y50.579 E.02321
G1 X87.419 Y37.99 E.89359
G1 X87.393 Y38.452 E.02321
G1 X99.982 Y51.041 E.89359
G1 X99.956 Y51.502 E.02321
G1 X87.367 Y38.913 E.89359
G1 X87.341 Y39.375 E.02321
G1 X99.93 Y51.964 E.89358
G1 X99.904 Y52.426 E.02321
G1 X87.315 Y39.837 E.89358
G1 X87.289 Y40.299 E.02321
G1 X99.878 Y52.888 E.89358
G1 X99.852 Y53.349 E.02321
G1 X87.263 Y40.761 E.89358
G1 X87.237 Y41.222 E.02321
G1 X99.826 Y53.811 E.89358
G1 X99.8 Y54.273 E.02321
G1 X87.211 Y41.684 E.89358
G1 X87.185 Y42.146 E.02321
G1 X99.774 Y54.735 E.89357
G1 X99.748 Y55.196 E.02321
G1 X87.159 Y42.608 E.89357
G1 X87.133 Y43.069 E.02321
G1 X99.722 Y55.658 E.89357
G1 X99.695 Y56.12 E.02321
G1 X87.107 Y43.531 E.89357
G1 X87.081 Y43.993 E.02321
G1 X99.669 Y56.582 E.89357
G1 X99.643 Y57.043 E.02321
G1 X87.055 Y44.455 E.89357
G1 X87.029 Y44.916 E.02321
G1 X99.617 Y57.505 E.89356
G1 X99.591 Y57.967 E.02321
G1 X87.003 Y45.378 E.89356
G1 X86.977 Y45.84 E.02321
G1 X99.565 Y58.428 E.89356
G1 X99.539 Y58.89 E.02321
G1 X86.951 Y46.302 E.89356
G1 X86.925 Y46.763 E.02321
G1 X99.513 Y59.352 E.89356
G1 X99.487 Y59.814 E.02321
G1 X86.899 Y47.225 E.89356
G1 X86.872 Y47.687 E.02321
G1 X99.461 Y60.275 E.89355
G1 X99.435 Y60.737 E.02321
G1 X86.846 Y48.149 E.89355
G1 X86.82 Y48.611 E.02321
G1 X99.409 Y61.199 E.89355
G1 X99.383 Y61.661 E.02321
G1 X86.794 Y49.072 E.89355
G1 X86.768 Y49.534 E.02321
G1 X99.357 Y62.122 E.89355
G1 X99.331 Y62.584 E.02321
G1 X86.742 Y49.996 E.89355
G1 X86.716 Y50.458 E.02321
G1 X99.305 Y63.046 E.89354
G1 X99.278 Y63.508 E.02321
G1 X86.69 Y50.919 E.89354
G1 X86.664 Y51.381 E.02321
M73 P0 R159
G1 X99.252 Y63.969 E.89354
G1 X99.226 Y64.431 E.02321
G1 X86.638 Y51.843 E.89354
G1 X86.612 Y52.305 E.02321
G1 X99.2 Y64.893 E.89354
G1 X99.174 Y65.355 E.02321
G1 X86.586 Y52.766 E.89354
G1 X86.56 Y53.228 E.02321
G1 X99.148 Y65.816 E.89353
G1 X99.122 Y66.278 E.02321
G1 X86.534 Y53.69 E.89353
G1 X86.508 Y54.152 E.02321
M73 P1 R159
G1 X99.096 Y66.74 E.89353
G1 X99.07 Y67.202 E.02321
G1 X86.482 Y54.614 E.89353
G1 X86.456 Y55.075 E.02321
G1 X99.044 Y67.663 E.89353
G1 X99.018 Y68.125 E.02321
G1 X86.43 Y55.537 E.89353
G1 X86.404 Y55.999 E.02321
G1 X98.992 Y68.587 E.89352
G1 X98.966 Y69.049 E.02321
G1 X86.378 Y56.461 E.89352
G1 X86.352 Y56.922 E.02321
G1 X98.94 Y69.51 E.89352
G1 X98.914 Y69.972 E.02321
G1 X86.326 Y57.384 E.89352
G1 X86.3 Y57.846 E.02321
G1 X98.888 Y70.434 E.89352
G1 X98.861 Y70.896 E.02321
G1 X86.274 Y58.308 E.89352
G1 X86.248 Y58.769 E.02321
G1 X98.835 Y71.357 E.89351
G1 X98.809 Y71.819 E.02321
G1 X86.221 Y59.231 E.89351
G1 X86.195 Y59.693 E.02321
G1 X98.783 Y72.281 E.89351
G1 X98.757 Y72.743 E.02321
G1 X86.169 Y60.155 E.89351
G1 X86.143 Y60.616 E.02321
G1 X98.731 Y73.204 E.89351
G1 X98.705 Y73.666 E.02321
G1 X86.117 Y61.078 E.89351
G1 X86.091 Y61.54 E.02321
G1 X98.679 Y74.128 E.89351
G1 X98.653 Y74.589 E.02321
G1 X86.065 Y62.002 E.8935
G1 X86.039 Y62.464 E.02321
G1 X98.627 Y75.051 E.8935
G1 X98.601 Y75.513 E.02321
G1 X86.013 Y62.925 E.8935
G1 X85.987 Y63.387 E.02321
G1 X98.575 Y75.975 E.8935
G1 X98.549 Y76.436 E.02321
G1 X85.961 Y63.849 E.8935
G1 X85.935 Y64.311 E.02321
G1 X98.523 Y76.898 E.8935
G1 X98.497 Y77.36 E.02321
G1 X85.909 Y64.772 E.89349
G1 X85.883 Y65.234 E.02321
G1 X98.47 Y77.822 E.89349
G1 X98.444 Y78.283 E.02321
G1 X85.857 Y65.696 E.89349
G1 X85.831 Y66.158 E.02321
G1 X98.418 Y78.745 E.89349
G1 X98.392 Y79.207 E.02321
G1 X85.805 Y66.619 E.89349
G1 X85.779 Y67.081 E.02321
G1 X98.366 Y79.669 E.89349
G1 X98.34 Y80.13 E.02321
G1 X85.753 Y67.543 E.89348
G1 X85.727 Y68.005 E.02321
G1 X98.314 Y80.592 E.89348
G1 X98.288 Y81.054 E.02321
G1 X85.701 Y68.466 E.89348
G1 X85.675 Y68.928 E.02321
G1 X98.262 Y81.516 E.89348
G1 X98.236 Y81.977 E.02321
G1 X85.649 Y69.39 E.89348
G1 X85.623 Y69.852 E.02321
G1 X98.21 Y82.439 E.89348
G1 X98.184 Y82.901 E.02321
G1 X85.596 Y70.314 E.89347
G1 X85.57 Y70.775 E.02321
G1 X98.158 Y83.363 E.89347
G1 X98.132 Y83.824 E.02321
G1 X85.544 Y71.237 E.89347
G1 X85.518 Y71.699 E.02321
G1 X98.106 Y84.286 E.89347
G1 X98.08 Y84.748 E.02321
G1 X85.492 Y72.161 E.89347
G1 X85.466 Y72.622 E.02321
G1 X98.053 Y85.21 E.89347
G1 X98.027 Y85.671 E.02321
G1 X85.44 Y73.084 E.89346
G1 X85.414 Y73.546 E.02321
G1 X98.001 Y86.133 E.89346
G1 X97.975 Y86.595 E.02321
G1 X85.388 Y74.008 E.89346
G1 X85.362 Y74.469 E.02321
G1 X97.949 Y87.057 E.89346
G1 X97.923 Y87.518 E.02321
G1 X85.336 Y74.931 E.89346
G1 X85.31 Y75.393 E.02321
G1 X97.897 Y87.98 E.89346
G1 X97.871 Y88.442 E.02321
G1 X85.284 Y75.855 E.89345
G1 X85.258 Y76.316 E.02321
G1 X97.845 Y88.903 E.89345
G1 X97.819 Y89.365 E.02321
G1 X85.232 Y76.778 E.89345
G1 X85.206 Y77.24 E.02321
G1 X97.793 Y89.827 E.89345
G1 X97.767 Y90.289 E.02321
G1 X85.18 Y77.702 E.89345
G1 X85.154 Y78.164 E.02321
G1 X97.741 Y90.75 E.89345
G1 X97.715 Y91.212 E.02321
G1 X85.128 Y78.625 E.89344
G1 X85.102 Y79.087 E.02321
G1 X97.689 Y91.674 E.89344
G1 X97.663 Y92.136 E.02321
G1 X85.076 Y79.549 E.89344
G1 X85.05 Y80.011 E.02321
G1 X97.636 Y92.597 E.89344
G1 X97.61 Y93.059 E.02321
G1 X85.024 Y80.472 E.89344
G1 X84.998 Y80.934 E.02321
G1 X97.584 Y93.521 E.89344
G1 X97.558 Y93.983 E.02321
G1 X84.972 Y81.396 E.89343
G1 X84.945 Y81.858 E.02321
G1 X97.532 Y94.444 E.89343
G1 X97.506 Y94.906 E.02321
G1 X84.919 Y82.319 E.89343
G1 X84.893 Y82.781 E.02321
G1 X97.48 Y95.368 E.89343
G1 X97.454 Y95.83 E.02321
G1 X84.867 Y83.243 E.89343
G1 X84.841 Y83.705 E.02321
G1 X97.428 Y96.291 E.89343
G1 X97.402 Y96.753 E.02321
G1 X84.815 Y84.166 E.89342
G1 X84.789 Y84.628 E.02321
G1 X97.376 Y97.215 E.89342
G1 X97.35 Y97.677 E.02321
G1 X84.763 Y85.09 E.89342
G1 X84.737 Y85.552 E.02321
G1 X97.324 Y98.138 E.89342
G1 X97.298 Y98.6 E.02321
G1 X84.711 Y86.014 E.89342
G1 X84.685 Y86.475 E.02321
G1 X97.272 Y99.062 E.89342
G1 X97.245 Y99.524 E.02321
G1 X84.659 Y86.937 E.89341
G1 X84.633 Y87.399 E.02321
G1 X97.219 Y99.985 E.89341
G1 X97.193 Y100.447 E.02321
G1 X84.607 Y87.861 E.89341
G1 X84.581 Y88.322 E.02321
G1 X97.167 Y100.909 E.89341
G1 X97.141 Y101.371 E.02321
G1 X84.555 Y88.784 E.89341
G1 X84.529 Y89.246 E.02321
G1 X97.115 Y101.832 E.89341
G1 X97.089 Y102.294 E.02321
G1 X84.503 Y89.708 E.8934
G1 X84.477 Y90.169 E.02321
G1 X97.063 Y102.756 E.8934
G1 X97.037 Y103.217 E.02321
G1 X84.451 Y90.631 E.8934
G1 X84.425 Y91.093 E.02321
G1 X97.011 Y103.679 E.8934
G1 X96.985 Y104.141 E.02321
G1 X84.399 Y91.555 E.8934
G1 X84.373 Y92.016 E.02321
G1 X96.959 Y104.603 E.8934
G1 X96.933 Y105.064 E.02321
G1 X84.347 Y92.478 E.89339
G1 X84.32 Y92.94 E.02321
G1 X96.907 Y105.526 E.89339
G1 X96.881 Y105.988 E.02321
G1 X84.294 Y93.402 E.89339
M73 P1 R158
G1 X84.268 Y93.864 E.02321
G1 X96.855 Y106.45 E.89339
G1 X96.828 Y106.911 E.02321
G1 X84.242 Y94.325 E.89339
G1 X84.216 Y94.787 E.02321
G1 X96.802 Y107.373 E.89339
G1 X96.776 Y107.835 E.02321
G1 X84.19 Y95.249 E.89339
G1 X84.164 Y95.711 E.02321
G1 X96.75 Y108.297 E.89338
G1 X96.724 Y108.758 E.02321
G1 X84.138 Y96.172 E.89338
G1 X84.112 Y96.634 E.02321
G1 X96.698 Y109.22 E.89338
G1 X96.672 Y109.682 E.02321
G1 X84.086 Y97.096 E.89338
G1 X84.06 Y97.558 E.02321
G1 X96.646 Y110.144 E.89338
G1 X96.62 Y110.605 E.02321
G1 X84.034 Y98.019 E.89338
G1 X84.008 Y98.481 E.02321
G1 X96.594 Y111.067 E.89337
G1 X96.568 Y111.529 E.02321
G1 X83.982 Y98.943 E.89337
G1 X83.956 Y99.405 E.02321
G1 X96.542 Y111.991 E.89337
G1 X96.516 Y112.452 E.02321
G1 X83.93 Y99.867 E.89337
G1 X83.904 Y100.328 E.02321
G1 X96.49 Y112.914 E.89337
G1 X96.464 Y113.376 E.02321
G1 X83.878 Y100.79 E.89337
G1 X83.852 Y101.252 E.02321
G1 X96.437 Y113.838 E.89336
G1 X96.411 Y114.299 E.02321
G1 X83.826 Y101.714 E.89336
G1 X83.8 Y102.175 E.02321
G1 X96.385 Y114.761 E.89336
G1 X96.359 Y115.223 E.02321
G1 X83.774 Y102.637 E.89336
G1 X83.748 Y103.099 E.02321
G1 X96.333 Y115.685 E.89336
G1 X96.307 Y116.146 E.02321
G1 X83.722 Y103.561 E.89336
G1 X83.696 Y104.022 E.02321
G1 X96.281 Y116.608 E.89335
G1 X96.255 Y117.07 E.02321
G1 X83.669 Y104.484 E.89335
G1 X83.643 Y104.946 E.02321
G1 X96.229 Y117.531 E.89335
G1 X96.203 Y117.993 E.02321
G1 X83.617 Y105.408 E.89335
G1 X83.591 Y105.869 E.02321
G1 X96.177 Y118.455 E.89335
G1 X96.151 Y118.917 E.02321
G1 X83.565 Y106.331 E.89335
G1 X83.539 Y106.793 E.02321
G1 X96.125 Y119.378 E.89334
G1 X96.099 Y119.84 E.02321
G1 X83.513 Y107.255 E.89334
G1 X83.487 Y107.717 E.02321
G1 X96.073 Y120.302 E.89334
G1 X96.047 Y120.764 E.02321
G1 X83.461 Y108.178 E.89334
G1 X83.435 Y108.64 E.02321
G1 X96.02 Y121.225 E.89334
G1 X95.994 Y121.687 E.02321
G1 X83.409 Y109.102 E.89334
G1 X83.383 Y109.564 E.02321
G1 X95.968 Y122.149 E.89333
G1 X95.942 Y122.611 E.02321
G1 X83.357 Y110.025 E.89333
G1 X83.331 Y110.487 E.02321
G1 X95.916 Y123.072 E.89333
G1 X95.89 Y123.534 E.02321
G1 X83.305 Y110.949 E.89333
G1 X83.279 Y111.411 E.02321
G1 X95.864 Y123.996 E.89333
G1 X95.838 Y124.458 E.02321
G1 X83.253 Y111.872 E.89333
G1 X83.227 Y112.334 E.02321
G1 X95.812 Y124.919 E.89332
G1 X95.786 Y125.381 E.02321
G1 X83.201 Y112.796 E.89332
G1 X83.175 Y113.258 E.02321
G1 X95.76 Y125.843 E.89332
G1 X95.734 Y126.305 E.02321
G1 X83.149 Y113.719 E.89332
G1 X83.123 Y114.181 E.02321
G1 X95.708 Y126.766 E.89332
G1 X95.682 Y127.228 E.02321
G1 X83.097 Y114.643 E.89332
G1 X83.071 Y115.105 E.02321
G1 X95.656 Y127.69 E.89331
G1 X95.63 Y128.152 E.02321
G1 X83.044 Y115.567 E.89331
G1 X83.018 Y116.028 E.02321
G1 X95.603 Y128.613 E.89331
G1 X95.577 Y129.075 E.02321
G1 X82.992 Y116.49 E.89331
G1 X82.966 Y116.952 E.02321
G1 X95.551 Y129.537 E.89331
G1 X95.525 Y129.999 E.02321
G1 X82.94 Y117.414 E.89331
G1 X82.914 Y117.875 E.02321
G1 X95.499 Y130.46 E.8933
G1 X95.473 Y130.922 E.02321
G1 X82.888 Y118.337 E.8933
G1 X82.862 Y118.799 E.02321
G1 X95.447 Y131.384 E.8933
G1 X95.421 Y131.845 E.02321
G1 X82.836 Y119.261 E.8933
G1 X82.81 Y119.722 E.02321
G1 X95.395 Y132.307 E.8933
G1 X95.369 Y132.769 E.02321
G1 X82.784 Y120.184 E.8933
G1 X82.758 Y120.646 E.02321
G1 X95.343 Y133.231 E.89329
G1 X95.317 Y133.692 E.02321
G1 X82.732 Y121.108 E.89329
G1 X82.706 Y121.569 E.02321
G1 X95.291 Y134.154 E.89329
G1 X95.265 Y134.616 E.02321
G1 X82.68 Y122.031 E.89329
G1 X82.654 Y122.493 E.02321
M73 P2 R158
G1 X95.239 Y135.078 E.89329
G1 X95.212 Y135.539 E.02321
G1 X82.628 Y122.955 E.89329
G1 X82.602 Y123.417 E.02321
G1 X95.186 Y136.001 E.89328
G1 X95.16 Y136.463 E.02321
G1 X82.576 Y123.878 E.89328
G1 X82.55 Y124.34 E.02321
G1 X95.134 Y136.925 E.89328
G1 X95.108 Y137.386 E.02321
G1 X82.524 Y124.802 E.89328
G1 X82.498 Y125.264 E.02321
G1 X95.082 Y137.848 E.89328
G1 X95.056 Y138.31 E.02321
G1 X82.472 Y125.725 E.89328
G1 X82.446 Y126.187 E.02321
