; generated by PrusaSlicer 2.5.0+win64 on 2022-12-07 at 00:18:11 UTC

; 

; external perimeters extrusion width = 1.00mm
; perimeters extrusion width = 1.00mm
; infill extrusion width = 1.00mm
; solid infill extrusion width = 1.00mm
; top infill extrusion width = 1.00mm
; support material extrusion width = 1.00mm
; first layer extrusion width = 0.42mm

M73 P0 R317
M107
;TYPE:Custom
G90 ; use absolute coordinates
M83 ; extruder relative mode
M140 S60 ; set final bed temp
M104 S150 ; set temporary nozzle temp to prevent oozing during homing and auto bed leveling
G4 S10 ; allow partial nozzle warmup
G28 ; home all axisG1 Z50 F240
G1 X7.6 Y10 F3000
M104 S210 ; set final nozzle temp
M190 S60 ; wait for bed temp to stabilize
M109 S210 ; wait for nozzle temp to stabilize
G1 Z0.28 F240
G92 E0
G1 Y140 E10 F1500 ; prime the nozzle
G1 X4 F5000
G92 E0
G1 Y10 E10 F1200 ; prime the nozzle
G92 E0
G21 ; set units to millimeters
G90 ; use absolute coordinates
M83 ; use relative distances for extrusion
; Filament gcode
M107
;LAYER_CHANGE
;Z:0.35
;HEIGHT:0.35
;BEFORE_LAYER_CHANGE
G92 E0
;0.35


G1 E-1 F3600
G1 Z.35 F7800
;AFTER_LAYER_CHANGE
;0.35
G1 X90.036 Y86.451
G1 E1 F2400
;TYPE:Support material
;WIDTH:0.42
G1 F1800
G1 X86.644 Y86.451 E.17027
G1 X86.644 Y89.844 E.17027
G1 X81.817 Y89.844 E.24221
G1 X86.928 Y76.586 E.71308
G1 X90.036 Y76.586 E.156
G1 X90.036 Y86.399 E.4925
G1 X89.426 Y86.296 F7800
G1 F1800
G1 X89.426 Y76.896 E.47173
G1 X89.043 Y76.896 E.01923
G1 X89.043 Y86.14 E.46394
G1 X88.66 Y86.14 E.01923
G1 X88.66 Y76.896 E.46394
G1 X88.277 Y76.896 E.01923
G1 X88.277 Y86.14 E.46394
G1 X87.893 Y86.14 E.01923
G1 X87.893 Y76.896 E.46394
G1 X87.51 Y76.896 E.01923
G1 X87.51 Y86.14 E.46394
G1 X87.127 Y86.14 E.01923
G1 X87.127 Y76.932 E.46213
G1 X86.744 Y77.927 E.0535
G1 X86.744 Y86.14 E.4122
G1 X86.361 Y86.14 E.01923
G1 X86.361 Y78.922 E.36227
G1 X85.977 Y79.917 E.0535
G1 X85.977 Y89.533 E.48261
G1 X85.594 Y89.533 E.01923
G1 X85.594 Y80.911 E.43269
G1 X85.211 Y81.906 E.0535
G1 X85.211 Y89.533 E.38276
G1 X84.828 Y89.533 E.01923
G1 X84.828 Y82.901 E.33283
G1 X84.445 Y83.896 E.0535
G1 X84.445 Y89.533 E.28291
G1 X84.061 Y89.533 E.01923
G1 X84.061 Y84.891 E.23298
G1 X83.678 Y85.886 E.0535
G1 X83.678 Y89.533 E.18305
G1 X83.295 Y89.533 E.01923
G1 X83.295 Y86.88 E.13313
G1 X82.912 Y87.874 E.05346
G1 X82.912 Y89.533 E.08325
G1 X82.528 Y89.533 E.01923
G1 X82.528 Y88.435 E.05511
G1 E-.7 F3600
;WIPE_START
G1 F6240
G1 X82.528 Y88.955 E-.285
;WIPE_END
G1 E-.015 F3600
G1 X86.644 Y116.985 F7800
G1 E1 F2400
G1 F1800
G1 X83.251 Y116.985 E.17027
G1 X83.251 Y120.378 E.17027
G1 X79.858 Y120.378 E.17027
G1 X79.858 Y127.163 E.34053
G1 X76.465 Y127.163 E.17027
G1 X76.465 Y133.949 E.34053
G1 X73.073 Y133.949 E.17027
G1 X73.073 Y140.734 E.34053
G1 X69.68 Y140.734 E.17027
G1 X69.68 Y147.519 E.34053
G1 X66.287 Y147.519 E.17027
G1 X66.287 Y154.305 E.34053
G1 X62.895 Y154.305 E.17027
G1 X62.895 Y157.698 E.17027
G1 X59.502 Y157.698 E.17027
G1 X59.502 Y167.876 E.5108
G1 X42.851 Y167.876 E.83563
G1 X42.851 Y164.085 E.19023
G1 X46.776 Y164.085 E.19699
G1 X47.116 Y163.88 E.0199
G1 X65.396 Y128.902 E1.98065
G1 X66.931 Y124.984 E.2112
G1 X67.735 Y123.444 E.08719
G1 X68.101 Y123.586 E.01975
G1 X69.373 Y120.304 E.17665
G1 X71.91 Y115.418 E.27627
G1 X76.447 Y103.727 E.62935
G1 X76.778 Y103.727 E.0166
G1 X76.778 Y102.872 E.04293
G1 X77.76 Y100.335 E.13653
G1 X86.644 Y100.335 E.44584
G1 X86.644 Y116.933 E.83303
G1 X85.977 Y116.83 F7800
G1 F1800
G1 X85.977 Y100.645 E.81226
G1 X85.594 Y100.645 E.01923
G1 X85.594 Y116.675 E.80447
G1 X85.211 Y116.675 E.01923
G1 X85.211 Y100.645 E.80447
G1 X84.828 Y100.645 E.01923
G1 X84.828 Y116.675 E.80447
G1 X84.445 Y116.675 E.01923
G1 X84.445 Y100.645 E.80447
G1 X84.061 Y100.645 E.01923
G1 X84.061 Y116.675 E.80447
G1 X83.678 Y116.675 E.01923
G1 X83.678 Y100.645 E.80447
G1 X83.295 Y100.645 E.01923
G1 X83.295 Y116.675 E.80447
G1 X82.94 Y116.675 E.01779
G1 X82.94 Y120.067 E.17027
G1 X82.912 Y120.067 E.00144
G1 X82.912 Y100.645 E.97474
G1 X82.528 Y100.645 E.01923
G1 X82.528 Y120.067 E.97474
G1 X82.145 Y120.067 E.01923
G1 X82.145 Y100.645 E.97474
G1 X81.762 Y100.645 E.01923
G1 X81.762 Y120.067 E.97474
G1 X81.379 Y120.067 E.01923
G1 X81.379 Y100.645 E.97474
G1 X80.996 Y100.645 E.01923
G1 X80.996 Y120.067 E.97474
G1 X80.612 Y120.067 E.01923
G1 X80.612 Y100.645 E.97474
G1 X80.229 Y100.645 E.01923
G1 X80.229 Y120.067 E.97474
G1 X79.846 Y120.067 E.01923
G1 X79.846 Y100.645 E.97474
G1 X79.463 Y100.645 E.01923
G1 X79.463 Y126.853 E1.31527
G1 X79.08 Y126.853 E.01923
G1 X79.08 Y100.645 E1.31527
G1 X78.696 Y100.645 E.01923
G1 X78.696 Y126.853 E1.31527
G1 X78.313 Y126.853 E.01923
G1 X78.313 Y100.645 E1.31527
G1 X77.972 Y100.645 E.0171
G1 X77.93 Y100.755 E.00591
G1 X77.93 Y126.853 E1.30975
G1 X77.547 Y126.853 E.01923
G1 X77.547 Y101.746 E1.26003
G1 X77.164 Y102.736 E.05331
G1 X77.164 Y126.853 E1.21031
G1 X76.78 Y126.853 E.01923
G1 X76.78 Y104.038 E1.145
G1 X76.66 Y104.038 E.00603
G1 X76.397 Y104.716 E.03654
G1 X76.397 Y126.853 E1.11093
G1 X76.155 Y126.853 E.01215
G1 X76.155 Y133.638 E.34053
G1 X76.014 Y133.638 E.00708
G1 X76.014 Y105.704 E1.40192
G1 X75.631 Y106.691 E.05314
G1 X75.631 Y133.638 E1.35238
G1 X75.247 Y133.638 E.01923
G1 X75.247 Y107.678 E1.30284
G1 X74.864 Y108.665 E.05314
G1 X74.864 Y133.638 E1.25329
G1 X74.481 Y133.638 E.01923
G1 X74.481 Y109.652 E1.20375
G1 X74.098 Y110.64 E.05314
G1 X74.098 Y133.638 E1.15421
G1 X73.715 Y133.638 E.01923
G1 X73.715 Y111.627 E1.10467
G1 X73.331 Y112.614 E.05314
G1 X73.331 Y133.638 E1.05512
G1 X72.948 Y133.638 E.01923
G1 X72.948 Y113.601 E1.00558
G1 X72.565 Y114.588 E.05314
G1 X72.565 Y140.424 E1.29657
G1 X72.182 Y140.424 E.01923
G1 X72.182 Y115.57 E1.24729
G1 X71.799 Y116.31 E.04181
G1 X71.799 Y140.424 E1.21016
G1 X71.415 Y140.424 E.01923
G1 X71.415 Y117.047 E1.17316
G1 X71.032 Y117.785 E.04171
M73 P0 R316
G1 X71.032 Y140.424 E1.13615
G1 X70.649 Y140.424 E.01923
G1 X70.649 Y118.522 E1.09914
G1 X70.266 Y119.26 E.04171
G1 X70.266 Y140.424 E1.06213
G1 X69.883 Y140.424 E.01923
G1 X69.883 Y119.997 E1.02512
G1 X69.657 Y120.432 E.02458
G1 X69.499 Y120.838 E.02185
G1 X69.499 Y140.424 E.98294
G1 X69.37 Y140.424 E.00651
G1 X69.37 Y147.209 E.34053
G1 X69.116 Y147.209 E.01272
G1 X69.116 Y121.826 E1.27384
G1 X68.733 Y122.815 E.05322
G1 X68.733 Y147.209 E1.22422
G1 X68.35 Y147.209 E.01923
G1 X68.35 Y123.804 E1.1746
G1 X68.279 Y123.987 E.00986
G1 X67.966 Y123.866 E.0168
G1 X67.966 Y147.209 E1.17148
G1 X67.583 Y147.209 E.01923
G1 X67.583 Y124.404 E1.14447
G1 X67.2 Y125.148 E.04199
G1 X67.2 Y147.209 E1.10714
G1 X66.817 Y147.209 E.01923
G1 X66.817 Y126.137 E1.0575
G1 X66.434 Y127.127 E.05324
G1 X66.434 Y147.209 E1.00785
G1 X66.05 Y147.209 E.01923
G1 X66.05 Y128.104 E.95878
G1 X65.667 Y129.053 E.05136
G1 X65.667 Y153.994 E1.25169
G1 X65.284 Y153.994 E.01923
G1 X65.284 Y129.789 E1.21478
G1 X64.901 Y130.524 E.04162
G1 X64.901 Y153.994 E1.17788
G1 X64.518 Y153.994 E.01923
G1 X64.518 Y131.26 E1.14097
G1 X64.134 Y131.995 E.04161
G1 X64.134 Y153.994 E1.10407
G1 X63.751 Y153.994 E.01923
G1 X63.751 Y132.73 E1.06717
G1 X63.368 Y133.465 E.04159
G1 X63.368 Y153.994 E1.03029
G1 X62.985 Y153.994 E.01923
G1 X62.985 Y134.198 E.99351
G1 X62.602 Y134.931 E.04151
G1 X62.602 Y153.994 E.95673
G1 X62.584 Y153.994 E.00087
G1 X62.584 Y157.387 E.17027
G1 X62.218 Y157.387 E.01836
G1 X62.218 Y135.664 E1.09021
G1 X61.835 Y136.397 E.04151
G1 X61.835 Y157.387 E1.05343
G1 X61.452 Y157.387 E.01923
G1 X61.452 Y137.13 E1.01664
G1 X61.069 Y137.862 E.04151
G1 X61.069 Y157.387 E.97986
G1 X60.685 Y157.387 E.01923
G1 X60.685 Y138.595 E.94308
G1 X60.302 Y139.328 E.04151
G1 X60.302 Y157.387 E.9063
G1 X59.919 Y157.387 E.01923
G1 X59.919 Y140.061 E.86951
G1 X59.536 Y140.794 E.04151
G1 X59.536 Y157.387 E.83273
G1 X59.192 Y157.387 E.01728
G1 X59.192 Y167.565 E.5108
G1 X59.153 Y167.565 E.00195
G1 X59.153 Y141.527 E1.30674
G1 X58.769 Y142.26 E.04151
G1 X58.769 Y167.565 E1.26996
G1 X58.386 Y167.565 E.01923
G1 X58.386 Y142.993 E1.23318
G1 X58.003 Y143.726 E.04151
G1 X58.003 Y167.565 E1.19639
G1 X57.62 Y167.565 E.01923
G1 X57.62 Y144.459 E1.15961
G1 X57.237 Y145.192 E.04151
G1 X57.237 Y167.565 E1.12283
G1 X56.853 Y167.565 E.01923
G1 X56.853 Y145.925 E1.08604
G1 X56.47 Y146.658 E.04151
G1 X56.47 Y167.565 E1.04926
G1 X56.087 Y167.565 E.01923
G1 X56.087 Y147.391 E1.01248
G1 X55.704 Y148.124 E.04151
G1 X55.704 Y167.565 E.97569
G1 X55.321 Y167.565 E.01923
G1 X55.321 Y148.857 E.93891
G1 X54.937 Y149.589 E.04151
G1 X54.937 Y167.565 E.90213
G1 X54.554 Y167.565 E.01923
G1 X54.554 Y150.322 E.86535
G1 X54.171 Y151.055 E.04151
G1 X54.171 Y167.565 E.82856
G1 X53.788 Y167.565 E.01923
G1 X53.788 Y151.788 E.79178
G1 X53.404 Y152.521 E.04151
G1 X53.404 Y167.565 E.755
G1 X53.021 Y167.565 E.01923
G1 X53.021 Y153.254 E.71821
G1 X52.638 Y153.987 E.04151
G1 X52.638 Y167.565 E.68143
G1 X52.255 Y167.565 E.01923
G1 X52.255 Y154.72 E.64465
G1 X51.872 Y155.453 E.04151
G1 X51.872 Y167.565 E.60786
G1 X51.488 Y167.565 E.01923
G1 X51.488 Y156.186 E.57108
G1 X51.105 Y156.919 E.04151
G1 X51.105 Y167.565 E.5343
G1 X50.722 Y167.565 E.01923
G1 X50.722 Y157.652 E.49751
G1 X50.339 Y158.385 E.04151
G1 X50.339 Y167.565 E.46073
G1 X49.956 Y167.565 E.01923
G1 X49.956 Y159.118 E.42395
G1 X49.572 Y159.851 E.04151
G1 X49.572 Y167.565 E.38716
G1 X49.189 Y167.565 E.01923
G1 X49.189 Y160.584 E.35038
G1 X48.806 Y161.316 E.04151
G1 X48.806 Y167.565 E.3136
G1 X48.423 Y167.565 E.01923
G1 X48.423 Y162.049 E.27682
G1 X48.04 Y162.782 E.04151
G1 X48.04 Y167.565 E.24003
G1 X47.656 Y167.565 E.01923
G1 X47.656 Y163.515 E.20325
G1 X47.35 Y164.1 E.03313
G1 X47.273 Y164.147 E.00454
G1 X47.273 Y167.565 E.17154
G1 X46.89 Y167.565 E.01923
G1 X46.89 Y164.379 E.15989
G1 X46.863 Y164.395 E.00157
G1 X46.507 Y164.395 E.01789
G1 X46.507 Y167.565 E.15908
G1 X46.124 Y167.565 E.01923
G1 X46.124 Y164.395 E.15908
G1 X45.74 Y164.395 E.01923
G1 X45.74 Y167.565 E.15908
G1 X45.357 Y167.565 E.01923
G1 X45.357 Y164.395 E.15908
G1 X44.974 Y164.395 E.01923
G1 X44.974 Y167.565 E.15908
G1 X44.591 Y167.565 E.01923
G1 X44.591 Y164.395 E.15908
G1 X44.207 Y164.395 E.01923
G1 X44.207 Y167.565 E.15908
G1 X43.824 Y167.565 E.01923
G1 X43.824 Y164.395 E.15908
G1 X43.441 Y164.395 E.01923
G1 X43.441 Y167.72 E.16687
G1 E-.7 F3600
;WIPE_START
G1 F6240
G1 X43.441 Y167.2 E-.285
;WIPE_END
G1 E-.015 F3600
G1 X154.498 Y167.876 F7800
G1 E1 F2400
G1 F1800
G1 X100.527 Y167.876 E2.70855
G1 X100.527 Y151.225 E.83563
G1 X103.92 Y151.225 E.17027
G1 X103.92 Y147.832 E.17027
G1 X107.313 Y147.832 E.17027
G1 X107.313 Y144.44 E.17027
G1 X110.705 Y144.44 E.17027
G1 X110.705 Y140.734 E.18597
G1 X103.92 Y140.734 E.34053
G1 X103.92 Y127.476 E.66536
G1 X107.313 Y127.476 E.17027
G1 X107.313 Y120.691 E.34053
G1 X110.705 Y120.691 E.17027
G1 X110.705 Y107.12 E.68106
G1 X114.098 Y107.12 E.17027
G1 X114.098 Y86.764 E1.02159
G1 X117.491 Y86.764 E.17027
G1 X117.491 Y73.193 E.68106
G1 X120.883 Y73.193 E.17027
G1 X120.883 Y56.229 E.85133
G1 X124.276 Y56.229 E.17027
G1 X124.276 Y39.266 E.85133
G1 X127.669 Y39.266 E.17027
G1 X127.669 Y18.91 E1.02159
G1 X131.062 Y18.91 E.17027
G1 X131.062 Y12.124 E.34053
G1 X154.498 Y12.124 E1.17616
G1 X154.498 Y167.824 E7.81392
G1 X153.806 Y167.72 F7800
M73 P0 R315
G1 F1800
G1 X153.806 Y12.435 E7.79315
G1 X153.422 Y12.435 E.01923
G1 X153.422 Y167.565 E7.78536
G1 X153.039 Y167.565 E.01923
G1 X153.039 Y12.435 E7.78536
G1 X152.656 Y12.435 E.01923
G1 X152.656 Y167.565 E7.78536
G1 X152.273 Y167.565 E.01923
G1 X152.273 Y12.435 E7.78536
G1 X151.889 Y12.435 E.01923
G1 X151.889 Y167.565 E7.78536
G1 X151.506 Y167.565 E.01923
G1 X151.506 Y12.435 E7.78536
G1 X151.123 Y12.435 E.01923
G1 X151.123 Y167.565 E7.78536
G1 X150.74 Y167.565 E.01923
G1 X150.74 Y12.435 E7.78536
G1 X150.357 Y12.435 E.01923
G1 X150.357 Y167.565 E7.78536
G1 X149.973 Y167.565 E.01923
G1 X149.973 Y12.435 E7.78536
G1 X149.59 Y12.435 E.01923
G1 X149.59 Y167.565 E7.78536
G1 X149.207 Y167.565 E.01923
M73 P0 R314
G1 X149.207 Y12.435 E7.78536
G1 X148.824 Y12.435 E.01923
G1 X148.824 Y167.565 E7.78536
G1 X148.441 Y167.565 E.01923
M73 P1 R314
G1 X148.441 Y12.435 E7.78536
G1 X148.057 Y12.435 E.01923
G1 X148.057 Y167.565 E7.78536
G1 X147.674 Y167.565 E.01923
G1 X147.674 Y12.435 E7.78536
G1 X147.291 Y12.435 E.01923
G1 X147.291 Y167.565 E7.78536
G1 X146.908 Y167.565 E.01923
G1 X146.908 Y12.435 E7.78536
G1 X146.525 Y12.435 E.01923
G1 X146.525 Y167.565 E7.78536
G1 X146.141 Y167.565 E.01923
G1 X146.141 Y12.435 E7.78536
G1 X145.758 Y12.435 E.01923
G1 X145.758 Y167.565 E7.78536
G1 X145.375 Y167.565 E.01923
G1 X145.375 Y12.435 E7.78536
G1 X144.992 Y12.435 E.01923
M73 P1 R313
G1 X144.992 Y167.565 E7.78536
G1 X144.608 Y167.565 E.01923
G1 X144.608 Y12.435 E7.78536
G1 X144.225 Y12.435 E.01923
G1 X144.225 Y167.565 E7.78536
G1 X143.842 Y167.565 E.01923
G1 X143.842 Y12.435 E7.78536
G1 X143.459 Y12.435 E.01923
G1 X143.459 Y167.565 E7.78536
G1 X143.076 Y167.565 E.01923
G1 X143.076 Y12.435 E7.78536
G1 X142.692 Y12.435 E.01923
G1 X142.692 Y167.565 E7.78536
G1 X142.309 Y167.565 E.01923
G1 X142.309 Y12.435 E7.78536
G1 X141.926 Y12.435 E.01923
G1 X141.926 Y167.565 E7.78536
G1 X141.543 Y167.565 E.01923
G1 X141.543 Y12.435 E7.78536
G1 X141.16 Y12.435 E.01923
G1 X141.16 Y167.565 E7.78536
G1 X140.776 Y167.565 E.01923
G1 X140.776 Y12.435 E7.78536
G1 X140.393 Y12.435 E.01923
M73 P1 R312
G1 X140.393 Y167.565 E7.78536
G1 X140.01 Y167.565 E.01923
G1 X140.01 Y12.435 E7.78536
G1 X139.627 Y12.435 E.01923
G1 X139.627 Y167.565 E7.78536
G1 X139.244 Y167.565 E.01923
G1 X139.244 Y12.435 E7.78536
G1 X138.86 Y12.435 E.01923
G1 X138.86 Y167.565 E7.78536
G1 X138.477 Y167.565 E.01923
G1 X138.477 Y12.435 E7.78536
G1 X138.094 Y12.435 E.01923
G1 X138.094 Y167.565 E7.78536
G1 X137.711 Y167.565 E.01923
G1 X137.711 Y12.435 E7.78536
G1 X137.328 Y12.435 E.01923
G1 X137.327 Y167.565 E7.78536
G1 X136.944 Y167.565 E.01923
G1 X136.944 Y12.435 E7.78536
G1 X136.561 Y12.435 E.01923
G1 X136.561 Y167.565 E7.78536
G1 X136.178 Y167.565 E.01923
M73 P1 R311
G1 X136.178 Y12.435 E7.78536
G1 X135.795 Y12.435 E.01923
G1 X135.795 Y167.565 E7.78536
G1 X135.411 Y167.565 E.01923
G1 X135.411 Y12.435 E7.78536
G1 X135.028 Y12.435 E.01923
G1 X135.028 Y167.565 E7.78536
G1 X134.645 Y167.565 E.01923
M73 P2 R311
G1 X134.645 Y12.435 E7.78536
G1 X134.262 Y12.435 E.01923
G1 X134.262 Y167.565 E7.78536
G1 X133.879 Y167.565 E.01923
G1 X133.879 Y12.435 E7.78536
G1 X133.495 Y12.435 E.01923
G1 X133.495 Y167.565 E7.78536
G1 X133.112 Y167.565 E.01923
G1 X133.112 Y12.435 E7.78536
G1 X132.729 Y12.435 E.01923
G1 X132.729 Y167.565 E7.78536
G1 X132.346 Y167.565 E.01923
G1 X132.346 Y12.435 E7.78536
G1 X131.963 Y12.435 E.01923
G1 X131.963 Y167.565 E7.78536
G1 X131.579 Y167.565 E.01923
M73 P2 R310
G1 X131.579 Y12.435 E7.78536
G1 X131.372 Y12.435 E.01041
G1 X131.372 Y19.22 E.34053
G1 X131.196 Y19.22 E.00882
G1 X131.196 Y167.565 E7.44483
G1 X130.813 Y167.565 E.01923
G1 X130.813 Y19.22 E7.44483
G1 X130.43 Y19.22 E.01923
G1 X130.43 Y167.565 E7.44483
G1 X130.046 Y167.565 E.01923
G1 X130.047 Y19.22 E7.44483
G1 X129.663 Y19.22 E.01923
G1 X129.663 Y167.565 E7.44483
G1 X129.28 Y167.565 E.01923
G1 X129.28 Y19.22 E7.44483
G1 X128.897 Y19.22 E.01923
G1 X128.897 Y167.565 E7.44483
G1 X128.514 Y167.565 E.01923
G1 X128.514 Y19.22 E7.44483
G1 X128.13 Y19.22 E.01923
G1 X128.13 Y167.565 E7.44483
G1 X127.747 Y167.565 E.01923
G1 X127.747 Y39.576 E6.42324
G1 X127.364 Y39.576 E.01923
G1 X127.364 Y167.565 E6.42324
G1 X126.981 Y167.565 E.01923
M73 P2 R309
G1 X126.981 Y39.576 E6.42324
G1 X126.598 Y39.576 E.01923
G1 X126.598 Y167.565 E6.42324
G1 X126.214 Y167.565 E.01923
G1 X126.214 Y39.576 E6.42324
G1 X125.831 Y39.576 E.01923
G1 X125.831 Y167.565 E6.42324
G1 X125.448 Y167.565 E.01923
G1 X125.448 Y39.576 E6.42324
G1 X125.065 Y39.576 E.01923
G1 X125.065 Y167.565 E6.42324
G1 X124.682 Y167.565 E.01923
G1 X124.682 Y39.576 E6.42324
G1 X124.587 Y39.576 E.00477
G1 X124.587 Y56.54 E.85133
G1 X124.298 Y56.54 E.01446
G1 X124.298 Y167.565 E5.57191
G1 X123.915 Y167.565 E.01923
G1 X123.915 Y56.54 E5.57191
G1 X123.532 Y56.54 E.01923
G1 X123.532 Y167.565 E5.57191
G1 X123.149 Y167.565 E.01923
G1 X123.149 Y56.54 E5.57191
