; generated by PrusaSlicer 2.5.0+win64 on 2022-12-07 at 00:18:23 UTC

; 

; external perimeters extrusion width = 1.00mm
; perimeters extrusion width = 1.00mm
; infill extrusion width = 1.00mm
; solid infill extrusion width = 1.00mm
; top infill extrusion width = 1.00mm
; support material extrusion width = 1.00mm
; first layer extrusion width = 0.42mm

M73 P0 R61
M107
;TYPE:Custom
G90 ; use absolute coordinates
M83 ; extruder relative mode
M140 S60 ; set final bed temp
M104 S150 ; set temporary nozzle temp to prevent oozing during homing and auto bed leveling
G4 S10 ; allow partial nozzle warmup
G28 ; home all axisG1 Z50 F240
G1 X7.6 Y10 F3000
M104 S210 ; set final nozzle temp
M190 S60 ; wait for bed temp to stabilize
M109 S210 ; wait for nozzle temp to stabilize
G1 Z0.28 F240
G92 E0
G1 Y140 E10 F1500 ; prime the nozzle
G1 X4 F5000
G92 E0
G1 Y10 E10 F1200 ; prime the nozzle
G92 E0
G21 ; set units to millimeters
G90 ; use absolute coordinates
M83 ; use relative distances for extrusion
; Filament gcode
M107
;LAYER_CHANGE
;Z:0.35
;HEIGHT:0.35
;BEFORE_LAYER_CHANGE
G92 E0
;0.35


G1 E-1 F3600
G1 Z.35 F7800
;AFTER_LAYER_CHANGE
;0.35
G1 X93.794 Y162.819
G1 E1 F2400
;TYPE:Perimeter
;WIDTH:0.42
G1 F1800
G1 X86.047 Y162.819 E.38883
G1 X86.047 Y125.097 E1.89313
;WIDTH:0.461675
G1 X86.068 Y124.847 E.01407
;WIDTH:0.503351
G1 X86.088 Y124.598 E.01559
;WIDTH:0.545027
G1 X86.109 Y124.349 E.01711
;WIDTH:0.586703
G1 X86.13 Y124.099 E.01862
G1 X86.106 Y123.466 E.04718
;WIDTH:0.539375
G1 X86.083 Y122.833 E.04282
;WIDTH:0.536699
G1 X86.105 Y122.667 E.01126
;WIDTH:0.581351
G1 X86.127 Y122.5 E.01235
;WIDTH:0.626002
G1 X86.15 Y122.334 E.01344
;WIDTH:0.670654
G1 X86.172 Y122.168 E.01453
;WIDTH:0.715305
G1 X86.194 Y122.002 E.01562
;WIDTH:0.759957
G1 X86.217 Y121.835 E.01671
G1 X86.264 Y121.997 E.01671
;WIDTH:0.715305
G1 X86.31 Y122.158 E.01562
;WIDTH:0.670654
G1 X86.357 Y122.319 E.01453
;WIDTH:0.626002
G1 X86.404 Y122.48 E.01344
;WIDTH:0.581351
G1 X86.451 Y122.641 E.01235
;WIDTH:0.536699
G1 X86.497 Y122.802 E.01126
;WIDTH:0.539375
G1 X86.568 Y123.432 E.04282
;WIDTH:0.586703
G1 X86.639 Y124.061 E.04718
G1 X86.697 Y124.305 E.01862
;WIDTH:0.545027
G1 X86.754 Y124.548 E.01711
;WIDTH:0.503351
G1 X86.812 Y124.792 E.01559
;WIDTH:0.461675
G1 X86.869 Y125.035 E.01407
;WIDTH:0.42
G1 X89.803 Y144.556 E.99065
G1 X93.762 Y162.673 E.93067
G1 X94.223 Y163.164 F7800
;TYPE:External perimeter
G1 F1800
G1 X85.702 Y163.164 E.42763
G1 X85.702 Y120.525 E2.13988
;WIDTH:0.462494
G1 X85.723 Y120.276 E.0141
;WIDTH:0.504989
G1 X85.744 Y120.026 E.01565
;WIDTH:0.547483
G1 X85.766 Y119.777 E.0172
;WIDTH:0.589978
G1 X85.787 Y119.528 E.01875
G1 X85.762 Y118.872 E.04913
;WIDTH:0.541012
G1 X85.738 Y118.217 E.04446
;WIDTH:0.536698
G1 X85.76 Y118.051 E.01126
;WIDTH:0.581349
G1 X85.783 Y117.885 E.01235
;WIDTH:0.626
G1 X85.805 Y117.718 E.01344
;WIDTH:0.670651
G1 X85.827 Y117.552 E.01453
;WIDTH:0.715302
G1 X85.85 Y117.386 E.01562
;WIDTH:0.759953
G1 X85.872 Y117.22 E.01671
G1 X85.919 Y117.381 E.01671
;WIDTH:0.715302
G1 X85.965 Y117.542 E.01562
;WIDTH:0.670651
G1 X86.012 Y117.703 E.01453
;WIDTH:0.626
G1 X86.059 Y117.864 E.01344
;WIDTH:0.581349
G1 X86.106 Y118.025 E.01235
;WIDTH:0.536698
G1 X86.153 Y118.186 E.01126
;WIDTH:0.541012
G1 X86.226 Y118.838 E.04446
;WIDTH:0.589978
G1 X86.299 Y119.489 E.04913
G1 X86.357 Y119.733 E.01875
;WIDTH:0.547483
G1 X86.415 Y119.976 E.0172
;WIDTH:0.504989
G1 X86.473 Y120.22 E.01565
;WIDTH:0.462494
G1 X86.531 Y120.463 E.0141
;WIDTH:0.42
G1 X87.211 Y124.984 E.22944
G1 X90.144 Y144.504 E.99065
G1 X94.191 Y163.017 E.95103
G1 X93.328 Y162.717 F7800
G1 E-.7 F3600
;WIPE_START
G1 F6240
G1 X93.671 Y163.026 E-.285
;WIPE_END
G1 E-.015 F3600
G1 X86.119 Y120.525 F7800
G1 E1 F2400
;TYPE:Perimeter
;WIDTH:0.613062
G1 F1800
G1 X86.143 Y120.853 E.02572
;WIDTH:0.662027
G1 X86.168 Y121.18 E.02806
;WIDTH:0.710992
G1 X86.192 Y121.508 E.0304
;WIDTH:0.759957
G1 X86.217 Y121.835 E.03274
G1 E-.7 F3600
;WIPE_START
G1 F6240
G1 X86.192 Y121.508 E-.18008
G1 X86.178 Y121.317 E-.10492
;WIPE_END
G1 E-.015 F3600
G1 X85.655 Y114.32 F7800
G1 E1 F2400
;TYPE:External perimeter
;WIDTH:0.925111
G1 F1800
G1 X85.709 Y115.045 E.08992
;WIDTH:0.883821
G1 X85.764 Y115.77 E.08555
;WIDTH:0.842532
G1 X85.818 Y116.495 E.08118
;WIDTH:0.801242
G1 X85.872 Y117.22 E.07681
G1 E-.7 F3600
;WIPE_START
G1 F6240
G1 X85.833 Y116.701 E-.285
;WIPE_END
G1 E-.015 F3600
G1 X86.809 Y125.326 F7800
G1 E1 F2400
;TYPE:Solid infill
;WIDTH:0.422575
G1 F1800
G1 X86.346 Y124.863 E.0331
G1 X86.305 Y125.104 E.01234
G1 X86.305 Y125.314 E.01064
G1 X86.711 Y125.72 E.02899
G1 X86.798 Y126.298 E.02957
G1 X86.305 Y125.806 E.0352
G1 X86.305 Y126.297 E.02484
G1 X86.885 Y126.876 E.04142
G1 X86.972 Y127.455 E.02957
G1 X86.305 Y126.788 E.04763
G1 X86.305 Y127.28 E.02484
G1 X87.058 Y128.033 E.05385
G1 X87.145 Y128.611 E.02957
G1 X86.305 Y127.771 E.06006
G1 X86.305 Y128.263 E.02484
G1 X87.232 Y129.189 E.06628
G1 X87.319 Y129.768 E.02957
G1 X86.305 Y128.754 E.07249
G1 X86.305 Y129.245 E.02484
G1 X87.406 Y130.346 E.0787
G1 X87.493 Y130.924 E.02957
G1 X86.305 Y129.737 E.08492
G1 X86.305 Y130.228 E.02484
G1 X87.58 Y131.503 E.09113
G1 X87.667 Y132.081 E.02957
G1 X86.305 Y130.719 E.09735
G1 X86.305 Y131.211 E.02484
G1 X87.754 Y132.659 E.10356
G1 X87.841 Y133.238 E.02957
G1 X86.305 Y131.702 E.10978
G1 X86.305 Y132.194 E.02484
G1 X87.928 Y133.816 E.11599
G1 X88.015 Y134.394 E.02957
G1 X86.305 Y132.685 E.12221
G1 X86.305 Y133.176 E.02484
G1 X88.101 Y134.972 E.12842
G1 X88.188 Y135.551 E.02957
G1 X86.305 Y133.668 E.13464
G1 X86.305 Y134.159 E.02484
G1 X88.275 Y136.129 E.14085
G1 X88.362 Y136.707 E.02957
G1 X86.305 Y134.651 E.14707
G1 X86.305 Y135.142 E.02484
G1 X88.449 Y137.286 E.15328
G1 X88.536 Y137.864 E.02957
G1 X86.305 Y135.633 E.1595
G1 X86.305 Y136.125 E.02484
G1 X88.623 Y138.442 E.16571
G1 X88.71 Y139.021 E.02957
G1 X86.305 Y136.616 E.17193
G1 X86.305 Y137.108 E.02484
G1 X88.797 Y139.599 E.17814
G1 X88.884 Y140.177 E.02957
G1 X86.305 Y137.599 E.18435
G1 X86.305 Y138.09 E.02484
G1 X88.971 Y140.755 E.19057
G1 X89.058 Y141.334 E.02957
G1 X86.305 Y138.582 E.19678
G1 X86.305 Y139.073 E.02484
G1 X89.144 Y141.912 E.203
G1 X89.231 Y142.49 E.02957
G1 X86.305 Y139.564 E.20921
G1 X86.305 Y140.056 E.02484
G1 X89.318 Y143.069 E.21543
G1 X89.405 Y143.647 E.02957
G1 X86.305 Y140.547 E.22164
G1 X86.305 Y141.039 E.02484
G1 X89.492 Y144.225 E.22786
G1 X89.596 Y144.82 E.03053
G1 X86.305 Y141.53 E.23526
G1 X86.305 Y142.021 E.02484
G1 X89.733 Y145.449 E.24509
G1 X89.871 Y146.078 E.03254
G1 X86.305 Y142.513 E.25492
G1 X86.305 Y143.004 E.02484
G1 X90.008 Y146.707 E.26474
G1 X90.145 Y147.336 E.03254
G1 X86.305 Y143.496 E.27457
G1 X86.305 Y143.987 E.02484
G1 X90.283 Y147.964 E.2844
G1 X90.42 Y148.593 E.03254
G1 X86.305 Y144.478 E.29423
G1 X86.305 Y144.97 E.02484
G1 X90.558 Y149.222 E.30406
G1 X90.695 Y149.851 E.03254
G1 X86.305 Y145.461 E.31388
G1 X86.305 Y145.953 E.02484
G1 X90.833 Y150.48 E.32371
G1 X90.97 Y151.109 E.03254
G1 X86.305 Y146.444 E.33354
G1 X86.305 Y146.935 E.02484
G1 X91.108 Y151.737 E.34337
G1 X91.245 Y152.366 E.03254
G1 X86.305 Y147.427 E.3532
G1 X86.305 Y147.918 E.02484
G1 X91.382 Y152.995 E.36302
G1 X91.52 Y153.624 E.03254
G1 X86.305 Y148.409 E.37285
G1 X86.305 Y148.901 E.02484
G1 X91.657 Y154.253 E.38268
G1 X91.795 Y154.882 E.03254
G1 X86.305 Y149.392 E.39251
G1 X86.305 Y149.884 E.02484
G1 X91.932 Y155.51 E.40234
G1 X92.07 Y156.139 E.03254
G1 X86.305 Y150.375 E.41216
G1 X86.305 Y150.866 E.02484
G1 X92.207 Y156.768 E.42199
G1 X92.345 Y157.397 E.03254
G1 X86.305 Y151.358 E.43182
G1 X86.305 Y151.849 E.02484
G1 X92.482 Y158.026 E.44165
G1 X92.619 Y158.655 E.03254
G1 X86.305 Y152.341 E.45148
G1 X86.305 Y152.832 E.02484
G1 X92.757 Y159.283 E.4613
G1 X92.894 Y159.912 E.03254
G1 X86.305 Y153.323 E.47113
G1 X86.305 Y153.815 E.02484
G1 X93.032 Y160.541 E.48096
G1 X93.169 Y161.17 E.03254
G1 X86.305 Y154.306 E.49079
G1 X86.305 Y154.798 E.02484
G1 X93.307 Y161.799 E.50062
G1 X93.444 Y162.428 E.03254
G1 X86.305 Y155.289 E.51044
G1 X86.305 Y155.78 E.02484
G1 X93.086 Y162.56 E.48481
G1 X92.594 Y162.56 E.02484
G1 X86.305 Y156.272 E.44967
G1 X86.305 Y156.763 E.02484
G1 X92.103 Y162.56 E.41453
M73 P1 R61
G1 X91.611 Y162.56 E.02484
G1 X86.305 Y157.254 E.3794
G1 X86.305 Y157.746 E.02484
G1 X91.12 Y162.56 E.34426
G1 X90.629 Y162.56 E.02484
G1 X86.305 Y158.237 E.30913
G1 X86.305 Y158.729 E.02484
G1 X90.137 Y162.56 E.27399
G1 X89.646 Y162.56 E.02484
G1 X86.305 Y159.22 E.23886
G1 X86.305 Y159.711 E.02484
G1 X89.154 Y162.56 E.20372
G1 X88.663 Y162.56 E.02484
M73 P1 R60
G1 X86.305 Y160.203 E.16858
G1 X86.305 Y160.694 E.02484
G1 X88.172 Y162.56 E.13345
G1 X87.68 Y162.56 E.02484
G1 X86.305 Y161.186 E.09831
G1 X86.305 Y161.677 E.02484
G1 X87.189 Y162.56 E.06318
G1 X86.698 Y162.56 E.02484
G1 X86.15 Y162.013 E.03914
G1 E-.7 F3600
;WIPE_START
G1 F6240
G1 X86.518 Y162.381 E-.285
;WIPE_END
G1 E-.015 F3600
G1 X85.655 Y104.495 F7800
G1 E1 F2400
;TYPE:External perimeter
;WIDTH:0.925111
G1 F1800
G1 X85.709 Y103.147 E.16678
;WIDTH:0.883991
G1 X85.764 Y101.8 E.15872
;WIDTH:0.842872
G1 X85.818 Y100.453 E.15065
;WIDTH:0.801752
G1 X85.872 Y99.105 E.14258
G1 E-.7 F3600
;WIPE_START
G1 F6240
G1 X85.851 Y99.625 E-.285
;WIPE_END
G1 E-.015 F3600
G1 X86.217 Y90.554 F7800
G1 E1 F2400
;TYPE:Perimeter
;WIDTH:0.760633
G1 F1800
G1 X86.195 Y90.411 E.0144
;WIDTH:0.717424
G1 X86.174 Y90.269 E.01349
;WIDTH:0.674215
G1 X86.152 Y90.126 E.01259
;WIDTH:0.631006
G1 X86.131 Y89.983 E.01168
;WIDTH:0.587797
G1 X86.109 Y89.84 E.01077
;WIDTH:0.544588
G1 X86.087 Y89.698 E.00986
;WIDTH:0.501379
G1 X86.066 Y89.555 E.00895
;WIDTH:0.501127
G1 X86.087 Y88.49 E.06604
;WIDTH:0.544084
G1 X86.109 Y87.425 E.0727
;WIDTH:0.587041
G1 X86.13 Y86.36 E.07936
G1 X86.109 Y86.11 E.01867
;WIDTH:0.54528
G1 X86.089 Y85.86 E.01715
;WIDTH:0.50352
G1 X86.068 Y85.61 E.01563
;WIDTH:0.46176
G1 X86.047 Y85.36 E.0141
;WIDTH:0.42
G1 X86.047 Y17.181 E3.42164
G1 X92.208 Y17.181 E.30921
G1 X92.03 Y20.343 E.15896
G1 X91.959 Y21.6 E.06315
G1 X86.805 Y85.391 E3.21185
;WIDTH:0.46176
G1 X86.764 Y85.638 E.0141
;WIDTH:0.50352
G1 X86.723 Y85.886 E.01563
;WIDTH:0.54528
G1 X86.682 Y86.133 E.01715
;WIDTH:0.587041
G1 X86.641 Y86.38 E.01867
G1 X86.577 Y87.444 E.07936
;WIDTH:0.544084
G1 X86.513 Y88.507 E.0727
;WIDTH:0.501127
G1 X86.448 Y89.57 E.06604
;WIDTH:0.501379
G1 X86.415 Y89.711 E.00895
;WIDTH:0.544588
G1 X86.382 Y89.851 E.00986
;WIDTH:0.587797
G1 X86.349 Y89.992 E.01077
;WIDTH:0.631006
G1 X86.316 Y90.132 E.01168
;WIDTH:0.674215
G1 X86.283 Y90.273 E.01259
;WIDTH:0.717424
G1 X86.251 Y90.408 E.01297
G1 E-.7 F3600
;WIPE_START
G1 F6240
G1 X86.195 Y90.411 E-.0307
G1 X86.174 Y90.269 E-.07912
G1 X86.152 Y90.126 E-.07912
G1 X86.131 Y89.983 E-.07912
G1 X86.126 Y89.953 E-.01692
;WIPE_END
G1 E-.015 F3600
G1 X85.905 Y98.965 F7800
G1 E1 F2400
;TYPE:External perimeter
;WIDTH:0.760633
G1 F1800
G1 X85.872 Y99.105 E.0144
G1 X85.851 Y98.963 E.0144
;WIDTH:0.717424
G1 X85.829 Y98.82 E.01349
;WIDTH:0.674215
G1 X85.807 Y98.677 E.01259
;WIDTH:0.631006
G1 X85.786 Y98.534 E.01168
;WIDTH:0.587797
G1 X85.764 Y98.392 E.01077
;WIDTH:0.544588
G1 X85.743 Y98.249 E.00986
;WIDTH:0.501379
G1 X85.721 Y98.106 E.00895
;WIDTH:0.502219
G1 X85.743 Y97.014 E.06789
;WIDTH:0.546268
G1 X85.765 Y95.922 E.07489
;WIDTH:0.590317
G1 X85.787 Y94.83 E.0819
G1 X85.766 Y94.58 E.01879
;WIDTH:0.547737
G1 X85.744 Y94.33 E.01724
;WIDTH:0.505158
G1 X85.723 Y94.08 E.01569
;WIDTH:0.462579
G1 X85.702 Y93.831 E.01413
;WIDTH:0.42
G1 X85.702 Y16.836 E3.86403
G1 X92.573 Y16.836 E.34483
G1 X92.374 Y20.363 E.17727
G1 X92.303 Y21.623 E.06336
G1 X86.467 Y93.861 E3.63714
;WIDTH:0.462579
G1 X86.425 Y94.109 E.01414
;WIDTH:0.505158
G1 X86.384 Y94.356 E.01569
;WIDTH:0.547737
G1 X86.343 Y94.603 E.01724
;WIDTH:0.590317
G1 X86.301 Y94.85 E.01879
G1 X86.235 Y95.941 E.0819
;WIDTH:0.546268
G1 X86.169 Y97.031 E.07489
;WIDTH:0.502219
G1 X86.103 Y98.122 E.06789
;WIDTH:0.501379
G1 X86.07 Y98.262 E.00895
;WIDTH:0.544588
G1 X86.037 Y98.403 E.00986
;WIDTH:0.587797
G1 X86.004 Y98.543 E.01077
;WIDTH:0.631006
G1 X85.971 Y98.684 E.01168
;WIDTH:0.674215
G1 X85.94 Y98.819 E.01209
G1 E-.7 F3600
;WIPE_START
G1 F6240
G1 X85.872 Y99.105 E-.16134
G1 X85.851 Y98.963 E-.07912
G1 X85.838 Y98.882 E-.04454
;WIPE_END
G1 E-.015 F3600
G1 X86.085 Y93.831 F7800
G1 E1 F2400
;TYPE:Perimeter
;WIDTH:0.540391
G1 F1800
G1 X86.107 Y93.284 E.037
;WIDTH:0.584439
G1 X86.129 Y92.738 E.04051
;WIDTH:0.628488
G1 X86.151 Y92.192 E.04401
;WIDTH:0.672536
G1 X86.173 Y91.646 E.04751
;WIDTH:0.716584
G1 X86.195 Y91.1 E.05101
;WIDTH:0.760633
G1 X86.217 Y90.554 E.05452
G1 E-.7 F3600
;WIPE_START
G1 F6240
G1 X86.196 Y91.074 E-.285
;WIPE_END
G1 E-.015 F3600
G1 X92.062 Y17.944 F7800
G1 E1 F2400
;TYPE:Solid infill
;WIDTH:0.420078
G1 F1800
G1 X91.558 Y17.44 E.03578
G1 X91.07 Y17.44 E.02449
G1 X91.888 Y18.258 E.05812
G1 X91.862 Y18.72 E.02322
G1 X90.582 Y17.44 E.0909
G1 X90.094 Y17.44 E.02449
G1 X91.836 Y19.182 E.12369
G1 X91.81 Y19.644 E.02322
G1 X89.606 Y17.44 E.15647
G1 X89.118 Y17.44 E.02449
G1 X91.784 Y20.106 E.18926
G1 X91.758 Y20.567 E.02322
G1 X88.63 Y17.44 E.22204
G1 X88.143 Y17.44 E.02449
G1 X91.732 Y21.029 E.25483
G1 X91.706 Y21.491 E.02322
G1 X87.655 Y17.44 E.28761
G1 X87.167 Y17.44 E.02449
G1 X91.672 Y21.944 E.3198
G1 X91.635 Y22.396 E.02273
G1 X86.679 Y17.44 E.35184
G1 X86.305 Y17.44 E.01875
G1 X86.305 Y17.554 E.00574
G1 X91.599 Y22.847 E.37577
G1 X91.562 Y23.299 E.02273
G1 X86.305 Y18.042 E.37318
G1 X86.305 Y18.53 E.02449
G1 X91.526 Y23.75 E.3706
G1 X91.489 Y24.201 E.02273
G1 X86.305 Y19.017 E.36801
G1 X86.305 Y19.505 E.02449
G1 X91.453 Y24.653 E.36542
G1 X91.416 Y25.104 E.02273
G1 X86.305 Y19.993 E.36283
G1 X86.305 Y20.481 E.02449
G1 X91.38 Y25.556 E.36024
G1 X91.343 Y26.007 E.02273
G1 X86.305 Y20.969 E.35765
G1 X86.305 Y21.457 E.02449
G1 X91.307 Y26.458 E.35506
G1 X91.271 Y26.91 E.02273
G1 X86.305 Y21.945 E.35247
G1 X86.305 Y22.432 E.02449
G1 X91.234 Y27.361 E.34988
G1 X91.198 Y27.812 E.02273
G1 X86.305 Y22.92 E.34729
G1 X86.305 Y23.408 E.02449
G1 X91.161 Y28.264 E.34471
G1 X91.125 Y28.715 E.02273
G1 X86.305 Y23.896 E.34212
G1 X86.305 Y24.384 E.02449
G1 X91.088 Y29.167 E.33953
G1 X91.052 Y29.618 E.02273
G1 X86.305 Y24.872 E.33694
G1 X86.305 Y25.36 E.02449
G1 X91.015 Y30.069 E.33435
G1 X90.979 Y30.521 E.02273
G1 X86.305 Y25.847 E.33176
G1 X86.305 Y26.335 E.02449
G1 X90.942 Y30.972 E.32917
G1 X90.906 Y31.424 E.02273
G1 X86.305 Y26.823 E.32658
G1 X86.305 Y27.311 E.02449
G1 X90.869 Y31.875 E.32399
G1 X90.833 Y32.326 E.02273
G1 X86.305 Y27.799 E.32141
G1 X86.305 Y28.287 E.02449
G1 X90.796 Y32.778 E.31882
G1 X90.76 Y33.229 E.02273
G1 X86.305 Y28.775 E.31623
G1 X86.305 Y29.262 E.02449
G1 X90.724 Y33.681 E.31364
G1 X90.687 Y34.132 E.02273
G1 X86.305 Y29.75 E.31105
G1 X86.305 Y30.238 E.02449
G1 X90.651 Y34.583 E.30846
G1 X90.614 Y35.035 E.02273
G1 X86.305 Y30.726 E.30587
G1 X86.305 Y31.214 E.02449
G1 X90.578 Y35.486 E.30328
G1 X90.541 Y35.937 E.02273
G1 X86.305 Y31.702 E.30069
G1 X86.305 Y32.19 E.02449
G1 X90.505 Y36.389 E.2981
G1 X90.468 Y36.84 E.02273
G1 X86.305 Y32.677 E.29552
G1 X86.305 Y33.165 E.02449
G1 X90.432 Y37.292 E.29293
G1 X90.395 Y37.743 E.02273
G1 X86.305 Y33.653 E.29034
G1 X86.305 Y34.141 E.02449
G1 X90.359 Y38.194 E.28775
G1 X90.322 Y38.646 E.02273
G1 X86.305 Y34.629 E.28516
G1 X86.305 Y35.117 E.02449
G1 X90.286 Y39.097 E.28257
G1 X90.249 Y39.549 E.02273
G1 X86.305 Y35.605 E.27998
G1 X86.305 Y36.092 E.02449
G1 X90.213 Y40 E.27739
G1 X90.176 Y40.451 E.02273
G1 X86.305 Y36.58 E.2748
G1 X86.305 Y37.068 E.02449
G1 X90.14 Y40.903 E.27222
G1 X90.104 Y41.354 E.02273
G1 X86.305 Y37.556 E.26963
G1 X86.305 Y38.044 E.02449
G1 X90.067 Y41.806 E.26704
G1 X90.031 Y42.257 E.02273
G1 X86.305 Y38.532 E.26445
G1 X86.305 Y39.02 E.02449
G1 X89.994 Y42.708 E.26186
G1 X89.958 Y43.16 E.02273
G1 X86.305 Y39.507 E.25927
G1 X86.305 Y39.995 E.02449
G1 X89.921 Y43.611 E.25668
G1 X89.885 Y44.062 E.02273
G1 X86.305 Y40.483 E.25409
G1 X86.305 Y40.971 E.02449
G1 X89.848 Y44.514 E.2515
G1 X89.812 Y44.965 E.02273
G1 X86.305 Y41.459 E.24891
G1 X86.305 Y41.947 E.02449
G1 X89.775 Y45.417 E.24633
G1 X89.739 Y45.868 E.02273
G1 X86.305 Y42.435 E.24374
G1 X86.305 Y42.922 E.02449
