; generated by PrusaSlicer 2.5.0+win64 on 2022-12-07 at 00:18:07 UTC

; 

; external perimeters extrusion width = 1.00mm
; perimeters extrusion width = 1.00mm
; infill extrusion width = 1.00mm
; solid infill extrusion width = 1.00mm
; top infill extrusion width = 1.00mm
; support material extrusion width = 1.00mm
; first layer extrusion width = 0.42mm

M73 P0 R71
M107
;TYPE:Custom
G90 ; use absolute coordinates
M83 ; extruder relative mode
M140 S60 ; set final bed temp
M104 S150 ; set temporary nozzle temp to prevent oozing during homing and auto bed leveling
G4 S10 ; allow partial nozzle warmup
G28 ; home all axisG1 Z50 F240
G1 X7.6 Y10 F3000
M104 S210 ; set final nozzle temp
M190 S60 ; wait for bed temp to stabilize
M109 S210 ; wait for nozzle temp to stabilize
G1 Z0.28 F240
G92 E0
G1 Y140 E10 F1500 ; prime the nozzle
G1 X4 F5000
G92 E0
G1 Y10 E10 F1200 ; prime the nozzle
G92 E0
G21 ; set units to millimeters
G90 ; use absolute coordinates
M83 ; use relative distances for extrusion
; Filament gcode
M107
;LAYER_CHANGE
;Z:0.35
;HEIGHT:0.35
;BEFORE_LAYER_CHANGE
G92 E0
;0.35


G1 E-1 F3600
G1 Z.35 F7800
;AFTER_LAYER_CHANGE
;0.35
G1 X89.831 Y15.917
G1 E1 F2400
;TYPE:Support material
;WIDTH:0.42
G1 F1800
G1 X87.463 Y15.917 E.11885
G1 X87.049 Y16.323 E.0291
G1 X84.088 Y163.657 E7.3956
G1 X84.506 Y164.083 E.02994
G1 X86.438 Y164.083 E.09698
G1 X86.438 Y167.876 E.19033
G1 X73.181 Y167.876 E.66536
G1 X73.181 Y12.124 E7.81652
G1 X89.831 Y12.124 E.83563
G1 X89.831 Y15.865 E.18773
G1 X89.221 Y15.762 F7800
G1 F1800
G1 X89.221 Y12.435 E.16696
G1 X88.838 Y12.435 E.01923
G1 X88.838 Y15.606 E.15918
G1 X88.455 Y15.606 E.01923
G1 X88.455 Y12.435 E.15918
G1 X88.072 Y12.435 E.01923
G1 X88.072 Y15.606 E.15918
G1 X87.688 Y15.606 E.01923
G1 X87.688 Y12.435 E.15918
G1 X87.305 Y12.435 E.01923
G1 X87.305 Y15.637 E.1607
G1 X86.922 Y16.012 E.02693
G1 X86.922 Y12.435 E.17955
G1 X86.539 Y12.435 E.01923
G1 X86.539 Y26.256 E.69361
G1 X86.156 Y45.326 E.95724
G1 X86.156 Y12.435 E1.65066
G1 X85.772 Y12.435 E.01923
G1 X85.772 Y64.396 E2.60771
G1 X85.389 Y83.466 E.95724
G1 X85.389 Y12.435 E3.56476
G1 X85.006 Y12.435 E.01923
G1 X85.006 Y102.536 E4.52181
G1 X84.623 Y121.618 E.95783
G1 X84.623 Y12.435 E5.47945
G1 X84.239 Y12.435 E.01923
G1 X84.239 Y148.406 E6.82386
G1 E-.7 F3600
;WIPE_START
M73 P1 R71
G1 F6240
G1 X84.239 Y147.886 E-.285
;WIPE_END
G1 E-.015 F3600
G1 X85.772 Y167.72 F7800
G1 E1 F2400
G1 F1800
G1 X85.772 Y164.394 E.16696
G1 X85.389 Y164.394 E.01923
G1 X85.389 Y167.565 E.15918
G1 X85.006 Y167.565 E.01923
G1 X85.006 Y164.394 E.15918
G1 X84.623 Y164.394 E.01923
G1 X84.623 Y167.565 E.15918
G1 X84.239 Y167.565 E.01923
G1 X84.239 Y164.033 E.17727
G1 X83.856 Y167.72 F7800
G1 F1800
G1 X83.856 Y12.435 E7.79315
G1 X83.473 Y12.435 E.01923
M73 P1 R70
G1 X83.473 Y167.565 E7.78536
G1 X83.09 Y167.565 E.01923
G1 X83.09 Y12.435 E7.78536
G1 X82.707 Y12.435 E.01923
G1 X82.707 Y167.565 E7.78536
G1 X82.323 Y167.565 E.01923
G1 X82.323 Y12.435 E7.78536
G1 X81.94 Y12.435 E.01923
G1 X81.94 Y167.565 E7.78536
G1 X81.557 Y167.565 E.01923
G1 X81.557 Y12.435 E7.78536
G1 X81.174 Y12.435 E.01923
G1 X81.174 Y167.565 E7.78536
G1 X80.791 Y167.565 E.01923
M73 P2 R70
G1 X80.791 Y12.435 E7.78536
G1 X80.407 Y12.435 E.01923
G1 X80.407 Y167.565 E7.78536
G1 X80.024 Y167.565 E.01923
G1 X80.024 Y12.435 E7.78536
G1 X79.641 Y12.435 E.01923
G1 X79.641 Y167.565 E7.78536
G1 X79.258 Y167.565 E.01923
M73 P2 R69
G1 X79.258 Y12.435 E7.78536
G1 X78.875 Y12.435 E.01923
G1 X78.875 Y167.565 E7.78536
G1 X78.491 Y167.565 E.01923
G1 X78.491 Y12.435 E7.78536
G1 X78.108 Y12.435 E.01923
G1 X78.108 Y167.565 E7.78536
G1 X77.725 Y167.565 E.01923
M73 P3 R69
G1 X77.725 Y12.435 E7.78536
G1 X77.342 Y12.435 E.01923
G1 X77.342 Y167.565 E7.78536
G1 X76.958 Y167.565 E.01923
G1 X76.958 Y12.435 E7.78536
G1 X76.575 Y12.435 E.01923
G1 X76.575 Y167.565 E7.78536
G1 X76.192 Y167.565 E.01923
G1 X76.192 Y12.435 E7.78536
G1 X75.809 Y12.435 E.01923
G1 X75.809 Y167.565 E7.78536
G1 X75.426 Y167.565 E.01923
G1 X75.426 Y12.435 E7.78536
G1 X75.042 Y12.435 E.01923
G1 X75.042 Y167.565 E7.78536
G1 X74.659 Y167.565 E.01923
M73 P4 R68
G1 X74.659 Y12.435 E7.78536
G1 X74.276 Y12.435 E.01923
G1 X74.276 Y167.565 E7.78536
G1 X73.893 Y167.565 E.01923
G1 X73.893 Y12.435 E7.78536
G1 X73.51 Y12.435 E.01923
G1 X73.51 Y167.72 E7.79315
G1 E-.7 F3600
;WIPE_START
G1 F6240
G1 X73.51 Y167.2 E-.285
;WIPE_END
G1 E-.015 F3600
G1 X88.297 Y17.182 F7800
G1 E1 F2400
;TYPE:Perimeter
;WIDTH:0.42
G1 F1800
G1 X102.116 Y17.182 E.69353
G1 X99.177 Y162.818 E7.31038
G1 X85.37 Y162.818 E.69288
G1 X88.294 Y17.332 E7.30284
G1 X87.959 Y16.837 F7800
;TYPE:External perimeter
G1 F1800
G1 X102.468 Y16.837 E.72815
G1 X99.515 Y163.163 E7.345
G1 X85.018 Y163.163 E.7275
G1 X87.956 Y16.987 E7.33746
G1 X88.837 Y17.314 F7800
M73 P5 R68
G1 E-.7 F3600
;WIPE_START
G1 F6240
G1 X88.476 Y16.981 E-.285
;WIPE_END
G1 E-.015 F3600
G1 X101.313 Y17.285 F7800
G1 E1 F2400
;TYPE:Solid infill
;WIDTH:0.420216
G1 F1800
G1 X101.844 Y17.817 E.03774
G1 X101.835 Y18.295 E.02403
G1 X100.98 Y17.44 E.06069
G1 X100.492 Y17.44 E.02451
G1 X101.825 Y18.773 E.09466
G1 X101.815 Y19.252 E.02403
G1 X100.004 Y17.44 E.12864
G1 X99.516 Y17.44 E.02451
G1 X101.806 Y19.73 E.16261
G1 X101.796 Y20.209 E.02403
G1 X99.028 Y17.44 E.19659
G1 X98.54 Y17.44 E.02451
G1 X101.786 Y20.687 E.23056
G1 X101.777 Y21.165 E.02403
G1 X98.052 Y17.44 E.26454
G1 X97.564 Y17.44 E.02451
G1 X101.767 Y21.644 E.29851
G1 X101.757 Y22.122 E.02403
G1 X97.076 Y17.44 E.33249
G1 X96.588 Y17.44 E.02451
G1 X101.748 Y22.601 E.36646
G1 X101.738 Y23.079 E.02403
G1 X96.1 Y17.44 E.40044
G1 X95.612 Y17.44 E.02451
G1 X101.728 Y23.557 E.43441
G1 X101.719 Y24.036 E.02403
G1 X95.124 Y17.44 E.46839
G1 X94.635 Y17.44 E.02451
G1 X101.709 Y24.514 E.50236
G1 X101.7 Y24.993 E.02403
G1 X94.147 Y17.44 E.53634
G1 X93.659 Y17.44 E.02451
G1 X101.69 Y25.471 E.57031
G1 X101.68 Y25.949 E.02403
G1 X93.171 Y17.44 E.60429
G1 X92.683 Y17.44 E.02451
G1 X101.671 Y26.428 E.63826
G1 X101.661 Y26.906 E.02403
G1 X92.195 Y17.44 E.67223
G1 X91.707 Y17.44 E.02451
G1 X101.651 Y27.385 E.70621
G1 X101.642 Y27.863 E.02403
G1 X91.219 Y17.44 E.74018
G1 X90.731 Y17.44 E.02451
G1 X101.632 Y28.341 E.77416
G1 X101.622 Y28.82 E.02403
G1 X90.243 Y17.44 E.80813
G1 X89.755 Y17.44 E.02451
G1 X101.613 Y29.298 E.84211
G1 X101.603 Y29.776 E.02403
G1 X89.267 Y17.44 E.87608
G1 X88.779 Y17.44 E.02451
G1 X101.593 Y30.255 E.91006
G1 X101.584 Y30.733 E.02403
G1 X88.545 Y17.695 E.92597
G1 X88.535 Y18.173 E.02403
G1 X101.574 Y31.212 E.92597
G1 X101.564 Y31.69 E.02403
G1 X88.526 Y18.652 E.92597
G1 X88.516 Y19.13 E.02403
M73 P5 R67
G1 X101.555 Y32.168 E.92596
G1 X101.545 Y32.647 E.02403
G1 X88.507 Y19.608 E.92596
G1 X88.497 Y20.087 E.02403
G1 X101.535 Y33.125 E.92596
G1 X101.526 Y33.604 E.02403
G1 X88.487 Y20.565 E.92596
G1 X88.478 Y21.044 E.02403
G1 X101.516 Y34.082 E.92595
G1 X101.506 Y34.56 E.02403
G1 X88.468 Y21.522 E.92595
G1 X88.459 Y22.001 E.02403
G1 X101.497 Y35.039 E.92595
G1 X101.487 Y35.517 E.02403
G1 X88.449 Y22.479 E.92594
G1 X88.439 Y22.958 E.02403
G1 X101.477 Y35.996 E.92594
G1 X101.468 Y36.474 E.02403
G1 X88.43 Y23.436 E.92594
G1 X88.42 Y23.914 E.02403
G1 X101.458 Y36.952 E.92594
G1 X101.448 Y37.431 E.02403
G1 X88.41 Y24.393 E.92593
G1 X88.401 Y24.871 E.02403
G1 X101.439 Y37.909 E.92593
G1 X101.429 Y38.388 E.02403
G1 X88.391 Y25.35 E.92593
G1 X88.382 Y25.828 E.02403
G1 X101.42 Y38.866 E.92592
G1 X101.41 Y39.344 E.02403
G1 X88.372 Y26.307 E.92592
G1 X88.362 Y26.785 E.02403
G1 X101.4 Y39.823 E.92592
G1 X101.391 Y40.301 E.02403
G1 X88.353 Y27.263 E.92591
G1 X88.343 Y27.742 E.02403
G1 X101.381 Y40.78 E.92591
G1 X101.371 Y41.258 E.02403
G1 X88.334 Y28.22 E.92591
G1 X88.324 Y28.699 E.02403
G1 X101.362 Y41.736 E.92591
G1 X101.352 Y42.215 E.02403
G1 X88.314 Y29.177 E.9259
G1 X88.305 Y29.656 E.02403
G1 X101.342 Y42.693 E.9259
G1 X101.333 Y43.172 E.02403
G1 X88.295 Y30.134 E.9259
G1 X88.286 Y30.613 E.02403
G1 X101.323 Y43.65 E.92589
G1 X101.313 Y44.128 E.02403
G1 X88.276 Y31.091 E.92589
G1 X88.266 Y31.569 E.02403
G1 X101.304 Y44.607 E.92589
G1 X101.294 Y45.085 E.02403
G1 X88.257 Y32.048 E.92588
G1 X88.247 Y32.526 E.02403
G1 X101.284 Y45.564 E.92588
G1 X101.275 Y46.042 E.02403
G1 X88.237 Y33.005 E.92588
G1 X88.228 Y33.483 E.02403
G1 X101.265 Y46.52 E.92588
G1 X101.255 Y46.999 E.02403
G1 X88.218 Y33.962 E.92587
G1 X88.209 Y34.44 E.02403
G1 X101.246 Y47.477 E.92587
G1 X101.236 Y47.956 E.02403
G1 X88.199 Y34.919 E.92587
G1 X88.189 Y35.397 E.02403
G1 X101.226 Y48.434 E.92586
G1 X101.217 Y48.912 E.02403
G1 X88.18 Y35.875 E.92586
G1 X88.17 Y36.354 E.02403
G1 X101.207 Y49.391 E.92586
G1 X101.197 Y49.869 E.02403
G1 X88.161 Y36.832 E.92585
G1 X88.151 Y37.311 E.02403
G1 X101.188 Y50.348 E.92585
G1 X101.178 Y50.826 E.02403
G1 X88.141 Y37.789 E.92585
G1 X88.132 Y38.268 E.02403
G1 X101.168 Y51.304 E.92585
G1 X101.159 Y51.783 E.02403
G1 X88.122 Y38.746 E.92584
G1 X88.112 Y39.224 E.02403
G1 X101.149 Y52.261 E.92584
G1 X101.14 Y52.74 E.02403
G1 X88.103 Y39.703 E.92584
G1 X88.093 Y40.181 E.02403
M73 P6 R67
G1 X101.13 Y53.218 E.92583
G1 X101.12 Y53.696 E.02403
G1 X88.084 Y40.66 E.92583
G1 X88.074 Y41.138 E.02403
G1 X101.111 Y54.175 E.92583
G1 X101.101 Y54.653 E.02403
G1 X88.064 Y41.617 E.92583
G1 X88.055 Y42.095 E.02403
G1 X101.091 Y55.132 E.92582
G1 X101.082 Y55.61 E.02403
G1 X88.045 Y42.574 E.92582
G1 X88.036 Y43.052 E.02403
G1 X101.072 Y56.088 E.92582
G1 X101.062 Y56.567 E.02403
G1 X88.026 Y43.53 E.92581
G1 X88.016 Y44.009 E.02403
G1 X101.053 Y57.045 E.92581
G1 X101.043 Y57.524 E.02403
G1 X88.007 Y44.487 E.92581
G1 X87.997 Y44.966 E.02403
G1 X101.033 Y58.002 E.9258
G1 X101.024 Y58.48 E.02403
G1 X87.987 Y45.444 E.9258
G1 X87.978 Y45.923 E.02403
G1 X101.014 Y58.959 E.9258
G1 X101.004 Y59.437 E.02403
G1 X87.968 Y46.401 E.9258
G1 X87.959 Y46.879 E.02403
G1 X100.995 Y59.916 E.92579
G1 X100.985 Y60.394 E.02403
G1 X87.949 Y47.358 E.92579
G1 X87.939 Y47.836 E.02403
G1 X100.975 Y60.872 E.92579
G1 X100.966 Y61.351 E.02403
G1 X87.93 Y48.315 E.92578
G1 X87.92 Y48.793 E.02403
G1 X100.956 Y61.829 E.92578
G1 X100.946 Y62.307 E.02403
G1 X87.911 Y49.272 E.92578
G1 X87.901 Y49.75 E.02403
G1 X100.937 Y62.786 E.92577
G1 X100.927 Y63.264 E.02403
G1 X87.891 Y50.229 E.92577
G1 X87.882 Y50.707 E.02403
G1 X100.917 Y63.743 E.92577
G1 X100.908 Y64.221 E.02403
G1 X87.872 Y51.185 E.92577
G1 X87.863 Y51.664 E.02403
G1 X100.898 Y64.699 E.92576
G1 X100.888 Y65.178 E.02403
G1 X87.853 Y52.142 E.92576
G1 X87.843 Y52.621 E.02403
G1 X100.879 Y65.656 E.92576
G1 X100.869 Y66.135 E.02403
G1 X87.834 Y53.099 E.92575
G1 X87.824 Y53.578 E.02403
G1 X100.86 Y66.613 E.92575
G1 X100.85 Y67.091 E.02403
G1 X87.814 Y54.056 E.92575
G1 X87.805 Y54.534 E.02403
G1 X100.84 Y67.57 E.92575
G1 X100.831 Y68.048 E.02403
G1 X87.795 Y55.013 E.92574
G1 X87.786 Y55.491 E.02403
G1 X100.821 Y68.527 E.92574
G1 X100.811 Y69.005 E.02403
G1 X87.776 Y55.97 E.92574
G1 X87.766 Y56.448 E.02403
G1 X100.802 Y69.483 E.92573
G1 X100.792 Y69.962 E.02403
G1 X87.757 Y56.927 E.92573
G1 X87.747 Y57.405 E.02403
G1 X100.782 Y70.44 E.92573
G1 X100.773 Y70.919 E.02403
G1 X87.738 Y57.884 E.92572
G1 X87.728 Y58.362 E.02403
G1 X100.763 Y71.397 E.92572
G1 X100.753 Y71.875 E.02403
G1 X87.718 Y58.84 E.92572
G1 X87.709 Y59.319 E.02403
G1 X100.744 Y72.354 E.92572
G1 X100.734 Y72.832 E.02403
G1 X87.699 Y59.797 E.92571
G1 X87.689 Y60.276 E.02403
G1 X100.724 Y73.311 E.92571
G1 X100.715 Y73.789 E.02403
G1 X87.68 Y60.754 E.92571
G1 X87.67 Y61.233 E.02403
G1 X100.705 Y74.267 E.9257
G1 X100.695 Y74.746 E.02403
M73 P6 R66
G1 X87.661 Y61.711 E.9257
G1 X87.651 Y62.19 E.02403
G1 X100.686 Y75.224 E.9257
G1 X100.676 Y75.703 E.02403
G1 X87.641 Y62.668 E.92569
G1 X87.632 Y63.146 E.02403
G1 X100.666 Y76.181 E.92569
G1 X100.657 Y76.659 E.02403
G1 X87.622 Y63.625 E.92569
G1 X87.613 Y64.103 E.02403
G1 X100.647 Y77.138 E.92569
G1 X100.637 Y77.616 E.02403
G1 X87.603 Y64.582 E.92568
G1 X87.593 Y65.06 E.02403
G1 X100.628 Y78.095 E.92568
G1 X100.618 Y78.573 E.02403
G1 X87.584 Y65.539 E.92568
G1 X87.574 Y66.017 E.02403
G1 X100.608 Y79.051 E.92567
G1 X100.599 Y79.53 E.02403
G1 X87.565 Y66.495 E.92567
G1 X87.555 Y66.974 E.02403
G1 X100.589 Y80.008 E.92567
G1 X100.58 Y80.487 E.02403
G1 X87.545 Y67.452 E.92566
G1 X87.536 Y67.931 E.02403
G1 X100.57 Y80.965 E.92566
G1 X100.56 Y81.443 E.02403
G1 X87.526 Y68.409 E.92566
G1 X87.516 Y68.888 E.02403
G1 X100.551 Y81.922 E.92566
G1 X100.541 Y82.4 E.02403
G1 X87.507 Y69.366 E.92565
G1 X87.497 Y69.845 E.02403
G1 X100.531 Y82.879 E.92565
G1 X100.522 Y83.357 E.02403
M73 P7 R66
G1 X87.488 Y70.323 E.92565
G1 X87.478 Y70.801 E.02403
G1 X100.512 Y83.835 E.92564
G1 X100.502 Y84.314 E.02403
G1 X87.468 Y71.28 E.92564
G1 X87.459 Y71.758 E.02403
G1 X100.493 Y84.792 E.92564
G1 X100.483 Y85.271 E.02403
G1 X87.449 Y72.237 E.92564
G1 X87.44 Y72.715 E.02403
G1 X100.473 Y85.749 E.92563
G1 X100.464 Y86.227 E.02403
G1 X87.43 Y73.194 E.92563
G1 X87.42 Y73.672 E.02403
G1 X100.454 Y86.706 E.92563
G1 X100.444 Y87.184 E.02403
G1 X87.411 Y74.15 E.92562
G1 X87.401 Y74.629 E.02403
G1 X100.435 Y87.663 E.92562
G1 X100.425 Y88.141 E.02403
G1 X87.391 Y75.107 E.92562
G1 X87.382 Y75.586 E.02403
G1 X100.415 Y88.619 E.92561
G1 X100.406 Y89.098 E.02403
G1 X87.372 Y76.064 E.92561
G1 X87.363 Y76.543 E.02403
G1 X100.396 Y89.576 E.92561
G1 X100.386 Y90.055 E.02403
G1 X87.353 Y77.021 E.92561
G1 X87.343 Y77.5 E.02403
G1 X100.377 Y90.533 E.9256
G1 X100.367 Y91.011 E.02403
G1 X87.334 Y77.978 E.9256
G1 X87.324 Y78.456 E.02403
G1 X100.357 Y91.49 E.9256
G1 X100.348 Y91.968 E.02403
G1 X87.315 Y78.935 E.92559
G1 X87.305 Y79.413 E.02403
G1 X100.338 Y92.447 E.92559
G1 X100.328 Y92.925 E.02403
G1 X87.295 Y79.892 E.92559
G1 X87.286 Y80.37 E.02403
G1 X100.319 Y93.403 E.92558
G1 X100.309 Y93.882 E.02403
G1 X87.276 Y80.849 E.92558
G1 X87.266 Y81.327 E.02403
G1 X100.3 Y94.36 E.92558
G1 X100.29 Y94.838 E.02403
G1 X87.257 Y81.806 E.92558
G1 X87.247 Y82.284 E.02403
G1 X100.28 Y95.317 E.92557
G1 X100.271 Y95.795 E.02403
G1 X87.238 Y82.762 E.92557
G1 X87.228 Y83.241 E.02403
G1 X100.261 Y96.274 E.92557
G1 X100.251 Y96.752 E.02403
G1 X87.218 Y83.719 E.92556
G1 X87.209 Y84.198 E.02403
G1 X100.242 Y97.23 E.92556
G1 X100.232 Y97.709 E.02403
G1 X87.199 Y84.676 E.92556
G1 X87.19 Y85.155 E.02403
G1 X100.222 Y98.187 E.92556
G1 X100.213 Y98.666 E.02403
G1 X87.18 Y85.633 E.92555
G1 X87.17 Y86.111 E.02403
G1 X100.203 Y99.144 E.92555
G1 X100.193 Y99.622 E.02403
G1 X87.161 Y86.59 E.92555
G1 X87.151 Y87.068 E.02403
G1 X100.184 Y100.101 E.92554
G1 X100.174 Y100.579 E.02403
G1 X87.142 Y87.547 E.92554
G1 X87.132 Y88.025 E.02403
G1 X100.164 Y101.058 E.92554
G1 X100.155 Y101.536 E.02403
G1 X87.122 Y88.504 E.92553
G1 X87.113 Y88.982 E.02403
G1 X100.145 Y102.014 E.92553
G1 X100.135 Y102.493 E.02403
G1 X87.103 Y89.461 E.92553
G1 X87.093 Y89.939 E.02403
G1 X100.126 Y102.971 E.92553
G1 X100.116 Y103.45 E.02403
G1 X87.084 Y90.417 E.92552
G1 X87.074 Y90.896 E.02403
G1 X100.106 Y103.928 E.92552
G1 X100.097 Y104.406 E.02403
G1 X87.065 Y91.374 E.92552
G1 X87.055 Y91.853 E.02403
G1 X100.087 Y104.885 E.92551
G1 X100.077 Y105.363 E.02403
G1 X87.045 Y92.331 E.92551
G1 X87.036 Y92.81 E.02403
G1 X100.068 Y105.842 E.92551
G1 X100.058 Y106.32 E.02403
G1 X87.026 Y93.288 E.9255
G1 X87.017 Y93.766 E.02403
G1 X100.048 Y106.798 E.9255
G1 X100.039 Y107.277 E.02403
G1 X87.007 Y94.245 E.9255
G1 X86.997 Y94.723 E.02403
G1 X100.029 Y107.755 E.9255
G1 X100.02 Y108.234 E.02403
G1 X86.988 Y95.202 E.92549
G1 X86.978 Y95.68 E.02403
G1 X100.01 Y108.712 E.92549
G1 X100 Y109.19 E.02403
G1 X86.968 Y96.159 E.92549
G1 X86.959 Y96.637 E.02403
G1 X99.991 Y109.669 E.92548
G1 X99.981 Y110.147 E.02403
G1 X86.949 Y97.116 E.92548
G1 X86.94 Y97.594 E.02403
G1 X99.971 Y110.626 E.92548
G1 X99.962 Y111.104 E.02403
G1 X86.93 Y98.072 E.92548
G1 X86.92 Y98.551 E.02403
G1 X99.952 Y111.582 E.92547
G1 X99.942 Y112.061 E.02403
G1 X86.911 Y99.029 E.92547
G1 X86.901 Y99.508 E.02403
G1 X99.933 Y112.539 E.92547
G1 X99.923 Y113.018 E.02403
G1 X86.892 Y99.986 E.92546
G1 X86.882 Y100.465 E.02403
G1 X99.913 Y113.496 E.92546
G1 X99.904 Y113.974 E.02403
M73 P8 R66
G1 X86.872 Y100.943 E.92546
G1 X86.863 Y101.422 E.02403
