; generated by PrusaSlicer 2.5.0+win64 on 2022-12-07 at 00:18:27 UTC

; 

; external perimeters extrusion width = 1.00mm
; perimeters extrusion width = 1.00mm
; infill extrusion width = 1.00mm
; solid infill extrusion width = 1.00mm
; top infill extrusion width = 1.00mm
; support material extrusion width = 1.00mm
; first layer extrusion width = 0.42mm

M73 P0 R1147
M107
;TYPE:Custom
G90 ; use absolute coordinates
M83 ; extruder relative mode
M140 S60 ; set final bed temp
M104 S150 ; set temporary nozzle temp to prevent oozing during homing and auto bed leveling
G4 S10 ; allow partial nozzle warmup
G28 ; home all axisG1 Z50 F240
G1 X7.6 Y10 F3000
M104 S210 ; set final nozzle temp
M190 S60 ; wait for bed temp to stabilize
M109 S210 ; wait for nozzle temp to stabilize
G1 Z0.28 F240
G92 E0
G1 Y140 E10 F1500 ; prime the nozzle
G1 X4 F5000
G92 E0
G1 Y10 E10 F1200 ; prime the nozzle
G92 E0
G21 ; set units to millimeters
G90 ; use absolute coordinates
M83 ; use relative distances for extrusion
; Filament gcode
M107
;LAYER_CHANGE
;Z:0.35
;HEIGHT:0.35
;BEFORE_LAYER_CHANGE
G92 E0
;0.35


G1 E-1 F3600
G1 Z.35 F7800
;AFTER_LAYER_CHANGE
;0.35
G1 X49.131 Y29.088
G1 E1 F2400
;TYPE:Support material
;WIDTH:0.42
G1 F1800
G1 X52.837 Y29.088 E.18597
G1 X52.837 Y12.124 E.85133
G1 X167.876 Y12.124 E5.77333
G1 X167.876 Y167.876 E7.81652
G1 X12.124 Y167.876 E7.81652
G1 X12.124 Y12.124 E7.81652
G1 X49.131 Y12.124 E1.85722
G1 X49.131 Y29.036 E.84873
G1 X162.585 Y151.084 F7800
M73 P0 R1146
G1 F1800
G1 X95.527 Y162.788 E3.41624
G1 X95.639 Y164.085 E.06536
G1 X163.494 Y164.085 E3.40538
G1 X163.91 Y163.669 E.02952
G1 X163.91 Y151.367 E.61742
G1 X163.404 Y150.941 E.03319
G1 X162.636 Y151.075 E.03914
G1 E-.7 F3600
;WIPE_START
G1 F6240
G1 X163.148 Y150.986 E-.285
;WIPE_END
G1 E-.015 F3600
G1 X167.408 Y167.72 F7800
G1 E1 F2400
G1 F1800
G1 X167.408 Y12.435 E7.79315
G1 X167.025 Y12.435 E.01923
G1 X167.025 Y167.565 E7.78536
G1 X166.642 Y167.565 E.01923
G1 X166.642 Y12.435 E7.78536
G1 X166.259 Y12.435 E.01923
G1 X166.259 Y167.565 E7.78536
G1 X165.876 Y167.565 E.01923
G1 X165.876 Y12.435 E7.78536
G1 X165.492 Y12.435 E.01923
G1 X165.492 Y167.565 E7.78536
G1 X165.109 Y167.565 E.01923
G1 X165.109 Y12.435 E7.78536
G1 X164.726 Y12.435 E.01923
G1 X164.726 Y167.565 E7.78536
G1 X164.343 Y167.565 E.01923
G1 X164.343 Y12.435 E7.78536
G1 X163.96 Y12.435 E.01923
G1 X163.96 Y151.002 E6.95415
G1 X163.576 Y150.68 E.02512
G1 X163.576 Y12.435 E6.93798
G1 X163.193 Y12.435 E.01923
M73 P0 R1145
G1 X163.193 Y150.663 E6.93709
G1 X162.81 Y150.73 E.01952
G1 X162.81 Y12.435 E6.94045
G1 X162.427 Y12.435 E.01923
G1 X162.427 Y150.796 E6.94381
G1 X162.043 Y150.863 E.01952
G1 X162.043 Y12.435 E6.94716
G1 X161.66 Y12.435 E.01923
G1 X161.66 Y150.93 E6.95052
G1 X161.277 Y150.997 E.01952
G1 X161.277 Y12.435 E6.95388
G1 X160.894 Y12.435 E.01923
G1 X160.894 Y151.064 E6.95723
G1 X160.511 Y151.131 E.01952
G1 X160.511 Y12.435 E6.96059
G1 X160.127 Y12.435 E.01923
G1 X160.127 Y151.198 E6.96395
G1 X159.744 Y151.265 E.01952
G1 X159.744 Y12.435 E6.9673
G1 X159.361 Y12.435 E.01923
G1 X159.361 Y151.331 E6.97066
G1 X158.978 Y151.398 E.01952
G1 X158.978 Y12.435 E6.97401
G1 X158.595 Y12.435 E.01923
M73 P0 R1144
G1 X158.595 Y151.465 E6.97737
G1 X158.211 Y151.532 E.01952
G1 X158.211 Y12.435 E6.98073
G1 X157.828 Y12.435 E.01923
G1 X157.828 Y151.599 E6.98408
G1 X157.445 Y151.666 E.01952
G1 X157.445 Y12.435 E6.98744
G1 X157.062 Y12.435 E.01923
G1 X157.062 Y151.733 E6.9908
G1 X156.679 Y151.8 E.01952
G1 X156.679 Y12.435 E6.99415
G1 X156.295 Y12.435 E.01923
G1 X156.295 Y151.867 E6.99751
G1 X155.912 Y151.933 E.01952
G1 X155.912 Y12.435 E7.00087
G1 X155.529 Y12.435 E.01923
G1 X155.529 Y152 E7.00422
G1 X155.146 Y152.067 E.01952
G1 X155.146 Y12.435 E7.00758
G1 X154.762 Y12.435 E.01923
G1 X154.762 Y152.134 E7.01094
G1 X154.379 Y152.201 E.01952
G1 X154.379 Y12.435 E7.01429
G1 X153.996 Y12.435 E.01923
G1 X153.996 Y152.268 E7.01765
G1 X153.613 Y152.335 E.01952
M73 P0 R1143
G1 X153.613 Y12.435 E7.02101
G1 X153.23 Y12.435 E.01923
G1 X153.23 Y152.402 E7.02436
G1 X152.846 Y152.468 E.01952
G1 X152.846 Y12.435 E7.02772
G1 X152.463 Y12.435 E.01923
G1 X152.463 Y152.535 E7.03107
G1 X152.08 Y152.602 E.01952
G1 X152.08 Y12.435 E7.03443
G1 X151.697 Y12.435 E.01923
G1 X151.697 Y152.669 E7.03779
G1 X151.314 Y152.736 E.01952
G1 X151.314 Y12.435 E7.04114
G1 X150.93 Y12.435 E.01923
G1 X150.93 Y152.803 E7.0445
G1 X150.547 Y152.87 E.01952
G1 X150.547 Y12.435 E7.04786
G1 X150.164 Y12.435 E.01923
G1 X150.164 Y152.937 E7.05121
G1 X149.781 Y153.003 E.01952
G1 X149.781 Y12.435 E7.05457
G1 X149.398 Y12.435 E.01923
G1 X149.398 Y153.07 E7.05793
G1 X149.014 Y153.137 E.01952
G1 X149.014 Y12.435 E7.06128
G1 X148.631 Y12.435 E.01923
M73 P0 R1142
G1 X148.631 Y153.204 E7.06464
G1 X148.248 Y153.271 E.01952
G1 X148.248 Y12.435 E7.068
G1 X147.865 Y12.435 E.01923
G1 X147.865 Y153.338 E7.07135
G1 X147.481 Y153.405 E.01952
G1 X147.482 Y12.435 E7.07471
G1 X147.098 Y12.435 E.01923
G1 X147.098 Y153.472 E7.07807
G1 X146.715 Y153.539 E.01952
G1 X146.715 Y12.435 E7.08142
G1 X146.332 Y12.435 E.01923
G1 X146.332 Y153.605 E7.08478
G1 X145.949 Y153.672 E.01952
G1 X145.949 Y12.435 E7.08813
G1 X145.565 Y12.435 E.01923
G1 X145.565 Y153.739 E7.09149
G1 X145.182 Y153.806 E.01952
G1 X145.182 Y12.435 E7.09485
G1 X144.799 Y12.435 E.01923
G1 X144.799 Y153.873 E7.0982
G1 X144.416 Y153.94 E.01952
G1 X144.416 Y12.435 E7.10156
G1 X144.033 Y12.435 E.01923
M73 P0 R1141
G1 X144.033 Y154.007 E7.10492
G1 X143.649 Y154.074 E.01952
G1 X143.649 Y12.435 E7.10827
G1 X143.266 Y12.435 E.01923
G1 X143.266 Y154.14 E7.11163
G1 X142.883 Y154.207 E.01952
G1 X142.883 Y12.435 E7.11499
G1 X142.5 Y12.435 E.01923
G1 X142.5 Y154.274 E7.11834
G1 X142.117 Y154.341 E.01952
G1 X142.117 Y12.435 E7.1217
G1 X141.733 Y12.435 E.01923
G1 X141.733 Y154.408 E7.12506
G1 X141.35 Y154.475 E.01952
G1 X141.35 Y12.435 E7.12841
G1 X140.967 Y12.435 E.01923
G1 X140.967 Y154.542 E7.13177
G1 X140.584 Y154.609 E.01952
G1 X140.584 Y12.435 E7.13512
G1 X140.201 Y12.435 E.01923
G1 X140.201 Y154.675 E7.13848
G1 X139.817 Y154.742 E.01952
G1 X139.817 Y12.435 E7.14184
G1 X139.434 Y12.435 E.01923
G1 X139.434 Y154.809 E7.14519
G1 X139.051 Y154.876 E.01952
M73 P0 R1140
G1 X139.051 Y12.435 E7.14855
G1 X138.668 Y12.435 E.01923
G1 X138.668 Y154.943 E7.15191
G1 X138.284 Y155.01 E.01952
G1 X138.284 Y12.435 E7.15526
G1 X137.901 Y12.435 E.01923
G1 X137.901 Y155.077 E7.15862
G1 X137.518 Y155.144 E.01952
G1 X137.518 Y12.435 E7.16198
G1 X137.135 Y12.435 E.01923
G1 X137.135 Y155.211 E7.16533
G1 X136.752 Y155.277 E.01952
G1 X136.752 Y12.435 E7.16869
G1 X136.368 Y12.435 E.01923
G1 X136.368 Y155.344 E7.17205
G1 X135.985 Y155.411 E.01952
G1 X135.985 Y12.435 E7.1754
G1 X135.602 Y12.435 E.01923
G1 X135.602 Y155.478 E7.17876
G1 X135.219 Y155.545 E.01952
G1 X135.219 Y12.435 E7.18212
G1 X134.836 Y12.435 E.01923
G1 X134.836 Y155.612 E7.18547
G1 X134.452 Y155.679 E.01952
M73 P0 R1139
G1 X134.452 Y12.435 E7.18883
G1 X134.069 Y12.435 E.01923
G1 X134.069 Y155.746 E7.19218
G1 X133.686 Y155.812 E.01952
G1 X133.686 Y12.435 E7.19554
G1 X133.303 Y12.435 E.01923
G1 X133.303 Y155.879 E7.1989
G1 X132.92 Y155.946 E.01952
G1 X132.92 Y12.435 E7.20225
G1 X132.536 Y12.435 E.01923
G1 X132.536 Y156.013 E7.20561
G1 X132.153 Y156.08 E.01952
G1 X132.153 Y12.435 E7.20897
G1 X131.77 Y12.435 E.01923
G1 X131.77 Y156.147 E7.21232
G1 X131.387 Y156.214 E.01952
G1 X131.387 Y12.435 E7.21568
G1 X131.003 Y12.435 E.01923
G1 X131.003 Y156.281 E7.21904
G1 X130.62 Y156.348 E.01952
G1 X130.62 Y12.435 E7.22239
G1 X130.237 Y12.435 E.01923
G1 X130.237 Y156.414 E7.22575
G1 X129.854 Y156.481 E.01952
G1 X129.854 Y12.435 E7.22911
G1 X129.471 Y12.435 E.01923
M73 P0 R1138
G1 X129.471 Y156.548 E7.23246
G1 X129.087 Y156.615 E.01952
G1 X129.087 Y12.435 E7.23582
G1 X128.704 Y12.435 E.01923
G1 X128.704 Y156.682 E7.23918
G1 X128.321 Y156.749 E.01952
G1 X128.321 Y12.435 E7.24253
G1 X127.938 Y12.435 E.01923
G1 X127.938 Y156.816 E7.24589
G1 X127.555 Y156.883 E.01952
G1 X127.555 Y12.435 E7.24924
G1 X127.171 Y12.435 E.01923
G1 X127.171 Y156.949 E7.2526
G1 X126.788 Y157.016 E.01952
G1 X126.788 Y12.435 E7.25596
G1 X126.405 Y12.435 E.01923
G1 X126.405 Y157.083 E7.25931
G1 X126.022 Y157.15 E.01952
G1 X126.022 Y12.435 E7.26267
G1 X125.639 Y12.435 E.01923
G1 X125.639 Y157.217 E7.26603
G1 X125.255 Y157.284 E.01952
G1 X125.255 Y12.435 E7.26938
G1 X124.872 Y12.435 E.01923
M73 P0 R1137
G1 X124.872 Y157.351 E7.27274
G1 X124.489 Y157.418 E.01952
G1 X124.489 Y12.435 E7.2761
G1 X124.106 Y12.435 E.01923
G1 X124.106 Y157.484 E7.27945
G1 X123.722 Y157.551 E.01952
G1 X123.722 Y12.435 E7.28281
G1 X123.339 Y12.435 E.01923
G1 X123.339 Y157.618 E7.28617
G1 X122.956 Y157.685 E.01952
G1 X122.956 Y12.435 E7.28952
G1 X122.573 Y12.435 E.01923
G1 X122.573 Y157.752 E7.29288
G1 X122.19 Y157.819 E.01952
G1 X122.19 Y12.435 E7.29624
G1 X121.806 Y12.435 E.01923
G1 X121.806 Y157.886 E7.29959
G1 X121.423 Y157.953 E.01952
G1 X121.423 Y12.435 E7.30295
G1 X121.04 Y12.435 E.01923
G1 X121.04 Y158.02 E7.3063
G1 X120.657 Y158.086 E.01952
G1 X120.657 Y12.435 E7.30966
G1 X120.274 Y12.435 E.01923
M73 P0 R1136
G1 X120.274 Y158.153 E7.31302
G1 X119.89 Y158.22 E.01952
G1 X119.89 Y12.435 E7.31637
G1 X119.507 Y12.435 E.01923
G1 X119.507 Y158.287 E7.31973
G1 X119.124 Y158.354 E.01952
G1 X119.124 Y12.435 E7.32309
G1 X118.741 Y12.435 E.01923
G1 X118.741 Y158.421 E7.32644
G1 X118.358 Y158.488 E.01952
G1 X118.358 Y12.435 E7.3298
G1 X117.974 Y12.435 E.01923
G1 X117.974 Y158.555 E7.33316
G1 X117.591 Y158.621 E.01952
G1 X117.591 Y12.435 E7.33651
G1 X117.208 Y12.435 E.01923
G1 X117.208 Y158.688 E7.33987
G1 X116.825 Y158.755 E.01952
G1 X116.825 Y12.435 E7.34323
G1 X116.441 Y12.435 E.01923
G1 X116.441 Y158.822 E7.34658
G1 X116.058 Y158.889 E.01952
M73 P1 R1136
G1 X116.058 Y12.435 E7.34994
G1 X115.675 Y12.435 E.01923
M73 P1 R1135
G1 X115.675 Y158.956 E7.3533
G1 X115.292 Y159.023 E.01952
G1 X115.292 Y12.435 E7.35665
G1 X114.909 Y12.435 E.01923
G1 X114.909 Y159.09 E7.36001
G1 X114.525 Y159.157 E.01952
G1 X114.525 Y12.435 E7.36337
G1 X114.142 Y12.435 E.01923
G1 X114.142 Y159.223 E7.36672
G1 X113.759 Y159.29 E.01952
G1 X113.759 Y12.435 E7.37008
G1 X113.376 Y12.435 E.01923
G1 X113.376 Y159.357 E7.37343
G1 X112.993 Y159.424 E.01952
G1 X112.993 Y12.435 E7.37679
G1 X112.609 Y12.435 E.01923
G1 X112.609 Y159.491 E7.38015
G1 X112.226 Y159.558 E.01952
G1 X112.226 Y12.435 E7.3835
G1 X111.843 Y12.435 E.01923
G1 X111.843 Y159.625 E7.38686
G1 X111.46 Y159.692 E.01952
G1 X111.46 Y12.435 E7.39022
G1 X111.077 Y12.435 E.01923
G1 X111.077 Y159.758 E7.39357
G1 X110.693 Y159.825 E.01952
M73 P1 R1134
G1 X110.693 Y12.435 E7.39693
G1 X110.31 Y12.435 E.01923
G1 X110.31 Y159.892 E7.40029
G1 X109.927 Y159.959 E.01952
G1 X109.927 Y12.435 E7.40364
G1 X109.544 Y12.435 E.01923
G1 X109.544 Y160.026 E7.407
G1 X109.16 Y160.093 E.01952
G1 X109.161 Y12.435 E7.41036
G1 X108.777 Y12.435 E.01923
G1 X108.777 Y160.16 E7.41371
G1 X108.394 Y160.227 E.01952
G1 X108.394 Y12.435 E7.41707
G1 X108.011 Y12.435 E.01923
G1 X108.011 Y160.294 E7.42043
G1 X107.628 Y160.36 E.01952
G1 X107.628 Y12.435 E7.42378
G1 X107.244 Y12.435 E.01923
G1 X107.244 Y160.427 E7.42714
G1 X106.861 Y160.494 E.01952
G1 X106.861 Y12.435 E7.4305
G1 X106.478 Y12.435 E.01923
G1 X106.478 Y160.561 E7.43385
G1 X106.095 Y160.628 E.01952
M73 P1 R1133
G1 X106.095 Y12.435 E7.43721
G1 X105.712 Y12.435 E.01923
G1 X105.712 Y160.695 E7.44057
G1 X105.328 Y160.762 E.01952
G1 X105.328 Y12.435 E7.44392
G1 X104.945 Y12.435 E.01923
G1 X104.945 Y160.829 E7.44728
G1 X104.562 Y160.895 E.01952
G1 X104.562 Y12.435 E7.45064
G1 X104.179 Y12.435 E.01923
G1 X104.179 Y160.962 E7.45399
G1 X103.796 Y161.029 E.01952
G1 X103.796 Y12.435 E7.45735
G1 X103.412 Y12.435 E.01923
G1 X103.412 Y161.096 E7.46071
G1 X103.029 Y161.163 E.01952
G1 X103.029 Y12.435 E7.46406
G1 X102.646 Y12.435 E.01923
G1 X102.646 Y161.23 E7.46742
G1 X102.263 Y161.297 E.01952
G1 X102.263 Y12.435 E7.47078
G1 X101.88 Y12.435 E.01923
G1 X101.88 Y161.364 E7.47413
G1 X101.496 Y161.431 E.01952
M73 P1 R1132
G1 X101.496 Y12.435 E7.47749
G1 X101.113 Y12.435 E.01923
G1 X101.113 Y161.497 E7.48085
G1 X100.73 Y161.564 E.01952
G1 X100.73 Y12.435 E7.4842
G1 X100.347 Y12.435 E.01923
G1 X100.347 Y161.631 E7.48756
G1 X99.963 Y161.698 E.01952
G1 X99.963 Y12.435 E7.49092
G1 X99.58 Y12.435 E.01923
G1 X99.58 Y161.765 E7.49427
G1 X99.197 Y161.832 E.01952
G1 X99.197 Y12.435 E7.49763
G1 X98.814 Y12.435 E.01923
G1 X98.814 Y161.899 E7.50099
G1 X98.431 Y161.966 E.01952
G1 X98.431 Y12.435 E7.50434
G1 X98.047 Y12.435 E.01923
G1 X98.047 Y162.033 E7.5077
G1 X97.664 Y162.099 E.01952
G1 X97.664 Y12.435 E7.51106
G1 X97.281 Y12.435 E.01923
M73 P1 R1131
G1 X97.281 Y162.166 E7.51441
G1 X96.898 Y162.233 E.01952
G1 X96.898 Y12.435 E7.51777
G1 X96.515 Y12.435 E.01923
G1 X96.515 Y162.3 E7.52113
G1 X96.131 Y162.367 E.01952
G1 X96.131 Y12.435 E7.52448
G1 X95.748 Y12.435 E.01923
G1 X95.748 Y162.434 E7.52784
G1 X95.365 Y162.501 E.01952
G1 X95.365 Y12.435 E7.5312
G1 X94.982 Y12.435 E.01923
G1 X94.982 Y167.565 E7.78536
G1 X95.365 Y167.565 E.01923
G1 X95.365 Y164.395 E.15908
G1 X95.748 Y164.395 E.01923
G1 X95.748 Y167.565 E.15908
G1 X96.131 Y167.565 E.01923
G1 X96.131 Y164.395 E.15908
G1 X96.515 Y164.395 E.01923
G1 X96.515 Y167.565 E.15908
G1 X96.898 Y167.565 E.01923
G1 X96.898 Y164.395 E.15908
G1 X97.281 Y164.395 E.01923
G1 X97.281 Y167.565 E.15908
G1 X97.664 Y167.565 E.01923
G1 X97.664 Y164.395 E.15908
G1 X98.047 Y164.395 E.01923
G1 X98.047 Y167.565 E.15908
G1 X98.431 Y167.565 E.01923
G1 X98.431 Y164.395 E.15908
G1 X98.814 Y164.395 E.01923
G1 X98.814 Y167.565 E.15908
G1 X99.197 Y167.565 E.01923
G1 X99.197 Y164.395 E.15908
G1 X99.58 Y164.395 E.01923
G1 X99.58 Y167.565 E.15908
G1 X99.963 Y167.565 E.01923
G1 X99.963 Y164.395 E.15908
G1 X100.347 Y164.395 E.01923
G1 X100.347 Y167.565 E.15908
G1 X100.73 Y167.565 E.01923
G1 X100.73 Y164.395 E.15908
G1 X101.113 Y164.395 E.01923
G1 X101.113 Y167.565 E.15908
G1 X101.496 Y167.565 E.01923
G1 X101.496 Y164.395 E.15908
G1 X101.88 Y164.395 E.01923
G1 X101.88 Y167.565 E.15908
G1 X102.263 Y167.565 E.01923
G1 X102.263 Y164.395 E.15908
G1 X102.646 Y164.395 E.01923
G1 X102.646 Y167.565 E.15908
G1 X103.029 Y167.565 E.01923
G1 X103.029 Y164.395 E.15908
G1 X103.412 Y164.395 E.01923
G1 X103.412 Y167.565 E.15908
G1 X103.796 Y167.565 E.01923
G1 X103.796 Y164.395 E.15908
G1 X104.179 Y164.395 E.01923
G1 X104.179 Y167.565 E.15908
G1 X104.562 Y167.565 E.01923
G1 X104.562 Y164.395 E.15908
G1 X104.945 Y164.395 E.01923
G1 X104.945 Y167.565 E.15908
G1 X105.328 Y167.565 E.01923
G1 X105.328 Y164.395 E.15908
G1 X105.712 Y164.395 E.01923
G1 X105.712 Y167.565 E.15908
G1 X106.095 Y167.565 E.01923
G1 X106.095 Y164.395 E.15908
G1 X106.478 Y164.395 E.01923
G1 X106.478 Y167.565 E.15908
G1 X106.861 Y167.565 E.01923
G1 X106.861 Y164.395 E.15908
G1 X107.244 Y164.395 E.01923
G1 X107.244 Y167.565 E.15908
G1 X107.628 Y167.565 E.01923
G1 X107.628 Y164.395 E.15908
G1 X108.011 Y164.395 E.01923
G1 X108.011 Y167.565 E.15908
G1 X108.394 Y167.565 E.01923
G1 X108.394 Y164.395 E.15908
G1 X108.777 Y164.395 E.01923
G1 X108.777 Y167.565 E.15908
G1 X109.16 Y167.565 E.01923
G1 X109.16 Y164.395 E.15908
G1 X109.544 Y164.395 E.01923
G1 X109.544 Y167.565 E.15908
G1 X109.927 Y167.565 E.01923
G1 X109.927 Y164.395 E.15908
G1 X110.31 Y164.395 E.01923
G1 X110.31 Y167.565 E.15908
G1 X110.693 Y167.565 E.01923
G1 X110.693 Y164.395 E.15908
G1 X111.077 Y164.395 E.01923
G1 X111.077 Y167.565 E.15908
G1 X111.46 Y167.565 E.01923
G1 X111.46 Y164.395 E.15908
G1 X111.843 Y164.395 E.01923
G1 X111.843 Y167.565 E.15908
G1 X112.226 Y167.565 E.01923
G1 X112.226 Y164.395 E.15908
G1 X112.609 Y164.395 E.01923
G1 X112.609 Y167.565 E.15908
G1 X112.993 Y167.565 E.01923
G1 X112.993 Y164.395 E.15908
G1 X113.376 Y164.395 E.01923
G1 X113.376 Y167.565 E.15908
G1 X113.759 Y167.565 E.01923
G1 X113.759 Y164.395 E.15908
G1 X114.142 Y164.395 E.01923
G1 X114.142 Y167.565 E.15908
G1 X114.525 Y167.565 E.01923
G1 X114.525 Y164.395 E.15908
G1 X114.909 Y164.395 E.01923
G1 X114.909 Y167.565 E.15908
G1 X115.292 Y167.565 E.01923
G1 X115.292 Y164.395 E.15908
G1 X115.675 Y164.395 E.01923
