; generated by PrusaSlicer 2.5.0+win64 on 2022-12-07 at 00:22:18 UTC

; 

; external perimeters extrusion width = 1.00mm
; perimeters extrusion width = 1.00mm
; infill extrusion width = 1.00mm
; solid infill extrusion width = 1.00mm
; top infill extrusion width = 1.00mm
; support material extrusion width = 1.00mm
; first layer extrusion width = 0.42mm

M73 P0 R112
M107
;TYPE:Custom
G90 ; use absolute coordinates
M83 ; extruder relative mode
M140 S60 ; set final bed temp
M104 S150 ; set temporary nozzle temp to prevent oozing during homing and auto bed leveling
G4 S10 ; allow partial nozzle warmup
G28 ; home all axisG1 Z50 F240
G1 X7.6 Y10 F3000
M104 S210 ; set final nozzle temp
M190 S60 ; wait for bed temp to stabilize
M109 S210 ; wait for nozzle temp to stabilize
G1 Z0.28 F240
G92 E0
G1 Y140 E10 F1500 ; prime the nozzle
G1 X4 F5000
G92 E0
G1 Y10 E10 F1200 ; prime the nozzle
G92 E0
G21 ; set units to millimeters
G90 ; use absolute coordinates
M83 ; use relative distances for extrusion
; Filament gcode
M107
;LAYER_CHANGE
;Z:0.35
;HEIGHT:0.35
;BEFORE_LAYER_CHANGE
G92 E0
;0.35


G1 E-1 F3600
G1 Z.35 F7800
;AFTER_LAYER_CHANGE
;0.35
G1 X140.917 Y76.288
G1 E1 F2400
;TYPE:Support material
;WIDTH:0.42
G1 F1800
G1 X137.603 Y76.288 E.16629
G1 X137.326 Y76.413 E.01526
G1 X128.693 Y86.121 E.65198
G1 X129.529 Y87.064 E.06326
G1 X131.391 Y85.773 E.11372
G1 X132.181 Y86.665 E.05979
G1 X129.355 Y89.844 E.21345
G1 X127.346 Y89.844 E.10084
G1 X127.346 Y92.103 E.11341
G1 X119.725 Y100.673 E.57553
G1 X120.431 Y100.674 E.03542
M73 P0 R111
G1 X120.431 Y103.257 E.12965
G1 X119.369 Y103.257 E.05331
G1 X119.369 Y102.066 E.05978
G1 X117.693 Y103.227 E.1023
G1 X117.609 Y103.253 E.00444
G1 X116.668 Y103.253 E.04724
G1 X116.668 Y104.227 E.0489
G1 X120.431 Y104.227 E.18886
G1 X120.431 Y106.253 E.10168
G1 X119.668 Y106.253 E.03829
G1 X119.668 Y106.807 E.02779
G1 X25.878 Y106.807 E4.70694
G1 X25.878 Y93.549 E.66536
G1 X29.27 Y93.549 E.17027
G1 X29.27 Y73.193 E1.02159
G1 X140.917 Y73.193 E5.60307
G1 X140.917 Y76.236 E.15273
G1 E-.7 F3600
;WIPE_START
G1 F6240
G1 X140.917 Y75.716 E-.285
;WIPE_END
G1 E-.015 F3600
G1 X69.67 Y86.451 F7800
G1 E1 F2400
G1 F1800
G1 X69.67 Y93.549 E.35623
G1 X83.554 Y93.549 E.69677
G1 X83.554 Y86.451 E.35623
G1 X69.722 Y86.451 E.69417
G1 X42.528 Y86.451 F7800
G1 F1800
G1 X42.528 Y93.549 E.35623
G1 X49.627 Y93.549 E.35623
G1 X49.627 Y86.451 E.35623
G1 X42.58 Y86.451 E.35364
G1 X140.383 Y76.133 F7800
G1 F1800
G1 X140.383 Y73.503 E.13196
G1 X140 Y73.503 E.01923
G1 X140 Y75.978 E.12417
G1 X139.617 Y75.978 E.01923
G1 X139.617 Y73.503 E.12417
G1 X139.233 Y73.503 E.01923
G1 X139.233 Y75.978 E.12417
G1 X138.85 Y75.978 E.01923
G1 X138.85 Y73.503 E.12417
G1 X138.467 Y73.503 E.01923
G1 X138.467 Y75.978 E.12417
G1 X138.084 Y75.978 E.01923
G1 X138.084 Y73.503 E.12417
G1 X137.701 Y73.503 E.01923
G1 X137.701 Y75.978 E.12417
G1 X137.537 Y75.978 E.00823
G1 X137.317 Y76.076 E.01206
G1 X137.317 Y73.503 E.12911
G1 X136.934 Y73.503 E.01923
G1 X136.934 Y76.386 E.14465
G1 X136.551 Y76.817 E.02894
G1 X136.551 Y73.503 E.16628
G1 X136.168 Y73.503 E.01923
G1 X136.168 Y77.248 E.18791
G1 X135.784 Y77.679 E.02894
G1 X135.784 Y73.503 E.20954
G1 X135.401 Y73.503 E.01923
G1 X135.401 Y78.11 E.23117
G1 X135.018 Y78.541 E.02894
G1 X135.018 Y73.503 E.2528
G1 X134.635 Y73.503 E.01923
G1 X134.635 Y78.972 E.27442
G1 X134.252 Y79.402 E.02894
G1 X134.252 Y73.503 E.29605
G1 X133.868 Y73.503 E.01923
G1 X133.868 Y79.833 E.31768
G1 X133.485 Y80.264 E.02894
G1 X133.485 Y73.503 E.33931
G1 X133.102 Y73.503 E.01923
G1 X133.102 Y80.695 E.36094
G1 X132.719 Y81.126 E.02894
G1 X132.719 Y73.503 E.38257
G1 X132.336 Y73.503 E.01923
G1 X132.336 Y81.557 E.4042
G1 X131.952 Y81.988 E.02894
G1 X131.952 Y73.503 E.42583
G1 X131.569 Y73.503 E.01923
G1 X131.569 Y82.419 E.44746
G1 X131.186 Y82.85 E.02894
G1 X131.186 Y73.503 E.46908
G1 X130.803 Y73.503 E.01923
G1 X130.803 Y83.281 E.49071
G1 X130.42 Y83.712 E.02894
G1 X130.42 Y73.503 E.51234
G1 X130.036 Y73.503 E.01923
G1 X130.036 Y84.143 E.53397
G1 X129.653 Y84.574 E.02894
G1 X129.653 Y73.503 E.5556
G1 X129.27 Y73.503 E.01923
G1 X129.27 Y85.005 E.57723
G1 X128.887 Y85.436 E.02894
G1 X128.887 Y73.503 E.59886
G1 X128.504 Y73.503 E.01923
G1 X128.504 Y85.867 E.62049
G1 X128.278 Y86.121 E.01703
G1 X128.504 Y86.375 E.01706
G1 X128.504 Y89.533 E.15849
G1 X128.887 Y89.533 E.01923
G1 X128.887 Y86.808 E.13678
G1 X129.27 Y87.24 E.029
G1 X129.27 Y89.472 E.11202
G1 X129.653 Y89.041 E.02894
G1 X129.653 Y87.356 E.08457
G1 X130.036 Y87.09 E.0234
G1 X130.036 Y88.61 E.07628
G1 X130.42 Y88.179 E.02894
G1 X130.42 Y86.825 E.06798
G1 X130.803 Y86.559 E.0234
G1 X130.803 Y87.748 E.05968
G1 X131.186 Y87.317 E.02894
G1 X131.186 Y86.293 E.05139
G1 X131.342 Y86.186 E.0095
G1 X131.569 Y86.442 E.01722
G1 X131.569 Y87.12 E.034
G1 X128.12 Y89.688 F7800
G1 F1800
G1 X128.12 Y73.503 E.81226
G1 X127.737 Y73.503 E.01923
G1 X127.737 Y89.533 E.80447
G1 X127.354 Y89.533 E.01923
G1 X127.354 Y73.503 E.80447
G1 X126.971 Y73.503 E.01923
G1 X126.971 Y92.058 E.93119
G1 X126.587 Y92.489 E.02894
G1 X126.587 Y73.503 E.95281
G1 X126.204 Y73.503 E.01923
G1 X126.204 Y92.92 E.97444
G1 X125.821 Y93.351 E.02894
G1 X125.821 Y73.503 E.99607
G1 X125.438 Y73.503 E.01923
G1 X125.438 Y93.782 E1.0177
G1 X125.055 Y94.213 E.02894
G1 X125.055 Y73.503 E1.03933
G1 X124.671 Y73.503 E.01923
G1 X124.671 Y94.644 E1.06096
G1 X124.288 Y95.075 E.02894
G1 X124.288 Y73.503 E1.08259
G1 X123.905 Y73.503 E.01923
G1 X123.905 Y95.506 E1.10422
G1 X123.522 Y95.937 E.02894
G1 X123.522 Y73.503 E1.12585
G1 X123.139 Y73.503 E.01923
G1 X123.139 Y96.368 E1.14747
G1 X122.755 Y96.799 E.02894
G1 X122.755 Y73.503 E1.1691
G1 X122.372 Y73.503 E.01923
G1 X122.372 Y97.23 E1.19073
G1 X121.989 Y97.661 E.02894
G1 X121.989 Y73.503 E1.21236
G1 X121.606 Y73.503 E.01923
G1 X121.606 Y98.092 E1.23399
G1 X121.223 Y98.523 E.02894
G1 X121.223 Y73.503 E1.25562
G1 X120.839 Y73.503 E.01923
G1 X120.839 Y98.954 E1.27725
G1 X120.456 Y99.385 E.02894
G1 X120.456 Y73.503 E1.29888
G1 X120.073 Y73.503 E.01923
G1 X120.073 Y99.816 E1.32051
G1 X119.69 Y100.247 E.02894
G1 X119.69 Y73.503 E1.34214
G1 X119.306 Y73.503 E.01923
G1 X119.306 Y101.731 E1.41664
G1 X118.923 Y101.997 E.0234
G1 X118.923 Y73.503 E1.42997
G1 X118.54 Y73.503 E.01923
G1 X118.54 Y102.262 E1.4433
G1 X118.157 Y102.528 E.0234
G1 X118.157 Y73.503 E1.45662
G1 X117.774 Y73.503 E.01923
G1 X117.774 Y102.793 E1.46995
G1 X117.558 Y102.943 E.01314
G1 X117.39 Y102.943 E.00843
G1 X117.39 Y73.503 E1.47743
G1 X117.007 Y73.503 E.01923
G1 X117.007 Y102.943 E1.47743
G1 X116.624 Y102.942 E.01923
G1 X116.624 Y73.503 E1.47743
G1 X116.241 Y73.503 E.01923
G1 X116.241 Y106.497 E1.6558
G1 X116.624 Y106.497 E.01923
G1 X116.624 Y104.538 E.09831
G1 X117.007 Y104.538 E.01923
G1 X117.007 Y106.497 E.09831
G1 X117.39 Y106.497 E.01923
M73 P1 R111
G1 X117.39 Y104.538 E.09831
G1 X117.774 Y104.538 E.01923
G1 X117.774 Y106.497 E.09831
G1 X118.157 Y106.497 E.01923
G1 X118.157 Y104.538 E.09831
G1 X118.54 Y104.538 E.01923
G1 X118.54 Y106.497 E.09831
G1 X118.923 Y106.497 E.01923
G1 X118.923 Y104.538 E.09831
G1 X119.306 Y104.538 E.01923
G1 X119.306 Y106.497 E.09831
G1 X119.357 Y106.497 E.00255
G1 X119.357 Y105.943 E.02779
G1 X119.69 Y105.943 E.01668
G1 X119.69 Y104.538 E.07052
G1 X120.073 Y104.538 E.01923
G1 X120.073 Y106.098 E.07831
G1 E-.7 F3600
;WIPE_START
G1 F6240
G1 X120.073 Y105.578 E-.285
;WIPE_END
G1 E-.015 F3600
G1 X120.073 Y103.102 F7800
G1 E1 F2400
G1 F1800
G1 X120.073 Y100.984 E.10628
G1 X119.69 Y100.984 E.01923
G1 X119.69 Y103.102 E.10628
G1 E-.7 F3600
;WIPE_START
G1 F6240
G1 X119.69 Y102.582 E-.285
;WIPE_END
G1 E-.015 F3600
G1 X115.858 Y106.652 F7800
G1 E1 F2400
G1 F1800
G1 X115.858 Y73.503 E1.66359
G1 X115.474 Y73.503 E.01923
G1 X115.474 Y106.497 E1.6558
G1 X115.091 Y106.497 E.01923
G1 X115.091 Y73.503 E1.6558
G1 X114.708 Y73.503 E.01923
G1 X114.708 Y106.497 E1.6558
G1 X114.325 Y106.497 E.01923
G1 X114.325 Y73.503 E1.6558
G1 X113.942 Y73.503 E.01923
G1 X113.942 Y106.497 E1.6558
G1 X113.558 Y106.497 E.01923
M73 P1 R110
G1 X113.558 Y73.503 E1.6558
G1 X113.175 Y73.503 E.01923
G1 X113.175 Y106.497 E1.6558
G1 X112.792 Y106.497 E.01923
G1 X112.792 Y73.503 E1.6558
G1 X112.409 Y73.503 E.01923
G1 X112.409 Y106.497 E1.6558
G1 X112.025 Y106.497 E.01923
G1 X112.025 Y73.503 E1.6558
G1 X111.642 Y73.503 E.01923
G1 X111.642 Y106.497 E1.6558
G1 X111.259 Y106.497 E.01923
G1 X111.259 Y73.503 E1.6558
G1 X110.876 Y73.503 E.01923
G1 X110.876 Y106.497 E1.6558
G1 X110.493 Y106.497 E.01923
G1 X110.493 Y73.503 E1.6558
G1 X110.109 Y73.503 E.01923
G1 X110.109 Y106.497 E1.6558
G1 X109.726 Y106.497 E.01923
G1 X109.726 Y73.503 E1.6558
G1 X109.343 Y73.503 E.01923
G1 X109.343 Y106.497 E1.6558
G1 X108.96 Y106.497 E.01923
G1 X108.96 Y73.503 E1.6558
G1 X108.577 Y73.503 E.01923
G1 X108.577 Y106.497 E1.6558
G1 X108.193 Y106.497 E.01923
G1 X108.193 Y73.503 E1.6558
G1 X107.81 Y73.503 E.01923
G1 X107.81 Y106.497 E1.6558
G1 X107.427 Y106.497 E.01923
G1 X107.427 Y73.503 E1.6558
G1 X107.044 Y73.503 E.01923
G1 X107.044 Y106.497 E1.6558
G1 X106.661 Y106.497 E.01923
G1 X106.661 Y73.503 E1.6558
G1 X106.277 Y73.503 E.01923
G1 X106.277 Y106.497 E1.6558
G1 X105.894 Y106.497 E.01923
G1 X105.894 Y73.503 E1.6558
G1 X105.511 Y73.503 E.01923
G1 X105.511 Y106.497 E1.6558
G1 X105.128 Y106.497 E.01923
G1 X105.128 Y73.503 E1.6558
G1 X104.744 Y73.503 E.01923
G1 X104.744 Y106.497 E1.6558
G1 X104.361 Y106.497 E.01923
G1 X104.361 Y73.503 E1.6558
G1 X103.978 Y73.503 E.01923
G1 X103.978 Y106.497 E1.6558
G1 X103.595 Y106.497 E.01923
G1 X103.595 Y73.503 E1.6558
G1 X103.212 Y73.503 E.01923
G1 X103.212 Y106.497 E1.6558
G1 X102.828 Y106.497 E.01923
G1 X102.828 Y73.503 E1.6558
G1 X102.445 Y73.503 E.01923
G1 X102.445 Y106.497 E1.6558
G1 X102.062 Y106.497 E.01923
G1 X102.062 Y73.503 E1.6558
G1 X101.679 Y73.503 E.01923
G1 X101.679 Y106.497 E1.6558
G1 X101.296 Y106.497 E.01923
G1 X101.296 Y73.503 E1.6558
G1 X100.912 Y73.503 E.01923
G1 X100.912 Y106.497 E1.6558
G1 X100.529 Y106.497 E.01923
G1 X100.529 Y73.503 E1.6558
G1 X100.146 Y73.503 E.01923
G1 X100.146 Y106.497 E1.6558
G1 X99.763 Y106.497 E.01923
G1 X99.763 Y73.503 E1.6558
G1 X99.38 Y73.503 E.01923
G1 X99.38 Y106.497 E1.6558
G1 X98.996 Y106.497 E.01923
G1 X98.996 Y73.503 E1.6558
G1 X98.613 Y73.503 E.01923
G1 X98.613 Y106.497 E1.6558
G1 X98.23 Y106.497 E.01923
G1 X98.23 Y73.503 E1.6558
G1 X97.847 Y73.503 E.01923
G1 X97.847 Y106.497 E1.6558
G1 X97.463 Y106.497 E.01923
G1 X97.463 Y73.503 E1.6558
G1 X97.08 Y73.503 E.01923
G1 X97.08 Y106.497 E1.6558
G1 X96.697 Y106.497 E.01923
G1 X96.697 Y73.503 E1.6558
G1 X96.314 Y73.503 E.01923
G1 X96.314 Y106.497 E1.6558
G1 X95.931 Y106.497 E.01923
G1 X95.931 Y73.503 E1.6558
G1 X95.547 Y73.503 E.01923
G1 X95.547 Y106.497 E1.6558
G1 X95.164 Y106.497 E.01923
G1 X95.164 Y73.503 E1.6558
G1 X94.781 Y73.503 E.01923
G1 X94.781 Y106.497 E1.6558
G1 X94.398 Y106.497 E.01923
G1 X94.398 Y73.503 E1.6558
G1 X94.015 Y73.503 E.01923
M73 P2 R109
G1 X94.015 Y106.497 E1.6558
G1 X93.631 Y106.497 E.01923
G1 X93.631 Y73.503 E1.6558
G1 X93.248 Y73.503 E.01923
G1 X93.248 Y106.497 E1.6558
G1 X92.865 Y106.497 E.01923
G1 X92.865 Y73.503 E1.6558
G1 X92.482 Y73.503 E.01923
G1 X92.482 Y106.497 E1.6558
G1 X92.099 Y106.497 E.01923
G1 X92.099 Y73.503 E1.6558
G1 X91.715 Y73.503 E.01923
G1 X91.715 Y106.497 E1.6558
G1 X91.332 Y106.497 E.01923
G1 X91.332 Y73.503 E1.6558
G1 X90.949 Y73.503 E.01923
G1 X90.949 Y106.497 E1.6558
G1 X90.566 Y106.497 E.01923
G1 X90.566 Y73.503 E1.6558
G1 X90.183 Y73.503 E.01923
G1 X90.183 Y106.497 E1.6558
G1 X89.799 Y106.497 E.01923
G1 X89.799 Y73.503 E1.6558
G1 X89.416 Y73.503 E.01923
G1 X89.416 Y106.497 E1.6558
G1 X89.033 Y106.497 E.01923
G1 X89.033 Y73.503 E1.6558
G1 X88.65 Y73.503 E.01923
G1 X88.65 Y106.497 E1.6558
G1 X88.266 Y106.497 E.01923
G1 X88.266 Y73.503 E1.6558
G1 X87.883 Y73.503 E.01923
G1 X87.883 Y106.497 E1.6558
G1 X87.5 Y106.497 E.01923
G1 X87.5 Y73.503 E1.6558
G1 X87.117 Y73.503 E.01923
G1 X87.117 Y106.497 E1.6558
G1 X86.734 Y106.497 E.01923
G1 X86.734 Y73.503 E1.6558
G1 X86.35 Y73.503 E.01923
G1 X86.35 Y106.497 E1.6558
G1 X85.967 Y106.497 E.01923
G1 X85.967 Y73.503 E1.6558
G1 X85.584 Y73.503 E.01923
G1 X85.584 Y106.497 E1.6558
G1 X85.201 Y106.497 E.01923
G1 X85.201 Y73.503 E1.6558
G1 X84.818 Y73.503 E.01923
G1 X84.818 Y106.497 E1.6558
G1 X84.434 Y106.497 E.01923
G1 X84.434 Y73.503 E1.6558
G1 X84.051 Y73.503 E.01923
G1 X84.051 Y106.497 E1.6558
G1 X83.668 Y106.497 E.01923
G1 X83.668 Y93.86 E.6342
G1 X83.285 Y93.86 E.01923
G1 X83.285 Y106.497 E.6342
G1 X82.902 Y106.497 E.01923
G1 X82.902 Y93.86 E.6342
G1 X82.518 Y93.86 E.01923
G1 X82.518 Y106.497 E.6342
G1 X82.135 Y106.497 E.01923
G1 X82.135 Y93.86 E.6342
G1 X81.752 Y93.86 E.01923
G1 X81.752 Y106.497 E.6342
G1 X81.369 Y106.497 E.01923
G1 X81.369 Y93.86 E.6342
G1 X80.985 Y93.86 E.01923
G1 X80.985 Y106.497 E.6342
G1 X80.602 Y106.497 E.01923
G1 X80.602 Y93.86 E.6342
G1 X80.219 Y93.86 E.01923
G1 X80.219 Y106.497 E.6342
G1 X79.836 Y106.497 E.01923
G1 X79.836 Y93.86 E.6342
G1 X79.453 Y93.86 E.01923
G1 X79.453 Y106.497 E.6342
G1 X79.069 Y106.497 E.01923
G1 X79.069 Y93.86 E.6342
G1 X78.686 Y93.86 E.01923
G1 X78.686 Y106.497 E.6342
G1 X78.303 Y106.497 E.01923
G1 X78.303 Y93.86 E.6342
G1 X77.92 Y93.86 E.01923
G1 X77.92 Y106.497 E.6342
G1 X77.537 Y106.497 E.01923
G1 X77.537 Y93.86 E.6342
G1 X77.153 Y93.86 E.01923
G1 X77.153 Y106.497 E.6342
G1 X76.77 Y106.497 E.01923
G1 X76.77 Y93.86 E.6342
G1 X76.387 Y93.86 E.01923
G1 X76.387 Y106.497 E.6342
G1 X76.004 Y106.497 E.01923
G1 X76.004 Y93.86 E.6342
G1 X75.621 Y93.86 E.01923
G1 X75.621 Y106.497 E.6342
G1 X75.237 Y106.497 E.01923
G1 X75.237 Y93.86 E.6342
G1 X74.854 Y93.86 E.01923
G1 X74.854 Y106.497 E.6342
G1 X74.471 Y106.497 E.01923
G1 X74.471 Y93.86 E.6342
G1 X74.088 Y93.86 E.01923
G1 X74.088 Y106.497 E.6342
G1 X73.704 Y106.497 E.01923
G1 X73.704 Y93.86 E.6342
G1 X73.321 Y93.86 E.01923
G1 X73.321 Y106.497 E.6342
G1 X72.938 Y106.497 E.01923
G1 X72.938 Y93.86 E.6342
G1 X72.555 Y93.86 E.01923
G1 X72.555 Y106.497 E.6342
G1 X72.172 Y106.497 E.01923
G1 X72.172 Y93.86 E.6342
G1 X71.788 Y93.86 E.01923
G1 X71.788 Y106.497 E.6342
G1 X71.405 Y106.497 E.01923
G1 X71.405 Y93.86 E.6342
G1 X71.022 Y93.86 E.01923
G1 X71.022 Y106.497 E.6342
G1 X70.639 Y106.497 E.01923
G1 X70.639 Y93.86 E.6342
G1 X70.256 Y93.86 E.01923
G1 X70.256 Y106.497 E.6342
G1 X69.872 Y106.497 E.01923
G1 X69.872 Y93.704 E.64199
G1 E-.7 F3600
;WIPE_START
G1 F6240
G1 X69.872 Y94.224 E-.285
;WIPE_END
G1 E-.015 F3600
G1 X83.668 Y86.296 F7800
G1 E1 F2400
G1 F1800
G1 X83.668 Y73.503 E.64199
G1 X83.285 Y73.503 E.01923
G1 X83.285 Y86.14 E.6342
G1 X82.902 Y86.14 E.01923
G1 X82.902 Y73.503 E.6342
G1 X82.518 Y73.503 E.01923
G1 X82.518 Y86.14 E.6342
G1 X82.135 Y86.14 E.01923
G1 X82.135 Y73.503 E.6342
G1 X81.752 Y73.503 E.01923
G1 X81.752 Y86.14 E.6342
G1 X81.369 Y86.14 E.01923
G1 X81.369 Y73.503 E.6342
G1 X80.985 Y73.503 E.01923
G1 X80.985 Y86.14 E.6342
G1 X80.602 Y86.14 E.01923
G1 X80.602 Y73.503 E.6342
G1 X80.219 Y73.503 E.01923
G1 X80.219 Y86.14 E.6342
G1 X79.836 Y86.14 E.01923
G1 X79.836 Y73.503 E.6342
G1 X79.453 Y73.503 E.01923
G1 X79.453 Y86.14 E.6342
G1 X79.069 Y86.14 E.01923
G1 X79.069 Y73.503 E.6342
G1 X78.686 Y73.503 E.01923
G1 X78.686 Y86.14 E.6342
G1 X78.303 Y86.14 E.01923
G1 X78.303 Y73.503 E.6342
G1 X77.92 Y73.503 E.01923
G1 X77.92 Y86.14 E.6342
G1 X77.537 Y86.14 E.01923
G1 X77.537 Y73.503 E.6342
G1 X77.153 Y73.503 E.01923
G1 X77.153 Y86.14 E.6342
G1 X76.77 Y86.14 E.01923
G1 X76.77 Y73.503 E.6342
G1 X76.387 Y73.503 E.01923
G1 X76.387 Y86.14 E.6342
G1 X76.004 Y86.14 E.01923
G1 X76.004 Y73.503 E.6342
G1 X75.621 Y73.503 E.01923
M73 P2 R108
G1 X75.621 Y86.14 E.6342
G1 X75.237 Y86.14 E.01923
G1 X75.237 Y73.503 E.6342
G1 X74.854 Y73.503 E.01923
G1 X74.854 Y86.14 E.6342
G1 X74.471 Y86.14 E.01923
G1 X74.471 Y73.503 E.6342
G1 X74.088 Y73.503 E.01923
G1 X74.088 Y86.14 E.6342
G1 X73.704 Y86.14 E.01923
G1 X73.704 Y73.503 E.6342
G1 X73.321 Y73.503 E.01923
G1 X73.321 Y86.14 E.6342
G1 X72.938 Y86.14 E.01923
G1 X72.938 Y73.503 E.6342
G1 X72.555 Y73.503 E.01923
G1 X72.555 Y86.14 E.6342
G1 X72.172 Y86.14 E.01923
G1 X72.172 Y73.503 E.6342
