; generated by PrusaSlicer 2.5.0+win64 on 2022-12-07 at 00:22:18 UTC

; 

; external perimeters extrusion width = 1.00mm
; perimeters extrusion width = 1.00mm
; infill extrusion width = 1.00mm
; solid infill extrusion width = 1.00mm
; top infill extrusion width = 1.00mm
; support material extrusion width = 1.00mm
; first layer extrusion width = 0.42mm

M73 P0 R140
M107
;TYPE:Custom
G90 ; use absolute coordinates
M83 ; extruder relative mode
M140 S60 ; set final bed temp
M104 S150 ; set temporary nozzle temp to prevent oozing during homing and auto bed leveling
G4 S10 ; allow partial nozzle warmup
G28 ; home all axisG1 Z50 F240
G1 X7.6 Y10 F3000
M104 S210 ; set final nozzle temp
M190 S60 ; wait for bed temp to stabilize
M109 S210 ; wait for nozzle temp to stabilize
G1 Z0.28 F240
G92 E0
G1 Y140 E10 F1500 ; prime the nozzle
G1 X4 F5000
G92 E0
G1 Y10 E10 F1200 ; prime the nozzle
G92 E0
G21 ; set units to millimeters
G90 ; use absolute coordinates
M83 ; use relative distances for extrusion
; Filament gcode
M107
;LAYER_CHANGE
;Z:0.35
;HEIGHT:0.35
;BEFORE_LAYER_CHANGE
G92 E0
;0.35


G1 E-1 F3600
M73 P0 R139
G1 Z.35 F7800
;AFTER_LAYER_CHANGE
;0.35
G1 X31.275 Y75.773
G1 E1 F2400
;TYPE:Support material
;WIDTH:0.42
G1 F1800
G1 X28.275 Y75.773 E.15056
G1 X28.275 Y76.706 E.04686
G1 X31.275 Y76.706 E.15056
G1 X31.275 Y79.286 E.12947
G1 X22.302 Y79.286 E.45029
G1 X22.302 Y73.193 E.3058
G1 X31.275 Y73.193 E.45029
G1 X31.275 Y75.721 E.12687
G1 E-.7 F3600
;WIPE_START
G1 F6240
G1 X31.275 Y75.201 E-.285
;WIPE_END
G1 E-.015 F3600
G1 X30.602 Y79.131 F7800
G1 E1 F2400
G1 F1800
G1 X30.602 Y77.017 E.1061
G1 X30.219 Y77.017 E.01923
G1 X30.219 Y78.976 E.09831
G1 X29.836 Y78.976 E.01923
G1 X29.836 Y77.017 E.09831
G1 X29.453 Y77.017 E.01923
G1 X29.453 Y78.976 E.09831
G1 X29.07 Y78.976 E.01923
G1 X29.07 Y77.017 E.09831
G1 X28.686 Y77.017 E.01923
G1 X28.686 Y78.976 E.09831
G1 X28.303 Y78.976 E.01923
G1 X28.303 Y77.017 E.09831
G1 X27.965 Y77.017 E.01699
G1 X27.965 Y75.462 E.07801
G1 X28.303 Y75.462 E.01699
G1 X28.303 Y73.503 E.09831
G1 X28.686 Y73.503 E.01923
G1 X28.686 Y75.462 E.09831
G1 X29.07 Y75.462 E.01923
G1 X29.07 Y73.503 E.09831
G1 X29.453 Y73.503 E.01923
G1 X29.453 Y75.462 E.09831
G1 X29.836 Y75.462 E.01923
G1 X29.836 Y73.503 E.09831
G1 X30.219 Y73.503 E.01923
G1 X30.219 Y75.462 E.09831
G1 X30.602 Y75.462 E.01923
G1 X30.602 Y73.348 E.1061
G1 E-.7 F3600
;WIPE_START
G1 F6240
G1 X30.602 Y73.868 E-.285
;WIPE_END
G1 E-.015 F3600
G1 X27.92 Y79.131 F7800
G1 E1 F2400
G1 F1800
G1 X27.92 Y73.503 E.28243
G1 X27.537 Y73.503 E.01923
G1 X27.537 Y78.976 E.27464
G1 X27.154 Y78.976 E.01923
G1 X27.154 Y73.503 E.27464
G1 X26.77 Y73.503 E.01923
G1 X26.77 Y78.976 E.27464
G1 X26.387 Y78.976 E.01923
G1 X26.387 Y73.503 E.27464
G1 X26.004 Y73.503 E.01923
G1 X26.004 Y78.976 E.27464
G1 X25.621 Y78.976 E.01923
G1 X25.621 Y73.503 E.27464
G1 X25.238 Y73.503 E.01923
G1 X25.238 Y78.976 E.27464
G1 X24.854 Y78.976 E.01923
G1 X24.854 Y73.503 E.27464
G1 X24.471 Y73.503 E.01923
G1 X24.471 Y78.976 E.27464
G1 X24.088 Y78.976 E.01923
G1 X24.088 Y73.503 E.27464
G1 X23.705 Y73.503 E.01923
G1 X23.705 Y78.976 E.27464
G1 X23.321 Y78.976 E.01923
G1 X23.321 Y73.503 E.27464
G1 X22.938 Y73.503 E.01923
G1 X22.938 Y79.131 E.28243
G1 E-.7 F3600
;WIPE_START
G1 F6240
G1 X22.938 Y78.611 E-.285
;WIPE_END
G1 E-.015 F3600
G1 X24.387 Y92.358 F7800
G1 E1 F2400
;TYPE:Support material interface
;WIDTH:1
G1 F1800
G1 X24.387 Y93.794 E.19328
G1 E-.7 F3600
;WIPE_START
G1 F6240
G1 X24.387 Y93.274 E-.285
;WIPE_END
G1 E-.015 F3600
G1 X34.206 Y87.009 F7800
G1 E1 F2400
G1 F1800
G1 X34.206 Y86.039 E.13054
G1 X35.099 Y85.42 E.14619
G1 X35.099 Y87.009 E.21384
G1 E-.7 F3600
;WIPE_START
G1 F6240
G1 X35.099 Y86.489 E-.285
;WIPE_END
G1 E-.015 F3600
G1 X12.781 Y103.973 F7800
G1 E1 F2400
G1 F1800
G1 X12.781 Y86.607 E2.33708
G1 X13.023 Y86.607 E.03256
G1 X13.023 Y98.838 E1.64604
G1 X13.674 Y99.179 E.09886
G1 X13.674 Y103.571 E.59112
G1 X14.567 Y103.571 E.12014
G1 X14.567 Y99.646 E.52822
G1 X15.46 Y99.036 E.14549
G1 X15.46 Y103.571 E.61028
G1 X16.352 Y103.571 E.12014
G1 X16.352 Y98.417 E.69358
G1 X17.245 Y97.798 E.14619
G1 X17.245 Y103.571 E.77687
G1 X18.138 Y103.571 E.12014
G1 X18.138 Y97.179 E.86017
G1 X19.03 Y96.561 E.14619
G1 X19.03 Y103.571 E.94346
G1 X19.923 Y103.571 E.12014
G1 X19.923 Y95.942 E1.02676
G1 X20.816 Y95.323 E.14619
G1 X20.816 Y103.571 E1.11005
G1 X21.708 Y103.571 E.12014
G1 X21.708 Y94.704 E1.19335
G1 X22.146 Y94.4 E.07166
G1 X22.146 Y96.785 E.32097
G1 X22.601 Y96.785 E.06125
G1 X22.601 Y103.571 E.91321
G1 X23.494 Y103.571 E.12014
G1 X23.494 Y96.785 E.91321
G1 X24.387 Y96.785 E.12014
G1 X24.387 Y103.571 E.91321
G1 X25.279 Y103.571 E.12014
G1 X25.279 Y92.228 E1.52653
G1 X26.172 Y91.609 E.14619
G1 X26.172 Y103.571 E1.60983
G1 X27.065 Y103.571 E.12014
G1 X27.065 Y90.99 E1.69312
G1 X27.957 Y90.371 E.14619
G1 X27.957 Y103.571 E1.77642
G1 X28.85 Y103.571 E.12014
G1 X28.85 Y89.753 E1.85971
G1 X29.743 Y89.134 E.14619
G1 X29.743 Y103.571 E1.94301
G1 X30.635 Y103.571 E.12014
G1 X30.635 Y88.515 E2.02631
G1 X31.528 Y87.896 E.14619
G1 X31.528 Y103.571 E2.1096
G1 X32.421 Y103.571 E.12014
G1 X32.421 Y90 E1.82641
G1 X33.314 Y90 E.12014
G1 X33.314 Y103.571 E1.82641
G1 X34.206 Y103.571 E.12014
G1 X34.206 Y90 E1.82641
G1 X35.099 Y90 E.12014
G1 X35.099 Y103.571 E1.82641
G1 X35.992 Y103.571 E.12014
G1 X35.992 Y84.801 E2.52608
G1 X36.884 Y84.182 E.14619
G1 X36.884 Y103.571 E2.60937
G1 X37.777 Y103.571 E.12014
G1 X37.777 Y83.563 E2.69267
G1 X38.67 Y82.944 E.14619
G1 X38.67 Y103.571 E2.77597
G1 X39.562 Y103.571 E.12014
G1 X39.562 Y82.326 E2.85926
G1 X40.455 Y81.707 E.14619
G1 X40.455 Y103.571 E2.94256
G1 X41.348 Y103.571 E.12014
G1 X41.348 Y81.088 E3.02585
G1 X42.241 Y80.469 E.14619
G1 X42.241 Y103.571 E3.10915
G1 X42.502 Y103.571 E.03522
G1 X42.502 Y100.178 E.4566
G1 X43.133 Y100.178 E.08492
G1 X43.133 Y79.85 E2.73584
G1 X44.026 Y79.231 E.14619
G1 X44.026 Y100.178 E2.81914
G1 X44.919 Y100.178 E.12014
G1 X44.919 Y76.429 E3.19621
G1 X45.811 Y76.429 E.12014
G1 X45.811 Y100.178 E3.19621
G1 X45.895 Y100.178 E.01125
G1 X45.895 Y96.785 E.4566
G1 X46.704 Y96.785 E.10889
G1 X46.704 Y76.429 E2.73961
G1 X47.597 Y76.429 E.12014
G1 X47.597 Y96.785 E2.73961
G1 X48.489 Y96.785 E.12014
G1 X48.489 Y76.429 E2.73961
G1 X49.382 Y76.429 E.12014
G1 X49.382 Y96.785 E2.73961
G1 X50.275 Y96.785 E.12014
G1 X50.275 Y76.429 E2.73961
G1 X51.168 Y76.429 E.12014
G1 X51.168 Y96.785 E2.73961
G1 X52.06 Y96.785 E.12014
G1 X52.06 Y76.429 E2.73961
G1 X52.953 Y76.429 E.12014
G1 X52.953 Y93.393 E2.28301
G1 X53.846 Y93.393 E.12014
G1 X53.846 Y76.429 E2.28301
G1 X54.738 Y76.429 E.12014
G1 X54.738 Y93.393 E2.28301
G1 X55.631 Y93.393 E.12014
G1 X55.631 Y76.429 E2.28301
G1 X56.524 Y76.429 E.12014
G1 X56.524 Y90 E1.82641
G1 X57.416 Y90 E.12014
G1 X57.416 Y76.429 E1.82641
G1 X58.309 Y76.429 E.12014
G1 X58.309 Y90 E1.82641
G1 X59.202 Y90 E.12014
G1 X59.202 Y76.429 E1.82641
G1 X60.095 Y76.429 E.12014
G1 X60.095 Y90 E1.82641
G1 X60.987 Y90 E.12014
G1 X60.987 Y76.429 E1.82641
G1 X61.88 Y76.429 E.12014
G1 X61.88 Y90 E1.82641
G1 X62.773 Y90 E.12014
G1 X62.773 Y76.429 E1.82641
G1 X63.665 Y76.429 E.12014
G1 X63.665 Y86.607 E1.36981
G1 X64.558 Y86.607 E.12014
G1 X64.558 Y76.429 E1.36981
G1 X65.451 Y76.429 E.12014
G1 X65.451 Y86.607 E1.36981
G1 X66.251 Y86.607 E.10772
G1 X66.251 Y83.215 E.4566
G1 X66.343 Y83.215 E.01242
G1 X66.343 Y76.429 E.91321
G1 X67.236 Y76.429 E.12014
G1 X67.236 Y83.215 E.91321
G1 X68.129 Y83.215 E.12014
G1 X68.129 Y76.429 E.91321
G1 X69.022 Y76.429 E.12014
G1 X69.022 Y83.215 E.91321
G1 X69.914 Y83.215 E.12014
G1 X69.914 Y76.429 E.91321
G1 X70.807 Y76.429 E.12014
G1 X70.807 Y83.215 E.91321
G1 X71.7 Y83.215 E.12014
G1 X71.7 Y76.429 E.91321
G1 X72.592 Y76.429 E.12014
G1 X72.592 Y83.215 E.91321
G1 X73.037 Y83.215 E.05978
G1 X73.037 Y79.822 E.4566
G1 X73.485 Y79.822 E.06036
G1 X73.485 Y76.429 E.45661
G1 X74.378 Y76.429 E.12014
G1 X74.378 Y79.822 E.45661
G1 X75.27 Y79.822 E.12014
G1 X75.27 Y76.429 E.45661
G1 X76.163 Y76.429 E.12014
G1 X76.163 Y80.224 E.51067
G1 E-.7 F3600
;WIPE_START
G1 F6240
G1 X76.163 Y79.704 E-.285
;WIPE_END
G1 E-.015 F3600
G1 X171.268 Y106.807 F7800
G1 E1 F2400
;TYPE:Support material
;WIDTH:0.42
G1 F1800
G1 X40.159 Y106.807 E6.57986
G1 X40.159 Y104.227 E.12947
M73 P0 R138
G1 X43.159 Y104.227 E.15056
G1 X43.159 Y100.835 E.17027
G1 X46.551 Y100.835 E.17027
G1 X46.551 Y97.442 E.17027
G1 X53.337 Y97.442 E.34053
G1 X53.337 Y94.049 E.17027
G1 X56.729 Y94.049 E.17027
G1 X56.729 Y90.656 E.17027
G1 X63.515 Y90.656 E.34053
G1 X63.515 Y87.264 E.17027
G1 X66.908 Y87.264 E.17027
G1 X66.908 Y83.871 E.17027
G1 X73.693 Y83.871 E.34053
G1 X73.693 Y80.478 E.17027
G1 X77.086 Y80.478 E.17027
G1 X77.086 Y75.773 E.23616
G1 X74.086 Y75.773 E.15056
G1 X74.086 Y73.193 E.12947
G1 X171.268 Y73.193 E4.8772
G1 X171.268 Y106.755 E1.68436
G1 X170.857 Y106.652 F7800
G1 F1800
G1 X170.857 Y73.503 E1.66359
G1 X170.474 Y73.503 E.01923
G1 X170.474 Y106.497 E1.6558
G1 X170.091 Y106.497 E.01923
G1 X170.091 Y73.503 E1.6558
G1 X169.708 Y73.503 E.01923
G1 X169.708 Y106.497 E1.6558
G1 X169.324 Y106.497 E.01923
G1 X169.324 Y73.503 E1.6558
G1 X168.941 Y73.503 E.01923
G1 X168.941 Y106.497 E1.6558
G1 X168.558 Y106.497 E.01923
G1 X168.558 Y73.503 E1.6558
G1 X168.175 Y73.503 E.01923
G1 X168.175 Y106.497 E1.6558
G1 X167.792 Y106.497 E.01923
G1 X167.792 Y73.503 E1.6558
G1 X167.408 Y73.503 E.01923
M73 P1 R138
G1 X167.408 Y106.497 E1.6558
G1 X167.025 Y106.497 E.01923
G1 X167.025 Y73.503 E1.6558
G1 X166.642 Y73.503 E.01923
G1 X166.642 Y106.497 E1.6558
G1 X166.259 Y106.497 E.01923
G1 X166.259 Y73.503 E1.6558
G1 X165.876 Y73.503 E.01923
G1 X165.876 Y106.497 E1.6558
G1 X165.492 Y106.497 E.01923
G1 X165.492 Y73.503 E1.6558
G1 X165.109 Y73.503 E.01923
G1 X165.109 Y106.497 E1.6558
G1 X164.726 Y106.497 E.01923
G1 X164.726 Y73.503 E1.6558
G1 X164.343 Y73.503 E.01923
G1 X164.343 Y106.497 E1.6558
G1 X163.96 Y106.497 E.01923
G1 X163.96 Y73.503 E1.6558
G1 X163.576 Y73.503 E.01923
G1 X163.576 Y106.497 E1.6558
G1 X163.193 Y106.497 E.01923
G1 X163.193 Y73.503 E1.6558
G1 X162.81 Y73.503 E.01923
G1 X162.81 Y106.497 E1.6558
G1 X162.427 Y106.497 E.01923
G1 X162.427 Y73.503 E1.6558
G1 X162.043 Y73.503 E.01923
G1 X162.043 Y106.497 E1.6558
G1 X161.66 Y106.497 E.01923
G1 X161.66 Y73.503 E1.6558
G1 X161.277 Y73.503 E.01923
G1 X161.277 Y106.497 E1.6558
G1 X160.894 Y106.497 E.01923
G1 X160.894 Y73.503 E1.6558
G1 X160.511 Y73.503 E.01923
G1 X160.511 Y106.497 E1.6558
G1 X160.127 Y106.497 E.01923
G1 X160.127 Y73.503 E1.6558
G1 X159.744 Y73.503 E.01923
G1 X159.744 Y106.497 E1.6558
G1 X159.361 Y106.497 E.01923
G1 X159.361 Y73.503 E1.6558
G1 X158.978 Y73.503 E.01923
G1 X158.978 Y106.497 E1.6558
G1 X158.595 Y106.497 E.01923
G1 X158.595 Y73.503 E1.6558
G1 X158.211 Y73.503 E.01923
G1 X158.211 Y106.497 E1.6558
G1 X157.828 Y106.497 E.01923
G1 X157.828 Y73.503 E1.6558
G1 X157.445 Y73.503 E.01923
G1 X157.445 Y106.497 E1.6558
G1 X157.062 Y106.497 E.01923
G1 X157.062 Y73.503 E1.6558
G1 X156.679 Y73.503 E.01923
G1 X156.679 Y106.497 E1.6558
G1 X156.295 Y106.497 E.01923
G1 X156.295 Y73.503 E1.6558
G1 X155.912 Y73.503 E.01923
G1 X155.912 Y106.497 E1.6558
G1 X155.529 Y106.497 E.01923
G1 X155.529 Y73.503 E1.6558
G1 X155.146 Y73.503 E.01923
G1 X155.146 Y106.497 E1.6558
G1 X154.762 Y106.497 E.01923
G1 X154.762 Y73.503 E1.6558
G1 X154.379 Y73.503 E.01923
G1 X154.379 Y106.497 E1.6558
G1 X153.996 Y106.497 E.01923
G1 X153.996 Y73.503 E1.6558
G1 X153.613 Y73.503 E.01923
M73 P1 R137
G1 X153.613 Y106.497 E1.6558
G1 X153.23 Y106.497 E.01923
G1 X153.23 Y73.503 E1.6558
G1 X152.846 Y73.503 E.01923
G1 X152.846 Y106.497 E1.6558
G1 X152.463 Y106.497 E.01923
G1 X152.463 Y73.503 E1.6558
G1 X152.08 Y73.503 E.01923
G1 X152.08 Y106.497 E1.6558
G1 X151.697 Y106.497 E.01923
G1 X151.697 Y73.503 E1.6558
G1 X151.314 Y73.503 E.01923
G1 X151.314 Y106.497 E1.6558
G1 X150.93 Y106.497 E.01923
G1 X150.93 Y73.503 E1.6558
G1 X150.547 Y73.503 E.01923
G1 X150.547 Y106.497 E1.6558
G1 X150.164 Y106.497 E.01923
G1 X150.164 Y73.503 E1.6558
G1 X149.781 Y73.503 E.01923
G1 X149.781 Y106.497 E1.6558
G1 X149.398 Y106.497 E.01923
G1 X149.398 Y73.503 E1.6558
G1 X149.014 Y73.503 E.01923
G1 X149.014 Y106.497 E1.6558
G1 X148.631 Y106.497 E.01923
G1 X148.631 Y73.503 E1.6558
G1 X148.248 Y73.503 E.01923
G1 X148.248 Y106.497 E1.6558
G1 X147.865 Y106.497 E.01923
G1 X147.865 Y73.503 E1.6558
G1 X147.482 Y73.503 E.01923
G1 X147.482 Y106.497 E1.6558
G1 X147.098 Y106.497 E.01923
G1 X147.098 Y73.503 E1.6558
G1 X146.715 Y73.503 E.01923
G1 X146.715 Y106.497 E1.6558
G1 X146.332 Y106.497 E.01923
G1 X146.332 Y73.503 E1.6558
G1 X145.949 Y73.503 E.01923
G1 X145.949 Y106.497 E1.6558
G1 X145.565 Y106.497 E.01923
G1 X145.565 Y73.503 E1.6558
G1 X145.182 Y73.503 E.01923
G1 X145.182 Y106.497 E1.6558
G1 X144.799 Y106.497 E.01923
G1 X144.799 Y73.503 E1.6558
G1 X144.416 Y73.503 E.01923
G1 X144.416 Y106.497 E1.6558
G1 X144.033 Y106.497 E.01923
G1 X144.033 Y73.503 E1.6558
G1 X143.649 Y73.503 E.01923
G1 X143.649 Y106.497 E1.6558
G1 X143.266 Y106.497 E.01923
G1 X143.266 Y73.503 E1.6558
G1 X142.883 Y73.503 E.01923
G1 X142.883 Y106.497 E1.6558
G1 X142.5 Y106.497 E.01923
G1 X142.5 Y73.503 E1.6558
G1 X142.117 Y73.503 E.01923
G1 X142.117 Y106.497 E1.6558
G1 X141.733 Y106.497 E.01923
G1 X141.733 Y73.503 E1.6558
G1 X141.35 Y73.503 E.01923
G1 X141.35 Y106.497 E1.6558
G1 X140.967 Y106.497 E.01923
G1 X140.967 Y73.503 E1.6558
G1 X140.584 Y73.503 E.01923
G1 X140.584 Y106.497 E1.6558
G1 X140.201 Y106.497 E.01923
G1 X140.201 Y73.503 E1.6558
G1 X139.817 Y73.503 E.01923
M73 P2 R137
G1 X139.817 Y106.497 E1.6558
G1 X139.434 Y106.497 E.01923
G1 X139.434 Y73.503 E1.6558
G1 X139.051 Y73.503 E.01923
G1 X139.051 Y106.497 E1.6558
G1 X138.668 Y106.497 E.01923
G1 X138.668 Y73.503 E1.6558
G1 X138.284 Y73.503 E.01923
G1 X138.284 Y106.497 E1.6558
G1 X137.901 Y106.497 E.01923
G1 X137.901 Y73.503 E1.6558
G1 X137.518 Y73.503 E.01923
G1 X137.518 Y106.497 E1.6558
G1 X137.135 Y106.497 E.01923
G1 X137.135 Y73.503 E1.6558
G1 X136.752 Y73.503 E.01923
G1 X136.752 Y106.497 E1.6558
G1 X136.368 Y106.497 E.01923
G1 X136.368 Y73.503 E1.6558
G1 X135.985 Y73.503 E.01923
G1 X135.985 Y106.497 E1.6558
G1 X135.602 Y106.497 E.01923
G1 X135.602 Y73.503 E1.6558
G1 X135.219 Y73.503 E.01923
G1 X135.219 Y106.497 E1.6558
G1 X134.836 Y106.497 E.01923
G1 X134.836 Y73.503 E1.6558
G1 X134.452 Y73.503 E.01923
G1 X134.452 Y106.497 E1.6558
G1 X134.069 Y106.497 E.01923
G1 X134.069 Y73.503 E1.6558
G1 X133.686 Y73.503 E.01923
M73 P2 R136
G1 X133.686 Y106.497 E1.6558
G1 X133.303 Y106.497 E.01923
G1 X133.303 Y73.503 E1.6558
G1 X132.92 Y73.503 E.01923
G1 X132.92 Y106.497 E1.6558
G1 X132.536 Y106.497 E.01923
G1 X132.536 Y73.503 E1.6558
G1 X132.153 Y73.503 E.01923
G1 X132.153 Y106.497 E1.6558
G1 X131.77 Y106.497 E.01923
G1 X131.77 Y73.503 E1.6558
G1 X131.387 Y73.503 E.01923
G1 X131.387 Y106.497 E1.6558
G1 X131.003 Y106.497 E.01923
G1 X131.003 Y73.503 E1.6558
G1 X130.62 Y73.503 E.01923
G1 X130.62 Y106.497 E1.6558
G1 X130.237 Y106.497 E.01923
G1 X130.237 Y73.503 E1.6558
G1 X129.854 Y73.503 E.01923
G1 X129.854 Y106.497 E1.6558
G1 X129.471 Y106.497 E.01923
G1 X129.471 Y73.503 E1.6558
G1 X129.087 Y73.503 E.01923
G1 X129.087 Y106.497 E1.6558
G1 X128.704 Y106.497 E.01923
G1 X128.704 Y73.503 E1.6558
G1 X128.321 Y73.503 E.01923
G1 X128.321 Y106.497 E1.6558
G1 X127.938 Y106.497 E.01923
G1 X127.938 Y73.503 E1.6558
G1 X127.555 Y73.503 E.01923
G1 X127.555 Y106.497 E1.6558
G1 X127.171 Y106.497 E.01923
G1 X127.171 Y73.503 E1.6558
G1 X126.788 Y73.503 E.01923
G1 X126.788 Y106.497 E1.6558
G1 X126.405 Y106.497 E.01923
G1 X126.405 Y73.503 E1.6558
G1 X126.022 Y73.503 E.01923
G1 X126.022 Y106.497 E1.6558
G1 X125.639 Y106.497 E.01923
G1 X125.639 Y73.503 E1.6558
G1 X125.255 Y73.503 E.01923
G1 X125.255 Y106.497 E1.6558
G1 X124.872 Y106.497 E.01923
G1 X124.872 Y73.503 E1.6558
G1 X124.489 Y73.503 E.01923
G1 X124.489 Y106.497 E1.6558
G1 X124.106 Y106.497 E.01923
G1 X124.106 Y73.503 E1.6558
G1 X123.722 Y73.503 E.01923
G1 X123.722 Y106.497 E1.6558
G1 X123.339 Y106.497 E.01923
G1 X123.339 Y73.503 E1.6558
G1 X122.956 Y73.503 E.01923
G1 X122.956 Y106.497 E1.6558
G1 X122.573 Y106.497 E.01923
