; generated by PrusaSlicer 2.5.0+win64 on 2022-12-07 at 00:22:29 UTC

; 

; external perimeters extrusion width = 1.00mm
; perimeters extrusion width = 1.00mm
; infill extrusion width = 1.00mm
; solid infill extrusion width = 1.00mm
; top infill extrusion width = 1.00mm
; support material extrusion width = 1.00mm
; first layer extrusion width = 0.42mm

M73 P0 R173
M107
;TYPE:Custom
G90 ; use absolute coordinates
M83 ; extruder relative mode
M140 S60 ; set final bed temp
M104 S150 ; set temporary nozzle temp to prevent oozing during homing and auto bed leveling
G4 S10 ; allow partial nozzle warmup
G28 ; home all axisG1 Z50 F240
G1 X7.6 Y10 F3000
M104 S210 ; set final nozzle temp
M190 S60 ; wait for bed temp to stabilize
M109 S210 ; wait for nozzle temp to stabilize
G1 Z0.28 F240
G92 E0
G1 Y140 E10 F1500 ; prime the nozzle
G1 X4 F5000
G92 E0
G1 Y10 E10 F1200 ; prime the nozzle
G92 E0
G21 ; set units to millimeters
G90 ; use absolute coordinates
M83 ; use relative distances for extrusion
; Filament gcode
M107
;LAYER_CHANGE
;Z:0.35
;HEIGHT:0.35
;BEFORE_LAYER_CHANGE
G92 E0
;0.35


G1 E-1 F3600
G1 Z.35 F7800
;AFTER_LAYER_CHANGE
;0.35
G1 X14.525 Y141.385
G1 E1 F2400
;TYPE:Perimeter
;WIDTH:0.42
G1 F1800
G1 X165.475 Y140.706 E7.57564
G1 X165.475 Y155.289 E.73187
G1 X14.525 Y155.982 E7.57565
G1 X14.525 Y141.535 E.72499
G1 X14.18 Y141.042 F7800
;TYPE:External perimeter
G1 F1800
G1 X165.82 Y140.359 E7.61026
G1 X165.82 Y155.632 E.76648
G1 X14.18 Y156.328 E7.61026
G1 X14.18 Y141.192 E.75961
G1 X15.18 Y141.071 F7800
G1 E-.7 F3600
;WIPE_START
G1 F6240
G1 X14.7 Y141.189 E-.285
;WIPE_END
G1 E-.015 F3600
G1 X164.677 Y140.813 F7800
G1 E1 F2400
;TYPE:Solid infill
;WIDTH:0.420097
G1 F1800
G1 X165.216 Y141.352 E.03827
G1 X165.216 Y141.839 E.02449
G1 X164.346 Y140.969 E.06178
G1 X163.861 Y140.971 E.02438
G1 X165.216 Y142.327 E.09626
G1 X165.216 Y142.815 E.02449
G1 X163.375 Y140.974 E.13074
G1 X162.889 Y140.976 E.02438
G1 X165.216 Y143.303 E.16522
G1 X165.216 Y143.791 E.02449
G1 X162.403 Y140.978 E.1997
G1 X161.918 Y140.98 E.02438
G1 X165.216 Y144.279 E.23418
G1 X165.216 Y144.767 E.02449
G1 X161.432 Y140.982 E.26867
G1 X160.946 Y140.985 E.02438
G1 X165.216 Y145.255 E.30315
G1 X165.216 Y145.743 E.02449
G1 X160.461 Y140.987 E.33763
G1 X159.975 Y140.989 E.02438
G1 X165.216 Y146.23 E.37211
G1 X165.216 Y146.718 E.02449
G1 X159.489 Y140.991 E.40659
G1 X159.004 Y140.993 E.02438
G1 X165.216 Y147.206 E.44107
G1 X165.216 Y147.694 E.02449
G1 X158.518 Y140.996 E.47555
G1 X158.032 Y140.998 E.02438
G1 X165.216 Y148.182 E.51003
G1 X165.216 Y148.67 E.02449
G1 X157.547 Y141 E.54452
G1 X157.061 Y141.002 E.02438
G1 X165.216 Y149.158 E.579
G1 X165.216 Y149.646 E.02449
G1 X156.575 Y141.004 E.61348
G1 X156.089 Y141.006 E.02438
G1 X165.216 Y150.133 E.64796
G1 X165.216 Y150.621 E.02449
G1 X155.604 Y141.009 E.68244
G1 X155.118 Y141.011 E.02438
G1 X165.216 Y151.109 E.71692
G1 X165.216 Y151.597 E.02449
G1 X154.632 Y141.013 E.7514
G1 X154.147 Y141.015 E.02438
G1 X165.216 Y152.085 E.78589
G1 X165.216 Y152.573 E.02449
G1 X153.661 Y141.017 E.82037
G1 X153.175 Y141.02 E.02438
G1 X165.216 Y153.061 E.85485
G1 X165.216 Y153.549 E.02449
G1 X152.69 Y141.022 E.88933
G1 X152.204 Y141.024 E.02438
G1 X165.216 Y154.037 E.92381
G1 X165.216 Y154.524 E.02449
G1 X151.718 Y141.026 E.95829
G1 X151.232 Y141.028 E.02438
G1 X165.216 Y155.012 E.99277
G1 X165.216 Y155.031 E.00095
G1 X164.75 Y155.033 E.02344
G1 X150.747 Y141.031 E.99411
G1 X150.261 Y141.033 E.02438
G1 X164.264 Y155.036 E.99411
G1 X163.778 Y155.038 E.02438
G1 X149.775 Y141.035 E.99411
G1 X149.29 Y141.037 E.02438
G1 X163.293 Y155.04 E.99412
G1 X162.807 Y155.042 E.02438
G1 X148.804 Y141.039 E.99412
G1 X148.318 Y141.041 E.02438
G1 X162.321 Y155.044 E.99412
G1 X161.836 Y155.047 E.02438
G1 X147.833 Y141.044 E.99413
G1 X147.347 Y141.046 E.02438
M73 P0 R172
G1 X161.35 Y155.049 E.99413
G1 X160.864 Y155.051 E.02438
G1 X146.861 Y141.048 E.99413
G1 X146.375 Y141.05 E.02438
G1 X160.379 Y155.053 E.99413
G1 X159.893 Y155.056 E.02438
G1 X145.89 Y141.052 E.99414
G1 X145.404 Y141.055 E.02438
G1 X159.407 Y155.058 E.99414
G1 X158.922 Y155.06 E.02438
G1 X144.918 Y141.057 E.99414
G1 X144.433 Y141.059 E.02438
G1 X158.436 Y155.062 E.99415
G1 X157.95 Y155.065 E.02438
G1 X143.947 Y141.061 E.99415
G1 X143.461 Y141.063 E.02438
G1 X157.465 Y155.067 E.99415
G1 X156.979 Y155.069 E.02438
G1 X142.976 Y141.066 E.99416
G1 X142.49 Y141.068 E.02438
G1 X156.493 Y155.071 E.99416
G1 X156.008 Y155.073 E.02438
G1 X142.004 Y141.07 E.99416
G1 X141.519 Y141.072 E.02438
G1 X155.522 Y155.076 E.99416
G1 X155.036 Y155.078 E.02438
G1 X141.033 Y141.074 E.99417
G1 X140.547 Y141.076 E.02438
G1 X154.551 Y155.08 E.99417
G1 X154.065 Y155.082 E.02438
G1 X140.061 Y141.079 E.99417
G1 X139.576 Y141.081 E.02438
G1 X153.58 Y155.085 E.99418
G1 X153.094 Y155.087 E.02438
G1 X139.09 Y141.083 E.99418
G1 X138.604 Y141.085 E.02438
G1 X152.608 Y155.089 E.99418
G1 X152.123 Y155.091 E.02438
G1 X138.119 Y141.087 E.99419
G1 X137.633 Y141.09 E.02438
G1 X151.637 Y155.094 E.99419
G1 X151.151 Y155.096 E.02438
G1 X137.147 Y141.092 E.99419
G1 X136.662 Y141.094 E.02438
G1 X150.666 Y155.098 E.99419
G1 X150.18 Y155.1 E.02438
G1 X136.176 Y141.096 E.9942
G1 X135.69 Y141.098 E.02438
G1 X149.694 Y155.102 E.9942
G1 X149.209 Y155.105 E.02438
G1 X135.204 Y141.101 E.9942
G1 X134.719 Y141.103 E.02438
G1 X148.723 Y155.107 E.99421
G1 X148.237 Y155.109 E.02438
G1 X134.233 Y141.105 E.99421
G1 X133.747 Y141.107 E.02438
G1 X147.752 Y155.111 E.99421
G1 X147.266 Y155.114 E.02438
G1 X133.262 Y141.109 E.99421
G1 X132.776 Y141.111 E.02438
G1 X146.78 Y155.116 E.99422
G1 X146.295 Y155.118 E.02438
G1 X132.29 Y141.114 E.99422
G1 X131.805 Y141.116 E.02438
G1 X145.809 Y155.12 E.99422
G1 X145.323 Y155.122 E.02438
G1 X131.319 Y141.118 E.99423
G1 X130.833 Y141.12 E.02438
G1 X144.838 Y155.125 E.99423
G1 X144.352 Y155.127 E.02438
G1 X130.348 Y141.122 E.99423
G1 X129.862 Y141.125 E.02438
G1 X143.866 Y155.129 E.99424
G1 X143.381 Y155.131 E.02438
G1 X129.376 Y141.127 E.99424
G1 X128.89 Y141.129 E.02438
G1 X142.895 Y155.134 E.99424
G1 X142.409 Y155.136 E.02438
G1 X128.405 Y141.131 E.99424
G1 X127.919 Y141.133 E.02438
G1 X141.924 Y155.138 E.99425
G1 X141.438 Y155.14 E.02438
G1 X127.433 Y141.136 E.99425
G1 X126.948 Y141.138 E.02438
G1 X140.953 Y155.143 E.99425
G1 X140.467 Y155.145 E.02438
G1 X126.462 Y141.14 E.99426
G1 X125.976 Y141.142 E.02438
G1 X139.981 Y155.147 E.99426
G1 X139.496 Y155.149 E.02438
G1 X125.491 Y141.144 E.99426
G1 X125.005 Y141.146 E.02438
G1 X139.01 Y155.151 E.99427
G1 X138.524 Y155.154 E.02438
G1 X124.519 Y141.149 E.99427
G1 X124.033 Y141.151 E.02438
G1 X138.039 Y155.156 E.99427
G1 X137.553 Y155.158 E.02438
G1 X123.548 Y141.153 E.99427
G1 X123.062 Y141.155 E.02438
G1 X137.067 Y155.16 E.99428
G1 X136.582 Y155.163 E.02438
G1 X122.576 Y141.157 E.99428
G1 X122.091 Y141.16 E.02438
G1 X136.096 Y155.165 E.99428
G1 X135.61 Y155.167 E.02438
G1 X121.605 Y141.162 E.99429
G1 X121.119 Y141.164 E.02438
G1 X135.125 Y155.169 E.99429
G1 X134.639 Y155.172 E.02438
G1 X120.634 Y141.166 E.99429
G1 X120.148 Y141.168 E.02438
G1 X134.153 Y155.174 E.9943
G1 X133.668 Y155.176 E.02438
G1 X119.662 Y141.171 E.9943
G1 X119.177 Y141.173 E.02438
G1 X133.182 Y155.178 E.9943
G1 X132.696 Y155.18 E.02438
G1 X118.691 Y141.175 E.9943
G1 X118.205 Y141.177 E.02438
G1 X132.211 Y155.183 E.99431
G1 X131.725 Y155.185 E.02438
G1 X117.719 Y141.179 E.99431
G1 X117.234 Y141.181 E.02438
G1 X131.239 Y155.187 E.99431
G1 X130.754 Y155.189 E.02438
G1 X116.748 Y141.184 E.99432
G1 X116.262 Y141.186 E.02438
G1 X130.268 Y155.192 E.99432
G1 X129.782 Y155.194 E.02438
G1 X115.777 Y141.188 E.99432
G1 X115.291 Y141.19 E.02438
G1 X129.297 Y155.196 E.99432
G1 X128.811 Y155.198 E.02438
G1 X114.805 Y141.192 E.99433
G1 X114.32 Y141.195 E.02438
G1 X128.325 Y155.201 E.99433
G1 X127.84 Y155.203 E.02438
G1 X113.834 Y141.197 E.99433
M73 P1 R172
G1 X113.348 Y141.199 E.02438
G1 X127.354 Y155.205 E.99434
G1 X126.869 Y155.207 E.02438
G1 X112.862 Y141.201 E.99434
G1 X112.377 Y141.203 E.02438
G1 X126.383 Y155.209 E.99434
G1 X125.897 Y155.212 E.02438
G1 X111.891 Y141.206 E.99435
G1 X111.405 Y141.208 E.02438
G1 X125.412 Y155.214 E.99435
G1 X124.926 Y155.216 E.02438
G1 X110.92 Y141.21 E.99435
G1 X110.434 Y141.212 E.02438
G1 X124.44 Y155.218 E.99435
G1 X123.955 Y155.221 E.02438
G1 X109.948 Y141.214 E.99436
G1 X109.463 Y141.216 E.02438
G1 X123.469 Y155.223 E.99436
G1 X122.983 Y155.225 E.02438
G1 X108.977 Y141.219 E.99436
G1 X108.491 Y141.221 E.02438
G1 X122.498 Y155.227 E.99437
G1 X122.012 Y155.229 E.02438
G1 X108.005 Y141.223 E.99437
G1 X107.52 Y141.225 E.02438
G1 X121.526 Y155.232 E.99437
G1 X121.041 Y155.234 E.02438
M73 P1 R171
G1 X107.034 Y141.227 E.99438
G1 X106.548 Y141.23 E.02438
G1 X120.555 Y155.236 E.99438
G1 X120.069 Y155.238 E.02438
G1 X106.063 Y141.232 E.99438
G1 X105.577 Y141.234 E.02438
G1 X119.584 Y155.241 E.99438
G1 X119.098 Y155.243 E.02438
G1 X105.091 Y141.236 E.99439
G1 X104.606 Y141.238 E.02438
G1 X118.612 Y155.245 E.99439
G1 X118.127 Y155.247 E.02438
G1 X104.12 Y141.241 E.99439
G1 X103.634 Y141.243 E.02438
G1 X117.641 Y155.25 E.9944
G1 X117.155 Y155.252 E.02438
G1 X103.149 Y141.245 E.9944
G1 X102.663 Y141.247 E.02438
G1 X116.67 Y155.254 E.9944
G1 X116.184 Y155.256 E.02438
G1 X102.177 Y141.249 E.9944
G1 X101.691 Y141.251 E.02438
G1 X115.698 Y155.258 E.99441
G1 X115.213 Y155.261 E.02438
G1 X101.206 Y141.254 E.99441
G1 X100.72 Y141.256 E.02438
G1 X114.727 Y155.263 E.99441
G1 X114.241 Y155.265 E.02438
G1 X100.234 Y141.258 E.99442
G1 X99.749 Y141.26 E.02438
G1 X113.756 Y155.267 E.99442
G1 X113.27 Y155.27 E.02438
G1 X99.263 Y141.262 E.99442
G1 X98.777 Y141.265 E.02438
G1 X112.785 Y155.272 E.99443
G1 X112.299 Y155.274 E.02438
G1 X98.292 Y141.267 E.99443
G1 X97.806 Y141.269 E.02438
G1 X111.813 Y155.276 E.99443
G1 X111.328 Y155.279 E.02438
G1 X97.32 Y141.271 E.99443
G1 X96.834 Y141.273 E.02438
G1 X110.842 Y155.281 E.99444
G1 X110.356 Y155.283 E.02438
G1 X96.349 Y141.276 E.99444
G1 X95.863 Y141.278 E.02438
G1 X109.871 Y155.285 E.99444
G1 X109.385 Y155.287 E.02438
G1 X95.377 Y141.28 E.99445
G1 X94.892 Y141.282 E.02438
G1 X108.899 Y155.29 E.99445
G1 X108.414 Y155.292 E.02438
G1 X94.406 Y141.284 E.99445
G1 X93.92 Y141.286 E.02438
G1 X107.928 Y155.294 E.99446
G1 X107.442 Y155.296 E.02438
G1 X93.435 Y141.289 E.99446
G1 X92.949 Y141.291 E.02438
G1 X106.957 Y155.299 E.99446
G1 X106.471 Y155.301 E.02438
G1 X92.463 Y141.293 E.99446
G1 X91.978 Y141.295 E.02438
G1 X105.985 Y155.303 E.99447
G1 X105.5 Y155.305 E.02438
G1 X91.492 Y141.297 E.99447
G1 X91.006 Y141.3 E.02438
G1 X105.014 Y155.308 E.99447
G1 X104.528 Y155.31 E.02438
G1 X90.52 Y141.302 E.99448
G1 X90.035 Y141.304 E.02438
G1 X104.043 Y155.312 E.99448
G1 X103.557 Y155.314 E.02438
G1 X89.549 Y141.306 E.99448
G1 X89.063 Y141.308 E.02438
G1 X103.071 Y155.316 E.99448
G1 X102.586 Y155.319 E.02438
G1 X88.578 Y141.311 E.99449
G1 X88.092 Y141.313 E.02438
G1 X102.1 Y155.321 E.99449
G1 X101.614 Y155.323 E.02438
G1 X87.606 Y141.315 E.99449
G1 X87.121 Y141.317 E.02438
G1 X101.129 Y155.325 E.9945
G1 X100.643 Y155.328 E.02438
G1 X86.635 Y141.319 E.9945
G1 X86.149 Y141.321 E.02438
G1 X100.158 Y155.33 E.9945
G1 X99.672 Y155.332 E.02438
G1 X85.663 Y141.324 E.99451
G1 X85.178 Y141.326 E.02438
G1 X99.186 Y155.334 E.99451
G1 X98.701 Y155.336 E.02438
G1 X84.692 Y141.328 E.99451
G1 X84.206 Y141.33 E.02438
G1 X98.215 Y155.339 E.99451
G1 X97.729 Y155.341 E.02438
G1 X83.721 Y141.332 E.99452
G1 X83.235 Y141.335 E.02438
G1 X97.244 Y155.343 E.99452
G1 X96.758 Y155.345 E.02438
G1 X82.749 Y141.337 E.99452
G1 X82.264 Y141.339 E.02438
G1 X96.272 Y155.348 E.99453
G1 X95.787 Y155.35 E.02438
G1 X81.778 Y141.341 E.99453
G1 X81.292 Y141.343 E.02438
G1 X95.301 Y155.352 E.99453
G1 X94.815 Y155.354 E.02438
G1 X80.806 Y141.346 E.99454
G1 X80.321 Y141.348 E.02438
G1 X94.33 Y155.357 E.99454
G1 X93.844 Y155.359 E.02438
G1 X79.835 Y141.35 E.99454
G1 X79.349 Y141.352 E.02438
G1 X93.358 Y155.361 E.99454
G1 X92.873 Y155.363 E.02438
G1 X78.864 Y141.354 E.99455
G1 X78.378 Y141.356 E.02438
G1 X92.387 Y155.365 E.99455
G1 X91.901 Y155.368 E.02438
G1 X77.892 Y141.359 E.99455
G1 X77.407 Y141.361 E.02438
G1 X91.416 Y155.37 E.99456
G1 X90.93 Y155.372 E.02438
G1 X76.921 Y141.363 E.99456
G1 X76.435 Y141.365 E.02438
G1 X90.444 Y155.374 E.99456
G1 X89.959 Y155.377 E.02438
G1 X75.95 Y141.367 E.99456
G1 X75.464 Y141.37 E.02438
G1 X89.473 Y155.379 E.99457
G1 X88.987 Y155.381 E.02438
G1 X74.978 Y141.372 E.99457
G1 X74.492 Y141.374 E.02438
G1 X88.502 Y155.383 E.99457
G1 X88.016 Y155.386 E.02438
G1 X74.007 Y141.376 E.99458
G1 X73.521 Y141.378 E.02438
G1 X87.53 Y155.388 E.99458
G1 X87.045 Y155.39 E.02438
G1 X73.035 Y141.381 E.99458
G1 X72.55 Y141.383 E.02438
G1 X86.559 Y155.392 E.99459
G1 X86.074 Y155.394 E.02438
G1 X72.064 Y141.385 E.99459
G1 X71.578 Y141.387 E.02438
G1 X85.588 Y155.397 E.99459
G1 X85.102 Y155.399 E.02438
G1 X71.093 Y141.389 E.99459
G1 X70.607 Y141.391 E.02438
G1 X84.617 Y155.401 E.9946
G1 X84.131 Y155.403 E.02438
G1 X70.121 Y141.394 E.9946
G1 X69.635 Y141.396 E.02438
G1 X83.645 Y155.406 E.9946
G1 X83.16 Y155.408 E.02438
G1 X69.15 Y141.398 E.99461
G1 X68.664 Y141.4 E.02438
G1 X82.674 Y155.41 E.99461
G1 X82.188 Y155.412 E.02438
G1 X68.178 Y141.402 E.99461
G1 X67.693 Y141.405 E.02438
G1 X81.703 Y155.415 E.99462
G1 X81.217 Y155.417 E.02438
G1 X67.207 Y141.407 E.99462
G1 X66.721 Y141.409 E.02438
M73 P1 R170
G1 X80.731 Y155.419 E.99462
G1 X80.246 Y155.421 E.02438
G1 X66.236 Y141.411 E.99462
G1 X65.75 Y141.413 E.02438
G1 X79.76 Y155.423 E.99463
G1 X79.274 Y155.426 E.02438
G1 X65.264 Y141.416 E.99463
G1 X64.779 Y141.418 E.02438
G1 X78.789 Y155.428 E.99463
G1 X78.303 Y155.43 E.02438
G1 X64.293 Y141.42 E.99464
G1 X63.807 Y141.422 E.02438
G1 X77.817 Y155.432 E.99464
G1 X77.332 Y155.435 E.02438
G1 X63.321 Y141.424 E.99464
G1 X62.836 Y141.426 E.02438
G1 X76.846 Y155.437 E.99464
G1 X76.36 Y155.439 E.02438
G1 X62.35 Y141.429 E.99465
G1 X61.864 Y141.431 E.02438
G1 X75.875 Y155.441 E.99465
G1 X75.389 Y155.444 E.02438
G1 X61.379 Y141.433 E.99465
G1 X60.893 Y141.435 E.02438
G1 X74.903 Y155.446 E.99466
G1 X74.418 Y155.448 E.02438
G1 X60.407 Y141.437 E.99466
G1 X59.922 Y141.44 E.02438
G1 X73.932 Y155.45 E.99466
G1 X73.447 Y155.452 E.02438
G1 X59.436 Y141.442 E.99467
G1 X58.95 Y141.444 E.02438
G1 X72.961 Y155.455 E.99467
G1 X72.475 Y155.457 E.02438
G1 X58.464 Y141.446 E.99467
G1 X57.979 Y141.448 E.02438
G1 X71.99 Y155.459 E.99467
G1 X71.504 Y155.461 E.02438
G1 X57.493 Y141.451 E.99468
G1 X57.007 Y141.453 E.02438
G1 X71.018 Y155.464 E.99468
G1 X70.533 Y155.466 E.02438
G1 X56.522 Y141.455 E.99468
G1 X56.036 Y141.457 E.02438
G1 X70.047 Y155.468 E.99469
G1 X69.561 Y155.47 E.02438
G1 X55.55 Y141.459 E.99469
G1 X55.065 Y141.461 E.02438
G1 X69.076 Y155.472 E.99469
G1 X68.59 Y155.475 E.02438
G1 X54.579 Y141.464 E.9947
G1 X54.093 Y141.466 E.02438
G1 X68.104 Y155.477 E.9947
G1 X67.619 Y155.479 E.02438
G1 X53.607 Y141.468 E.9947
G1 X53.122 Y141.47 E.02438
G1 X67.133 Y155.481 E.9947
G1 X66.647 Y155.484 E.02438
G1 X52.636 Y141.472 E.99471
G1 X52.15 Y141.475 E.02438
G1 X66.162 Y155.486 E.99471
G1 X65.676 Y155.488 E.02438
G1 X51.665 Y141.477 E.99471
G1 X51.179 Y141.479 E.02438
G1 X65.19 Y155.49 E.99472
G1 X64.705 Y155.493 E.02438
G1 X50.693 Y141.481 E.99472
G1 X50.208 Y141.483 E.02438
G1 X64.219 Y155.495 E.99472
G1 X63.733 Y155.497 E.02438
G1 X49.722 Y141.486 E.99473
G1 X49.236 Y141.488 E.02438
G1 X63.248 Y155.499 E.99473
G1 X62.762 Y155.501 E.02438
G1 X48.751 Y141.49 E.99473
G1 X48.265 Y141.492 E.02438
G1 X62.276 Y155.504 E.99473
G1 X61.791 Y155.506 E.02438
G1 X47.779 Y141.494 E.99474
G1 X47.293 Y141.496 E.02438
G1 X61.305 Y155.508 E.99474
G1 X60.819 Y155.51 E.02438
G1 X46.808 Y141.499 E.99474
G1 X46.322 Y141.501 E.02438
G1 X60.334 Y155.513 E.99475
G1 X59.848 Y155.515 E.02438
G1 X45.836 Y141.503 E.99475
G1 X45.351 Y141.505 E.02438
G1 X59.363 Y155.517 E.99475
G1 X58.877 Y155.519 E.02438
G1 X44.865 Y141.507 E.99475
G1 X44.379 Y141.51 E.02438
G1 X58.391 Y155.522 E.99476
G1 X57.906 Y155.524 E.02438
G1 X43.894 Y141.512 E.99476
G1 X43.408 Y141.514 E.02438
M73 P2 R170
G1 X57.42 Y155.526 E.99476
