; generated by PrusaSlicer 2.5.0+win64 on 2022-12-07 at 00:22:38 UTC

; 

; external perimeters extrusion width = 1.00mm
; perimeters extrusion width = 1.00mm
; infill extrusion width = 1.00mm
; solid infill extrusion width = 1.00mm
; top infill extrusion width = 1.00mm
; support material extrusion width = 1.00mm
; first layer extrusion width = 0.42mm

M73 P0 R170
M107
;TYPE:Custom
G90 ; use absolute coordinates
M83 ; extruder relative mode
M140 S60 ; set final bed temp
M104 S150 ; set temporary nozzle temp to prevent oozing during homing and auto bed leveling
G4 S10 ; allow partial nozzle warmup
G28 ; home all axisG1 Z50 F240
G1 X7.6 Y10 F3000
M104 S210 ; set final nozzle temp
M190 S60 ; wait for bed temp to stabilize
M109 S210 ; wait for nozzle temp to stabilize
G1 Z0.28 F240
G92 E0
G1 Y140 E10 F1500 ; prime the nozzle
G1 X4 F5000
G92 E0
G1 Y10 E10 F1200 ; prime the nozzle
G92 E0
G21 ; set units to millimeters
G90 ; use absolute coordinates
M83 ; use relative distances for extrusion
; Filament gcode
M107
;LAYER_CHANGE
;Z:0.35
;HEIGHT:0.35
;BEFORE_LAYER_CHANGE
G92 E0
;0.35


G1 E-1 F3600
G1 Z.35 F7800
;AFTER_LAYER_CHANGE
;0.35
G1 X14.525 Y67.184
G1 E1 F2400
;TYPE:Perimeter
;WIDTH:0.42
G1 F1800
G1 X165.475 Y67.411 E7.57558
G1 X165.475 Y81.319 E.69799
G1 X14.525 Y81.09 E7.57558
G1 X14.525 Y67.334 E.69037
G1 X14.18 Y66.839 F7800
;TYPE:External perimeter
G1 F1800
G1 X165.82 Y67.066 E7.61019
G1 X165.82 Y81.664 E.73261
G1 X14.18 Y81.435 E7.61019
G1 X14.18 Y66.989 E.72499
G1 X15.179 Y66.872 F7800
G1 E-.7 F3600
;WIPE_START
G1 F6240
G1 X14.7 Y66.989 E-.285
;WIPE_END
G1 E-.015 F3600
G1 X165.372 Y68.213 F7800
G1 E1 F2400
;TYPE:Solid infill
;WIDTH:0.420847
G1 F1800
G1 X164.827 Y67.668 E.03875
G1 X164.337 Y67.667 E.02464
G1 X165.216 Y68.547 E.06255
G1 X165.216 Y69.036 E.0246
G1 X163.848 Y67.667 E.09739
G1 X163.358 Y67.666 E.02464
G1 X165.216 Y69.525 E.13223
G1 X165.216 Y70.013 E.0246
G1 X162.868 Y67.665 E.16707
G1 X162.379 Y67.665 E.02464
G1 X165.216 Y70.502 E.20191
G1 X165.216 Y70.991 E.0246
G1 X161.889 Y67.664 E.23675
G1 X161.399 Y67.663 E.02464
G1 X165.216 Y71.48 E.27159
G1 X165.216 Y71.969 E.0246
G1 X160.91 Y67.662 E.30642
G1 X160.42 Y67.662 E.02464
G1 X165.216 Y72.458 E.34126
G1 X165.216 Y72.947 E.0246
G1 X159.93 Y67.661 E.3761
G1 X159.441 Y67.66 E.02464
G1 X165.216 Y73.436 E.41094
G1 X165.216 Y73.925 E.0246
G1 X158.951 Y67.659 E.44578
G1 X158.461 Y67.659 E.02464
G1 X165.216 Y74.414 E.48062
G1 X165.216 Y74.903 E.0246
G1 X157.972 Y67.658 E.51546
G1 X157.482 Y67.657 E.02464
G1 X165.216 Y75.392 E.5503
G1 X165.216 Y75.881 E.0246
G1 X156.992 Y67.656 E.58514
G1 X156.502 Y67.656 E.02464
G1 X165.216 Y76.37 E.61998
G1 X165.216 Y76.859 E.0246
G1 X156.013 Y67.655 E.65482
G1 X155.523 Y67.654 E.02464
G1 X165.216 Y77.348 E.68966
G1 X165.216 Y77.837 E.0246
G1 X155.033 Y67.654 E.7245
G1 X154.544 Y67.653 E.02464
G1 X165.216 Y78.326 E.75934
G1 X165.216 Y78.814 E.0246
G1 X154.054 Y67.652 E.79418
G1 X153.564 Y67.651 E.02464
G1 X165.216 Y79.303 E.82902
G1 X165.216 Y79.792 E.0246
G1 X153.075 Y67.651 E.86386
G1 X152.585 Y67.65 E.02464
G1 X165.216 Y80.281 E.8987
G1 X165.216 Y80.77 E.0246
G1 X152.095 Y67.649 E.93354
G1 X151.606 Y67.648 E.02464
G1 X165.017 Y81.059 E.95416
G1 X164.527 Y81.059 E.02464
G1 X151.116 Y67.648 E.95416
G1 X150.626 Y67.647 E.02464
M73 P0 R169
G1 X164.037 Y81.058 E.95416
G1 X163.548 Y81.057 E.02464
G1 X150.137 Y67.646 E.95416
G1 X149.647 Y67.645 E.02464
G1 X163.058 Y81.056 E.95416
G1 X162.568 Y81.056 E.02464
G1 X149.157 Y67.645 E.95416
G1 X148.668 Y67.644 E.02464
G1 X162.079 Y81.055 E.95416
G1 X161.589 Y81.054 E.02464
G1 X148.178 Y67.643 E.95416
G1 X147.688 Y67.643 E.02464
G1 X161.099 Y81.053 E.95416
G1 X160.609 Y81.053 E.02464
G1 X147.199 Y67.642 E.95416
G1 X146.709 Y67.641 E.02464
G1 X160.12 Y81.052 E.95416
G1 X159.63 Y81.051 E.02464
G1 X146.219 Y67.64 E.95416
G1 X145.73 Y67.64 E.02464
G1 X159.14 Y81.05 E.95416
G1 X158.651 Y81.05 E.02464
G1 X145.24 Y67.639 E.95416
G1 X144.75 Y67.638 E.02464
G1 X158.161 Y81.049 E.95416
G1 X157.671 Y81.048 E.02464
G1 X144.26 Y67.637 E.95415
G1 X143.771 Y67.637 E.02464
G1 X157.182 Y81.048 E.95415
G1 X156.692 Y81.047 E.02464
G1 X143.281 Y67.636 E.95415
G1 X142.791 Y67.635 E.02464
G1 X156.202 Y81.046 E.95415
G1 X155.713 Y81.045 E.02464
G1 X142.302 Y67.634 E.95415
G1 X141.812 Y67.634 E.02464
G1 X155.223 Y81.045 E.95415
G1 X154.733 Y81.044 E.02464
G1 X141.322 Y67.633 E.95415
G1 X140.833 Y67.632 E.02464
G1 X154.244 Y81.043 E.95415
G1 X153.754 Y81.042 E.02464
G1 X140.343 Y67.632 E.95415
G1 X139.853 Y67.631 E.02464
G1 X153.264 Y81.042 E.95415
G1 X152.775 Y81.041 E.02464
G1 X139.364 Y67.63 E.95415
G1 X138.874 Y67.629 E.02464
G1 X152.285 Y81.04 E.95415
G1 X151.795 Y81.039 E.02464
G1 X138.384 Y67.629 E.95415
G1 X137.895 Y67.628 E.02464
G1 X151.305 Y81.039 E.95415
G1 X150.816 Y81.038 E.02464
G1 X137.405 Y67.627 E.95415
G1 X136.915 Y67.626 E.02464
G1 X150.326 Y81.037 E.95415
G1 X149.836 Y81.036 E.02464
G1 X136.426 Y67.626 E.95415
G1 X135.936 Y67.625 E.02464
G1 X149.347 Y81.036 E.95415
G1 X148.857 Y81.035 E.02464
G1 X135.446 Y67.624 E.95415
G1 X134.957 Y67.623 E.02464
G1 X148.367 Y81.034 E.95415
G1 X147.878 Y81.033 E.02464
G1 X134.467 Y67.623 E.95415
G1 X133.977 Y67.622 E.02464
G1 X147.388 Y81.033 E.95415
G1 X146.898 Y81.032 E.02464
G1 X133.488 Y67.621 E.95415
G1 X132.998 Y67.62 E.02464
G1 X146.409 Y81.031 E.95414
G1 X145.919 Y81.03 E.02464
G1 X132.508 Y67.62 E.95414
G1 X132.019 Y67.619 E.02464
G1 X145.429 Y81.03 E.95414
G1 X144.94 Y81.029 E.02464
G1 X131.529 Y67.618 E.95414
G1 X131.039 Y67.618 E.02464
G1 X144.45 Y81.028 E.95414
G1 X143.96 Y81.028 E.02464
G1 X130.549 Y67.617 E.95414
G1 X130.06 Y67.616 E.02464
G1 X143.471 Y81.027 E.95414
G1 X142.981 Y81.026 E.02464
G1 X129.57 Y67.615 E.95414
G1 X129.08 Y67.615 E.02464
G1 X142.491 Y81.025 E.95414
G1 X142.001 Y81.025 E.02464
G1 X128.591 Y67.614 E.95414
G1 X128.101 Y67.613 E.02464
G1 X141.512 Y81.024 E.95414
G1 X141.022 Y81.023 E.02464
G1 X127.611 Y67.612 E.95414
G1 X127.122 Y67.612 E.02464
G1 X140.532 Y81.022 E.95414
G1 X140.043 Y81.022 E.02464
G1 X126.632 Y67.611 E.95414
G1 X126.142 Y67.61 E.02464
G1 X139.553 Y81.021 E.95414
G1 X139.063 Y81.02 E.02464
G1 X125.653 Y67.609 E.95414
G1 X125.163 Y67.609 E.02464
G1 X138.574 Y81.019 E.95414
G1 X138.084 Y81.019 E.02464
G1 X124.673 Y67.608 E.95414
G1 X124.184 Y67.607 E.02464
G1 X137.594 Y81.018 E.95414
G1 X137.105 Y81.017 E.02464
G1 X123.694 Y67.607 E.95414
G1 X123.204 Y67.606 E.02464
G1 X136.615 Y81.016 E.95414
G1 X136.125 Y81.016 E.02464
G1 X122.715 Y67.605 E.95414
G1 X122.225 Y67.604 E.02464
G1 X135.636 Y81.015 E.95414
G1 X135.146 Y81.014 E.02464
G1 X121.735 Y67.604 E.95413
G1 X121.246 Y67.603 E.02464
G1 X134.656 Y81.013 E.95413
G1 X134.166 Y81.013 E.02464
G1 X120.756 Y67.602 E.95413
G1 X120.266 Y67.601 E.02464
G1 X133.677 Y81.012 E.95413
G1 X133.187 Y81.011 E.02464
G1 X119.777 Y67.601 E.95413
G1 X119.287 Y67.6 E.02464
G1 X132.697 Y81.01 E.95413
G1 X132.208 Y81.01 E.02464
G1 X118.797 Y67.599 E.95413
G1 X118.308 Y67.598 E.02464
G1 X131.718 Y81.009 E.95413
G1 X131.228 Y81.008 E.02464
G1 X117.818 Y67.598 E.95413
G1 X117.328 Y67.597 E.02464
G1 X130.739 Y81.008 E.95413
G1 X130.249 Y81.007 E.02464
G1 X116.838 Y67.596 E.95413
G1 X116.349 Y67.596 E.02464
G1 X129.759 Y81.006 E.95413
G1 X129.27 Y81.005 E.02464
G1 X115.859 Y67.595 E.95413
G1 X115.369 Y67.594 E.02464
G1 X128.78 Y81.005 E.95413
G1 X128.29 Y81.004 E.02464
G1 X114.88 Y67.593 E.95413
G1 X114.39 Y67.593 E.02464
G1 X127.801 Y81.003 E.95413
G1 X127.311 Y81.002 E.02464
G1 X113.9 Y67.592 E.95413
G1 X113.411 Y67.591 E.02464
G1 X126.821 Y81.002 E.95413
G1 X126.332 Y81.001 E.02464
G1 X112.921 Y67.59 E.95413
G1 X112.431 Y67.59 E.02464
M73 P1 R169
G1 X125.842 Y81 E.95413
G1 X125.352 Y80.999 E.02464
G1 X111.942 Y67.589 E.95413
G1 X111.452 Y67.588 E.02464
G1 X124.862 Y80.999 E.95413
G1 X124.373 Y80.998 E.02464
G1 X110.962 Y67.587 E.95413
G1 X110.473 Y67.587 E.02464
G1 X123.883 Y80.997 E.95413
G1 X123.393 Y80.996 E.02464
G1 X109.983 Y67.586 E.95412
G1 X109.493 Y67.585 E.02464
G1 X122.904 Y80.996 E.95412
G1 X122.414 Y80.995 E.02464
G1 X109.004 Y67.585 E.95412
G1 X108.514 Y67.584 E.02464
M73 P1 R168
G1 X121.924 Y80.994 E.95412
G1 X121.435 Y80.993 E.02464
G1 X108.024 Y67.583 E.95412
G1 X107.535 Y67.582 E.02464
G1 X120.945 Y80.993 E.95412
G1 X120.455 Y80.992 E.02464
G1 X107.045 Y67.582 E.95412
G1 X106.555 Y67.581 E.02464
G1 X119.966 Y80.991 E.95412
G1 X119.476 Y80.991 E.02464
G1 X106.066 Y67.58 E.95412
G1 X105.576 Y67.579 E.02464
G1 X118.986 Y80.99 E.95412
G1 X118.497 Y80.989 E.02464
G1 X105.086 Y67.579 E.95412
G1 X104.596 Y67.578 E.02464
G1 X118.007 Y80.988 E.95412
G1 X117.517 Y80.988 E.02464
G1 X104.107 Y67.577 E.95412
G1 X103.617 Y67.576 E.02464
G1 X117.028 Y80.987 E.95412
G1 X116.538 Y80.986 E.02464
G1 X103.127 Y67.576 E.95412
G1 X102.638 Y67.575 E.02464
G1 X116.048 Y80.985 E.95412
G1 X115.558 Y80.985 E.02464
G1 X102.148 Y67.574 E.95412
G1 X101.658 Y67.573 E.02464
G1 X115.069 Y80.984 E.95412
G1 X114.579 Y80.983 E.02464
G1 X101.169 Y67.573 E.95412
G1 X100.679 Y67.572 E.02464
G1 X114.089 Y80.982 E.95412
G1 X113.6 Y80.982 E.02464
G1 X100.189 Y67.571 E.95412
G1 X99.7 Y67.571 E.02464
G1 X113.11 Y80.981 E.95412
G1 X112.62 Y80.98 E.02464
G1 X99.21 Y67.57 E.95412
G1 X98.72 Y67.569 E.02464
G1 X112.131 Y80.979 E.95411
G1 X111.641 Y80.979 E.02464
G1 X98.231 Y67.568 E.95411
G1 X97.741 Y67.568 E.02464
G1 X111.151 Y80.978 E.95411
G1 X110.662 Y80.977 E.02464
G1 X97.251 Y67.567 E.95411
G1 X96.762 Y67.566 E.02464
G1 X110.172 Y80.976 E.95411
G1 X109.682 Y80.976 E.02464
G1 X96.272 Y67.565 E.95411
G1 X95.782 Y67.565 E.02464
G1 X109.193 Y80.975 E.95411
G1 X108.703 Y80.974 E.02464
G1 X95.293 Y67.564 E.95411
G1 X94.803 Y67.563 E.02464
G1 X108.213 Y80.973 E.95411
G1 X107.723 Y80.973 E.02464
G1 X94.313 Y67.562 E.95411
G1 X93.824 Y67.562 E.02464
G1 X107.234 Y80.972 E.95411
G1 X106.744 Y80.971 E.02464
G1 X93.334 Y67.561 E.95411
G1 X92.844 Y67.56 E.02464
G1 X106.254 Y80.971 E.95411
G1 X105.765 Y80.97 E.02464
G1 X92.355 Y67.56 E.95411
G1 X91.865 Y67.559 E.02464
G1 X105.275 Y80.969 E.95411
G1 X104.785 Y80.968 E.02464
G1 X91.375 Y67.558 E.95411
G1 X90.885 Y67.557 E.02464
G1 X104.296 Y80.968 E.95411
G1 X103.806 Y80.967 E.02464
G1 X90.396 Y67.557 E.95411
G1 X89.906 Y67.556 E.02464
G1 X103.316 Y80.966 E.95411
G1 X102.827 Y80.965 E.02464
G1 X89.416 Y67.555 E.95411
G1 X88.927 Y67.554 E.02464
G1 X102.337 Y80.965 E.95411
G1 X101.847 Y80.964 E.02464
G1 X88.437 Y67.554 E.95411
G1 X87.947 Y67.553 E.02464
G1 X101.358 Y80.963 E.95411
G1 X100.868 Y80.962 E.02464
G1 X87.458 Y67.552 E.9541
G1 X86.968 Y67.551 E.02464
G1 X100.378 Y80.962 E.9541
G1 X99.889 Y80.961 E.02464
G1 X86.478 Y67.551 E.9541
G1 X85.989 Y67.55 E.02464
G1 X99.399 Y80.96 E.9541
G1 X98.909 Y80.959 E.02464
G1 X85.499 Y67.549 E.9541
G1 X85.009 Y67.549 E.02464
G1 X98.419 Y80.959 E.9541
G1 X97.93 Y80.958 E.02464
G1 X84.52 Y67.548 E.9541
G1 X84.03 Y67.547 E.02464
G1 X97.44 Y80.957 E.9541
G1 X96.95 Y80.956 E.02464
G1 X83.54 Y67.546 E.9541
G1 X83.051 Y67.546 E.02464
G1 X96.461 Y80.956 E.9541
G1 X95.971 Y80.955 E.02464
G1 X82.561 Y67.545 E.9541
G1 X82.071 Y67.544 E.02464
G1 X95.481 Y80.954 E.9541
G1 X94.992 Y80.953 E.02464
G1 X81.582 Y67.543 E.9541
G1 X81.092 Y67.543 E.02464
G1 X94.502 Y80.953 E.9541
G1 X94.012 Y80.952 E.02464
G1 X80.602 Y67.542 E.9541
G1 X80.113 Y67.541 E.02464
G1 X93.523 Y80.951 E.9541
G1 X93.033 Y80.951 E.02464
G1 X79.623 Y67.54 E.9541
G1 X79.133 Y67.54 E.02464
G1 X92.543 Y80.95 E.9541
G1 X92.054 Y80.949 E.02464
G1 X78.644 Y67.539 E.9541
G1 X78.154 Y67.538 E.02464
G1 X91.564 Y80.948 E.9541
G1 X91.074 Y80.948 E.02464
G1 X77.664 Y67.538 E.9541
G1 X77.174 Y67.537 E.02464
G1 X90.585 Y80.947 E.9541
G1 X90.095 Y80.946 E.02464
G1 X76.685 Y67.536 E.9541
G1 X76.195 Y67.535 E.02464
G1 X89.605 Y80.945 E.95409
G1 X89.115 Y80.945 E.02464
G1 X75.705 Y67.535 E.95409
G1 X75.216 Y67.534 E.02464
G1 X88.626 Y80.944 E.95409
G1 X88.136 Y80.943 E.02464
G1 X74.726 Y67.533 E.95409
G1 X74.236 Y67.532 E.02464
G1 X87.646 Y80.942 E.95409
G1 X87.157 Y80.942 E.02464
G1 X73.747 Y67.532 E.95409
G1 X73.257 Y67.531 E.02464
G1 X86.667 Y80.941 E.95409
G1 X86.177 Y80.94 E.02464
G1 X72.767 Y67.53 E.95409
G1 X72.278 Y67.529 E.02464
G1 X85.688 Y80.939 E.95409
G1 X85.198 Y80.939 E.02464
G1 X71.788 Y67.529 E.95409
G1 X71.298 Y67.528 E.02464
G1 X84.708 Y80.938 E.95409
G1 X84.219 Y80.937 E.02464
G1 X70.809 Y67.527 E.95409
G1 X70.319 Y67.526 E.02464
G1 X83.729 Y80.936 E.95409
G1 X83.239 Y80.936 E.02464
G1 X69.829 Y67.526 E.95409
G1 X69.34 Y67.525 E.02464
G1 X82.75 Y80.935 E.95409
G1 X82.26 Y80.934 E.02464
G1 X68.85 Y67.524 E.95409
G1 X68.36 Y67.524 E.02464
G1 X81.77 Y80.933 E.95409
G1 X81.281 Y80.933 E.02464
G1 X67.871 Y67.523 E.95409
G1 X67.381 Y67.522 E.02464
G1 X80.791 Y80.932 E.95409
G1 X80.301 Y80.931 E.02464
G1 X66.891 Y67.521 E.95409
G1 X66.402 Y67.521 E.02464
G1 X79.811 Y80.931 E.95409
M73 P1 R167
G1 X79.322 Y80.93 E.02464
G1 X65.912 Y67.52 E.95409
G1 X65.422 Y67.519 E.02464
G1 X78.832 Y80.929 E.95409
G1 X78.342 Y80.928 E.02464
G1 X64.933 Y67.518 E.95409
G1 X64.443 Y67.518 E.02464
G1 X77.853 Y80.928 E.95408
G1 X77.363 Y80.927 E.02464
G1 X63.953 Y67.517 E.95408
G1 X63.463 Y67.516 E.02464
G1 X76.873 Y80.926 E.95408
G1 X76.384 Y80.925 E.02464
G1 X62.974 Y67.515 E.95408
G1 X62.484 Y67.515 E.02464
G1 X75.894 Y80.925 E.95408
G1 X75.404 Y80.924 E.02464
G1 X61.994 Y67.514 E.95408
G1 X61.505 Y67.513 E.02464
G1 X74.915 Y80.923 E.95408
G1 X74.425 Y80.922 E.02464
G1 X61.015 Y67.513 E.95408
G1 X60.525 Y67.512 E.02464
G1 X73.935 Y80.922 E.95408
G1 X73.446 Y80.921 E.02464
G1 X60.036 Y67.511 E.95408
G1 X59.546 Y67.51 E.02464
G1 X72.956 Y80.92 E.95408
G1 X72.466 Y80.919 E.02464
G1 X59.056 Y67.51 E.95408
G1 X58.567 Y67.509 E.02464
G1 X71.976 Y80.919 E.95408
G1 X71.487 Y80.918 E.02464
G1 X58.077 Y67.508 E.95408
G1 X57.587 Y67.507 E.02464
G1 X70.997 Y80.917 E.95408
G1 X70.507 Y80.916 E.02464
G1 X57.098 Y67.507 E.95408
G1 X56.608 Y67.506 E.02464
G1 X70.018 Y80.916 E.95408
G1 X69.528 Y80.915 E.02464
G1 X56.118 Y67.505 E.95408
G1 X55.629 Y67.504 E.02464
G1 X69.038 Y80.914 E.95408
G1 X68.549 Y80.913 E.02464
G1 X55.139 Y67.504 E.95408
G1 X54.649 Y67.503 E.02464
G1 X68.059 Y80.913 E.95408
G1 X67.569 Y80.912 E.02464
G1 X54.16 Y67.502 E.95408
G1 X53.67 Y67.502 E.02464
G1 X67.08 Y80.911 E.95408
G1 X66.59 Y80.911 E.02464
G1 X53.18 Y67.501 E.95407
G1 X52.691 Y67.5 E.02464
G1 X66.1 Y80.91 E.95407
G1 X65.611 Y80.909 E.02464
G1 X52.201 Y67.499 E.95407
G1 X51.711 Y67.499 E.02464
G1 X65.121 Y80.908 E.95407
G1 X64.631 Y80.908 E.02464
G1 X51.221 Y67.498 E.95407
G1 X50.732 Y67.497 E.02464
G1 X64.142 Y80.907 E.95407
G1 X63.652 Y80.906 E.02464
G1 X50.242 Y67.496 E.95407
G1 X49.752 Y67.496 E.02464
G1 X63.162 Y80.905 E.95407
G1 X62.672 Y80.905 E.02464
G1 X49.263 Y67.495 E.95407
G1 X48.773 Y67.494 E.02464
G1 X62.183 Y80.904 E.95407
G1 X61.693 Y80.903 E.02464
G1 X48.283 Y67.493 E.95407
G1 X47.794 Y67.493 E.02464
G1 X61.203 Y80.902 E.95407
G1 X60.714 Y80.902 E.02464
G1 X47.304 Y67.492 E.95407
G1 X46.814 Y67.491 E.02464
G1 X60.224 Y80.901 E.95407
G1 X59.734 Y80.9 E.02464
G1 X46.325 Y67.491 E.95407
G1 X45.835 Y67.49 E.02464
G1 X59.245 Y80.899 E.95407
G1 X58.755 Y80.899 E.02464
G1 X45.345 Y67.489 E.95407
G1 X44.856 Y67.488 E.02464
G1 X58.265 Y80.898 E.95407
G1 X57.776 Y80.897 E.02464
G1 X44.366 Y67.488 E.95407
G1 X43.876 Y67.487 E.02464
G1 X57.286 Y80.896 E.95407
G1 X56.796 Y80.896 E.02464
G1 X43.387 Y67.486 E.95407
G1 X42.897 Y67.485 E.02464
G1 X56.307 Y80.895 E.95407
G1 X55.817 Y80.894 E.02464
G1 X42.407 Y67.485 E.95407
G1 X41.918 Y67.484 E.02464
G1 X55.327 Y80.894 E.95406
G1 X54.838 Y80.893 E.02464
G1 X41.428 Y67.483 E.95406
G1 X40.938 Y67.482 E.02464
G1 X54.348 Y80.892 E.95406
G1 X53.858 Y80.891 E.02464
M73 P2 R167
G1 X40.449 Y67.482 E.95406
G1 X39.959 Y67.481 E.02464
G1 X53.368 Y80.891 E.95406
G1 X52.879 Y80.89 E.02464
G1 X39.469 Y67.48 E.95406
G1 X38.98 Y67.479 E.02464
G1 X52.389 Y80.889 E.95406
G1 X51.899 Y80.888 E.02464
G1 X38.49 Y67.479 E.95406
G1 X38 Y67.478 E.02464
G1 X51.41 Y80.888 E.95406
G1 X50.92 Y80.887 E.02464
G1 X37.51 Y67.477 E.95406
G1 X37.021 Y67.477 E.02464
