; generated by PrusaSlicer 2.5.0+win64 on 2022-12-07 at 00:22:49 UTC

; 

; external perimeters extrusion width = 1.00mm
; perimeters extrusion width = 1.00mm
; infill extrusion width = 1.00mm
; solid infill extrusion width = 1.00mm
; top infill extrusion width = 1.00mm
; support material extrusion width = 1.00mm
; first layer extrusion width = 0.42mm

M73 P0 R332
M107
;TYPE:Custom
G90 ; use absolute coordinates
M83 ; extruder relative mode
M140 S60 ; set final bed temp
M104 S150 ; set temporary nozzle temp to prevent oozing during homing and auto bed leveling
G4 S10 ; allow partial nozzle warmup
G28 ; home all axisG1 Z50 F240
G1 X7.6 Y10 F3000
M104 S210 ; set final nozzle temp
M190 S60 ; wait for bed temp to stabilize
M109 S210 ; wait for nozzle temp to stabilize
G1 Z0.28 F240
G92 E0
G1 Y140 E10 F1500 ; prime the nozzle
G1 X4 F5000
G92 E0
G1 Y10 E10 F1200 ; prime the nozzle
G92 E0
G21 ; set units to millimeters
G90 ; use absolute coordinates
M83 ; use relative distances for extrusion
; Filament gcode
M107
;LAYER_CHANGE
;Z:0.35
;HEIGHT:0.35
;BEFORE_LAYER_CHANGE
G92 E0
;0.35


G1 E-1 F3600
G1 Z.35 F7800
;AFTER_LAYER_CHANGE
;0.35
G1 X171.268 Y167.876
G1 E1 F2400
;TYPE:Support material
;WIDTH:0.42
G1 F1800
G1 X134.262 Y167.876 E1.85722
G1 X134.262 Y12.124 E7.81652
G1 X171.268 Y12.124 E1.85722
G1 X171.268 Y167.824 E7.81392
G1 X170.857 Y167.72 F7800
G1 F1800
G1 X170.857 Y12.435 E7.79315
G1 X170.474 Y12.435 E.01923
G1 X170.474 Y167.565 E7.78536
G1 X170.091 Y167.565 E.01923
G1 X170.091 Y12.435 E7.78536
G1 X169.708 Y12.435 E.01923
M73 P0 R331
G1 X169.708 Y167.565 E7.78536
G1 X169.324 Y167.565 E.01923
G1 X169.325 Y12.435 E7.78536
G1 X168.941 Y12.435 E.01923
G1 X168.941 Y167.565 E7.78536
G1 X168.558 Y167.565 E.01923
G1 X168.558 Y12.435 E7.78536
G1 X168.175 Y12.435 E.01923
G1 X168.175 Y167.565 E7.78536
G1 X167.792 Y167.565 E.01923
G1 X167.792 Y12.435 E7.78536
G1 X167.408 Y12.435 E.01923
G1 X167.408 Y167.565 E7.78536
G1 X167.025 Y167.565 E.01923
G1 X167.025 Y12.435 E7.78536
G1 X166.642 Y12.435 E.01923
G1 X166.642 Y167.565 E7.78536
G1 X166.259 Y167.565 E.01923
G1 X166.259 Y12.435 E7.78536
G1 X165.876 Y12.435 E.01923
G1 X165.876 Y167.565 E7.78536
G1 X165.492 Y167.565 E.01923
G1 X165.492 Y12.435 E7.78536
G1 X165.109 Y12.435 E.01923
M73 P0 R330
G1 X165.109 Y167.565 E7.78536
G1 X164.726 Y167.565 E.01923
G1 X164.726 Y12.435 E7.78536
G1 X164.343 Y12.435 E.01923
G1 X164.343 Y167.565 E7.78536
G1 X163.96 Y167.565 E.01923
G1 X163.96 Y12.435 E7.78536
G1 X163.576 Y12.435 E.01923
G1 X163.576 Y167.565 E7.78536
G1 X163.193 Y167.565 E.01923
G1 X163.193 Y12.435 E7.78536
G1 X162.81 Y12.435 E.01923
G1 X162.81 Y167.565 E7.78536
G1 X162.427 Y167.565 E.01923
G1 X162.427 Y12.435 E7.78536
G1 X162.044 Y12.435 E.01923
G1 X162.044 Y167.565 E7.78536
G1 X161.66 Y167.565 E.01923
G1 X161.66 Y12.435 E7.78536
G1 X161.277 Y12.435 E.01923
G1 X161.277 Y167.565 E7.78536
G1 X160.894 Y167.565 E.01923
M73 P0 R329
G1 X160.894 Y12.435 E7.78536
G1 X160.511 Y12.435 E.01923
G1 X160.511 Y167.565 E7.78536
G1 X160.127 Y167.565 E.01923
G1 X160.127 Y12.435 E7.78536
G1 X159.744 Y12.435 E.01923
G1 X159.744 Y167.565 E7.78536
G1 X159.361 Y167.565 E.01923
G1 X159.361 Y12.435 E7.78536
G1 X158.978 Y12.435 E.01923
G1 X158.978 Y167.565 E7.78536
G1 X158.595 Y167.565 E.01923
G1 X158.595 Y12.435 E7.78536
G1 X158.211 Y12.435 E.01923
M73 P1 R329
G1 X158.211 Y167.565 E7.78536
G1 X157.828 Y167.565 E.01923
G1 X157.828 Y12.435 E7.78536
G1 X157.445 Y12.435 E.01923
G1 X157.445 Y167.565 E7.78536
G1 X157.062 Y167.565 E.01923
G1 X157.062 Y12.435 E7.78536
G1 X156.679 Y12.435 E.01923
G1 X156.679 Y167.565 E7.78536
G1 X156.295 Y167.565 E.01923
M73 P1 R328
G1 X156.295 Y12.435 E7.78536
G1 X155.912 Y12.435 E.01923
G1 X155.912 Y167.565 E7.78536
G1 X155.529 Y167.565 E.01923
G1 X155.529 Y12.435 E7.78536
G1 X155.146 Y12.435 E.01923
G1 X155.146 Y167.565 E7.78536
G1 X154.763 Y167.565 E.01923
G1 X154.763 Y12.435 E7.78536
G1 X154.379 Y12.435 E.01923
G1 X154.379 Y167.565 E7.78536
G1 X153.996 Y167.565 E.01923
G1 X153.996 Y12.435 E7.78536
G1 X153.613 Y12.435 E.01923
G1 X153.613 Y167.565 E7.78536
G1 X153.23 Y167.565 E.01923
G1 X153.23 Y12.435 E7.78536
G1 X152.846 Y12.435 E.01923
G1 X152.846 Y167.565 E7.78536
G1 X152.463 Y167.565 E.01923
G1 X152.463 Y12.435 E7.78536
G1 X152.08 Y12.435 E.01923
M73 P1 R327
G1 X152.08 Y167.565 E7.78536
G1 X151.697 Y167.565 E.01923
G1 X151.697 Y12.435 E7.78536
G1 X151.314 Y12.435 E.01923
G1 X151.314 Y167.565 E7.78536
G1 X150.93 Y167.565 E.01923
G1 X150.93 Y12.435 E7.78536
G1 X150.547 Y12.435 E.01923
G1 X150.547 Y167.565 E7.78536
G1 X150.164 Y167.565 E.01923
G1 X150.164 Y12.435 E7.78536
G1 X149.781 Y12.435 E.01923
G1 X149.781 Y167.565 E7.78536
G1 X149.398 Y167.565 E.01923
G1 X149.398 Y12.435 E7.78536
G1 X149.014 Y12.435 E.01923
G1 X149.014 Y167.565 E7.78536
G1 X148.631 Y167.565 E.01923
G1 X148.631 Y12.435 E7.78536
G1 X148.248 Y12.435 E.01923
G1 X148.248 Y167.565 E7.78536
G1 X147.865 Y167.565 E.01923
G1 X147.865 Y12.435 E7.78536
G1 X147.482 Y12.435 E.01923
M73 P1 R326
G1 X147.482 Y167.565 E7.78536
G1 X147.098 Y167.565 E.01923
G1 X147.098 Y12.435 E7.78536
G1 X146.715 Y12.435 E.01923
G1 X146.715 Y167.565 E7.78536
G1 X146.332 Y167.565 E.01923
G1 X146.332 Y12.435 E7.78536
G1 X145.949 Y12.435 E.01923
G1 X145.949 Y167.565 E7.78536
G1 X145.565 Y167.565 E.01923
G1 X145.565 Y12.435 E7.78536
G1 X145.182 Y12.435 E.01923
G1 X145.182 Y167.565 E7.78536
G1 X144.799 Y167.565 E.01923
G1 X144.799 Y12.435 E7.78536
G1 X144.416 Y12.435 E.01923
G1 X144.416 Y167.565 E7.78536
G1 X144.033 Y167.565 E.01923
G1 X144.033 Y12.435 E7.78536
G1 X143.649 Y12.435 E.01923
G1 X143.649 Y167.565 E7.78536
G1 X143.266 Y167.565 E.01923
M73 P2 R325
G1 X143.266 Y12.435 E7.78536
G1 X142.883 Y12.435 E.01923
G1 X142.883 Y167.565 E7.78536
G1 X142.5 Y167.565 E.01923
G1 X142.5 Y12.435 E7.78536
G1 X142.117 Y12.435 E.01923
G1 X142.117 Y167.565 E7.78536
G1 X141.733 Y167.565 E.01923
G1 X141.733 Y12.435 E7.78536
G1 X141.35 Y12.435 E.01923
G1 X141.35 Y167.565 E7.78536
G1 X140.967 Y167.565 E.01923
G1 X140.967 Y12.435 E7.78536
G1 X140.584 Y12.435 E.01923
G1 X140.584 Y167.565 E7.78536
G1 X140.201 Y167.565 E.01923
G1 X140.201 Y12.435 E7.78536
G1 X139.817 Y12.435 E.01923
G1 X139.817 Y167.565 E7.78536
G1 X139.434 Y167.565 E.01923
G1 X139.434 Y12.435 E7.78536
G1 X139.051 Y12.435 E.01923
M73 P2 R324
G1 X139.051 Y167.565 E7.78536
G1 X138.668 Y167.565 E.01923
G1 X138.668 Y12.435 E7.78536
G1 X138.285 Y12.435 E.01923
G1 X138.284 Y167.565 E7.78536
G1 X137.901 Y167.565 E.01923
G1 X137.901 Y12.435 E7.78536
G1 X137.518 Y12.435 E.01923
G1 X137.518 Y167.565 E7.78536
G1 X137.135 Y167.565 E.01923
G1 X137.135 Y12.435 E7.78536
G1 X136.752 Y12.435 E.01923
G1 X136.752 Y167.565 E7.78536
G1 X136.368 Y167.565 E.01923
G1 X136.368 Y12.435 E7.78536
G1 X135.985 Y12.435 E.01923
G1 X135.985 Y167.565 E7.78536
G1 X135.602 Y167.565 E.01923
G1 X135.602 Y12.435 E7.78536
G1 X135.219 Y12.435 E.01923
G1 X135.219 Y167.565 E7.78536
G1 X134.836 Y167.565 E.01923
G1 X134.836 Y12.28 E7.79315
G1 E-.7 F3600
;WIPE_START
M73 P2 R323
G1 F6240
G1 X134.836 Y12.8 E-.285
;WIPE_END
G1 E-.015 F3600
G1 X37.04 Y162.817 F7800
G1 E1 F2400
;TYPE:Perimeter
;WIDTH:0.42
G1 F1800
G1 X14.525 Y162.817 E1.12996
G1 X14.525 Y151.873 E.54925
G1 X28.612 Y151.893 E.70698
G1 X36.674 Y159.966 E.57258
G1 X37.04 Y160.404 E.02865
G1 X37.04 Y162.667 E.11359
G1 X37.385 Y163.162 F7800
;TYPE:External perimeter
G1 F1800
G1 X14.18 Y163.162 E1.16457
G1 X14.18 Y151.528 E.58389
G1 X28.755 Y151.549 E.73148
G1 X36.929 Y159.733 E.58051
G1 X37.385 Y160.279 E.0357
G1 X37.385 Y163.012 E.13717
G1 X36.498 Y162.701 F7800
G1 E-.7 F3600
;WIPE_START
G1 F6240
G1 X36.865 Y163.016 E-.285
;WIPE_END
G1 E-.015 F3600
G1 X36.937 Y160.587 F7800
G1 E1 F2400
;TYPE:Solid infill
;WIDTH:0.424663
G1 F1800
G1 X28.501 Y152.152 E.60678
G1 X28.006 Y152.151 E.02518
G1 X36.781 Y160.926 E.63123
G1 X36.781 Y161.421 E.02514
G1 X27.511 Y152.15 E.66684
G1 X27.016 Y152.15 E.02518
G1 X36.781 Y161.915 E.70245
G1 X36.781 Y162.409 E.02514
G1 X26.521 Y152.149 E.73806
G1 X26.026 Y152.148 E.02518
G1 X36.437 Y162.559 E.74887
G1 X35.942 Y162.559 E.02514
G1 X25.531 Y152.148 E.74892
G1 X25.036 Y152.147 E.02518
G1 X35.448 Y162.559 E.74897
G1 X34.954 Y162.559 E.02514
G1 X24.541 Y152.146 E.74902
G1 X24.046 Y152.145 E.02518
G1 X34.459 Y162.559 E.74907
G1 X33.965 Y162.559 E.02514
G1 X23.551 Y152.145 E.74912
G1 X23.056 Y152.144 E.02518
G1 X33.471 Y162.559 E.74917
G1 X32.976 Y162.559 E.02514
G1 X22.561 Y152.143 E.74922
G1 X22.066 Y152.143 E.02518
G1 X32.482 Y162.559 E.74927
G1 X31.988 Y162.559 E.02514
G1 X21.571 Y152.142 E.74932
G1 X21.076 Y152.141 E.02518
G1 X31.493 Y162.559 E.74938
G1 X30.999 Y162.559 E.02514
G1 X20.58 Y152.14 E.74943
G1 X20.085 Y152.14 E.02518
G1 X30.505 Y162.559 E.74948
G1 X30.01 Y162.559 E.02514
G1 X19.59 Y152.139 E.74953
G1 X19.095 Y152.138 E.02518
G1 X29.516 Y162.559 E.74958
G1 X29.021 Y162.559 E.02514
G1 X18.6 Y152.138 E.74963
G1 X18.105 Y152.137 E.02518
G1 X28.527 Y162.559 E.74968
G1 X28.033 Y162.559 E.02514
G1 X17.61 Y152.136 E.74973
G1 X17.115 Y152.135 E.02518
G1 X27.538 Y162.559 E.74978
G1 X27.044 Y162.559 E.02514
G1 X16.62 Y152.135 E.74984
G1 X16.125 Y152.134 E.02518
G1 X26.55 Y162.559 E.74989
G1 X26.055 Y162.559 E.02514
G1 X15.63 Y152.133 E.74994
G1 X15.135 Y152.133 E.02518
G1 X25.561 Y162.559 E.74999
G1 X25.067 Y162.559 E.02514
G1 X14.783 Y152.275 E.73972
G1 X14.783 Y152.77 E.02514
G1 X24.572 Y162.559 E.70416
G1 X24.078 Y162.559 E.02514
G1 X14.783 Y153.264 E.6686
G1 X14.783 Y153.758 E.02514
G1 X23.584 Y162.559 E.63304
G1 X23.089 Y162.559 E.02514
G1 X14.783 Y154.253 E.59748
G1 X14.783 Y154.747 E.02514
G1 X22.595 Y162.559 E.56192
G1 X22.101 Y162.559 E.02514
G1 X14.783 Y155.241 E.52636
G1 X14.783 Y155.736 E.02514
G1 X21.606 Y162.559 E.4908
G1 X21.112 Y162.559 E.02514
G1 X14.783 Y156.23 E.45524
G1 X14.783 Y156.724 E.02514
G1 X20.618 Y162.559 E.41968
G1 X20.123 Y162.559 E.02514
G1 X14.783 Y157.219 E.38412
G1 X14.783 Y157.713 E.02514
G1 X19.629 Y162.559 E.34857
G1 X19.135 Y162.559 E.02514
G1 X14.783 Y158.207 E.31301
G1 X14.783 Y158.702 E.02514
G1 X18.64 Y162.559 E.27745
G1 X18.146 Y162.559 E.02514
G1 X14.783 Y159.196 E.24189
G1 X14.783 Y159.691 E.02514
G1 X17.652 Y162.559 E.20633
G1 X17.157 Y162.559 E.02514
G1 X14.783 Y160.185 E.17077
G1 X14.783 Y160.679 E.02514
G1 X16.663 Y162.559 E.13521
G1 X16.169 Y162.559 E.02514
G1 X14.783 Y161.174 E.09965
G1 X14.783 Y161.668 E.02514
G1 X15.674 Y162.559 E.06409
G1 X15.18 Y162.559 E.02514
G1 X14.628 Y162.007 E.03969
M106 S255
;LAYER_CHANGE
;Z:0.85
;HEIGHT:0.5
;BEFORE_LAYER_CHANGE
G92 E0
;0.85


G1 E-.7 F3600
;WIPE_START
G1 F6240
G1 X14.996 Y162.375 E-.285
;WIPE_END
G1 E-.015 F3600
G1 Z.85 F7800
;AFTER_LAYER_CHANGE
;0.85
M104 S205 ; set temperature
G1 X36.129 Y161.98
G1 E1 F2400
;TYPE:Perimeter
;WIDTH:1
G1 F900
G1 X15.362 Y161.98 E3.85365
G1 X15.362 Y152.848 E1.69464
G1 X28.268 Y152.858 E2.39493
G1 X36.129 Y160.741 E2.06585
G1 X36.129 Y161.83 E.20211
G1 X37.022 Y162.872 F7800
;TYPE:External perimeter
G1 F900
G1 X14.47 Y162.872 E4.18497
G1 X14.47 Y151.954 E2.02609
G1 X28.639 Y151.965 E2.62932
G1 X36.687 Y160.023 E2.11349
G1 X37.022 Y160.417 E.09586
G1 X37.022 Y162.722 E.4278
G1 X36.137 Y162.406 F7800
G1 E-.7 F3600
;WIPE_START
G1 F6240
G1 X36.502 Y162.726 E-.285
;WIPE_END
G1 E-.015 F3600
G1 X33.973 Y161.712 F7800
G1 E1 F2400
;TYPE:Solid infill
;WIDTH:1.03958
G1 F900
G1 X35.07 Y160.615 E.3007
G1 X34.411 Y159.955 E.18067
G1 X33.056 Y161.31 E.37139
G1 X31.738 Y161.31 E.25551
G1 X33.752 Y159.295 E.55217
G1 X33.093 Y158.636 E.18067
G1 X30.419 Y161.31 E.73295
G1 X29.101 Y161.31 E.25551
G1 X32.435 Y157.976 E.91373
G1 X31.776 Y157.317 E.18067
G1 X27.782 Y161.31 E1.09451
G1 X26.464 Y161.31 E.25551
G1 X31.117 Y156.657 E1.27529
G1 X30.458 Y155.997 E.18067
G1 X25.145 Y161.31 E1.45607
G1 X23.827 Y161.31 E.25551
G1 X29.799 Y155.338 E1.63685
G1 X29.14 Y154.678 E.18067
G1 X22.508 Y161.31 E1.81763
G1 X21.19 Y161.31 E.25551
G1 X28.482 Y154.019 E1.99841
G1 X27.99 Y153.527 E.13467
G1 X27.655 Y153.527 E.06501
G1 X19.872 Y161.31 E2.13323
G1 X18.553 Y161.31 E.25551
G1 X26.338 Y153.526 E2.13351
G1 X25.02 Y153.525 E.25531
G1 X17.235 Y161.31 E2.13379
G1 X16.032 Y161.31 E.23308
G1 X16.032 Y161.194 E.02243
G1 X23.703 Y153.524 E2.10235
G1 X22.385 Y153.523 E.25531
G1 X16.032 Y159.876 E1.74128
G1 X16.032 Y158.558 E.25551
G1 X21.068 Y153.522 E1.38022
G1 X19.751 Y153.521 E.25531
G1 X16.032 Y157.239 E1.01915
G1 X16.032 Y155.921 E.25551
G1 X18.433 Y153.52 E.65808
G1 X17.116 Y153.518 E.25531
G1 X15.63 Y155.004 E.40711
;LAYER_CHANGE
;Z:1.09743
;HEIGHT:0.247429
;BEFORE_LAYER_CHANGE
G92 E0
;1.09743


G1 E-.7 F3600
;WIPE_START
G1 F6240
G1 X15.998 Y154.636 E-.285
;WIPE_END
G1 E-.015 F3600
G1 Z1.097 F7800
;AFTER_LAYER_CHANGE
;1.09743
G1 X147.242 Y157.854
G1 E1 F2400
;TYPE:Support material
;WIDTH:1
;HEIGHT:0.747429
G1 F1434.168
G1 X138.334 Y157.854 E2.32415
G1 X138.334 Y161.247 E.88516
G1 X147.242 Y161.247 E2.32415
G1 E-.7 F3600
;WIPE_START
G1 F6240
G1 X146.722 Y161.247 E-.285
;WIPE_END
G1 E-.015 F3600
G1 X167.978 Y164.586 F7800
G1 E1 F2400
G1 F1434.168
G1 X151.122 Y164.586 E4.39781
G1 X151.122 Y157.8 E1.77032
G1 X147.622 Y157.8 E.91315
G1 X147.622 Y164.586 E1.77032
G1 X137.551 Y164.586 E2.62749
G1 X137.551 Y15.414 E38.91904
G1 X167.978 Y15.414 E7.93845
M73 P2 R322
G1 X167.978 Y164.46 E38.88618
G1 X167.598 Y161.247 F7800
G1 F1434.168
G1 X151.904 Y161.247 E4.09447
G1 X151.904 Y157.854 E.88516
G1 X167.196 Y157.854 E3.98966
G1 X167.196 Y154.461 E.88516
G1 X138.334 Y154.461 E7.5303
G1 X138.334 Y151.069 E.88516
G1 X167.196 Y151.069 E7.5303
G1 X167.196 Y147.676 E.88516
G1 X138.334 Y147.676 E7.5303
G1 X138.334 Y144.283 E.88516
G1 X167.196 Y144.283 E7.5303
G1 X167.196 Y140.89 E.88516
G1 X138.334 Y140.89 E7.5303
G1 X138.334 Y137.498 E.88516
M73 P3 R322
G1 X167.196 Y137.498 E7.5303
G1 X167.196 Y134.105 E.88516
G1 X138.334 Y134.105 E7.5303
G1 X138.334 Y130.712 E.88516
G1 X167.196 Y130.712 E7.5303
G1 X167.196 Y127.32 E.88516
G1 X138.334 Y127.32 E7.5303
G1 X138.334 Y123.927 E.88516
G1 X167.196 Y123.927 E7.5303
G1 X167.196 Y120.534 E.88516
G1 X138.334 Y120.534 E7.5303
G1 X138.334 Y117.142 E.88516
G1 X167.196 Y117.142 E7.5303
G1 X167.196 Y113.749 E.88516
G1 X138.334 Y113.749 E7.5303
G1 X138.334 Y110.356 E.88516
G1 X167.598 Y110.356 E7.63511
G1 E-.7 F3600
;WIPE_START
G1 F6240
G1 X167.078 Y110.356 E-.285
;WIPE_END
G1 E-.015 F3600
G1 X151.141 Y86.554 F7800
G1 E1 F2400
G1 F1434.168
G1 X154.515 Y86.554 E.88029
G1 X154.515 Y107.017 E5.33895
G1 X151.015 Y107.017 E.91315
G1 X151.015 Y86.554 E5.33895
G1 X137.932 Y86.607 F7800
G1 F1434.168
G1 X150.233 Y86.607 E3.20931
G1 X150.233 Y90 E.88516
G1 X138.334 Y90 E3.1045
G1 X138.334 Y93.393 E.88516
G1 X150.233 Y93.393 E3.1045
G1 X150.233 Y96.785 E.88516
G1 X138.334 Y96.785 E3.1045
G1 X138.334 Y100.178 E.88516
G1 X150.233 Y100.178 E3.1045
G1 X150.233 Y103.571 E.88516
G1 X138.334 Y103.571 E3.1045
G1 X138.334 Y106.963 E.88516
G1 X150.233 Y106.963 E3.1045
G1 X150.233 Y107.799 E.21807
G1 X155.297 Y107.799 E1.3213
G1 X155.297 Y106.963 E.21807
G1 X167.196 Y106.963 E3.1045
G1 X167.196 Y103.571 E.88516
G1 X155.297 Y103.571 E3.1045
G1 X155.297 Y100.178 E.88516
G1 X167.196 Y100.178 E3.1045
G1 X167.196 Y96.785 E.88516
G1 X155.297 Y96.785 E3.1045
G1 X155.297 Y93.393 E.88516
G1 X167.196 Y93.393 E3.1045
G1 X167.196 Y90 E.88516
G1 X155.297 Y90 E3.1045
G1 X155.297 Y86.607 E.88516
G1 X167.196 Y86.607 E3.1045
G1 X167.196 Y83.215 E.88516
G1 X138.334 Y83.215 E7.5303
G1 X138.334 Y79.822 E.88516
G1 X167.196 Y79.822 E7.5303
G1 X167.196 Y76.429 E.88516
G1 X138.334 Y76.429 E7.5303
G1 X138.334 Y73.037 E.88516
G1 X167.196 Y73.037 E7.5303
G1 X167.196 Y69.644 E.88516
G1 X138.334 Y69.644 E7.5303
G1 X138.334 Y66.251 E.88516
G1 X167.196 Y66.251 E7.5303
G1 X167.196 Y62.858 E.88516
G1 X138.334 Y62.858 E7.5303
G1 X138.334 Y59.466 E.88516
G1 X167.196 Y59.466 E7.5303
G1 X167.196 Y56.073 E.88516
G1 X138.334 Y56.073 E7.5303
G1 X138.334 Y52.68 E.88516
G1 X157.018 Y52.68 E4.87482
G1 X157.018 Y49.288 E.88516
G1 X138.334 Y49.288 E4.87482
G1 X138.334 Y45.895 E.88516
G1 X157.018 Y45.895 E4.87482
G1 X157.018 Y42.502 E.88516
G1 X138.334 Y42.502 E4.87482
