; generated by PrusaSlicer 2.5.0+win64 on 2022-12-07 at 00:22:48 UTC

; 

; external perimeters extrusion width = 1.00mm
; perimeters extrusion width = 1.00mm
; infill extrusion width = 1.00mm
; solid infill extrusion width = 1.00mm
; top infill extrusion width = 1.00mm
; support material extrusion width = 1.00mm
; first layer extrusion width = 0.42mm

M73 P0 R23
M107
;TYPE:Custom
G90 ; use absolute coordinates
M83 ; extruder relative mode
M140 S60 ; set final bed temp
M104 S150 ; set temporary nozzle temp to prevent oozing during homing and auto bed leveling
G4 S10 ; allow partial nozzle warmup
G28 ; home all axisG1 Z50 F240
G1 X7.6 Y10 F3000
M104 S210 ; set final nozzle temp
M190 S60 ; wait for bed temp to stabilize
M109 S210 ; wait for nozzle temp to stabilize
G1 Z0.28 F240
G92 E0
G1 Y140 E10 F1500 ; prime the nozzle
G1 X4 F5000
G92 E0
G1 Y10 E10 F1200 ; prime the nozzle
G92 E0
G21 ; set units to millimeters
G90 ; use absolute coordinates
M83 ; use relative distances for extrusion
; Filament gcode
M107
;LAYER_CHANGE
;Z:0.35
;HEIGHT:0.35
;BEFORE_LAYER_CHANGE
G92 E0
;0.35


G1 E-1 F3600
G1 Z.35 F7800
;AFTER_LAYER_CHANGE
;0.35
G1 X165.475 Y84.593
G1 E1 F2400
;TYPE:Perimeter
;WIDTH:0.42
G1 F1800
G1 X165.475 Y95.541 E.54944
G1 X14.525 Y95.541 E7.57559
M73 P1 R23
G1 X14.525 Y85.967 E.48046
G1 X150.524 Y84.518 E6.82564
G1 X165.325 Y84.592 E.74282
G1 X165.82 Y84.249 F7800
;TYPE:External perimeter
G1 F1800
G1 X165.82 Y95.886 E.58397
G1 X14.18 Y95.886 E7.61021
G1 X14.18 Y85.626 E.51489
M73 P2 R22
G1 X150.523 Y84.173 E6.8429
G1 X165.67 Y84.249 E.76017
G1 X165.323 Y85.117 F7800
G1 X164.671 Y84.692
;TYPE:Solid infill
;WIDTH:0.420235
G1 F1800
G1 X165.217 Y85.238 E.03878
G1 X165.217 Y85.726 E.02451
G1 X164.336 Y84.846 E.06254
G1 X163.846 Y84.843 E.02463
G1 X165.217 Y86.214 E.09738
G1 X165.217 Y86.702 E.02451
G1 X163.355 Y84.841 E.13222
G1 X162.864 Y84.838 E.02463
G1 X165.217 Y87.19 E.16706
G1 X165.217 Y87.678 E.02451
G1 X162.374 Y84.836 E.2019
G1 X161.883 Y84.833 E.02463
G1 X165.217 Y88.167 E.23673
G1 X165.217 Y88.655 E.02451
G1 X161.393 Y84.831 E.27157
G1 X160.902 Y84.828 E.02463
G1 X165.217 Y89.143 E.30641
G1 X165.217 Y89.631 E.02451
G1 X160.412 Y84.826 E.34125
G1 X159.921 Y84.824 E.02463
G1 X165.217 Y90.119 E.37609
G1 X165.217 Y90.607 E.02451
G1 X159.431 Y84.821 E.41092
G1 X158.94 Y84.819 E.02463
G1 X165.217 Y91.095 E.44576
G1 X165.217 Y91.583 E.02451
G1 X158.45 Y84.816 E.4806
G1 X157.959 Y84.814 E.02463
G1 X165.217 Y92.071 E.51544
G1 X165.217 Y92.559 E.02451
G1 X157.469 Y84.811 E.55027
G1 X156.978 Y84.809 E.02463
G1 X165.217 Y93.047 E.58511
G1 X165.217 Y93.535 E.02451
G1 X156.488 Y84.806 E.61995
G1 X155.997 Y84.804 E.02463
G1 X165.217 Y94.024 E.65479
G1 X165.217 Y94.512 E.02451
G1 X155.507 Y84.802 E.68963
G1 X155.016 Y84.799 E.02463
G1 X165.217 Y95 E.72446
G1 X165.217 Y95.282 E.01418
M73 P3 R22
G1 X165.011 Y95.282 E.01033
G1 X154.526 Y84.797 E.74469
G1 X154.035 Y84.794 E.02463
G1 X164.523 Y95.282 E.74486
G1 X164.035 Y95.282 E.02451
G1 X153.545 Y84.792 E.74503
G1 X153.054 Y84.789 E.02463
G1 X163.547 Y95.282 E.74521
G1 X163.059 Y95.282 E.02451
G1 X152.563 Y84.787 E.74538
G1 X152.073 Y84.784 E.02463
G1 X162.571 Y95.282 E.74556
G1 X162.082 Y95.282 E.02451
G1 X151.582 Y84.782 E.74573
G1 X151.092 Y84.78 E.02463
G1 X161.594 Y95.282 E.7459
G1 X161.106 Y95.282 E.02451
G1 X150.601 Y84.777 E.74608
G1 X150.567 Y84.777 E.00174
G1 X150.118 Y84.782 E.02254
G1 X160.618 Y95.282 E.74575
G1 X160.13 Y95.282 E.02451
G1 X149.635 Y84.787 E.74538
G1 X149.152 Y84.792 E.02425
G1 X159.642 Y95.282 E.74502
G1 X159.154 Y95.282 E.02451
G1 X148.669 Y84.797 E.74465
G1 X148.186 Y84.802 E.02425
G1 X158.666 Y95.282 E.74429
G1 X158.178 Y95.282 E.02451
G1 X147.703 Y84.807 E.74392
G1 X147.22 Y84.813 E.02425
G1 X157.69 Y95.282 E.74356
G1 X157.202 Y95.282 E.02451
G1 X146.737 Y84.818 E.74319
G1 X146.254 Y84.823 E.02425
G1 X156.714 Y95.282 E.74283
G1 X156.225 Y95.282 E.02451
G1 X145.772 Y84.828 E.74246
G1 X145.289 Y84.833 E.02425
G1 X155.737 Y95.282 E.7421
G1 X155.249 Y95.282 E.02451
G1 X144.806 Y84.838 E.74173
G1 X144.323 Y84.843 E.02425
G1 X154.761 Y95.282 E.74137
G1 X154.273 Y95.282 E.02451
G1 X143.84 Y84.849 E.741
G1 X143.357 Y84.854 E.02425
G1 X153.785 Y95.282 E.74064
G1 X153.297 Y95.282 E.02451
G1 X142.874 Y84.859 E.74027
G1 X142.391 Y84.864 E.02425
M73 P4 R22
G1 X152.809 Y95.282 E.7399
G1 X152.321 Y95.282 E.02451
G1 X141.908 Y84.869 E.73954
G1 X141.425 Y84.874 E.02425
G1 X151.833 Y95.282 E.73917
G1 X151.345 Y95.282 E.02451
G1 X140.942 Y84.879 E.73881
G1 X140.459 Y84.885 E.02425
G1 X150.857 Y95.282 E.73844
G1 X150.369 Y95.282 E.02451
G1 X139.976 Y84.89 E.73808
G1 X139.493 Y84.895 E.02425
G1 X149.88 Y95.282 E.73771
G1 X149.392 Y95.282 E.02451
G1 X139.01 Y84.9 E.73735
G1 X138.527 Y84.905 E.02425
G1 X148.904 Y95.282 E.73698
G1 X148.416 Y95.282 E.02451
G1 X138.045 Y84.91 E.73662
G1 X137.562 Y84.915 E.02425
G1 X147.928 Y95.282 E.73625
G1 X147.44 Y95.282 E.02451
G1 X137.079 Y84.921 E.73589
G1 X136.596 Y84.926 E.02425
G1 X146.952 Y95.282 E.73552
G1 X146.464 Y95.282 E.02451
G1 X136.113 Y84.931 E.73516
G1 X135.63 Y84.936 E.02425
G1 X145.976 Y95.282 E.73479
G1 X145.488 Y95.282 E.02451
G1 X135.147 Y84.941 E.73443
G1 X134.664 Y84.946 E.02425
G1 X145 Y95.282 E.73406
G1 X144.512 Y95.282 E.02451
G1 X134.181 Y84.951 E.7337
G1 X133.698 Y84.957 E.02425
G1 X144.024 Y95.282 E.73333
G1 X143.535 Y95.282 E.02451
G1 X133.215 Y84.962 E.73297
G1 X132.732 Y84.967 E.02425
G1 X143.047 Y95.282 E.7326
G1 X142.559 Y95.282 E.02451
G1 X132.249 Y84.972 E.73223
G1 X131.766 Y84.977 E.02425
G1 X142.071 Y95.282 E.73187
G1 X141.583 Y95.282 E.02451
G1 X131.283 Y84.982 E.7315
G1 X130.8 Y84.987 E.02425
G1 X141.095 Y95.282 E.73114
G1 X140.607 Y95.282 E.02451
G1 X130.318 Y84.993 E.73077
G1 X129.835 Y84.998 E.02425
M73 P5 R22
G1 X140.119 Y95.282 E.73041
G1 X139.631 Y95.282 E.02451
G1 X129.352 Y85.003 E.73004
G1 X128.869 Y85.008 E.02425
G1 X139.143 Y95.282 E.72968
G1 X138.655 Y95.282 E.02451
G1 X128.386 Y85.013 E.72931
G1 X127.903 Y85.018 E.02425
G1 X138.167 Y95.282 E.72895
G1 X137.678 Y95.282 E.02451
G1 X127.42 Y85.023 E.72858
G1 X126.937 Y85.029 E.02425
G1 X137.19 Y95.282 E.72822
G1 X136.702 Y95.282 E.02451
G1 X126.454 Y85.034 E.72785
G1 X125.971 Y85.039 E.02425
G1 X136.214 Y95.282 E.72749
G1 X135.726 Y95.282 E.02451
G1 X125.488 Y85.044 E.72712
G1 X125.005 Y85.049 E.02425
G1 X135.238 Y95.282 E.72676
G1 X134.75 Y95.282 E.02451
G1 X124.522 Y85.054 E.72639
G1 X124.039 Y85.059 E.02425
G1 X134.262 Y95.282 E.72603
G1 X133.774 Y95.282 E.02451
G1 X123.556 Y85.065 E.72566
G1 X123.074 Y85.07 E.02425
G1 X133.286 Y95.282 E.72529
G1 X132.798 Y95.282 E.02451
G1 X122.591 Y85.075 E.72493
G1 X122.108 Y85.08 E.02425
G1 X132.31 Y95.282 E.72456
G1 X131.822 Y95.282 E.02451
G1 X121.625 Y85.085 E.7242
G1 X121.142 Y85.09 E.02425
G1 X131.333 Y95.282 E.72383
G1 X130.845 Y95.282 E.02451
G1 X120.659 Y85.095 E.72347
G1 X120.176 Y85.101 E.02425
G1 X130.357 Y95.282 E.7231
G1 X129.869 Y95.282 E.02451
G1 X119.693 Y85.106 E.72274
G1 X119.21 Y85.111 E.02425
G1 X129.381 Y95.282 E.72237
G1 X128.893 Y95.282 E.02451
G1 X118.727 Y85.116 E.72201
G1 X118.244 Y85.121 E.02425
G1 X128.405 Y95.282 E.72164
G1 X127.917 Y95.282 E.02451
G1 X117.761 Y85.126 E.72128
G1 X117.278 Y85.131 E.02425
M73 P6 R22
G1 X127.429 Y95.282 E.72091
G1 X126.941 Y95.282 E.02451
G1 X116.795 Y85.137 E.72055
G1 X116.312 Y85.142 E.02425
G1 X126.453 Y95.282 E.72018
G1 X125.965 Y95.282 E.02451
G1 X115.829 Y85.147 E.71982
G1 X115.347 Y85.152 E.02425
G1 X125.477 Y95.282 E.71945
G1 X124.988 Y95.282 E.02451
G1 X114.864 Y85.157 E.71909
G1 X114.381 Y85.162 E.02425
G1 X124.5 Y95.282 E.71872
G1 X124.012 Y95.282 E.02451
G1 X113.898 Y85.167 E.71835
G1 X113.415 Y85.173 E.02425
G1 X123.524 Y95.282 E.71799
G1 X123.036 Y95.282 E.02451
M73 P6 R21
G1 X112.932 Y85.178 E.71762
G1 X112.449 Y85.183 E.02425
G1 X122.548 Y95.282 E.71726
G1 X122.06 Y95.282 E.02451
G1 X111.966 Y85.188 E.71689
G1 X111.483 Y85.193 E.02425
G1 X121.572 Y95.282 E.71653
G1 X121.084 Y95.282 E.02451
G1 X111 Y85.198 E.71616
G1 X110.517 Y85.203 E.02425
G1 X120.596 Y95.282 E.7158
G1 X120.108 Y95.282 E.02451
G1 X110.034 Y85.209 E.71543
G1 X109.551 Y85.214 E.02425
G1 X119.62 Y95.282 E.71507
G1 X119.131 Y95.282 E.02451
G1 X109.068 Y85.219 E.7147
G1 X108.585 Y85.224 E.02425
G1 X118.643 Y95.282 E.71434
G1 X118.155 Y95.282 E.02451
G1 X108.102 Y85.229 E.71397
G1 X107.62 Y85.234 E.02425
G1 X117.667 Y95.282 E.71361
G1 X117.179 Y95.282 E.02451
G1 X107.137 Y85.239 E.71324
G1 X106.654 Y85.245 E.02425
G1 X116.691 Y95.282 E.71288
G1 X116.203 Y95.282 E.02451
G1 X106.171 Y85.25 E.71251
G1 X105.688 Y85.255 E.02425
G1 X115.715 Y95.282 E.71215
G1 X115.227 Y95.282 E.02451
G1 X105.205 Y85.26 E.71178
G1 X104.722 Y85.265 E.02425
M73 P7 R21
G1 X114.739 Y95.282 E.71141
G1 X114.251 Y95.282 E.02451
G1 X104.239 Y85.27 E.71105
G1 X103.756 Y85.275 E.02425
G1 X113.763 Y95.282 E.71068
G1 X113.275 Y95.282 E.02451
G1 X103.273 Y85.281 E.71032
G1 X102.79 Y85.286 E.02425
G1 X112.786 Y95.282 E.70995
G1 X112.298 Y95.282 E.02451
G1 X102.307 Y85.291 E.70959
G1 X101.824 Y85.296 E.02425
G1 X111.81 Y95.282 E.70922
G1 X111.322 Y95.282 E.02451
G1 X101.341 Y85.301 E.70886
G1 X100.858 Y85.306 E.02425
G1 X110.834 Y95.282 E.70849
G1 X110.346 Y95.282 E.02451
G1 X100.376 Y85.311 E.70813
G1 X99.893 Y85.317 E.02425
G1 X109.858 Y95.282 E.70776
G1 X109.37 Y95.282 E.02451
G1 X99.41 Y85.322 E.7074
G1 X98.927 Y85.327 E.02425
G1 X108.882 Y95.282 E.70703
G1 X108.394 Y95.282 E.02451
G1 X98.444 Y85.332 E.70667
G1 X97.961 Y85.337 E.02425
G1 X107.906 Y95.282 E.7063
G1 X107.418 Y95.282 E.02451
G1 X97.478 Y85.342 E.70594
G1 X96.995 Y85.347 E.02425
G1 X106.93 Y95.282 E.70557
G1 X106.441 Y95.282 E.02451
G1 X96.512 Y85.353 E.70521
G1 X96.029 Y85.358 E.02425
G1 X105.953 Y95.282 E.70484
G1 X105.465 Y95.282 E.02451
G1 X95.546 Y85.363 E.70447
G1 X95.063 Y85.368 E.02425
G1 X104.977 Y95.282 E.70411
G1 X104.489 Y95.282 E.02451
G1 X94.58 Y85.373 E.70374
G1 X94.097 Y85.378 E.02425
G1 X104.001 Y95.282 E.70338
G1 X103.513 Y95.282 E.02451
G1 X93.614 Y85.383 E.70301
G1 X93.131 Y85.389 E.02425
G1 X103.025 Y95.282 E.70265
G1 X102.537 Y95.282 E.02451
G1 X92.649 Y85.394 E.70228
G1 X92.166 Y85.399 E.02425
M73 P8 R21
G1 X102.049 Y95.282 E.70192
G1 X101.561 Y95.282 E.02451
G1 X91.683 Y85.404 E.70155
G1 X91.2 Y85.409 E.02425
G1 X101.073 Y95.282 E.70119
G1 X100.584 Y95.282 E.02451
G1 X90.717 Y85.414 E.70082
G1 X90.234 Y85.419 E.02425
G1 X100.096 Y95.282 E.70046
G1 X99.608 Y95.282 E.02451
G1 X89.751 Y85.425 E.70009
G1 X89.268 Y85.43 E.02425
G1 X99.12 Y95.282 E.69973
G1 X98.632 Y95.282 E.02451
G1 X88.785 Y85.435 E.69936
G1 X88.302 Y85.44 E.02425
G1 X98.144 Y95.282 E.699
G1 X97.656 Y95.282 E.02451
G1 X87.819 Y85.445 E.69863
G1 X87.336 Y85.45 E.02425
G1 X97.168 Y95.282 E.69827
G1 X96.68 Y95.282 E.02451
G1 X86.853 Y85.455 E.6979
G1 X86.37 Y85.461 E.02425
G1 X96.192 Y95.282 E.69754
G1 X95.704 Y95.282 E.02451
G1 X85.887 Y85.466 E.69717
G1 X85.404 Y85.471 E.02425
G1 X95.216 Y95.282 E.6968
G1 X94.728 Y95.282 E.02451
G1 X84.922 Y85.476 E.69644
G1 X84.439 Y85.481 E.02425
G1 X94.239 Y95.282 E.69607
G1 X93.751 Y95.282 E.02451
G1 X83.956 Y85.486 E.69571
G1 X83.473 Y85.491 E.02425
G1 X93.263 Y95.282 E.69534
G1 X92.775 Y95.282 E.02451
G1 X82.99 Y85.497 E.69498
G1 X82.507 Y85.502 E.02425
G1 X92.287 Y95.282 E.69461
G1 X91.799 Y95.282 E.02451
G1 X82.024 Y85.507 E.69425
G1 X81.541 Y85.512 E.02425
G1 X91.311 Y95.282 E.69388
G1 X90.823 Y95.282 E.02451
G1 X81.058 Y85.517 E.69352
G1 X80.575 Y85.522 E.02425
G1 X90.335 Y95.282 E.69315
G1 X89.847 Y95.282 E.02451
G1 X80.092 Y85.527 E.69279
G1 X79.609 Y85.533 E.02425
G1 X89.359 Y95.282 E.69242
G1 X88.871 Y95.282 E.02451
M73 P9 R21
G1 X79.126 Y85.538 E.69206
G1 X78.643 Y85.543 E.02425
G1 X88.383 Y95.282 E.69169
G1 X87.894 Y95.282 E.02451
G1 X78.16 Y85.548 E.69133
G1 X77.678 Y85.553 E.02425
G1 X87.406 Y95.282 E.69096
G1 X86.918 Y95.282 E.02451
G1 X77.195 Y85.558 E.6906
G1 X76.712 Y85.563 E.02425
G1 X86.43 Y95.282 E.69023
G1 X85.942 Y95.282 E.02451
G1 X76.229 Y85.569 E.68986
G1 X75.746 Y85.574 E.02425
G1 X85.454 Y95.282 E.6895
G1 X84.966 Y95.282 E.02451
G1 X75.263 Y85.579 E.68913
G1 X74.78 Y85.584 E.02425
G1 X84.478 Y95.282 E.68877
G1 X83.99 Y95.282 E.02451
G1 X74.297 Y85.589 E.6884
G1 X73.814 Y85.594 E.02425
G1 X83.502 Y95.282 E.68804
G1 X83.014 Y95.282 E.02451
G1 X73.331 Y85.599 E.68767
G1 X72.848 Y85.605 E.02425
G1 X82.526 Y95.282 E.68731
G1 X82.037 Y95.282 E.02451
G1 X72.365 Y85.61 E.68694
G1 X71.882 Y85.615 E.02425
G1 X81.549 Y95.282 E.68658
G1 X81.061 Y95.282 E.02451
G1 X71.399 Y85.62 E.68621
G1 X70.916 Y85.625 E.02425
G1 X80.573 Y95.282 E.68585
G1 X80.085 Y95.282 E.02451
G1 X70.433 Y85.63 E.68548
G1 X69.951 Y85.635 E.02425
G1 X79.597 Y95.282 E.68512
G1 X79.109 Y95.282 E.02451
G1 X69.468 Y85.641 E.68475
G1 X68.985 Y85.646 E.02425
G1 X78.621 Y95.282 E.68439
G1 X78.133 Y95.282 E.02451
G1 X68.502 Y85.651 E.68402
G1 X68.019 Y85.656 E.02425
G1 X77.645 Y95.282 E.68366
G1 X77.157 Y95.282 E.02451
G1 X67.536 Y85.661 E.68329
G1 X67.053 Y85.666 E.02425
G1 X76.669 Y95.282 E.68292
G1 X76.181 Y95.282 E.02451
G1 X66.57 Y85.671 E.68256
G1 X66.087 Y85.677 E.02425
M73 P10 R21
G1 X75.692 Y95.282 E.68219
G1 X75.204 Y95.282 E.02451
G1 X65.604 Y85.682 E.68183
G1 X65.121 Y85.687 E.02425
G1 X74.716 Y95.282 E.68146
G1 X74.228 Y95.282 E.02451
G1 X64.638 Y85.692 E.6811
G1 X64.155 Y85.697 E.02425
G1 X73.74 Y95.282 E.68073
G1 X73.252 Y95.282 E.02451
G1 X63.672 Y85.702 E.68037
G1 X63.189 Y85.707 E.02425
G1 X72.764 Y95.282 E.68
G1 X72.276 Y95.282 E.02451
G1 X62.706 Y85.713 E.67964
G1 X62.224 Y85.718 E.02425
G1 X71.788 Y95.282 E.67927
G1 X71.3 Y95.282 E.02451
G1 X61.741 Y85.723 E.67891
G1 X61.258 Y85.728 E.02425
G1 X70.812 Y95.282 E.67854
G1 X70.324 Y95.282 E.02451
G1 X60.775 Y85.733 E.67818
G1 X60.292 Y85.738 E.02425
G1 X69.836 Y95.282 E.67781
G1 X69.347 Y95.282 E.02451
G1 X59.809 Y85.743 E.67745
G1 X59.326 Y85.749 E.02425
G1 X68.859 Y95.282 E.67708
G1 X68.371 Y95.282 E.02451
G1 X58.843 Y85.754 E.67672
G1 X58.36 Y85.759 E.02425
G1 X67.883 Y95.282 E.67635
G1 X67.395 Y95.282 E.02451
G1 X57.877 Y85.764 E.67598
G1 X57.394 Y85.769 E.02425
M73 P10 R20
G1 X66.907 Y95.282 E.67562
G1 X66.419 Y95.282 E.02451
G1 X56.911 Y85.774 E.67525
G1 X56.428 Y85.779 E.02425
G1 X65.931 Y95.282 E.67489
G1 X65.443 Y95.282 E.02451
G1 X55.945 Y85.785 E.67452
G1 X55.462 Y85.79 E.02425
G1 X64.955 Y95.282 E.67416
G1 X64.467 Y95.282 E.02451
G1 X54.98 Y85.795 E.67379
G1 X54.497 Y85.8 E.02425
G1 X63.979 Y95.282 E.67343
G1 X63.49 Y95.282 E.02451
G1 X54.014 Y85.805 E.67306
G1 X53.531 Y85.81 E.02425
G1 X63.002 Y95.282 E.6727
G1 X62.514 Y95.282 E.02451
G1 X53.048 Y85.815 E.67233
G1 X52.565 Y85.821 E.02425
M73 P11 R20
G1 X62.026 Y95.282 E.67197
G1 X61.538 Y95.282 E.02451
G1 X52.082 Y85.826 E.6716
G1 X51.599 Y85.831 E.02425
G1 X61.05 Y95.282 E.67124
G1 X60.562 Y95.282 E.02451
G1 X51.116 Y85.836 E.67087
G1 X50.633 Y85.841 E.02425
G1 X60.074 Y95.282 E.67051
G1 X59.586 Y95.282 E.02451
G1 X50.15 Y85.846 E.67014
G1 X49.667 Y85.851 E.02425
G1 X59.098 Y95.282 E.66978
G1 X58.61 Y95.282 E.02451
G1 X49.184 Y85.857 E.66941
G1 X48.701 Y85.862 E.02425
G1 X58.122 Y95.282 E.66904
G1 X57.634 Y95.282 E.02451
G1 X48.218 Y85.867 E.66868
G1 X47.735 Y85.872 E.02425
G1 X57.145 Y95.282 E.66831
G1 X56.657 Y95.282 E.02451
G1 X47.253 Y85.877 E.66795
G1 X46.77 Y85.882 E.02425
G1 X56.169 Y95.282 E.66758
G1 X55.681 Y95.282 E.02451
G1 X46.287 Y85.887 E.66722
G1 X45.804 Y85.893 E.02425
G1 X55.193 Y95.282 E.66685
G1 X54.705 Y95.282 E.02451
G1 X45.321 Y85.898 E.66649
G1 X44.838 Y85.903 E.02425
G1 X54.217 Y95.282 E.66612
G1 X53.729 Y95.282 E.02451
G1 X44.355 Y85.908 E.66576
G1 X43.872 Y85.913 E.02425
G1 X53.241 Y95.282 E.66539
G1 X52.753 Y95.282 E.02451
G1 X43.389 Y85.918 E.66503
G1 X42.906 Y85.923 E.02425
G1 X52.265 Y95.282 E.66466
G1 X51.777 Y95.282 E.02451
G1 X42.423 Y85.929 E.6643
G1 X41.94 Y85.934 E.02425
G1 X51.288 Y95.282 E.66393
G1 X50.8 Y95.282 E.02451
G1 X41.457 Y85.939 E.66357
G1 X40.974 Y85.944 E.02425
G1 X50.312 Y95.282 E.6632
G1 X49.824 Y95.282 E.02451
G1 X40.491 Y85.949 E.66284
G1 X40.008 Y85.954 E.02425
G1 X49.336 Y95.282 E.66247
G1 X48.848 Y95.282 E.02451
