; generated by PrusaSlicer 2.5.0+win64 on 2022-12-07 at 00:22:59 UTC

; 

; external perimeters extrusion width = 1.00mm
; perimeters extrusion width = 1.00mm
; infill extrusion width = 1.00mm
; solid infill extrusion width = 1.00mm
; top infill extrusion width = 1.00mm
; support material extrusion width = 1.00mm
; first layer extrusion width = 0.42mm

M73 P0 R234
M107
;TYPE:Custom
G90 ; use absolute coordinates
M83 ; extruder relative mode
M140 S60 ; set final bed temp
M104 S150 ; set temporary nozzle temp to prevent oozing during homing and auto bed leveling
G4 S10 ; allow partial nozzle warmup
G28 ; home all axisG1 Z50 F240
G1 X7.6 Y10 F3000
M104 S210 ; set final nozzle temp
M190 S60 ; wait for bed temp to stabilize
M109 S210 ; wait for nozzle temp to stabilize
G1 Z0.28 F240
G92 E0
G1 Y140 E10 F1500 ; prime the nozzle
G1 X4 F5000
G92 E0
M73 P0 R233
G1 Y10 E10 F1200 ; prime the nozzle
G92 E0
G21 ; set units to millimeters
G90 ; use absolute coordinates
M83 ; use relative distances for extrusion
; Filament gcode
M107
;LAYER_CHANGE
;Z:0.35
;HEIGHT:0.35
;BEFORE_LAYER_CHANGE
G92 E0
;0.35


G1 E-1 F3600
G1 Z.35 F7800
;AFTER_LAYER_CHANGE
;0.35
G1 X93.253 Y15.92
G1 E1 F2400
;TYPE:Support material
;WIDTH:0.42
G1 F1800
G1 X88.329 Y15.92 E.24711
G1 X87.928 Y16.271 E.02676
G1 X68.077 Y163.599 E7.46059
G1 X68.501 Y164.084 E.03235
G1 X79.682 Y164.084 E.56112
G1 X79.682 Y167.876 E.19029
G1 X59.639 Y167.876 E1.00589
G1 X59.639 Y158.01 E.49509
G1 X63.032 Y158.01 E.17027
G1 X63.032 Y134.262 E1.19186
G1 X66.424 Y134.262 E.17027
G1 X66.424 Y103.727 E1.53239
G1 X69.817 Y103.727 E.17027
G1 X69.817 Y79.978 E1.19186
G1 X73.21 Y79.978 E.17027
G1 X73.21 Y52.837 E1.36213
G1 X76.602 Y52.837 E.17027
G1 X76.602 Y29.088 E1.19186
G1 X79.995 Y29.088 E.17027
G1 X79.995 Y12.124 E.85133
G1 X93.253 Y12.124 E.66536
G1 X93.253 Y15.868 E.18789
G1 X92.699 Y15.765 F7800
G1 F1800
G1 X92.699 Y12.435 E.16712
G1 X92.316 Y12.435 E.01923
G1 X92.316 Y15.61 E.15933
G1 X91.933 Y15.61 E.01923
G1 X91.933 Y12.435 E.15933
G1 X91.55 Y12.435 E.01923
G1 X91.55 Y15.61 E.15933
G1 X91.166 Y15.61 E.01923
G1 X91.166 Y12.435 E.15933
G1 X90.783 Y12.435 E.01923
G1 X90.783 Y15.61 E.15933
G1 X90.4 Y15.61 E.01923
G1 X90.4 Y12.435 E.15933
G1 X90.017 Y12.435 E.01923
G1 X90.017 Y15.61 E.15933
G1 X89.633 Y15.61 E.01923
G1 X89.633 Y12.435 E.15933
G1 X89.25 Y12.435 E.01923
G1 X89.25 Y15.61 E.15933
G1 X88.867 Y15.61 E.01923
G1 X88.867 Y12.435 E.15933
G1 X88.484 Y12.435 E.01923
G1 X88.484 Y15.61 E.15933
G1 X88.213 Y15.61 E.01362
G1 X88.101 Y15.707 E.00746
G1 X88.101 Y12.435 E.16424
G1 X87.717 Y12.435 E.01923
G1 X87.717 Y16.043 E.18106
G1 X87.636 Y16.114 E.00545
G1 X87.334 Y18.351 E.1133
G1 X87.334 Y12.435 E.29693
G1 X86.951 Y12.435 E.01923
G1 X86.951 Y21.196 E.4397
G1 X86.568 Y24.041 E.14405
G1 X86.568 Y12.435 E.58246
G1 X86.185 Y12.435 E.01923
G1 X86.185 Y26.886 E.72523
G1 X85.801 Y29.73 E.14405
G1 X85.801 Y12.435 E.86799
G1 X85.418 Y12.435 E.01923
G1 X85.418 Y32.575 E1.01075
G1 X85.035 Y35.42 E.14405
G1 X85.035 Y12.435 E1.15352
G1 X84.652 Y12.435 E.01923
G1 X84.652 Y38.264 E1.29628
G1 X84.269 Y41.109 E.14405
G1 X84.269 Y12.435 E1.43905
G1 X83.885 Y12.435 E.01923
G1 X83.885 Y43.954 E1.58181
G1 X83.502 Y46.798 E.14405
G1 X83.502 Y12.435 E1.72458
G1 X83.119 Y12.435 E.01923
G1 X83.119 Y49.643 E1.86734
G1 X82.736 Y52.488 E.14405
G1 X82.736 Y12.435 E2.0101
G1 X82.352 Y12.435 E.01923
G1 X82.352 Y55.333 E2.15287
G1 X81.969 Y58.177 E.14405
G1 X81.969 Y12.435 E2.29563
G1 X81.586 Y12.435 E.01923
G1 X81.586 Y61.022 E2.4384
G1 X81.203 Y63.867 E.14405
G1 X81.203 Y12.435 E2.58116
G1 X80.82 Y12.435 E.01923
G1 X80.82 Y66.711 E2.72392
G1 X80.436 Y69.556 E.14405
G1 X80.436 Y12.435 E2.86668
G1 X80.305 Y12.435 E.00658
G1 X80.305 Y29.398 E.85133
G1 X80.053 Y29.398 E.01266
G1 X80.053 Y72.401 E2.15812
G1 X79.67 Y75.245 E.14405
G1 X79.67 Y29.398 E2.30088
G1 X79.287 Y29.398 E.01923
G1 X79.287 Y78.09 E2.44364
G1 X78.904 Y80.935 E.14405
G1 X78.904 Y29.398 E2.58641
G1 X78.52 Y29.398 E.01923
G1 X78.52 Y83.779 E2.72917
G1 X78.137 Y86.624 E.14405
G1 X78.137 Y29.398 E2.87193
G1 X77.754 Y29.398 E.01923
G1 X77.754 Y89.469 E3.0147
G1 X77.371 Y92.314 E.14405
M73 P0 R232
G1 X77.371 Y29.398 E3.15746
G1 X76.988 Y29.398 E.01923
G1 X76.988 Y95.158 E3.30022
G1 X76.604 Y98.003 E.14405
G1 X76.604 Y53.147 E2.25113
G1 X76.221 Y53.147 E.01923
G1 X76.221 Y100.848 E2.39389
G1 X75.838 Y103.692 E.14403
G1 X75.838 Y53.147 E2.53663
G1 X75.455 Y53.147 E.01923
G1 X75.455 Y106.535 E2.67934
G1 X75.071 Y109.379 E.144
G1 X75.071 Y53.147 E2.82205
G1 X74.688 Y53.147 E.01923
G1 X74.688 Y112.223 E2.96477
G1 X74.305 Y115.066 E.144
G1 X74.305 Y53.147 E3.10748
G1 X73.922 Y53.147 E.01923
G1 X73.922 Y117.91 E3.25019
G1 X73.539 Y120.754 E.144
G1 X73.539 Y53.147 E3.3929
G1 X73.52 Y53.147 E.00093
G1 X73.52 Y80.289 E1.36213
G1 X73.155 Y80.289 E.0183
G1 X73.155 Y123.598 E2.17349
G1 X72.772 Y126.441 E.144
G1 X72.772 Y80.289 E2.3162
G1 X72.389 Y80.289 E.01923
G1 X72.389 Y129.285 E2.45892
G1 X72.006 Y132.129 E.144
G1 X72.006 Y80.289 E2.60163
G1 X71.623 Y80.289 E.01923
G1 X71.623 Y134.972 E2.74434
G1 X71.239 Y137.816 E.144
G1 X71.239 Y80.289 E2.88705
G1 X70.856 Y80.289 E.01923
G1 X70.856 Y140.66 E3.02977
G1 X70.473 Y143.503 E.144
G1 X70.473 Y80.289 E3.17248
G1 X70.127 Y80.289 E.01735
G1 X70.127 Y104.038 E1.19186
G1 X70.09 Y104.038 E.00189
G1 X70.09 Y146.345 E2.12322
G1 X69.707 Y149.185 E.14384
G1 X69.707 Y104.038 E2.26577
G1 X69.323 Y104.038 E.01923
G1 X69.323 Y152.026 E2.40832
G1 X68.94 Y154.866 E.14384
G1 X68.94 Y104.038 E2.55087
G1 X68.557 Y104.038 E.01923
G1 X68.557 Y157.71 E2.6936
G1 X68.174 Y160.555 E.14408
G1 X68.174 Y104.038 E2.8364
G1 X67.79 Y104.038 E.01923
G1 X67.79 Y167.565 E3.18819
G1 X68.174 Y167.565 E.01923
G1 X68.174 Y164.181 E.16985
G1 X68.36 Y164.394 E.01424
G1 X68.557 Y164.394 E.00986
G1 X68.557 Y167.565 E.15913
G1 X68.94 Y167.565 E.01923
G1 X68.94 Y164.394 E.15913
G1 X69.323 Y164.394 E.01923
G1 X69.323 Y167.565 E.15913
G1 X69.707 Y167.565 E.01923
G1 X69.707 Y164.394 E.15913
G1 X70.09 Y164.394 E.01923
G1 X70.09 Y167.565 E.15913
G1 X70.473 Y167.565 E.01923
G1 X70.473 Y164.394 E.15913
G1 X70.856 Y164.394 E.01923
G1 X70.856 Y167.565 E.15913
G1 X71.239 Y167.565 E.01923
G1 X71.239 Y164.394 E.15913
G1 X71.623 Y164.394 E.01923
G1 X71.623 Y167.565 E.15913
G1 X72.006 Y167.565 E.01923
G1 X72.006 Y164.394 E.15913
G1 X72.389 Y164.394 E.01923
G1 X72.389 Y167.565 E.15913
G1 X72.772 Y167.565 E.01923
G1 X72.772 Y164.394 E.15913
G1 X73.155 Y164.394 E.01923
G1 X73.155 Y167.565 E.15913
G1 X73.539 Y167.565 E.01923
G1 X73.539 Y164.394 E.15913
G1 X73.922 Y164.394 E.01923
G1 X73.922 Y167.565 E.15913
G1 X74.305 Y167.565 E.01923
G1 X74.305 Y164.394 E.15913
G1 X74.688 Y164.394 E.01923
G1 X74.688 Y167.565 E.15913
G1 X75.071 Y167.565 E.01923
G1 X75.071 Y164.394 E.15913
G1 X75.455 Y164.394 E.01923
G1 X75.455 Y167.565 E.15913
G1 X75.838 Y167.565 E.01923
G1 X75.838 Y164.394 E.15913
G1 X76.221 Y164.394 E.01923
G1 X76.221 Y167.565 E.15913
G1 X76.604 Y167.565 E.01923
G1 X76.604 Y164.394 E.15913
G1 X76.988 Y164.394 E.01923
G1 X76.988 Y167.565 E.15913
G1 X77.371 Y167.565 E.01923
G1 X77.371 Y164.394 E.15913
G1 X77.754 Y164.394 E.01923
G1 X77.754 Y167.565 E.15913
G1 X78.137 Y167.565 E.01923
G1 X78.137 Y164.394 E.15913
G1 X78.52 Y164.394 E.01923
G1 X78.52 Y167.565 E.15913
G1 X78.904 Y167.565 E.01923
G1 X78.904 Y164.394 E.15913
G1 X79.287 Y164.394 E.01923
G1 X79.287 Y167.72 E.16692
G1 X67.407 Y167.72 F7800
G1 F1800
G1 X67.407 Y104.038 E3.19598
G1 X67.024 Y104.038 E.01923
M73 P0 R231
G1 X67.024 Y167.565 E3.18819
G1 X66.641 Y167.565 E.01923
G1 X66.641 Y134.572 E1.6558
G1 X66.258 Y134.572 E.01923
G1 X66.258 Y167.565 E1.6558
G1 X65.874 Y167.565 E.01923
G1 X65.874 Y134.572 E1.6558
G1 X65.491 Y134.572 E.01923
G1 X65.491 Y167.565 E1.6558
G1 X65.108 Y167.565 E.01923
G1 X65.108 Y134.572 E1.6558
G1 X64.725 Y134.572 E.01923
G1 X64.725 Y167.565 E1.6558
G1 X64.342 Y167.565 E.01923
G1 X64.342 Y134.572 E1.6558
G1 X63.958 Y134.572 E.01923
G1 X63.958 Y167.565 E1.6558
G1 X63.575 Y167.565 E.01923
G1 X63.575 Y134.572 E1.6558
G1 X63.342 Y134.572 E.01171
G1 X63.342 Y158.321 E1.19186
G1 X63.192 Y158.321 E.00753
G1 X63.192 Y167.565 E.46394
G1 X62.809 Y167.565 E.01923
G1 X62.809 Y158.321 E.46394
G1 X62.426 Y158.321 E.01923
G1 X62.426 Y167.565 E.46394
G1 X62.042 Y167.565 E.01923
G1 X62.042 Y158.321 E.46394
G1 X61.659 Y158.321 E.01923
G1 X61.659 Y167.565 E.46394
G1 X61.276 Y167.565 E.01923
G1 X61.276 Y158.321 E.46394
G1 X60.893 Y158.321 E.01923
G1 X60.893 Y167.565 E.46394
G1 X60.509 Y167.565 E.01923
G1 X60.509 Y158.321 E.46394
G1 X60.126 Y158.321 E.01923
G1 X60.126 Y167.72 E.47173
G1 E-.7 F3600
;WIPE_START
G1 F6240
G1 X60.126 Y167.2 E-.285
;WIPE_END
G1 E-.015 F3600
G1 X83.487 Y162.819 F7800
M73 P1 R231
G1 E1 F2400
;TYPE:Perimeter
;WIDTH:0.42
G1 F1800
G1 X69.458 Y162.819 E.70406
G1 X89.081 Y17.185 E7.37482
G1 X103.113 Y17.185 E.70421
G1 X83.507 Y162.67 E7.36732
G1 X83.789 Y163.164 F7800
;TYPE:External perimeter
G1 F1800
G1 X69.064 Y163.164 E.73899
G1 X88.779 Y16.84 E7.40975
G1 X103.507 Y16.84 E.73914
G1 X83.809 Y163.015 E7.40225
G1 X82.929 Y162.654 F7800
G1 E-.7 F3600
;WIPE_START
G1 F6240
G1 X83.289 Y163.021 E-.285
;WIPE_END
G1 E-.015 F3600
G1 X102.298 Y17.288 F7800
G1 E1 F2400
;TYPE:Solid infill
;WIDTH:0.42078
G1 F1800
G1 X102.774 Y17.764 E.03384
G1 X102.716 Y18.195 E.02186
G1 X101.965 Y17.444 E.05344
G1 X101.476 Y17.444 E.02459
G1 X102.658 Y18.626 E.08408
G1 X102.6 Y19.056 E.02186
G1 X100.987 Y17.444 E.11473
G1 X100.498 Y17.444 E.02459
G1 X102.542 Y19.487 E.14537
G1 X102.484 Y19.918 E.02186
G1 X100.009 Y17.444 E.17602
G1 X99.52 Y17.444 E.02459
G1 X102.426 Y20.349 E.20666
G1 X102.368 Y20.78 E.02186
G1 X99.032 Y17.444 E.23731
G1 X98.543 Y17.444 E.02459
G1 X102.31 Y21.21 E.26795
G1 X102.251 Y21.641 E.02186
G1 X98.054 Y17.444 E.29859
G1 X97.565 Y17.444 E.02459
G1 X102.193 Y22.072 E.32924
G1 X102.135 Y22.503 E.02186
G1 X97.076 Y17.444 E.35988
G1 X96.587 Y17.444 E.02459
G1 X102.077 Y22.934 E.39053
G1 X102.019 Y23.364 E.02186
G1 X96.098 Y17.444 E.42117
G1 X95.61 Y17.444 E.02459
G1 X101.961 Y23.795 E.45182
G1 X101.903 Y24.226 E.02186
G1 X95.121 Y17.444 E.48246
G1 X94.632 Y17.444 E.02459
G1 X101.845 Y24.657 E.5131
G1 X101.787 Y25.088 E.02186
G1 X94.143 Y17.444 E.54375
G1 X93.654 Y17.444 E.02459
G1 X101.729 Y25.518 E.57439
G1 X101.671 Y25.949 E.02186
G1 X93.165 Y17.444 E.60504
G1 X92.676 Y17.444 E.02459
G1 X101.613 Y26.38 E.63568
G1 X101.555 Y26.811 E.02186
G1 X92.188 Y17.444 E.66633
G1 X91.699 Y17.444 E.02459
G1 X101.497 Y27.242 E.69697
G1 X101.439 Y27.672 E.02186
G1 X91.21 Y17.444 E.72761
G1 X90.721 Y17.444 E.02459
G1 X101.381 Y28.103 E.75826
G1 X101.323 Y28.534 E.02186
G1 X90.232 Y17.444 E.7889
G1 X89.743 Y17.444 E.02459
G1 X101.265 Y28.965 E.81955
G1 X101.206 Y29.396 E.02186
G1 X89.301 Y17.49 E.8469
G1 X89.243 Y17.921 E.02186
G1 X101.148 Y29.826 E.8469
G1 X101.09 Y30.257 E.02186
G1 X89.185 Y18.351 E.8469
G1 X89.127 Y18.782 E.02186
G1 X101.032 Y30.688 E.8469
G1 X100.974 Y31.119 E.02186
G1 X89.069 Y19.213 E.8469
G1 X89.011 Y19.644 E.02187
G1 X100.916 Y31.549 E.8469
G1 X100.858 Y31.98 E.02186
G1 X88.952 Y20.075 E.8469
G1 X88.894 Y20.505 E.02186
G1 X100.8 Y32.411 E.8469
G1 X100.742 Y32.842 E.02186
G1 X88.836 Y20.936 E.8469
G1 X88.778 Y21.367 E.02186
G1 X100.684 Y33.273 E.8469
G1 X100.626 Y33.703 E.02186
G1 X88.72 Y21.798 E.8469
G1 X88.662 Y22.229 E.02186
G1 X100.568 Y34.134 E.8469
G1 X100.51 Y34.565 E.02186
G1 X88.604 Y22.659 E.8469
G1 X88.546 Y23.09 E.02186
G1 X100.452 Y34.996 E.84689
G1 X100.394 Y35.427 E.02186
G1 X88.488 Y23.521 E.84689
G1 X88.43 Y23.952 E.02186
G1 X100.336 Y35.857 E.84689
G1 X100.278 Y36.288 E.02186
M73 P1 R230
G1 X88.372 Y24.383 E.84689
G1 X88.314 Y24.813 E.02186
G1 X100.22 Y36.719 E.84689
G1 X100.162 Y37.15 E.02186
G1 X88.256 Y25.244 E.84689
G1 X88.198 Y25.675 E.02186
G1 X100.103 Y37.581 E.84689
G1 X100.045 Y38.011 E.02186
G1 X88.14 Y26.106 E.84689
G1 X88.082 Y26.537 E.02186
G1 X99.987 Y38.442 E.84689
G1 X99.929 Y38.873 E.02186
G1 X88.024 Y26.967 E.84689
G1 X87.966 Y27.398 E.02186
G1 X99.871 Y39.304 E.84689
G1 X99.813 Y39.735 E.02186
G1 X87.908 Y27.829 E.84689
G1 X87.85 Y28.26 E.02186
G1 X99.755 Y40.165 E.84689
G1 X99.697 Y40.596 E.02186
G1 X87.792 Y28.691 E.84689
G1 X87.734 Y29.121 E.02186
G1 X99.639 Y41.027 E.84689
G1 X99.581 Y41.458 E.02186
G1 X87.675 Y29.552 E.84689
G1 X87.617 Y29.983 E.02186
G1 X99.523 Y41.889 E.84689
G1 X99.465 Y42.319 E.02186
G1 X87.559 Y30.414 E.84688
G1 X87.501 Y30.845 E.02186
G1 X99.407 Y42.75 E.84688
G1 X99.349 Y43.181 E.02186
G1 X87.443 Y31.276 E.84688
G1 X87.385 Y31.706 E.02186
G1 X99.291 Y43.612 E.84688
G1 X99.233 Y44.043 E.02186
G1 X87.327 Y32.137 E.84688
G1 X87.269 Y32.568 E.02186
G1 X99.175 Y44.473 E.84688
G1 X99.117 Y44.904 E.02186
G1 X87.211 Y32.999 E.84688
G1 X87.153 Y33.43 E.02186
G1 X99.058 Y45.335 E.84688
G1 X99 Y45.766 E.02186
G1 X87.095 Y33.86 E.84688
G1 X87.037 Y34.291 E.02187
G1 X98.942 Y46.197 E.84688
G1 X98.884 Y46.627 E.02186
G1 X86.979 Y34.722 E.84688
G1 X86.921 Y35.153 E.02186
G1 X98.826 Y47.058 E.84688
G1 X98.768 Y47.489 E.02186
G1 X86.863 Y35.584 E.84688
G1 X86.805 Y36.014 E.02186
G1 X98.71 Y47.92 E.84688
G1 X98.652 Y48.351 E.02186
G1 X86.747 Y36.445 E.84688
G1 X86.689 Y36.876 E.02186
G1 X98.594 Y48.781 E.84688
G1 X98.536 Y49.212 E.02186
G1 X86.631 Y37.307 E.84688
G1 X86.573 Y37.738 E.02186
G1 X98.478 Y49.643 E.84687
G1 X98.42 Y50.074 E.02186
G1 X86.515 Y38.168 E.84687
G1 X86.457 Y38.599 E.02187
G1 X98.362 Y50.505 E.84687
G1 X98.304 Y50.935 E.02186
G1 X86.398 Y39.03 E.84687
G1 X86.34 Y39.461 E.02186
G1 X98.246 Y51.366 E.84687
G1 X98.188 Y51.797 E.02186
G1 X86.282 Y39.892 E.84687
G1 X86.224 Y40.322 E.02186
G1 X98.13 Y52.228 E.84687
G1 X98.072 Y52.658 E.02186
G1 X86.166 Y40.753 E.84687
G1 X86.108 Y41.184 E.02186
G1 X98.014 Y53.089 E.84687
G1 X97.955 Y53.52 E.02186
G1 X86.05 Y41.615 E.84687
G1 X85.992 Y42.046 E.02186
G1 X97.897 Y53.951 E.84687
G1 X97.839 Y54.382 E.02186
G1 X85.934 Y42.476 E.84687
G1 X85.876 Y42.907 E.02186
G1 X97.781 Y54.812 E.84687
G1 X97.723 Y55.243 E.02186
G1 X85.818 Y43.338 E.84687
G1 X85.76 Y43.769 E.02186
G1 X97.665 Y55.674 E.84687
G1 X97.607 Y56.105 E.02186
G1 X85.702 Y44.2 E.84687
G1 X85.644 Y44.63 E.02186
G1 X97.549 Y56.536 E.84687
G1 X97.491 Y56.966 E.02186
G1 X85.586 Y45.061 E.84686
G1 X85.528 Y45.492 E.02186
G1 X97.433 Y57.397 E.84686
G1 X97.375 Y57.828 E.02186
G1 X85.47 Y45.923 E.84686
G1 X85.412 Y46.354 E.02186
G1 X97.317 Y58.259 E.84686
G1 X97.259 Y58.69 E.02186
G1 X85.354 Y46.784 E.84686
G1 X85.296 Y47.215 E.02186
G1 X97.201 Y59.12 E.84686
G1 X97.143 Y59.551 E.02186
G1 X85.238 Y47.646 E.84686
G1 X85.18 Y48.077 E.02186
G1 X97.085 Y59.982 E.84686
G1 X97.027 Y60.413 E.02186
G1 X85.121 Y48.508 E.84686
G1 X85.063 Y48.938 E.02186
G1 X96.969 Y60.844 E.84686
G1 X96.91 Y61.274 E.02186
G1 X85.005 Y49.369 E.84686
G1 X84.947 Y49.8 E.02186
G1 X96.852 Y61.705 E.84686
G1 X96.794 Y62.136 E.02186
G1 X84.889 Y50.231 E.84686
G1 X84.831 Y50.662 E.02186
G1 X96.736 Y62.567 E.84686
G1 X96.678 Y62.998 E.02186
G1 X84.773 Y51.093 E.84686
G1 X84.715 Y51.523 E.02186
G1 X96.62 Y63.428 E.84686
G1 X96.562 Y63.859 E.02186
G1 X84.657 Y51.954 E.84686
G1 X84.599 Y52.385 E.02186
G1 X96.504 Y64.29 E.84685
G1 X96.446 Y64.721 E.02186
G1 X84.541 Y52.816 E.84685
G1 X84.483 Y53.247 E.02186
G1 X96.388 Y65.152 E.84685
G1 X96.33 Y65.582 E.02186
G1 X84.425 Y53.677 E.84685
G1 X84.367 Y54.108 E.02186
G1 X96.272 Y66.013 E.84685
G1 X96.214 Y66.444 E.02186
G1 X84.309 Y54.539 E.84685
G1 X84.251 Y54.97 E.02186
G1 X96.156 Y66.875 E.84685
G1 X96.098 Y67.306 E.02186
G1 X84.193 Y55.401 E.84685
G1 X84.135 Y55.831 E.02186
G1 X96.04 Y67.736 E.84685
G1 X95.982 Y68.167 E.02186
G1 X84.077 Y56.262 E.84685
G1 X84.019 Y56.693 E.02186
G1 X95.924 Y68.598 E.84685
G1 X95.866 Y69.029 E.02186
G1 X83.961 Y57.124 E.84685
G1 X83.903 Y57.555 E.02186
G1 X95.807 Y69.46 E.84685
G1 X95.749 Y69.89 E.02186
G1 X83.844 Y57.985 E.84685
G1 X83.786 Y58.416 E.02186
G1 X95.691 Y70.321 E.84685
G1 X95.633 Y70.752 E.02186
G1 X83.728 Y58.847 E.84685
G1 X83.67 Y59.278 E.02186
G1 X95.575 Y71.183 E.84685
G1 X95.517 Y71.614 E.02186
G1 X83.612 Y59.709 E.84684
G1 X83.554 Y60.139 E.02186
