; generated by PrusaSlicer 2.5.0+win64 on 2022-12-07 at 00:23:27 UTC

; 

; external perimeters extrusion width = 1.00mm
; perimeters extrusion width = 1.00mm
; infill extrusion width = 1.00mm
; solid infill extrusion width = 1.00mm
; top infill extrusion width = 1.00mm
; support material extrusion width = 1.00mm
; first layer extrusion width = 0.42mm

M73 P0 R246
M107
;TYPE:Custom
G90 ; use absolute coordinates
M83 ; extruder relative mode
M140 S60 ; set final bed temp
M104 S150 ; set temporary nozzle temp to prevent oozing during homing and auto bed leveling
G4 S10 ; allow partial nozzle warmup
G28 ; home all axisG1 Z50 F240
G1 X7.6 Y10 F3000
M104 S210 ; set final nozzle temp
M190 S60 ; wait for bed temp to stabilize
M109 S210 ; wait for nozzle temp to stabilize
G1 Z0.28 F240
G92 E0
G1 Y140 E10 F1500 ; prime the nozzle
G1 X4 F5000
G92 E0
G1 Y10 E10 F1200 ; prime the nozzle
G92 E0
G21 ; set units to millimeters
G90 ; use absolute coordinates
M83 ; use relative distances for extrusion
; Filament gcode
M107
;LAYER_CHANGE
;Z:0.35
;HEIGHT:0.35
;BEFORE_LAYER_CHANGE
G92 E0
;0.35


G1 E-1 F3600
G1 Z.35 F7800
;AFTER_LAYER_CHANGE
;0.35
G1 X32.168 Y15.916
G1 E1 F2400
;TYPE:Support material
;WIDTH:0.42
G1 F1800
G1 X25.923 Y15.916 E.3134
G1 X25.507 Y16.332 E.02952
G1 X25.498 Y76.273 E3.00818
G1 X8.732 Y76.273 E.84145
G1 X8.732 Y12.124 E3.21935
G1 X32.168 Y12.124 E1.17616
G1 X32.168 Y15.864 E.18769
G1 X31.752 Y15.761 F7800
G1 F1800
G1 X31.752 Y12.435 E.16692
G1 X31.369 Y12.435 E.01923
G1 X31.369 Y15.606 E.15913
G1 X30.986 Y15.606 E.01923
G1 X30.986 Y12.435 E.15913
G1 X30.602 Y12.435 E.01923
G1 X30.602 Y15.606 E.15913
G1 X30.219 Y15.606 E.01923
G1 X30.219 Y12.435 E.15913
G1 X29.836 Y12.435 E.01923
G1 X29.836 Y15.606 E.15913
G1 X29.453 Y15.606 E.01923
G1 X29.453 Y12.435 E.15913
G1 X29.07 Y12.435 E.01923
G1 X29.07 Y15.606 E.15913
G1 X28.686 Y15.606 E.01923
G1 X28.686 Y12.435 E.15913
G1 X28.303 Y12.435 E.01923
G1 X28.303 Y15.606 E.15913
G1 X27.92 Y15.606 E.01923
G1 X27.92 Y12.435 E.15913
G1 X27.537 Y12.435 E.01923
G1 X27.537 Y15.606 E.15913
G1 X27.154 Y15.606 E.01923
G1 X27.154 Y12.435 E.15913
G1 X26.77 Y12.435 E.01923
G1 X26.77 Y15.606 E.15913
G1 X26.387 Y15.606 E.01923
G1 X26.387 Y12.435 E.15913
G1 X26.004 Y12.435 E.01923
G1 X26.004 Y15.606 E.15913
G1 X25.794 Y15.606 E.01052
G1 X25.621 Y15.779 E.01232
G1 X25.621 Y12.435 E.16784
G1 X25.238 Y12.435 E.01923
G1 X25.238 Y16.162 E.18708
G1 X25.196 Y16.204 E.00291
G1 X25.188 Y75.962 E2.99905
G1 X24.854 Y75.962 E.01675
G1 X24.854 Y12.435 E3.18819
G1 X24.471 Y12.435 E.01923
G1 X24.471 Y75.962 E3.18819
G1 X24.088 Y75.962 E.01923
G1 X24.088 Y12.435 E3.18819
G1 X23.705 Y12.435 E.01923
G1 X23.705 Y75.962 E3.18819
G1 X23.321 Y75.962 E.01923
G1 X23.321 Y12.435 E3.18819
G1 X22.938 Y12.435 E.01923
G1 X22.938 Y75.962 E3.18819
G1 X22.555 Y75.962 E.01923
G1 X22.555 Y12.435 E3.18819
G1 X22.172 Y12.435 E.01923
G1 X22.172 Y75.962 E3.18819
G1 X21.789 Y75.962 E.01923
G1 X21.789 Y12.435 E3.18819
G1 X21.405 Y12.435 E.01923
G1 X21.405 Y75.962 E3.18819
G1 X21.022 Y75.962 E.01923
G1 X21.022 Y12.435 E3.18819
G1 X20.639 Y12.435 E.01923
G1 X20.639 Y75.962 E3.18819
G1 X20.256 Y75.962 E.01923
G1 X20.256 Y12.435 E3.18819
G1 X19.873 Y12.435 E.01923
M73 P0 R245
G1 X19.873 Y75.962 E3.18819
G1 X19.489 Y75.962 E.01923
G1 X19.489 Y12.435 E3.18819
G1 X19.106 Y12.435 E.01923
G1 X19.106 Y75.962 E3.18819
G1 X18.723 Y75.962 E.01923
G1 X18.723 Y12.435 E3.18819
G1 X18.34 Y12.435 E.01923
G1 X18.34 Y75.962 E3.18819
G1 X17.957 Y75.962 E.01923
G1 X17.957 Y12.435 E3.18819
G1 X17.573 Y12.435 E.01923
G1 X17.573 Y75.962 E3.18819
G1 X17.19 Y75.962 E.01923
G1 X17.19 Y12.435 E3.18819
G1 X16.807 Y12.435 E.01923
G1 X16.807 Y75.962 E3.18819
G1 X16.424 Y75.962 E.01923
G1 X16.424 Y12.435 E3.18819
G1 X16.04 Y12.435 E.01923
G1 X16.04 Y75.962 E3.18819
G1 X15.657 Y75.962 E.01923
G1 X15.657 Y12.435 E3.18819
G1 X15.274 Y12.435 E.01923
G1 X15.274 Y75.962 E3.18819
G1 X14.891 Y75.962 E.01923
G1 X14.891 Y12.435 E3.18819
G1 X14.508 Y12.435 E.01923
G1 X14.508 Y75.962 E3.18819
G1 X14.124 Y75.962 E.01923
G1 X14.124 Y12.435 E3.18819
G1 X13.741 Y12.435 E.01923
G1 X13.741 Y75.962 E3.18819
G1 X13.358 Y75.962 E.01923
G1 X13.358 Y12.435 E3.18819
G1 X12.975 Y12.435 E.01923
G1 X12.975 Y75.962 E3.18819
G1 X12.592 Y75.962 E.01923
G1 X12.592 Y12.435 E3.18819
G1 X12.208 Y12.435 E.01923
G1 X12.208 Y75.962 E3.18819
G1 X11.825 Y75.962 E.01923
G1 X11.825 Y12.435 E3.18819
G1 X11.442 Y12.435 E.01923
G1 X11.442 Y75.962 E3.18819
G1 X11.059 Y75.962 E.01923
G1 X11.059 Y12.435 E3.18819
G1 X10.676 Y12.435 E.01923
G1 X10.676 Y75.962 E3.18819
G1 X10.292 Y75.962 E.01923
G1 X10.292 Y12.435 E3.18819
G1 X9.909 Y12.435 E.01923
G1 X9.909 Y75.962 E3.18819
G1 X9.526 Y75.962 E.01923
M73 P0 R244
G1 X9.526 Y12.435 E3.18819
G1 X9.143 Y12.435 E.01923
G1 X9.143 Y76.118 E3.19598
G1 E-.7 F3600
;WIPE_START
G1 F6240
G1 X9.143 Y75.598 E-.285
;WIPE_END
G1 E-.015 F3600
G1 X25.166 Y163.659 F7800
G1 E1 F2400
G1 F1800
G1 X25.583 Y164.084 E.02991
G1 X32.168 Y164.084 E.33043
G1 X32.168 Y167.876 E.19029
G1 X8.732 Y167.876 E1.17616
G1 X8.732 Y158.01 E.49509
G1 X25.272 Y158.01 E.83008
G1 X25.167 Y163.607 E.28092
G1 X31.752 Y167.72 F7800
G1 F1800
G1 X31.752 Y164.394 E.16692
G1 X31.369 Y164.394 E.01923
G1 X31.369 Y167.565 E.15913
G1 X30.986 Y167.565 E.01923
G1 X30.986 Y164.394 E.15913
G1 X30.602 Y164.394 E.01923
G1 X30.602 Y167.565 E.15913
G1 X30.219 Y167.565 E.01923
G1 X30.219 Y164.394 E.15913
G1 X29.836 Y164.394 E.01923
G1 X29.836 Y167.565 E.15913
G1 X29.453 Y167.565 E.01923
G1 X29.453 Y164.394 E.15913
G1 X29.07 Y164.394 E.01923
G1 X29.07 Y167.565 E.15913
G1 X28.686 Y167.565 E.01923
G1 X28.686 Y164.394 E.15913
G1 X28.303 Y164.394 E.01923
G1 X28.303 Y167.565 E.15913
G1 X27.92 Y167.565 E.01923
G1 X27.92 Y164.394 E.15913
G1 X27.537 Y164.394 E.01923
G1 X27.537 Y167.565 E.15913
G1 X27.154 Y167.565 E.01923
G1 X27.154 Y164.394 E.15913
G1 X26.77 Y164.394 E.01923
G1 X26.77 Y167.565 E.15913
G1 X26.387 Y167.565 E.01923
G1 X26.387 Y164.394 E.15913
G1 X26.004 Y164.394 E.01923
G1 X26.004 Y167.565 E.15913
G1 X25.621 Y167.565 E.01923
G1 X25.621 Y164.394 E.15913
G1 X25.453 Y164.394 E.00841
G1 X25.237 Y164.175 E.01545
G1 X25.237 Y167.565 E.17016
G1 X24.854 Y167.565 E.01923
G1 X24.854 Y158.321 E.46394
G1 X24.471 Y158.321 E.01923
G1 X24.471 Y167.565 E.46394
G1 X24.088 Y167.565 E.01923
G1 X24.088 Y158.321 E.46394
G1 X23.705 Y158.321 E.01923
G1 X23.705 Y167.565 E.46394
G1 X23.321 Y167.565 E.01923
G1 X23.321 Y158.321 E.46394
G1 X22.938 Y158.321 E.01923
G1 X22.938 Y167.565 E.46394
G1 X22.555 Y167.565 E.01923
G1 X22.555 Y158.321 E.46394
G1 X22.172 Y158.321 E.01923
G1 X22.172 Y167.565 E.46394
G1 X21.789 Y167.565 E.01923
G1 X21.789 Y158.321 E.46394
G1 X21.405 Y158.321 E.01923
G1 X21.405 Y167.565 E.46394
G1 X21.022 Y167.565 E.01923
G1 X21.022 Y158.321 E.46394
G1 X20.639 Y158.321 E.01923
G1 X20.639 Y167.565 E.46394
G1 X20.256 Y167.565 E.01923
G1 X20.256 Y158.321 E.46394
G1 X19.873 Y158.321 E.01923
G1 X19.873 Y167.565 E.46394
G1 X19.489 Y167.565 E.01923
G1 X19.489 Y158.321 E.46394
G1 X19.106 Y158.321 E.01923
G1 X19.106 Y167.565 E.46394
G1 X18.723 Y167.565 E.01923
G1 X18.723 Y158.321 E.46394
G1 X18.34 Y158.321 E.01923
G1 X18.34 Y167.565 E.46394
G1 X17.957 Y167.565 E.01923
G1 X17.957 Y158.321 E.46394
G1 X17.573 Y158.321 E.01923
G1 X17.573 Y167.565 E.46394
G1 X17.19 Y167.565 E.01923
G1 X17.19 Y158.321 E.46394
G1 X16.807 Y158.321 E.01923
G1 X16.807 Y167.565 E.46394
G1 X16.424 Y167.565 E.01923
G1 X16.424 Y158.321 E.46394
G1 X16.04 Y158.321 E.01923
G1 X16.04 Y167.565 E.46394
G1 X15.657 Y167.565 E.01923
G1 X15.657 Y158.321 E.46394
G1 X15.274 Y158.321 E.01923
G1 X15.274 Y167.565 E.46394
G1 X14.891 Y167.565 E.01923
G1 X14.891 Y158.321 E.46394
G1 X14.508 Y158.321 E.01923
G1 X14.508 Y167.565 E.46394
G1 X14.124 Y167.565 E.01923
G1 X14.124 Y158.321 E.46394
G1 X13.741 Y158.321 E.01923
G1 X13.741 Y167.565 E.46394
G1 X13.358 Y167.565 E.01923
G1 X13.358 Y158.321 E.46394
G1 X12.975 Y158.321 E.01923
G1 X12.975 Y167.565 E.46394
G1 X12.592 Y167.565 E.01923
G1 X12.592 Y158.321 E.46394
G1 X12.208 Y158.321 E.01923
G1 X12.208 Y167.565 E.46394
G1 X11.825 Y167.565 E.01923
G1 X11.825 Y158.321 E.46394
G1 X11.442 Y158.321 E.01923
G1 X11.442 Y167.565 E.46394
G1 X11.059 Y167.565 E.01923
G1 X11.059 Y158.321 E.46394
G1 X10.676 Y158.321 E.01923
G1 X10.676 Y167.565 E.46394
G1 X10.292 Y167.565 E.01923
G1 X10.292 Y158.321 E.46394
G1 X9.909 Y158.321 E.01923
G1 X9.909 Y167.565 E.46394
G1 X9.526 Y167.565 E.01923
G1 X9.526 Y158.321 E.46394
G1 X9.143 Y158.321 E.01923
G1 X9.143 Y167.72 E.47173
G1 E-.7 F3600
;WIPE_START
G1 F6240
G1 X9.143 Y167.2 E-.285
;WIPE_END
G1 E-.015 F3600
G1 X171.268 Y21.99 F7800
G1 E1 F2400
G1 F1800
G1 X166.741 Y21.99 E.22721
G1 X166.741 Y18.362 E.18205
G1 X166.601 Y16.298 E.10381
G1 X166.192 Y15.916 E.02811
G1 X161.403 Y15.916 E.24032
G1 X161.403 Y12.124 E.19029
G1 X171.268 Y12.124 E.49509
G1 X171.268 Y21.938 E.4925
G1 X170.857 Y21.834 F7800
G1 F1800
G1 X170.857 Y12.435 E.47173
G1 X170.474 Y12.435 E.01923
G1 X170.474 Y21.679 E.46394
G1 X170.091 Y21.679 E.01923
G1 X170.091 Y12.435 E.46394
G1 X169.708 Y12.435 E.01923
G1 X169.708 Y21.679 E.46394
G1 X169.324 Y21.679 E.01923
G1 X169.324 Y12.435 E.46394
G1 X168.941 Y12.435 E.01923
G1 X168.941 Y21.679 E.46394
G1 X168.558 Y21.679 E.01923
G1 X168.558 Y12.435 E.46394
G1 X168.175 Y12.435 E.01923
G1 X168.175 Y21.679 E.46394
G1 X167.792 Y21.679 E.01923
G1 X167.792 Y12.435 E.46394
G1 X167.408 Y12.435 E.01923
G1 X167.408 Y21.679 E.46394
G1 X167.051 Y21.679 E.01792
G1 X167.051 Y18.357 E.16674
G1 X167.025 Y17.955 E.02019
G1 X167.025 Y12.435 E.27706
G1 X166.642 Y12.435 E.01923
G1 X166.642 Y15.912 E.1745
G1 X166.314 Y15.606 E.02251
G1 X166.259 Y15.606 E.00278
G1 X166.259 Y12.435 E.15913
G1 X165.876 Y12.435 E.01923
G1 X165.876 Y15.606 E.15913
G1 X165.492 Y15.606 E.01923
G1 X165.492 Y12.435 E.15913
G1 X165.109 Y12.435 E.01923
G1 X165.109 Y15.606 E.15913
G1 X164.726 Y15.606 E.01923
G1 X164.726 Y12.435 E.15913
G1 X164.343 Y12.435 E.01923
G1 X164.343 Y15.606 E.15913
G1 X163.96 Y15.606 E.01923
G1 X163.96 Y12.435 E.15913
G1 X163.576 Y12.435 E.01923
G1 X163.576 Y15.606 E.15913
G1 X163.193 Y15.606 E.01923
G1 X163.193 Y12.435 E.15913
G1 X162.81 Y12.435 E.01923
G1 X162.81 Y15.606 E.15913
G1 X162.427 Y15.606 E.01923
G1 X162.427 Y12.435 E.15913
G1 X162.043 Y12.435 E.01923
G1 X162.043 Y15.761 E.16692
G1 E-.7 F3600
;WIPE_START
G1 F6240
G1 X162.043 Y15.241 E-.285
;WIPE_END
G1 E-.015 F3600
G1 X26.447 Y162.819 F7800
G1 E1 F2400
;TYPE:Perimeter
;WIDTH:0.42
M73 P1 R244
G1 F1800
G1 X26.76 Y146.253 E.83156
G1 X26.772 Y17.181 E6.47757
G1 X40.658 Y17.181 E.69689
G1 X40.644 Y146.377 E6.48384
G1 X40.356 Y162.819 E.82527
G1 X26.597 Y162.819 E.6905
G1 X26.095 Y163.164 F7800
;TYPE:External perimeter
G1 F1800
G1 X26.415 Y146.251 E.84894
G1 X26.427 Y16.836 E6.49481
G1 X41.003 Y16.836 E.73151
G1 X40.989 Y146.38 E6.5013
G1 X40.695 Y163.164 E.84243
G1 X26.245 Y163.164 E.72514
M73 P1 R243
G1 X26.347 Y162.196 F7800
G1 E-.7 F3600
;WIPE_START
G1 F6240
G1 X26.251 Y162.644 E-.285
;WIPE_END
G1 E-.015 F3600
G1 X39.857 Y17.284 F7800
G1 E1 F2400
;TYPE:Solid infill
;WIDTH:0.420021
G1 F1800
G1 X40.399 Y17.826 E.03847
G1 X40.399 Y18.314 E.02448
G1 X39.525 Y17.44 E.06207
G1 X39.037 Y17.44 E.02448
G1 X40.399 Y18.802 E.09669
G1 X40.399 Y19.289 E.02448
G1 X38.549 Y17.44 E.13131
G1 X38.061 Y17.44 E.02448
G1 X40.399 Y19.777 E.16592
G1 X40.399 Y20.265 E.02448
G1 X37.574 Y17.44 E.20054
G1 X37.086 Y17.44 E.02448
G1 X40.399 Y20.753 E.23516
G1 X40.399 Y21.24 E.02448
G1 X36.598 Y17.44 E.26978
G1 X36.11 Y17.44 E.02448
G1 X40.399 Y21.728 E.30439
G1 X40.399 Y22.216 E.02448
G1 X35.623 Y17.44 E.33901
G1 X35.135 Y17.44 E.02448
G1 X40.399 Y22.704 E.37363
G1 X40.399 Y23.191 E.02448
G1 X34.647 Y17.44 E.40825
G1 X34.159 Y17.44 E.02448
G1 X40.399 Y23.679 E.44286
G1 X40.399 Y24.167 E.02448
G1 X33.671 Y17.44 E.47748
G1 X33.184 Y17.44 E.02448
G1 X40.399 Y24.654 E.5121
G1 X40.399 Y25.142 E.02448
G1 X32.696 Y17.44 E.54672
G1 X32.208 Y17.44 E.02448
G1 X40.398 Y25.63 E.58133
G1 X40.398 Y26.118 E.02448
G1 X31.72 Y17.44 E.61595
G1 X31.233 Y17.44 E.02448
G1 X40.398 Y26.605 E.65057
G1 X40.398 Y27.093 E.02448
G1 X30.745 Y17.44 E.68519
G1 X30.257 Y17.44 E.02448
G1 X40.398 Y27.581 E.71981
G1 X40.398 Y28.069 E.02448
G1 X29.769 Y17.44 E.75442
G1 X29.281 Y17.44 E.02448
G1 X40.398 Y28.556 E.78904
G1 X40.398 Y29.044 E.02448
G1 X28.794 Y17.44 E.82366
G1 X28.306 Y17.44 E.02448
G1 X40.398 Y29.532 E.85828
G1 X40.398 Y30.019 E.02448
G1 X27.818 Y17.44 E.89289
G1 X27.33 Y17.44 E.02448
G1 X40.398 Y30.507 E.92751
G1 X40.398 Y30.995 E.02448
G1 X27.03 Y17.627 E.94879
G1 X27.03 Y18.115 E.02448
G1 X40.398 Y31.483 E.94879
G1 X40.398 Y31.97 E.02448
G1 X27.03 Y18.603 E.94879
G1 X27.03 Y19.091 E.02448
G1 X40.398 Y32.458 E.94879
G1 X40.398 Y32.946 E.02448
G1 X27.03 Y19.578 E.94879
G1 X27.03 Y20.066 E.02448
G1 X40.398 Y33.433 E.94879
G1 X40.398 Y33.921 E.02448
G1 X27.03 Y20.554 E.94879
G1 X27.03 Y21.041 E.02448
G1 X40.398 Y34.409 E.94879
G1 X40.397 Y34.897 E.02448
G1 X27.03 Y21.529 E.94879
G1 X27.03 Y22.017 E.02448
G1 X40.397 Y35.384 E.94879
G1 X40.397 Y35.872 E.02448
G1 X27.03 Y22.505 E.94879
G1 X27.03 Y22.992 E.02448
G1 X40.397 Y36.36 E.94879
G1 X40.397 Y36.848 E.02448
G1 X27.03 Y23.48 E.94879
G1 X27.03 Y23.968 E.02448
G1 X40.397 Y37.335 E.94879
G1 X40.397 Y37.823 E.02448
G1 X27.03 Y24.456 E.94879
G1 X27.03 Y24.943 E.02448
G1 X40.397 Y38.311 E.94879
G1 X40.397 Y38.798 E.02448
G1 X27.03 Y25.431 E.94879
G1 X27.03 Y25.919 E.02448
G1 X40.397 Y39.286 E.94879
G1 X40.397 Y39.774 E.02448
G1 X27.03 Y26.407 E.94879
G1 X27.03 Y26.894 E.02448
G1 X40.397 Y40.262 E.94878
G1 X40.397 Y40.749 E.02448
G1 X27.03 Y27.382 E.94878
G1 X27.029 Y27.87 E.02448
G1 X40.397 Y41.237 E.94878
G1 X40.397 Y41.725 E.02448
G1 X27.029 Y28.357 E.94878
G1 X27.029 Y28.845 E.02448
G1 X40.397 Y42.213 E.94878
G1 X40.397 Y42.7 E.02448
G1 X27.029 Y29.333 E.94878
G1 X27.029 Y29.821 E.02448
G1 X40.397 Y43.188 E.94878
G1 X40.397 Y43.676 E.02448
G1 X27.029 Y30.308 E.94878
G1 X27.029 Y30.796 E.02448
G1 X40.397 Y44.163 E.94878
G1 X40.396 Y44.651 E.02448
G1 X27.029 Y31.284 E.94878
G1 X27.029 Y31.772 E.02448
G1 X40.396 Y45.139 E.94878
G1 X40.396 Y45.627 E.02448
G1 X27.029 Y32.259 E.94878
G1 X27.029 Y32.747 E.02448
G1 X40.396 Y46.114 E.94878
G1 X40.396 Y46.602 E.02448
G1 X27.029 Y33.235 E.94878
G1 X27.029 Y33.723 E.02448
G1 X40.396 Y47.09 E.94878
G1 X40.396 Y47.577 E.02448
G1 X27.029 Y34.21 E.94878
G1 X27.029 Y34.698 E.02448
G1 X40.396 Y48.065 E.94878
G1 X40.396 Y48.553 E.02448
G1 X27.029 Y35.186 E.94878
G1 X27.029 Y35.673 E.02448
G1 X40.396 Y49.041 E.94878
G1 X40.396 Y49.528 E.02448
G1 X27.029 Y36.161 E.94877
G1 X27.029 Y36.649 E.02448
G1 X40.396 Y50.016 E.94877
G1 X40.396 Y50.504 E.02448
G1 X27.029 Y37.137 E.94877
G1 X27.029 Y37.624 E.02448
G1 X40.396 Y50.992 E.94877
G1 X40.396 Y51.479 E.02448
G1 X27.029 Y38.112 E.94877
G1 X27.028 Y38.6 E.02448
G1 X40.396 Y51.967 E.94877
G1 X40.396 Y52.455 E.02448
G1 X27.028 Y39.088 E.94877
G1 X27.028 Y39.575 E.02448
G1 X40.396 Y52.942 E.94877
G1 X40.396 Y53.43 E.02448
G1 X27.028 Y40.063 E.94877
G1 X27.028 Y40.551 E.02448
G1 X40.395 Y53.918 E.94877
G1 X40.395 Y54.406 E.02448
G1 X27.028 Y41.038 E.94877
G1 X27.028 Y41.526 E.02448
G1 X40.395 Y54.893 E.94877
G1 X40.395 Y55.381 E.02448
G1 X27.028 Y42.014 E.94877
G1 X27.028 Y42.502 E.02448
G1 X40.395 Y55.869 E.94877
G1 X40.395 Y56.356 E.02448
G1 X27.028 Y42.989 E.94877
G1 X27.028 Y43.477 E.02448
G1 X40.395 Y56.844 E.94877
G1 X40.395 Y57.332 E.02448
G1 X27.028 Y43.965 E.94877
G1 X27.028 Y44.453 E.02448
G1 X40.395 Y57.82 E.94877
G1 X40.395 Y58.307 E.02448
G1 X27.028 Y44.94 E.94877
G1 X27.028 Y45.428 E.02448
G1 X40.395 Y58.795 E.94877
G1 X40.395 Y59.283 E.02448
G1 X27.028 Y45.916 E.94876
G1 X27.028 Y46.404 E.02448
G1 X40.395 Y59.771 E.94876
G1 X40.395 Y60.258 E.02448
G1 X27.028 Y46.891 E.94876
G1 X27.028 Y47.379 E.02448
G1 X40.395 Y60.746 E.94876
G1 X40.395 Y61.234 E.02448
G1 X27.028 Y47.867 E.94876
G1 X27.028 Y48.354 E.02448
G1 X40.395 Y61.721 E.94876
G1 X40.395 Y62.209 E.02448
G1 X27.028 Y48.842 E.94876
G1 X27.028 Y49.33 E.02448
G1 X40.395 Y62.697 E.94876
G1 X40.394 Y63.185 E.02448
