; generated by PrusaSlicer 2.5.0+win64 on 2022-12-07 at 00:23:10 UTC

; 

; external perimeters extrusion width = 1.00mm
; perimeters extrusion width = 1.00mm
; infill extrusion width = 1.00mm
; solid infill extrusion width = 1.00mm
; top infill extrusion width = 1.00mm
; support material extrusion width = 1.00mm
; first layer extrusion width = 0.42mm

M73 P0 R331
M107
;TYPE:Custom
G90 ; use absolute coordinates
M83 ; extruder relative mode
M140 S60 ; set final bed temp
M104 S150 ; set temporary nozzle temp to prevent oozing during homing and auto bed leveling
G4 S10 ; allow partial nozzle warmup
G28 ; home all axisG1 Z50 F240
G1 X7.6 Y10 F3000
M104 S210 ; set final nozzle temp
M190 S60 ; wait for bed temp to stabilize
M109 S210 ; wait for nozzle temp to stabilize
G1 Z0.28 F240
G92 E0
G1 Y140 E10 F1500 ; prime the nozzle
G1 X4 F5000
G92 E0
G1 Y10 E10 F1200 ; prime the nozzle
G92 E0
G21 ; set units to millimeters
G90 ; use absolute coordinates
M83 ; use relative distances for extrusion
; Filament gcode
M107
;LAYER_CHANGE
;Z:0.35
;HEIGHT:0.35
;BEFORE_LAYER_CHANGE
G92 E0
;0.35


G1 E-1 F3600
G1 Z.35 F7800
;AFTER_LAYER_CHANGE
;0.35
G1 X38.953 Y15.915
G1 E1 F2400
;TYPE:Support material
;WIDTH:0.42
G1 F1800
G1 X32.13 Y15.915 E.34244
G1 X31.713 Y16.337 E.02975
G1 X31.777 Y21.99 E.28371
G1 X15.517 Y21.99 E.81601
G1 X15.517 Y12.124 E.49509
G1 X38.953 Y12.124 E1.17616
G1 X38.953 Y15.864 E.18765
G1 X38.267 Y15.76 F7800
G1 F1800
G1 X38.267 Y12.435 E.16688
G1 X37.883 Y12.435 E.01923
G1 X37.883 Y15.605 E.15909
G1 X37.5 Y15.605 E.01923
G1 X37.5 Y12.435 E.15909
G1 X37.117 Y12.435 E.01923
G1 X37.117 Y15.605 E.15909
G1 X36.734 Y15.605 E.01923
G1 X36.734 Y12.435 E.15909
G1 X36.351 Y12.435 E.01923
G1 X36.351 Y15.605 E.15909
G1 X35.967 Y15.605 E.01923
G1 X35.967 Y12.435 E.15909
G1 X35.584 Y12.435 E.01923
G1 X35.584 Y15.605 E.15909
G1 X35.201 Y15.605 E.01923
G1 X35.201 Y12.435 E.15909
G1 X34.818 Y12.435 E.01923
G1 X34.818 Y15.605 E.15909
G1 X34.435 Y15.605 E.01923
G1 X34.435 Y12.435 E.15909
G1 X34.051 Y12.435 E.01923
G1 X34.051 Y15.605 E.15909
G1 X33.668 Y15.605 E.01923
G1 X33.668 Y12.435 E.15909
G1 X33.285 Y12.435 E.01923
G1 X33.285 Y15.605 E.15909
G1 X32.902 Y15.605 E.01923
G1 X32.902 Y12.435 E.15909
G1 X32.518 Y12.435 E.01923
G1 X32.518 Y15.605 E.15909
G1 X32.135 Y15.605 E.01923
G1 X32.135 Y12.435 E.15909
G1 X31.752 Y12.435 E.01923
G1 X31.752 Y15.856 E.17168
G1 X31.401 Y16.211 E.02506
G1 X31.463 Y21.679 E.27445
G1 X31.369 Y21.679 E.00472
G1 X31.369 Y12.435 E.46394
G1 X30.986 Y12.435 E.01923
G1 X30.986 Y21.679 E.46394
G1 X30.602 Y21.679 E.01923
G1 X30.602 Y12.435 E.46394
G1 X30.219 Y12.435 E.01923
G1 X30.219 Y21.679 E.46394
G1 X29.836 Y21.679 E.01923
G1 X29.836 Y12.435 E.46394
G1 X29.453 Y12.435 E.01923
G1 X29.453 Y21.679 E.46394
G1 X29.07 Y21.679 E.01923
G1 X29.07 Y12.435 E.46394
G1 X28.686 Y12.435 E.01923
G1 X28.686 Y21.679 E.46394
G1 X28.303 Y21.679 E.01923
G1 X28.303 Y12.435 E.46394
G1 X27.92 Y12.435 E.01923
G1 X27.92 Y21.679 E.46394
G1 X27.537 Y21.679 E.01923
G1 X27.537 Y12.435 E.46394
G1 X27.154 Y12.435 E.01923
G1 X27.154 Y21.679 E.46394
G1 X26.77 Y21.679 E.01923
G1 X26.77 Y12.435 E.46394
G1 X26.387 Y12.435 E.01923
G1 X26.387 Y21.679 E.46394
G1 X26.004 Y21.679 E.01923
G1 X26.004 Y12.435 E.46394
G1 X25.621 Y12.435 E.01923
G1 X25.621 Y21.679 E.46394
G1 X25.237 Y21.679 E.01923
G1 X25.237 Y12.435 E.46394
G1 X24.854 Y12.435 E.01923
G1 X24.854 Y21.679 E.46394
G1 X24.471 Y21.679 E.01923
G1 X24.471 Y12.435 E.46394
G1 X24.088 Y12.435 E.01923
G1 X24.088 Y21.679 E.46394
G1 X23.705 Y21.679 E.01923
G1 X23.705 Y12.435 E.46394
G1 X23.321 Y12.435 E.01923
G1 X23.321 Y21.679 E.46394
G1 X22.938 Y21.679 E.01923
G1 X22.938 Y12.435 E.46394
G1 X22.555 Y12.435 E.01923
G1 X22.555 Y21.679 E.46394
G1 X22.172 Y21.679 E.01923
G1 X22.172 Y12.435 E.46394
G1 X21.789 Y12.435 E.01923
G1 X21.789 Y21.679 E.46394
G1 X21.405 Y21.679 E.01923
G1 X21.405 Y12.435 E.46394
G1 X21.022 Y12.435 E.01923
G1 X21.022 Y21.679 E.46394
G1 X20.639 Y21.679 E.01923
G1 X20.639 Y12.435 E.46394
G1 X20.256 Y12.435 E.01923
G1 X20.256 Y21.679 E.46394
G1 X19.873 Y21.679 E.01923
G1 X19.873 Y12.435 E.46394
G1 X19.489 Y12.435 E.01923
G1 X19.489 Y21.679 E.46394
G1 X19.106 Y21.679 E.01923
G1 X19.106 Y12.435 E.46394
G1 X18.723 Y12.435 E.01923
G1 X18.723 Y21.679 E.46394
G1 X18.34 Y21.679 E.01923
G1 X18.34 Y12.435 E.46394
G1 X17.956 Y12.435 E.01923
G1 X17.956 Y21.679 E.46394
G1 X17.573 Y21.679 E.01923
G1 X17.573 Y12.435 E.46394
G1 X17.19 Y12.435 E.01923
G1 X17.19 Y21.679 E.46394
G1 X16.807 Y21.679 E.01923
G1 X16.807 Y12.435 E.46394
G1 X16.424 Y12.435 E.01923
G1 X16.424 Y21.679 E.46394
G1 X16.04 Y21.679 E.01923
G1 X16.04 Y12.28 E.47173
G1 E-.7 F3600
;WIPE_START
G1 F6240
G1 X16.04 Y12.8 E-.285
;WIPE_END
G1 E-.015 F3600
G1 X32.168 Y134.262 F7800
G1 E1 F2400
G1 F1800
G1 X32.564 Y134.262 E.01989
G1 X32.562 Y163.669 E1.47583
G1 X32.978 Y164.085 E.02952
G1 X38.953 Y164.085 E.29986
G1 X38.953 Y167.876 E.19025
G1 X15.517 Y167.876 E1.17616
G1 X15.517 Y130.869 E1.85722
G1 X32.168 Y130.869 E.83563
G1 X32.168 Y134.21 E.16767
G1 E-.7 F3600
;WIPE_START
G1 F6240
G1 X32.168 Y133.69 E-.285
;WIPE_END
G1 E-.015 F3600
G1 X38.267 Y167.72 F7800
G1 E1 F2400
G1 F1800
G1 X38.267 Y164.395 E.16688
G1 X37.883 Y164.395 E.01923
G1 X37.883 Y167.565 E.15909
G1 X37.5 Y167.565 E.01923
G1 X37.5 Y164.395 E.15909
G1 X37.117 Y164.395 E.01923
G1 X37.117 Y167.565 E.15909
G1 X36.734 Y167.565 E.01923
G1 X36.734 Y164.395 E.15909
G1 X36.351 Y164.395 E.01923
G1 X36.351 Y167.565 E.15909
G1 X35.967 Y167.565 E.01923
G1 X35.967 Y164.395 E.15909
G1 X35.584 Y164.395 E.01923
G1 X35.584 Y167.565 E.15909
G1 X35.201 Y167.565 E.01923
G1 X35.201 Y164.395 E.15909
G1 X34.818 Y164.395 E.01923
G1 X34.818 Y167.565 E.15909
G1 X34.435 Y167.565 E.01923
G1 X34.435 Y164.395 E.15909
G1 X34.051 Y164.395 E.01923
G1 X34.051 Y167.565 E.15909
G1 X33.668 Y167.565 E.01923
G1 X33.668 Y164.395 E.15909
G1 X33.285 Y164.395 E.01923
G1 X33.285 Y167.565 E.15909
G1 X32.902 Y167.565 E.01923
M73 P0 R330
G1 X32.902 Y164.395 E.15909
G1 X32.85 Y164.395 E.00262
G1 X32.518 Y164.064 E.0235
G1 X32.518 Y167.565 E.17571
G1 X32.135 Y167.565 E.01923
G1 X32.135 Y134.572 E1.6558
G1 X31.857 Y134.572 E.01395
G1 X31.857 Y131.179 E.17027
G1 X31.752 Y131.179 E.00528
G1 X31.752 Y167.565 E1.82606
G1 X31.369 Y167.565 E.01923
G1 X31.369 Y131.179 E1.82606
G1 X30.986 Y131.179 E.01923
G1 X30.986 Y167.565 E1.82606
G1 X30.602 Y167.565 E.01923
G1 X30.602 Y131.179 E1.82606
G1 X30.219 Y131.179 E.01923
G1 X30.219 Y167.565 E1.82606
G1 X29.836 Y167.565 E.01923
G1 X29.836 Y131.179 E1.82606
G1 X29.453 Y131.179 E.01923
G1 X29.453 Y167.565 E1.82606
G1 X29.07 Y167.565 E.01923
G1 X29.07 Y131.179 E1.82606
G1 X28.686 Y131.179 E.01923
G1 X28.686 Y167.565 E1.82606
G1 X28.303 Y167.565 E.01923
G1 X28.303 Y131.179 E1.82606
G1 X27.92 Y131.179 E.01923
G1 X27.92 Y167.565 E1.82606
G1 X27.537 Y167.565 E.01923
G1 X27.537 Y131.179 E1.82606
G1 X27.154 Y131.179 E.01923
G1 X27.154 Y167.565 E1.82606
G1 X26.77 Y167.565 E.01923
G1 X26.77 Y131.179 E1.82606
G1 X26.387 Y131.179 E.01923
G1 X26.387 Y167.565 E1.82606
G1 X26.004 Y167.565 E.01923
G1 X26.004 Y131.179 E1.82606
G1 X25.621 Y131.179 E.01923
G1 X25.621 Y167.565 E1.82606
G1 X25.237 Y167.565 E.01923
G1 X25.237 Y131.179 E1.82606
G1 X24.854 Y131.179 E.01923
G1 X24.854 Y167.565 E1.82606
G1 X24.471 Y167.565 E.01923
G1 X24.471 Y131.179 E1.82606
G1 X24.088 Y131.179 E.01923
G1 X24.088 Y167.565 E1.82606
G1 X23.705 Y167.565 E.01923
G1 X23.705 Y131.179 E1.82606
G1 X23.321 Y131.179 E.01923
G1 X23.321 Y167.565 E1.82606
G1 X22.938 Y167.565 E.01923
G1 X22.938 Y131.179 E1.82606
G1 X22.555 Y131.179 E.01923
G1 X22.555 Y167.565 E1.82606
G1 X22.172 Y167.565 E.01923
G1 X22.172 Y131.179 E1.82606
G1 X21.789 Y131.179 E.01923
G1 X21.789 Y167.565 E1.82606
G1 X21.405 Y167.565 E.01923
G1 X21.405 Y131.179 E1.82606
G1 X21.022 Y131.179 E.01923
G1 X21.022 Y167.565 E1.82606
G1 X20.639 Y167.565 E.01923
G1 X20.639 Y131.179 E1.82606
G1 X20.256 Y131.179 E.01923
G1 X20.256 Y167.565 E1.82606
G1 X19.873 Y167.565 E.01923
G1 X19.873 Y131.179 E1.82606
G1 X19.489 Y131.179 E.01923
G1 X19.489 Y167.565 E1.82606
G1 X19.106 Y167.565 E.01923
G1 X19.106 Y131.179 E1.82606
G1 X18.723 Y131.179 E.01923
G1 X18.723 Y167.565 E1.82606
G1 X18.34 Y167.565 E.01923
G1 X18.34 Y131.179 E1.82606
G1 X17.956 Y131.179 E.01923
G1 X17.956 Y167.565 E1.82606
G1 X17.573 Y167.565 E.01923
G1 X17.573 Y131.179 E1.82606
G1 X17.19 Y131.179 E.01923
G1 X17.19 Y167.565 E1.82606
G1 X16.807 Y167.565 E.01923
G1 X16.807 Y131.179 E1.82606
G1 X16.424 Y131.179 E.01923
G1 X16.424 Y167.565 E1.82606
G1 X16.04 Y167.565 E.01923
G1 X16.04 Y131.024 E1.83385
G1 E-.7 F3600
;WIPE_START
G1 F6240
G1 X16.04 Y131.544 E-.285
;WIPE_END
G1 E-.015 F3600
G1 X132.257 Y162.82 F7800
G1 E1 F2400
;TYPE:Perimeter
;WIDTH:0.42
G1 F1800
G1 X131.745 Y152.372 E.52496
G1 X131.741 Y17.18 E6.78472
G1 X145.532 Y17.18 E.69212
M73 P0 R329
G1 X145.54 Y151.864 E6.75924
G1 X146.077 Y162.82 E.55047
G1 X132.407 Y162.82 E.68604
G1 X131.928 Y163.165 F7800
;TYPE:External perimeter
G1 F1800
G1 X131.401 Y152.38 E.54187
G1 X131.396 Y16.835 E6.80245
G1 X145.877 Y16.835 E.72674
G1 X145.885 Y151.864 E6.77655
G1 X146.439 Y163.165 E.56781
G1 X132.078 Y163.165 E.7207
G1 X132.189 Y162.199 F7800
G1 E-.7 F3600
;WIPE_START
G1 F6240
G1 X132.046 Y162.646 E-.285
;WIPE_END
G1 E-.015 F3600
G1 X145.429 Y17.981 F7800
G1 E1 F2400
;TYPE:Solid infill
;WIDTH:0.420123
G1 F1800
G1 X144.886 Y17.439 E.0385
G1 X144.398 Y17.439 E.0245
G1 X145.273 Y18.314 E.06213
G1 X145.273 Y18.802 E.0245
G1 X143.91 Y17.439 E.09677
G1 X143.423 Y17.439 E.0245
G1 X145.274 Y19.29 E.13142
G1 X145.274 Y19.778 E.0245
G1 X142.935 Y17.439 E.16606
G1 X142.447 Y17.439 E.0245
G1 X145.274 Y20.266 E.2007
G1 X145.274 Y20.754 E.0245
G1 X141.959 Y17.439 E.23535
G1 X141.471 Y17.439 E.0245
G1 X145.274 Y21.242 E.26999
G1 X145.274 Y21.729 E.0245
G1 X140.983 Y17.439 E.30464
G1 X140.495 Y17.439 E.0245
G1 X145.274 Y22.217 E.33928
G1 X145.274 Y22.705 E.0245
G1 X140.007 Y17.439 E.37392
G1 X139.519 Y17.439 E.0245
G1 X145.274 Y23.193 E.40857
G1 X145.274 Y23.681 E.0245
G1 X139.031 Y17.439 E.44321
G1 X138.543 Y17.439 E.0245
G1 X145.274 Y24.169 E.47785
G1 X145.274 Y24.657 E.0245
G1 X138.055 Y17.439 E.5125
G1 X137.568 Y17.439 E.0245
G1 X145.274 Y25.145 E.54714
G1 X145.274 Y25.633 E.0245
G1 X137.08 Y17.439 E.58179
G1 X136.592 Y17.439 E.0245
G1 X145.274 Y26.121 E.61643
G1 X145.274 Y26.609 E.0245
G1 X136.104 Y17.439 E.65107
G1 X135.616 Y17.439 E.0245
G1 X145.274 Y27.097 E.68572
G1 X145.274 Y27.585 E.0245
G1 X135.128 Y17.439 E.72036
G1 X134.64 Y17.439 E.0245
G1 X145.274 Y28.073 E.75501
G1 X145.274 Y28.561 E.0245
G1 X134.152 Y17.439 E.78965
G1 X133.664 Y17.439 E.0245
G1 X145.274 Y29.049 E.82429
G1 X145.274 Y29.537 E.0245
G1 X133.176 Y17.439 E.85894
G1 X132.688 Y17.439 E.0245
G1 X145.274 Y30.025 E.89358
G1 X145.274 Y30.513 E.0245
G1 X132.2 Y17.439 E.92823
G1 X131.999 Y17.439 E.01009
G1 X131.999 Y17.726 E.01441
G1 X145.274 Y31.001 E.94249
G1 X145.274 Y31.488 E.0245
G1 X131.999 Y18.214 E.94249
G1 X132 Y18.702 E.0245
G1 X145.274 Y31.976 E.9425
G1 X145.274 Y32.464 E.0245
G1 X132 Y19.19 E.9425
G1 X132 Y19.678 E.0245
G1 X145.274 Y32.952 E.9425
G1 X145.274 Y33.44 E.0245
G1 X132 Y20.165 E.9425
G1 X132 Y20.653 E.0245
G1 X145.274 Y33.928 E.9425
G1 X145.274 Y34.416 E.0245
G1 X132 Y21.141 E.9425
G1 X132 Y21.629 E.0245
G1 X145.274 Y34.904 E.9425
G1 X145.275 Y35.392 E.0245
G1 X132 Y22.117 E.9425
G1 X132 Y22.605 E.0245
G1 X145.275 Y35.88 E.9425
G1 X145.275 Y36.368 E.0245
G1 X132 Y23.093 E.9425
G1 X132 Y23.581 E.0245
G1 X145.275 Y36.856 E.9425
G1 X145.275 Y37.344 E.0245
G1 X132 Y24.069 E.94251
G1 X132 Y24.557 E.0245
G1 X145.275 Y37.832 E.94251
G1 X145.275 Y38.32 E.0245
G1 X132 Y25.045 E.94251
G1 X132 Y25.533 E.0245
G1 X145.275 Y38.808 E.94251
G1 X145.275 Y39.296 E.0245
G1 X132 Y26.021 E.94251
G1 X132 Y26.509 E.0245
G1 X145.275 Y39.784 E.94251
G1 X145.275 Y40.272 E.0245
G1 X132 Y26.997 E.94251
G1 X132 Y27.485 E.0245
G1 X145.275 Y40.76 E.94251
G1 X145.275 Y41.248 E.0245
G1 X132 Y27.972 E.94251
G1 X132 Y28.46 E.0245
G1 X145.275 Y41.735 E.94251
G1 X145.275 Y42.223 E.0245
G1 X132 Y28.948 E.94252
G1 X132 Y29.436 E.0245
G1 X145.275 Y42.711 E.94252
G1 X145.275 Y43.199 E.0245
G1 X132 Y29.924 E.94252
G1 X132 Y30.412 E.0245
G1 X145.275 Y43.687 E.94252
G1 X145.275 Y44.175 E.0245
G1 X132 Y30.9 E.94252
G1 X132 Y31.388 E.0245
G1 X145.275 Y44.663 E.94252
G1 X145.275 Y45.151 E.0245
G1 X132 Y31.876 E.94252
G1 X132 Y32.364 E.0245
G1 X145.275 Y45.639 E.94252
G1 X145.275 Y46.127 E.0245
G1 X132 Y32.852 E.94252
G1 X132 Y33.34 E.0245
G1 X145.275 Y46.615 E.94252
G1 X145.275 Y47.103 E.0245
G1 X132 Y33.828 E.94252
G1 X132 Y34.316 E.0245
G1 X145.275 Y47.591 E.94253
G1 X145.275 Y48.079 E.0245
G1 X132 Y34.804 E.94253
G1 X132 Y35.292 E.0245
G1 X145.275 Y48.567 E.94253
G1 X145.275 Y49.055 E.0245
G1 X132 Y35.779 E.94253
G1 X132 Y36.267 E.0245
G1 X145.275 Y49.543 E.94253
G1 X145.275 Y50.031 E.0245
G1 X132 Y36.755 E.94253
G1 X132 Y37.243 E.0245
G1 X145.275 Y50.519 E.94253
G1 X145.275 Y51.007 E.0245
G1 X132 Y37.731 E.94253
G1 X132 Y38.219 E.0245
G1 X145.276 Y51.494 E.94253
G1 X145.276 Y51.982 E.0245
G1 X132 Y38.707 E.94253
G1 X132 Y39.195 E.0245
M73 P0 R328
G1 X145.276 Y52.47 E.94254
G1 X145.276 Y52.958 E.0245
G1 X132 Y39.683 E.94254
G1 X132 Y40.171 E.0245
G1 X145.276 Y53.446 E.94254
G1 X145.276 Y53.934 E.0245
G1 X132 Y40.659 E.94254
G1 X132 Y41.147 E.0245
G1 X145.276 Y54.422 E.94254
G1 X145.276 Y54.91 E.0245
G1 X132 Y41.635 E.94254
G1 X132 Y42.123 E.0245
G1 X145.276 Y55.398 E.94254
G1 X145.276 Y55.886 E.0245
G1 X132 Y42.611 E.94254
G1 X132 Y43.099 E.0245
G1 X145.276 Y56.374 E.94254
G1 X145.276 Y56.862 E.0245
G1 X132 Y43.586 E.94254
G1 X132 Y44.074 E.0245
G1 X145.276 Y57.35 E.94254
G1 X145.276 Y57.838 E.0245
G1 X132 Y44.562 E.94255
G1 X132 Y45.05 E.0245
G1 X145.276 Y58.326 E.94255
G1 X145.276 Y58.814 E.0245
G1 X132 Y45.538 E.94255
G1 X132 Y46.026 E.0245
G1 X145.276 Y59.302 E.94255
G1 X145.276 Y59.79 E.0245
G1 X132 Y46.514 E.94255
G1 X132 Y47.002 E.0245
G1 X145.276 Y60.278 E.94255
G1 X145.276 Y60.766 E.0245
G1 X132.001 Y47.49 E.94255
G1 X132.001 Y47.978 E.0245
G1 X145.276 Y61.253 E.94255
G1 X145.276 Y61.741 E.0245
G1 X132.001 Y48.466 E.94255
G1 X132.001 Y48.954 E.0245
G1 X145.276 Y62.229 E.94255
G1 X145.276 Y62.717 E.0245
G1 X132.001 Y49.442 E.94255
G1 X132.001 Y49.93 E.0245
G1 X145.276 Y63.205 E.94256
G1 X145.276 Y63.693 E.0245
G1 X132.001 Y50.418 E.94256
G1 X132.001 Y50.906 E.0245
G1 X145.276 Y64.181 E.94256
G1 X145.276 Y64.669 E.0245
G1 X132.001 Y51.393 E.94256
G1 X132.001 Y51.881 E.0245
G1 X145.276 Y65.157 E.94256
G1 X145.276 Y65.645 E.0245
G1 X132.001 Y52.369 E.94256
G1 X132.001 Y52.857 E.0245
G1 X145.276 Y66.133 E.94256
G1 X145.276 Y66.621 E.0245
G1 X132.001 Y53.345 E.94256
G1 X132.001 Y53.833 E.0245
G1 X145.276 Y67.109 E.94256
G1 X145.277 Y67.597 E.0245
G1 X132.001 Y54.321 E.94256
G1 X132.001 Y54.809 E.0245
G1 X145.277 Y68.085 E.94257
G1 X145.277 Y68.573 E.0245
G1 X132.001 Y55.297 E.94257
G1 X132.001 Y55.785 E.0245
G1 X145.277 Y69.061 E.94257
G1 X145.277 Y69.549 E.0245
G1 X132.001 Y56.273 E.94257
G1 X132.001 Y56.761 E.0245
G1 X145.277 Y70.037 E.94257
G1 X145.277 Y70.525 E.0245
G1 X132.001 Y57.249 E.94257
G1 X132.001 Y57.737 E.0245
G1 X145.277 Y71.012 E.94257
G1 X145.277 Y71.5 E.0245
G1 X132.001 Y58.225 E.94257
G1 X132.001 Y58.713 E.0245
G1 X145.277 Y71.988 E.94257
G1 X145.277 Y72.476 E.0245
G1 X132.001 Y59.2 E.94257
G1 X132.001 Y59.688 E.0245
G1 X145.277 Y72.964 E.94257
G1 X145.277 Y73.452 E.0245
G1 X132.001 Y60.176 E.94258
G1 X132.001 Y60.664 E.0245
G1 X145.277 Y73.94 E.94258
G1 X145.277 Y74.428 E.0245
G1 X132.001 Y61.152 E.94258
G1 X132.001 Y61.64 E.0245
G1 X145.277 Y74.916 E.94258
G1 X145.277 Y75.404 E.0245
G1 X132.001 Y62.128 E.94258
G1 X132.001 Y62.616 E.0245
G1 X145.277 Y75.892 E.94258
G1 X145.277 Y76.38 E.0245
G1 X132.001 Y63.104 E.94258
G1 X132.001 Y63.592 E.0245
G1 X145.277 Y76.868 E.94258
G1 X145.277 Y77.356 E.0245
G1 X132.001 Y64.08 E.94258
G1 X132.001 Y64.568 E.0245
G1 X145.277 Y77.844 E.94258
G1 X145.277 Y78.332 E.0245
M73 P1 R328
G1 X132.001 Y65.056 E.94259
G1 X132.001 Y65.544 E.0245
G1 X145.277 Y78.82 E.94259
