; generated by PrusaSlicer 2.5.0+win64 on 2022-12-07 at 00:23:18 UTC

; 

; external perimeters extrusion width = 1.00mm
; perimeters extrusion width = 1.00mm
; infill extrusion width = 1.00mm
; solid infill extrusion width = 1.00mm
; top infill extrusion width = 1.00mm
; support material extrusion width = 1.00mm
; first layer extrusion width = 0.42mm

M73 P0 R417
M107
;TYPE:Custom
G90 ; use absolute coordinates
M83 ; extruder relative mode
M140 S60 ; set final bed temp
M104 S150 ; set temporary nozzle temp to prevent oozing during homing and auto bed leveling
G4 S10 ; allow partial nozzle warmup
G28 ; home all axisG1 Z50 F240
G1 X7.6 Y10 F3000
M104 S210 ; set final nozzle temp
M190 S60 ; wait for bed temp to stabilize
M109 S210 ; wait for nozzle temp to stabilize
G1 Z0.28 F240
G92 E0
G1 Y140 E10 F1500 ; prime the nozzle
G1 X4 F5000
G92 E0
G1 Y10 E10 F1200 ; prime the nozzle
G92 E0
G21 ; set units to millimeters
G90 ; use absolute coordinates
M83 ; use relative distances for extrusion
; Filament gcode
M107
;LAYER_CHANGE
;Z:0.35
;HEIGHT:0.35
;BEFORE_LAYER_CHANGE
G92 E0
;0.35


G1 E-1 F3600
G1 Z.35 F7800
;AFTER_LAYER_CHANGE
;0.35
G1 X22.601 Y160.845
G1 E1 F2400
;TYPE:Support material interface
;WIDTH:1
G1 F1800
G1 X22.601 Y164.639 E.51067
G1 X23.494 Y164.639 E.12014
G1 X23.494 Y161.247 E.45661
G1 X24.387 Y161.247 E.12014
G1 X24.387 Y164.639 E.45661
G1 X25.279 Y164.639 E.12014
G1 X25.279 Y161.247 E.45661
G1 X26.172 Y161.247 E.12014
G1 X26.172 Y164.639 E.45661
G1 X27.065 Y164.639 E.12014
G1 X27.065 Y161.247 E.45661
G1 X27.957 Y161.247 E.12014
G1 X27.957 Y164.639 E.45661
G1 X28.85 Y164.639 E.12014
G1 X28.85 Y161.247 E.45661
G1 X29.743 Y161.247 E.12014
G1 X29.743 Y164.639 E.45661
G1 X30.635 Y164.639 E.12014
G1 X30.635 Y161.247 E.45661
G1 X31.528 Y161.247 E.12014
G1 X31.528 Y164.639 E.45661
G1 X32.421 Y164.639 E.12014
G1 X32.421 Y161.247 E.45661
G1 X33.314 Y161.247 E.12014
G1 X33.314 Y164.639 E.45661
G1 X34.206 Y164.639 E.12014
G1 X34.206 Y161.247 E.45661
G1 X35.099 Y161.247 E.12014
G1 X35.099 Y164.639 E.45661
G1 X35.992 Y164.639 E.12014
G1 X35.992 Y161.247 E.45661
G1 X36.884 Y161.247 E.12014
G1 X36.884 Y164.639 E.45661
G1 X37.777 Y164.639 E.12014
G1 X37.777 Y161.247 E.45661
G1 X38.67 Y161.247 E.12014
G1 X38.67 Y164.639 E.45661
G1 X39.562 Y164.639 E.12014
G1 X39.562 Y161.247 E.45661
G1 X40.455 Y161.247 E.12014
G1 X40.455 Y164.639 E.45661
G1 X41.348 Y164.639 E.12014
G1 X41.348 Y161.247 E.45661
G1 X42.241 Y161.247 E.12014
G1 X42.241 Y164.639 E.45661
G1 X43.133 Y164.639 E.12014
G1 X43.133 Y161.247 E.45661
G1 X44.026 Y161.247 E.12014
G1 X44.026 Y164.639 E.45661
G1 X44.919 Y164.639 E.12014
G1 X44.919 Y161.247 E.45661
G1 X45.811 Y161.247 E.12014
G1 X45.811 Y164.639 E.45661
G1 X46.704 Y164.639 E.12014
G1 X46.704 Y161.247 E.45661
G1 X47.597 Y161.247 E.12014
G1 X47.597 Y164.639 E.45661
G1 X48.489 Y164.639 E.12014
G1 X48.489 Y161.247 E.45661
G1 X49.382 Y161.247 E.12014
G1 X49.382 Y164.639 E.45661
G1 X50.275 Y164.639 E.12014
G1 X50.275 Y161.247 E.45661
G1 X51.168 Y161.247 E.12014
G1 X51.168 Y164.639 E.45661
G1 X52.06 Y164.639 E.12014
G1 X52.06 Y161.247 E.45661
G1 X52.953 Y161.247 E.12014
G1 X52.953 Y164.639 E.45661
G1 X53.846 Y164.639 E.12014
G1 X53.846 Y161.247 E.45661
G1 X54.738 Y161.247 E.12014
G1 X54.738 Y164.639 E.45661
G1 X55.631 Y164.639 E.12014
G1 X55.631 Y161.247 E.45661
G1 X56.524 Y161.247 E.12014
G1 X56.524 Y164.639 E.45661
G1 X57.416 Y164.639 E.12014
G1 X57.416 Y161.247 E.45661
G1 X58.309 Y161.247 E.12014
G1 X58.309 Y164.639 E.45661
G1 X59.202 Y164.639 E.12014
G1 X59.202 Y161.247 E.45661
G1 X60.095 Y161.247 E.12014
G1 X60.095 Y164.639 E.45661
G1 X60.987 Y164.639 E.12014
G1 X60.987 Y161.247 E.45661
G1 X61.88 Y161.247 E.12014
G1 X61.88 Y164.639 E.45661
G1 X62.773 Y164.639 E.12014
G1 X62.773 Y161.247 E.45661
G1 X63.665 Y161.247 E.12014
G1 X63.665 Y164.639 E.45661
G1 X64.558 Y164.639 E.12014
G1 X64.558 Y161.247 E.45661
G1 X65.451 Y161.247 E.12014
G1 X65.451 Y164.639 E.45661
G1 X66.343 Y164.639 E.12014
G1 X66.343 Y157.854 E.91321
G1 X67.236 Y157.854 E.12014
G1 X67.236 Y164.639 E.91321
G1 X68.129 Y164.639 E.12014
G1 X68.129 Y157.854 E.91321
G1 X69.022 Y157.854 E.12014
G1 X69.022 Y164.639 E.91321
G1 X69.914 Y164.639 E.12014
G1 X69.914 Y157.854 E.91321
G1 X70.807 Y157.854 E.12014
G1 X70.807 Y164.639 E.91321
G1 X71.7 Y164.639 E.12014
G1 X71.7 Y157.854 E.91321
G1 X72.592 Y157.854 E.12014
G1 X72.592 Y164.639 E.91321
G1 X73.485 Y164.639 E.12014
G1 X73.485 Y157.854 E.91321
G1 X74.378 Y157.854 E.12014
G1 X74.378 Y164.639 E.91321
G1 X75.27 Y164.639 E.12014
G1 X75.27 Y157.854 E.91321
G1 X76.163 Y157.854 E.12014
G1 X76.163 Y164.639 E.91321
G1 X77.056 Y164.639 E.12014
G1 X77.056 Y157.854 E.91321
G1 X77.949 Y157.854 E.12014
G1 X77.949 Y164.639 E.91321
G1 X78.841 Y164.639 E.12014
G1 X78.841 Y157.854 E.91321
G1 X79.734 Y157.854 E.12014
G1 X79.734 Y164.639 E.91321
G1 X80.627 Y164.639 E.12014
G1 X80.627 Y157.854 E.91321
G1 X81.519 Y157.854 E.12014
G1 X81.519 Y164.639 E.91321
G1 X82.412 Y164.639 E.12014
G1 X82.412 Y157.854 E.91321
G1 X83.305 Y157.854 E.12014
G1 X83.305 Y164.639 E.91321
G1 X84.197 Y164.639 E.12014
G1 X84.197 Y157.854 E.91321
G1 X85.09 Y157.854 E.12014
G1 X85.09 Y164.639 E.91321
G1 X85.983 Y164.639 E.12014
G1 X85.983 Y157.854 E.91321
G1 X86.876 Y157.854 E.12014
G1 X86.876 Y164.639 E.91321
G1 X87.768 Y164.639 E.12014
G1 X87.768 Y157.854 E.91321
G1 X88.661 Y157.854 E.12014
G1 X88.661 Y164.639 E.91321
G1 X89.554 Y164.639 E.12014
G1 X89.554 Y157.854 E.91321
G1 X90.446 Y157.854 E.12014
G1 X90.446 Y164.639 E.91321
G1 X91.339 Y164.639 E.12014
G1 X91.339 Y157.854 E.91321
G1 X92.232 Y157.854 E.12014
G1 X92.232 Y164.639 E.91321
G1 X93.124 Y164.639 E.12014
G1 X93.124 Y157.854 E.91321
G1 X94.017 Y157.854 E.12014
G1 X94.017 Y164.639 E.91321
G1 X94.91 Y164.639 E.12014
G1 X94.91 Y157.854 E.91321
G1 X95.802 Y157.854 E.12014
G1 X95.802 Y164.639 E.91321
G1 X96.695 Y164.639 E.12014
G1 X96.695 Y157.854 E.91321
G1 X97.588 Y157.854 E.12014
G1 X97.588 Y164.639 E.91321
G1 X98.481 Y164.639 E.12014
G1 X98.481 Y157.854 E.91321
G1 X99.373 Y157.854 E.12014
G1 X99.373 Y164.639 E.91321
G1 X100.266 Y164.639 E.12014
G1 X100.266 Y157.854 E.91321
G1 X101.159 Y157.854 E.12014
G1 X101.159 Y164.639 E.91321
G1 X102.051 Y164.639 E.12014
G1 X102.051 Y157.854 E.91321
G1 X102.944 Y157.854 E.12014
G1 X102.944 Y164.639 E.91321
G1 X103.837 Y164.639 E.12014
G1 X103.837 Y157.854 E.91321
G1 X104.729 Y157.854 E.12014
G1 X104.729 Y164.639 E.91321
G1 X105.622 Y164.639 E.12014
G1 X105.622 Y157.854 E.91321
G1 X106.515 Y157.854 E.12014
G1 X106.515 Y164.639 E.91321
G1 X107.408 Y164.639 E.12014
G1 X107.408 Y157.854 E.91321
G1 X108.3 Y157.854 E.12014
G1 X108.3 Y164.639 E.91321
G1 X109.193 Y164.639 E.12014
G1 X109.193 Y157.854 E.91321
G1 X110.086 Y157.854 E.12014
G1 X110.086 Y164.639 E.91321
G1 X110.978 Y164.639 E.12014
G1 X110.978 Y157.854 E.91321
G1 X111.871 Y157.854 E.12014
G1 X111.871 Y164.639 E.91321
G1 X112.764 Y164.639 E.12014
G1 X112.764 Y157.854 E.91321
G1 X113.656 Y157.854 E.12014
G1 X113.656 Y164.639 E.91321
G1 X114.549 Y164.639 E.12014
G1 X114.549 Y157.854 E.91321
G1 X115.442 Y157.854 E.12014
G1 X115.442 Y164.639 E.91321
G1 X116.335 Y164.639 E.12014
G1 X116.335 Y157.854 E.91321
G1 X117.227 Y157.854 E.12014
G1 X117.227 Y164.639 E.91321
G1 X118.12 Y164.639 E.12014
G1 X118.12 Y157.854 E.91321
G1 X119.013 Y157.854 E.12014
G1 X119.013 Y164.639 E.91321
G1 X119.905 Y164.639 E.12014
G1 X119.905 Y157.854 E.91321
G1 X120.798 Y157.854 E.12014
G1 X120.798 Y164.639 E.91321
G1 X121.691 Y164.639 E.12014
G1 X121.691 Y157.854 E.91321
G1 X122.583 Y157.854 E.12014
G1 X122.583 Y165.041 E.96727
G1 E-.7 F3600
;WIPE_START
G1 F6240
G1 X122.583 Y164.521 E-.285
;WIPE_END
G1 E-.015 F3600
G1 X147.579 Y163.919 F7800
G1 E1 F2400
M73 P0 R416
G1 F1800
G1 X147.579 Y164.639 E.0969
G1 X146.686 Y164.639 E.12014
G1 X146.686 Y164.321 E.04284
G1 X145.794 Y164.321 E.12014
G1 X145.794 Y164.639 E.04284
G1 X144.901 Y164.639 E.12014
G1 X144.901 Y164.321 E.04284
G1 X144.008 Y164.321 E.12014
G1 X144.008 Y164.639 E.04284
G1 X143.116 Y164.639 E.12014
G1 X143.116 Y164.321 E.04284
G1 X142.223 Y164.321 E.12014
G1 X142.223 Y164.639 E.04284
G1 X141.33 Y164.639 E.12014
G1 X141.33 Y164.321 E.04284
G1 X140.437 Y164.321 E.12014
G1 X140.437 Y164.639 E.04284
G1 X139.545 Y164.639 E.12014
G1 X139.545 Y164.321 E.04284
G1 X138.652 Y164.321 E.12014
G1 X138.652 Y164.639 E.04284
G1 X137.759 Y164.639 E.12014
G1 X137.759 Y164.321 E.04284
G1 X136.867 Y164.321 E.12014
G1 X136.867 Y164.639 E.04284
G1 X135.974 Y164.639 E.12014
G1 X135.974 Y164.321 E.04284
G1 X135.081 Y164.321 E.12014
G1 X135.081 Y164.639 E.04284
G1 X134.189 Y164.639 E.12014
G1 X134.189 Y164.321 E.04284
G1 X133.296 Y164.321 E.12014
G1 X133.296 Y164.639 E.04284
G1 X132.403 Y164.639 E.12014
G1 X132.403 Y164.321 E.04284
G1 X131.51 Y164.321 E.12014
G1 X131.51 Y164.639 E.04284
G1 X130.618 Y164.639 E.12014
G1 X130.618 Y164.321 E.04284
G1 X129.725 Y164.321 E.12014
G1 X129.725 Y164.639 E.04284
G1 X128.832 Y164.639 E.12014
G1 X128.832 Y164.321 E.04284
G1 X127.94 Y164.321 E.12014
G1 X127.94 Y164.639 E.04284
G1 X127.047 Y164.639 E.12014
G1 X127.047 Y164.321 E.04284
G1 X126.154 Y164.321 E.12014
G1 X126.154 Y164.639 E.04284
G1 X125.262 Y164.639 E.12014
G1 X125.262 Y164.321 E.04284
G1 X124.939 Y164.321 E.04336
G1 X124.932 Y164.014 E.04128
G1 X124.369 Y163.81 E.08064
G1 X124.369 Y164.639 E.11167
G1 X123.476 Y164.639 E.12014
G1 X123.476 Y157.854 E.91321
G1 X124.369 Y157.854 E.12014
G1 X124.369 Y161.346 E.46997
G1 X125.262 Y160.971 E.13029
G1 X125.262 Y157.854 E.41955
G1 X126.154 Y157.854 E.12014
G1 X126.154 Y160.711 E.38455
G1 X127.047 Y160.679 E.12022
G1 X127.047 Y157.854 E.38018
G1 X127.94 Y157.854 E.12014
G1 X127.94 Y160.646 E.37582
G1 X128.832 Y160.614 E.12022
G1 X128.832 Y157.854 E.37145
G1 X129.725 Y157.854 E.12014
G1 X129.725 Y160.581 E.36708
G1 X130.618 Y160.549 E.12022
G1 X130.618 Y157.854 E.36272
G1 X131.51 Y157.854 E.12014
G1 X131.51 Y160.517 E.35835
G1 X132.403 Y160.484 E.12022
G1 X132.403 Y157.854 E.35398
G1 X133.296 Y157.854 E.12014
G1 X133.296 Y160.452 E.34962
G1 X134.189 Y160.419 E.12022
G1 X134.189 Y157.854 E.34525
G1 X135.081 Y157.854 E.12014
G1 X135.081 Y160.387 E.34088
G1 X135.974 Y160.354 E.12022
G1 X135.974 Y157.854 E.33652
G1 X136.867 Y157.854 E.12014
G1 X136.867 Y160.322 E.33215
G1 X137.759 Y160.289 E.12022
G1 X137.759 Y154.461 E.78438
G1 X138.652 Y154.461 E.12014
G1 X138.652 Y160.257 E.78002
G1 X139.545 Y160.225 E.12022
G1 X139.545 Y154.461 E.77565
G1 X140.437 Y154.461 E.12014
G1 X140.437 Y160.192 E.77128
G1 X141.33 Y160.16 E.12022
G1 X141.33 Y154.461 E.76692
G1 X142.223 Y154.461 E.12014
G1 X142.223 Y160.127 E.76255
G1 X143.116 Y160.095 E.12022
G1 X143.116 Y154.461 E.75818
G1 X144.008 Y154.461 E.12014
G1 X144.008 Y160.062 E.75382
G1 X144.901 Y160.03 E.12022
G1 X144.901 Y154.461 E.74945
G1 X145.794 Y154.461 E.12014
G1 X145.794 Y159.997 E.74508
G1 X146.303 Y159.979 E.06854
G1 X146.686 Y159.887 E.0531
G1 X146.686 Y154.461 E.73027
G1 X147.579 Y154.461 E.12014
G1 X147.579 Y159.731 E.70917
G1 X148.472 Y159.687 E.12028
G1 X148.472 Y154.461 E.70335
G1 X149.364 Y154.461 E.12014
G1 X149.364 Y159.644 E.69752
G1 X150.257 Y159.601 E.12028
G1 X150.257 Y154.461 E.6917
G1 X151.15 Y154.461 E.12014
G1 X151.15 Y159.557 E.68587
G1 X152.043 Y159.514 E.12028
G1 X152.043 Y154.461 E.68005
G1 X152.935 Y154.461 E.12014
G1 X152.935 Y159.471 E.67422
G1 X153.828 Y159.428 E.12028
G1 X153.828 Y154.461 E.6684
G1 X154.721 Y154.461 E.12014
G1 X154.721 Y159.384 E.66258
G1 X155.613 Y159.341 E.12028
G1 X155.613 Y154.461 E.65675
G1 X156.506 Y154.461 E.12014
G1 X156.506 Y159.298 E.65093
G1 X157.399 Y159.255 E.12028
G1 X157.399 Y154.461 E.6451
G1 X158.291 Y154.461 E.12014
G1 X158.291 Y159.211 E.63928
G1 X159.184 Y159.168 E.12028
G1 X159.184 Y154.461 E.63345
G1 X160.077 Y154.461 E.12014
G1 X160.077 Y159.125 E.62763
G1 X160.97 Y159.081 E.12028
G1 X160.97 Y154.461 E.6218
G1 X161.862 Y154.461 E.12014
G1 X161.862 Y159.038 E.61598
G1 X162.755 Y158.995 E.12028
G1 X162.755 Y154.461 E.61016
G1 X163.648 Y154.461 E.12014
G1 X163.648 Y158.952 E.60433
G1 X164.54 Y158.908 E.12028
G1 X164.54 Y154.461 E.59851
G1 X165.433 Y154.461 E.12014
G1 X165.433 Y158.865 E.59268
G1 X166.079 Y158.834 E.08707
G1 X166.326 Y159.069 E.04582
G1 X166.326 Y154.461 E.62007
G1 X167.218 Y154.461 E.12014
G1 X167.218 Y161.648 E.96727
G1 E-.7 F3600
;WIPE_START
G1 F6240
G1 X167.218 Y161.128 E-.285
;WIPE_END
G1 E-.015 F3600
G1 X171.268 Y156.805 F7800
G1 E1 F2400
;TYPE:Support material
;WIDTH:0.42
G1 F1800
G1 X168.689 Y156.805 E.12947
G1 X168.689 Y153.805 E.15056
G1 X136.841 Y153.805 E1.59828
G1 X136.841 Y157.197 E.17027
G1 X65.595 Y157.197 E3.57558
G1 X65.595 Y160.59 E.17027
G1 X21.49 Y160.59 E2.21345
G1 X21.49 Y165.296 E.23616
G1 X24.49 Y165.296 E.15056
G1 X24.49 Y167.876 E.12947
G1 X8.732 Y167.876 E.79082
G1 X8.732 Y12.124 E7.81652
G1 X171.268 Y12.124 E8.15705
G1 X171.268 Y156.753 E7.25832
G1 X170.857 Y156.65 F7800
G1 F1800
G1 X170.857 Y12.435 E7.23755
G1 X170.474 Y12.435 E.01923
G1 X170.474 Y156.494 E7.22977
G1 X170.091 Y156.494 E.01923
G1 X170.091 Y12.435 E7.22977
G1 X169.708 Y12.435 E.01923
G1 X169.708 Y156.494 E7.22977
G1 X169.324 Y156.494 E.01923
G1 X169.324 Y12.435 E7.22977
G1 X168.941 Y12.435 E.01923
M73 P0 R415
G1 X168.941 Y153.494 E7.07921
G1 X168.558 Y153.494 E.01923
G1 X168.558 Y12.435 E7.07921
G1 X168.175 Y12.435 E.01923
G1 X168.175 Y153.494 E7.07921
G1 X167.792 Y153.494 E.01923
G1 X167.792 Y12.435 E7.07921
G1 X167.408 Y12.435 E.01923
G1 X167.408 Y153.494 E7.07921
G1 X167.025 Y153.494 E.01923
G1 X167.025 Y12.435 E7.07921
G1 X166.642 Y12.435 E.01923
G1 X166.642 Y153.494 E7.07921
G1 X166.259 Y153.494 E.01923
G1 X166.259 Y12.435 E7.07921
G1 X165.876 Y12.435 E.01923
G1 X165.876 Y153.494 E7.07921
G1 X165.492 Y153.494 E.01923
G1 X165.492 Y12.435 E7.07921
G1 X165.109 Y12.435 E.01923
G1 X165.109 Y153.494 E7.07921
G1 X164.726 Y153.494 E.01923
G1 X164.726 Y12.435 E7.07921
G1 X164.343 Y12.435 E.01923
G1 X164.343 Y153.494 E7.07921
G1 X163.96 Y153.494 E.01923
M73 P0 R414
G1 X163.96 Y12.435 E7.07921
G1 X163.576 Y12.435 E.01923
G1 X163.576 Y153.494 E7.07921
G1 X163.193 Y153.494 E.01923
G1 X163.193 Y12.435 E7.07921
G1 X162.81 Y12.435 E.01923
G1 X162.81 Y153.494 E7.07921
G1 X162.427 Y153.494 E.01923
G1 X162.427 Y12.435 E7.07921
G1 X162.043 Y12.435 E.01923
G1 X162.043 Y153.494 E7.07921
G1 X161.66 Y153.494 E.01923
G1 X161.66 Y12.435 E7.07921
G1 X161.277 Y12.435 E.01923
G1 X161.277 Y153.494 E7.07921
G1 X160.894 Y153.494 E.01923
G1 X160.894 Y12.435 E7.07921
G1 X160.511 Y12.435 E.01923
G1 X160.511 Y153.494 E7.07921
G1 X160.127 Y153.494 E.01923
G1 X160.127 Y12.435 E7.07921
G1 X159.744 Y12.435 E.01923
G1 X159.744 Y153.494 E7.07921
G1 X159.361 Y153.494 E.01923
M73 P0 R413
G1 X159.361 Y12.435 E7.07921
G1 X158.978 Y12.435 E.01923
G1 X158.978 Y153.494 E7.07921
G1 X158.595 Y153.494 E.01923
G1 X158.595 Y12.435 E7.07921
G1 X158.211 Y12.435 E.01923
G1 X158.211 Y153.494 E7.07921
G1 X157.828 Y153.494 E.01923
G1 X157.828 Y12.435 E7.07921
G1 X157.445 Y12.435 E.01923
G1 X157.445 Y153.494 E7.07921
G1 X157.062 Y153.494 E.01923
M73 P1 R413
G1 X157.062 Y12.435 E7.07921
G1 X156.679 Y12.435 E.01923
G1 X156.679 Y153.494 E7.07921
G1 X156.295 Y153.494 E.01923
G1 X156.295 Y12.435 E7.07921
G1 X155.912 Y12.435 E.01923
G1 X155.912 Y153.494 E7.07921
G1 X155.529 Y153.494 E.01923
G1 X155.529 Y12.435 E7.07921
G1 X155.146 Y12.435 E.01923
G1 X155.146 Y153.494 E7.07921
G1 X154.762 Y153.494 E.01923
G1 X154.763 Y12.435 E7.07921
G1 X154.379 Y12.435 E.01923
M73 P1 R412
G1 X154.379 Y153.494 E7.07921
G1 X153.996 Y153.494 E.01923
G1 X153.996 Y12.435 E7.07921
G1 X153.613 Y12.435 E.01923
G1 X153.613 Y153.494 E7.07921
G1 X153.23 Y153.494 E.01923
G1 X153.23 Y12.435 E7.07921
G1 X152.846 Y12.435 E.01923
G1 X152.846 Y153.494 E7.07921
G1 X152.463 Y153.494 E.01923
G1 X152.463 Y12.435 E7.07921
G1 X152.08 Y12.435 E.01923
G1 X152.08 Y153.494 E7.07921
G1 X151.697 Y153.494 E.01923
G1 X151.697 Y12.435 E7.07921
G1 X151.314 Y12.435 E.01923
G1 X151.314 Y153.494 E7.07921
G1 X150.93 Y153.494 E.01923
G1 X150.93 Y12.435 E7.07921
G1 X150.547 Y12.435 E.01923
G1 X150.547 Y153.494 E7.07921
