; generated by PrusaSlicer 2.5.0+win64 on 2022-12-07 at 00:23:14 UTC

; 

; external perimeters extrusion width = 1.00mm
; perimeters extrusion width = 1.00mm
; infill extrusion width = 1.00mm
; solid infill extrusion width = 1.00mm
; top infill extrusion width = 1.00mm
; support material extrusion width = 1.00mm
; first layer extrusion width = 0.42mm

M73 P0 R463
M107
;TYPE:Custom
G90 ; use absolute coordinates
M83 ; extruder relative mode
M140 S60 ; set final bed temp
M104 S150 ; set temporary nozzle temp to prevent oozing during homing and auto bed leveling
G4 S10 ; allow partial nozzle warmup
G28 ; home all axisG1 Z50 F240
G1 X7.6 Y10 F3000
M104 S210 ; set final nozzle temp
M190 S60 ; wait for bed temp to stabilize
M109 S210 ; wait for nozzle temp to stabilize
G1 Z0.28 F240
G92 E0
G1 Y140 E10 F1500 ; prime the nozzle
G1 X4 F5000
G92 E0
G1 Y10 E10 F1200 ; prime the nozzle
G92 E0
G21 ; set units to millimeters
G90 ; use absolute coordinates
M83 ; use relative distances for extrusion
; Filament gcode
M107
;LAYER_CHANGE
;Z:0.35
;HEIGHT:0.35
;BEFORE_LAYER_CHANGE
G92 E0
;0.35


G1 E-1 F3600
M73 P0 R462
G1 Z.35 F7800
;AFTER_LAYER_CHANGE
;0.35
G1 X24.49 Y14.704
G1 E1 F2400
;TYPE:Support material
;WIDTH:0.42
G1 F1800
G1 X21.49 Y14.704 E.15056
G1 X21.49 Y19.41 E.23616
G1 X65.595 Y19.41 E2.21345
G1 X65.595 Y22.802 E.17027
G1 X133.449 Y22.802 E3.40531
G1 X133.449 Y26.195 E.17027
G1 X168.689 Y26.195 E1.76855
G1 X168.689 Y23.195 E.15056
G1 X171.268 Y23.195 E.12947
G1 X171.268 Y167.876 E7.26092
G1 X8.732 Y167.876 E8.15705
G1 X8.732 Y12.124 E7.81652
G1 X24.49 Y12.124 E.79082
G1 X24.49 Y14.652 E.12687
G1 E-.7 F3600
;WIPE_START
G1 F6240
G1 X24.49 Y14.132 E-.285
;WIPE_END
G1 E-.015 F3600
G1 X170.857 Y167.72 F7800
G1 E1 F2400
G1 F1800
G1 X170.857 Y23.506 E7.23755
G1 X170.474 Y23.506 E.01923
G1 X170.474 Y167.565 E7.22977
G1 X170.091 Y167.565 E.01923
G1 X170.091 Y23.506 E7.22977
G1 X169.708 Y23.506 E.01923
G1 X169.708 Y167.565 E7.22977
G1 X169.324 Y167.565 E.01923
G1 X169.324 Y23.506 E7.22977
G1 X168.999 Y23.506 E.01634
G1 X168.999 Y26.506 E.15056
G1 X168.941 Y26.506 E.00289
G1 X168.941 Y167.565 E7.07921
G1 X168.558 Y167.565 E.01923
G1 X168.558 Y26.506 E7.07921
G1 X168.175 Y26.506 E.01923
M73 P0 R461
G1 X168.175 Y167.565 E7.07921
G1 X167.792 Y167.565 E.01923
G1 X167.792 Y26.506 E7.07921
G1 X167.408 Y26.506 E.01923
G1 X167.408 Y167.565 E7.07921
G1 X167.025 Y167.565 E.01923
G1 X167.025 Y26.506 E7.07921
G1 X166.642 Y26.506 E.01923
G1 X166.642 Y167.565 E7.07921
G1 X166.259 Y167.565 E.01923
G1 X166.259 Y26.506 E7.07921
G1 X165.876 Y26.506 E.01923
G1 X165.876 Y167.565 E7.07921
G1 X165.492 Y167.565 E.01923
G1 X165.492 Y26.506 E7.07921
G1 X165.109 Y26.506 E.01923
G1 X165.109 Y167.565 E7.07921
G1 X164.726 Y167.565 E.01923
G1 X164.726 Y26.506 E7.07921
G1 X164.343 Y26.506 E.01923
G1 X164.343 Y167.565 E7.07921
G1 X163.96 Y167.565 E.01923
G1 X163.96 Y26.506 E7.07921
G1 X163.576 Y26.506 E.01923
M73 P0 R460
G1 X163.576 Y167.565 E7.07921
G1 X163.193 Y167.565 E.01923
G1 X163.193 Y26.506 E7.07921
G1 X162.81 Y26.506 E.01923
G1 X162.81 Y167.565 E7.07921
G1 X162.427 Y167.565 E.01923
G1 X162.427 Y26.506 E7.07921
G1 X162.043 Y26.506 E.01923
G1 X162.043 Y167.565 E7.07921
G1 X161.66 Y167.565 E.01923
G1 X161.66 Y26.506 E7.07921
G1 X161.277 Y26.506 E.01923
G1 X161.277 Y167.565 E7.07921
G1 X160.894 Y167.565 E.01923
G1 X160.894 Y26.506 E7.07921
G1 X160.511 Y26.506 E.01923
G1 X160.511 Y167.565 E7.07921
G1 X160.127 Y167.565 E.01923
G1 X160.127 Y26.506 E7.07921
G1 X159.744 Y26.506 E.01923
G1 X159.744 Y167.565 E7.07921
G1 X159.361 Y167.565 E.01923
G1 X159.361 Y26.506 E7.07921
G1 X158.978 Y26.506 E.01923
G1 X158.978 Y167.565 E7.07921
G1 X158.595 Y167.565 E.01923
M73 P0 R459
G1 X158.595 Y26.506 E7.07921
G1 X158.211 Y26.506 E.01923
G1 X158.211 Y167.565 E7.07921
G1 X157.828 Y167.565 E.01923
G1 X157.828 Y26.506 E7.07921
G1 X157.445 Y26.506 E.01923
G1 X157.445 Y167.565 E7.07921
G1 X157.062 Y167.565 E.01923
G1 X157.062 Y26.506 E7.07921
G1 X156.679 Y26.506 E.01923
G1 X156.679 Y167.565 E7.07921
G1 X156.295 Y167.565 E.01923
G1 X156.295 Y26.506 E7.07921
G1 X155.912 Y26.506 E.01923
G1 X155.912 Y167.565 E7.07921
G1 X155.529 Y167.565 E.01923
G1 X155.529 Y26.506 E7.07921
G1 X155.146 Y26.506 E.01923
G1 X155.146 Y167.565 E7.07921
G1 X154.762 Y167.565 E.01923
G1 X154.762 Y26.506 E7.07921
G1 X154.379 Y26.506 E.01923
G1 X154.379 Y167.565 E7.07921
G1 X153.996 Y167.565 E.01923
G1 X153.996 Y26.506 E7.07921
G1 X153.613 Y26.506 E.01923
M73 P0 R458
G1 X153.613 Y167.565 E7.07921
G1 X153.23 Y167.565 E.01923
G1 X153.23 Y26.506 E7.07921
G1 X152.846 Y26.506 E.01923
G1 X152.846 Y167.565 E7.07921
G1 X152.463 Y167.565 E.01923
G1 X152.463 Y26.506 E7.07921
G1 X152.08 Y26.506 E.01923
G1 X152.08 Y167.565 E7.07921
G1 X151.697 Y167.565 E.01923
G1 X151.697 Y26.506 E7.07921
G1 X151.314 Y26.506 E.01923
M73 P1 R458
G1 X151.314 Y167.565 E7.07921
G1 X150.93 Y167.565 E.01923
G1 X150.93 Y26.506 E7.07921
G1 X150.547 Y26.506 E.01923
G1 X150.547 Y167.565 E7.07921
G1 X150.164 Y167.565 E.01923
G1 X150.164 Y26.506 E7.07921
G1 X149.781 Y26.506 E.01923
G1 X149.781 Y167.565 E7.07921
G1 X149.398 Y167.565 E.01923
G1 X149.398 Y26.506 E7.07921
G1 X149.014 Y26.506 E.01923
M73 P1 R457
G1 X149.014 Y167.565 E7.07921
G1 X148.631 Y167.565 E.01923
G1 X148.631 Y26.506 E7.07921
G1 X148.248 Y26.506 E.01923
G1 X148.248 Y167.565 E7.07921
G1 X147.865 Y167.565 E.01923
G1 X147.865 Y26.506 E7.07921
G1 X147.482 Y26.506 E.01923
G1 X147.481 Y167.565 E7.07921
G1 X147.098 Y167.565 E.01923
G1 X147.098 Y26.506 E7.07921
G1 X146.715 Y26.506 E.01923
G1 X146.715 Y167.565 E7.07921
G1 X146.332 Y167.565 E.01923
G1 X146.332 Y26.506 E7.07921
G1 X145.949 Y26.506 E.01923
G1 X145.949 Y167.565 E7.07921
G1 X145.565 Y167.565 E.01923
G1 X145.565 Y26.506 E7.07921
G1 X145.182 Y26.506 E.01923
G1 X145.182 Y167.565 E7.07921
G1 X144.799 Y167.565 E.01923
G1 X144.799 Y26.506 E7.07921
G1 X144.416 Y26.506 E.01923
G1 X144.416 Y167.565 E7.07921
G1 X144.033 Y167.565 E.01923
M73 P1 R456
G1 X144.033 Y26.506 E7.07921
G1 X143.649 Y26.506 E.01923
G1 X143.649 Y167.565 E7.07921
G1 X143.266 Y167.565 E.01923
G1 X143.266 Y26.506 E7.07921
G1 X142.883 Y26.506 E.01923
G1 X142.883 Y167.565 E7.07921
G1 X142.5 Y167.565 E.01923
G1 X142.5 Y26.506 E7.07921
G1 X142.117 Y26.506 E.01923
G1 X142.117 Y167.565 E7.07921
G1 X141.733 Y167.565 E.01923
G1 X141.733 Y26.506 E7.07921
G1 X141.35 Y26.506 E.01923
G1 X141.35 Y167.565 E7.07921
G1 X140.967 Y167.565 E.01923
G1 X140.967 Y26.506 E7.07921
G1 X140.584 Y26.506 E.01923
G1 X140.584 Y167.565 E7.07921
G1 X140.201 Y167.565 E.01923
G1 X140.201 Y26.506 E7.07921
G1 X139.817 Y26.506 E.01923
G1 X139.817 Y167.565 E7.07921
G1 X139.434 Y167.565 E.01923
M73 P1 R455
G1 X139.434 Y26.506 E7.07921
G1 X139.051 Y26.506 E.01923
G1 X139.051 Y167.565 E7.07921
G1 X138.668 Y167.565 E.01923
G1 X138.668 Y26.506 E7.07921
G1 X138.284 Y26.506 E.01923
G1 X138.284 Y167.565 E7.07921
G1 X137.901 Y167.565 E.01923
G1 X137.901 Y26.506 E7.07921
G1 X137.518 Y26.506 E.01923
G1 X137.518 Y167.565 E7.07921
G1 X137.135 Y167.565 E.01923
G1 X137.135 Y26.506 E7.07921
G1 X136.752 Y26.506 E.01923
G1 X136.752 Y167.565 E7.07921
G1 X136.368 Y167.565 E.01923
G1 X136.368 Y26.506 E7.07921
G1 X135.985 Y26.506 E.01923
G1 X135.985 Y167.565 E7.07921
G1 X135.602 Y167.565 E.01923
G1 X135.602 Y26.506 E7.07921
G1 X135.219 Y26.506 E.01923
G1 X135.219 Y167.565 E7.07921
G1 X134.836 Y167.565 E.01923
G1 X134.836 Y26.506 E7.07921
G1 X134.452 Y26.506 E.01923
M73 P1 R454
G1 X134.452 Y167.565 E7.07921
G1 X134.069 Y167.565 E.01923
G1 X134.069 Y26.506 E7.07921
G1 X133.686 Y26.506 E.01923
G1 X133.686 Y167.565 E7.07921
G1 X133.303 Y167.565 E.01923
G1 X133.303 Y26.506 E7.07921
G1 X133.138 Y26.506 E.00826
G1 X133.138 Y23.113 E.17027
G1 X132.92 Y23.113 E.01098
G1 X132.92 Y167.565 E7.24947
G1 X132.536 Y167.565 E.01923
G1 X132.536 Y23.113 E7.24947
G1 X132.153 Y23.113 E.01923
G1 X132.153 Y167.565 E7.24947
G1 X131.77 Y167.565 E.01923
G1 X131.77 Y23.113 E7.24947
G1 X131.387 Y23.113 E.01923
G1 X131.387 Y167.565 E7.24947
G1 X131.003 Y167.565 E.01923
G1 X131.003 Y23.113 E7.24947
G1 X130.62 Y23.113 E.01923
G1 X130.62 Y167.565 E7.24947
G1 X130.237 Y167.565 E.01923
G1 X130.237 Y23.113 E7.24947
G1 X129.854 Y23.113 E.01923
M73 P1 R453
G1 X129.854 Y167.565 E7.24947
G1 X129.471 Y167.565 E.01923
G1 X129.471 Y23.113 E7.24947
G1 X129.087 Y23.113 E.01923
M73 P2 R453
G1 X129.087 Y167.565 E7.24947
G1 X128.704 Y167.565 E.01923
G1 X128.704 Y23.113 E7.24947
G1 X128.321 Y23.113 E.01923
G1 X128.321 Y167.565 E7.24947
G1 X127.938 Y167.565 E.01923
G1 X127.938 Y23.113 E7.24947
G1 X127.555 Y23.113 E.01923
G1 X127.555 Y167.565 E7.24947
G1 X127.171 Y167.565 E.01923
G1 X127.171 Y23.113 E7.24947
G1 X126.788 Y23.113 E.01923
G1 X126.788 Y167.565 E7.24947
G1 X126.405 Y167.565 E.01923
G1 X126.405 Y23.113 E7.24947
G1 X126.022 Y23.113 E.01923
G1 X126.022 Y167.565 E7.24947
G1 X125.639 Y167.565 E.01923
G1 X125.639 Y23.113 E7.24947
G1 X125.255 Y23.113 E.01923
G1 X125.255 Y167.565 E7.24947
G1 X124.872 Y167.565 E.01923
M73 P2 R452
G1 X124.872 Y23.113 E7.24947
G1 X124.489 Y23.113 E.01923
G1 X124.489 Y167.565 E7.24947
G1 X124.106 Y167.565 E.01923
G1 X124.106 Y23.113 E7.24947
G1 X123.722 Y23.113 E.01923
G1 X123.722 Y167.565 E7.24947
G1 X123.339 Y167.565 E.01923
G1 X123.339 Y23.113 E7.24947
G1 X122.956 Y23.113 E.01923
G1 X122.956 Y167.565 E7.24947
G1 X122.573 Y167.565 E.01923
G1 X122.573 Y23.113 E7.24947
G1 X122.19 Y23.113 E.01923
G1 X122.19 Y167.565 E7.24947
G1 X121.806 Y167.565 E.01923
G1 X121.806 Y23.113 E7.24947
G1 X121.423 Y23.113 E.01923
G1 X121.423 Y167.565 E7.24947
G1 X121.04 Y167.565 E.01923
G1 X121.04 Y23.113 E7.24947
G1 X120.657 Y23.113 E.01923
G1 X120.657 Y167.565 E7.24947
G1 X120.274 Y167.565 E.01923
M73 P2 R451
G1 X120.274 Y23.113 E7.24947
G1 X119.89 Y23.113 E.01923
G1 X119.89 Y167.565 E7.24947
G1 X119.507 Y167.565 E.01923
G1 X119.507 Y23.113 E7.24947
G1 X119.124 Y23.113 E.01923
G1 X119.124 Y167.565 E7.24947
G1 X118.741 Y167.565 E.01923
G1 X118.741 Y23.113 E7.24947
G1 X118.358 Y23.113 E.01923
G1 X118.358 Y167.565 E7.24947
G1 X117.974 Y167.565 E.01923
G1 X117.974 Y23.113 E7.24947
G1 X117.591 Y23.113 E.01923
G1 X117.591 Y167.565 E7.24947
G1 X117.208 Y167.565 E.01923
G1 X117.208 Y23.113 E7.24947
G1 X116.825 Y23.113 E.01923
G1 X116.825 Y167.565 E7.24947
G1 X116.441 Y167.565 E.01923
G1 X116.441 Y23.113 E7.24947
G1 X116.058 Y23.113 E.01923
G1 X116.058 Y167.565 E7.24947
G1 X115.675 Y167.565 E.01923
M73 P2 R450
G1 X115.675 Y23.113 E7.24947
G1 X115.292 Y23.113 E.01923
G1 X115.292 Y167.565 E7.24947
G1 X114.909 Y167.565 E.01923
G1 X114.909 Y23.113 E7.24947
G1 X114.525 Y23.113 E.01923
G1 X114.525 Y167.565 E7.24947
G1 X114.142 Y167.565 E.01923
G1 X114.142 Y23.113 E7.24947
G1 X113.759 Y23.113 E.01923
G1 X113.759 Y167.565 E7.24947
G1 X113.376 Y167.565 E.01923
G1 X113.376 Y23.113 E7.24947
G1 X112.993 Y23.113 E.01923
G1 X112.993 Y167.565 E7.24947
G1 X112.609 Y167.565 E.01923
G1 X112.609 Y23.113 E7.24947
G1 X112.226 Y23.113 E.01923
G1 X112.226 Y167.565 E7.24947
G1 X111.843 Y167.565 E.01923
G1 X111.843 Y23.113 E7.24947
G1 X111.46 Y23.113 E.01923
G1 X111.46 Y167.565 E7.24947
G1 X111.077 Y167.565 E.01923
G1 X111.077 Y23.113 E7.24947
G1 X110.693 Y23.113 E.01923
M73 P2 R449
G1 X110.693 Y167.565 E7.24947
G1 X110.31 Y167.565 E.01923
G1 X110.31 Y23.113 E7.24947
G1 X109.927 Y23.113 E.01923
G1 X109.927 Y167.565 E7.24947
G1 X109.544 Y167.565 E.01923
G1 X109.544 Y23.113 E7.24947
G1 X109.161 Y23.113 E.01923
G1 X109.16 Y167.565 E7.24947
G1 X108.777 Y167.565 E.01923
G1 X108.777 Y23.113 E7.24947
G1 X108.394 Y23.113 E.01923
G1 X108.394 Y167.565 E7.24947
G1 X108.011 Y167.565 E.01923
G1 X108.011 Y23.113 E7.24947
G1 X107.628 Y23.113 E.01923
G1 X107.628 Y167.565 E7.24947
G1 X107.244 Y167.565 E.01923
M73 P3 R449
G1 X107.244 Y23.113 E7.24947
G1 X106.861 Y23.113 E.01923
G1 X106.861 Y167.565 E7.24947
G1 X106.478 Y167.565 E.01923
G1 X106.478 Y23.113 E7.24947
G1 X106.095 Y23.113 E.01923
M73 P3 R448
G1 X106.095 Y167.565 E7.24947
G1 X105.712 Y167.565 E.01923
G1 X105.712 Y23.113 E7.24947
G1 X105.328 Y23.113 E.01923
G1 X105.328 Y167.565 E7.24947
G1 X104.945 Y167.565 E.01923
G1 X104.945 Y23.113 E7.24947
G1 X104.562 Y23.113 E.01923
G1 X104.562 Y167.565 E7.24947
G1 X104.179 Y167.565 E.01923
G1 X104.179 Y23.113 E7.24947
G1 X103.796 Y23.113 E.01923
G1 X103.796 Y167.565 E7.24947
G1 X103.412 Y167.565 E.01923
G1 X103.412 Y23.113 E7.24947
G1 X103.029 Y23.113 E.01923
G1 X103.029 Y167.565 E7.24947
G1 X102.646 Y167.565 E.01923
G1 X102.646 Y23.113 E7.24947
G1 X102.263 Y23.113 E.01923
G1 X102.263 Y167.565 E7.24947
G1 X101.88 Y167.565 E.01923
G1 X101.88 Y23.113 E7.24947
G1 X101.496 Y23.113 E.01923
M73 P3 R447
G1 X101.496 Y167.565 E7.24947
G1 X101.113 Y167.565 E.01923
G1 X101.113 Y23.113 E7.24947
G1 X100.73 Y23.113 E.01923
G1 X100.73 Y167.565 E7.24947
G1 X100.347 Y167.565 E.01923
G1 X100.347 Y23.113 E7.24947
G1 X99.963 Y23.113 E.01923
G1 X99.963 Y167.565 E7.24947
G1 X99.58 Y167.565 E.01923
G1 X99.58 Y23.113 E7.24947
G1 X99.197 Y23.113 E.01923
G1 X99.197 Y167.565 E7.24947
G1 X98.814 Y167.565 E.01923
G1 X98.814 Y23.113 E7.24947
G1 X98.431 Y23.113 E.01923
G1 X98.431 Y167.565 E7.24947
G1 X98.047 Y167.565 E.01923
G1 X98.047 Y23.113 E7.24947
G1 X97.664 Y23.113 E.01923
G1 X97.664 Y167.565 E7.24947
G1 X97.281 Y167.565 E.01923
G1 X97.281 Y23.113 E7.24947
G1 X96.898 Y23.113 E.01923
M73 P3 R446
G1 X96.898 Y167.565 E7.24947
G1 X96.515 Y167.565 E.01923
G1 X96.515 Y23.113 E7.24947
G1 X96.131 Y23.113 E.01923
G1 X96.131 Y167.565 E7.24947
G1 X95.748 Y167.565 E.01923
G1 X95.748 Y23.113 E7.24947
G1 X95.365 Y23.113 E.01923
G1 X95.365 Y167.565 E7.24947
G1 X94.982 Y167.565 E.01923
G1 X94.982 Y23.113 E7.24947
G1 X94.599 Y23.113 E.01923
G1 X94.599 Y167.565 E7.24947
G1 X94.215 Y167.565 E.01923
G1 X94.215 Y23.113 E7.24947
G1 X93.832 Y23.113 E.01923
G1 X93.832 Y167.565 E7.24947
G1 X93.449 Y167.565 E.01923
G1 X93.449 Y23.113 E7.24947
G1 X93.066 Y23.113 E.01923
G1 X93.066 Y167.565 E7.24947
G1 X92.682 Y167.565 E.01923
G1 X92.682 Y23.113 E7.24947
G1 X92.299 Y23.113 E.01923
G1 X92.299 Y167.565 E7.24947
G1 X91.916 Y167.565 E.01923
M73 P3 R445
G1 X91.916 Y23.113 E7.24947
G1 X91.533 Y23.113 E.01923
G1 X91.533 Y167.565 E7.24947
G1 X91.15 Y167.565 E.01923
G1 X91.15 Y23.113 E7.24947
G1 X90.766 Y23.113 E.01923
G1 X90.766 Y167.565 E7.24947
G1 X90.383 Y167.565 E.01923
G1 X90.383 Y23.113 E7.24947
G1 X90 Y23.113 E.01923
G1 X90 Y167.565 E7.24947
G1 X89.617 Y167.565 E.01923
G1 X89.617 Y23.113 E7.24947
G1 X89.234 Y23.113 E.01923
G1 X89.234 Y167.565 E7.24947
G1 X88.85 Y167.565 E.01923
G1 X88.85 Y23.113 E7.24947
G1 X88.467 Y23.113 E.01923
G1 X88.467 Y167.565 E7.24947
G1 X88.084 Y167.565 E.01923
G1 X88.084 Y23.113 E7.24947
G1 X87.701 Y23.113 E.01923
G1 X87.701 Y167.565 E7.24947
G1 X87.318 Y167.565 E.01923
M73 P3 R444
G1 X87.318 Y23.113 E7.24947
G1 X86.934 Y23.113 E.01923
G1 X86.934 Y167.565 E7.24947
G1 X86.551 Y167.565 E.01923
G1 X86.551 Y23.113 E7.24947
G1 X86.168 Y23.113 E.01923
G1 X86.168 Y167.565 E7.24947
G1 X85.785 Y167.565 E.01923
G1 X85.785 Y23.113 E7.24947
G1 X85.401 Y23.113 E.01923
M73 P4 R444
G1 X85.401 Y167.565 E7.24947
G1 X85.018 Y167.565 E.01923
G1 X85.018 Y23.113 E7.24947
G1 X84.635 Y23.113 E.01923
G1 X84.635 Y167.565 E7.24947
G1 X84.252 Y167.565 E.01923
G1 X84.252 Y23.113 E7.24947
G1 X83.869 Y23.113 E.01923
G1 X83.869 Y167.565 E7.24947
G1 X83.485 Y167.565 E.01923
G1 X83.485 Y23.113 E7.24947
G1 X83.102 Y23.113 E.01923
G1 X83.102 Y167.565 E7.24947
G1 X82.719 Y167.565 E.01923
M73 P4 R443
G1 X82.719 Y23.113 E7.24947
G1 X82.336 Y23.113 E.01923
G1 X82.336 Y167.565 E7.24947
G1 X81.953 Y167.565 E.01923
G1 X81.953 Y23.113 E7.24947
G1 X81.569 Y23.113 E.01923
G1 X81.569 Y167.565 E7.24947
G1 X81.186 Y167.565 E.01923
G1 X81.186 Y23.113 E7.24947
G1 X80.803 Y23.113 E.01923
G1 X80.803 Y167.565 E7.24947
G1 X80.42 Y167.565 E.01923
G1 X80.42 Y23.113 E7.24947
G1 X80.037 Y23.113 E.01923
G1 X80.037 Y167.565 E7.24947
G1 X79.653 Y167.565 E.01923
G1 X79.653 Y23.113 E7.24947
G1 X79.27 Y23.113 E.01923
G1 X79.27 Y167.565 E7.24947
G1 X78.887 Y167.565 E.01923
G1 X78.887 Y23.113 E7.24947
G1 X78.504 Y23.113 E.01923
G1 X78.504 Y167.565 E7.24947
G1 X78.12 Y167.565 E.01923
