; generated by PrusaSlicer 2.5.0+win64 on 2022-12-07 at 00:23:02 UTC

; 

; external perimeters extrusion width = 1.00mm
; perimeters extrusion width = 1.00mm
; infill extrusion width = 1.00mm
; solid infill extrusion width = 1.00mm
; top infill extrusion width = 1.00mm
; support material extrusion width = 1.00mm
; first layer extrusion width = 0.42mm

M73 P0 R73
M107
;TYPE:Custom
G90 ; use absolute coordinates
M83 ; extruder relative mode
M140 S60 ; set final bed temp
M104 S150 ; set temporary nozzle temp to prevent oozing during homing and auto bed leveling
G4 S10 ; allow partial nozzle warmup
G28 ; home all axisG1 Z50 F240
G1 X7.6 Y10 F3000
M104 S210 ; set final nozzle temp
M190 S60 ; wait for bed temp to stabilize
M109 S210 ; wait for nozzle temp to stabilize
G1 Z0.28 F240
G92 E0
G1 Y140 E10 F1500 ; prime the nozzle
G1 X4 F5000
G92 E0
M73 P0 R72
G1 Y10 E10 F1200 ; prime the nozzle
G92 E0
G21 ; set units to millimeters
G90 ; use absolute coordinates
M83 ; use relative distances for extrusion
; Filament gcode
M107
;LAYER_CHANGE
;Z:0.35
;HEIGHT:0.35
;BEFORE_LAYER_CHANGE
G92 E0
;0.35


G1 E-1 F3600
G1 Z.35 F7800
;AFTER_LAYER_CHANGE
;0.35
G1 X14.526 Y65.387
G1 E1 F2400
;TYPE:Perimeter
;WIDTH:0.42
G1 F1800
G1 X20.169 Y65.477 E.28324
G1 X165.474 Y63.754 E7.29277
G1 X165.474 Y82.055 E.91845
G1 X14.526 Y83.834 E7.57599
G1 X14.526 Y65.537 E.91824
G1 X14.181 Y65.037 F7800
;TYPE:External perimeter
G1 F1800
G1 X20.165 Y65.132 E.30035
G1 X165.819 Y63.405 E7.31029
G1 X165.819 Y82.396 E.95307
G1 X14.181 Y84.183 E7.61061
G1 X14.181 Y65.187 E.95334
G1 X15.18 Y65.086 F7800
G1 E-.7 F3600
;WIPE_START
G1 F6240
G1 X14.701 Y65.182 E-.285
;WIPE_END
G1 E-.015 F3600
G1 X165.371 Y64.558 F7800
G1 E1 F2400
;TYPE:Solid infill
;WIDTH:0.420927
G1 F1800
G1 X164.833 Y64.02 E.03824
G1 X164.35 Y64.026 E.02432
G1 X165.215 Y64.892 E.06159
G1 X165.215 Y65.381 E.02461
G1 X163.867 Y64.032 E.09599
G1 X163.383 Y64.038 E.02432
G1 X165.215 Y65.87 E.13038
G1 X165.215 Y66.359 E.02461
G1 X162.9 Y64.043 E.16478
G1 X162.417 Y64.049 E.02432
G1 X165.215 Y66.848 E.19918
G1 X165.215 Y67.337 E.02461
G1 X161.933 Y64.055 E.23357
G1 X161.45 Y64.061 E.02432
G1 X165.215 Y67.826 E.26797
G1 X165.215 Y68.315 E.02461
G1 X160.967 Y64.066 E.30236
G1 X160.483 Y64.072 E.02432
G1 X165.215 Y68.804 E.33676
G1 X165.215 Y69.293 E.02461
G1 X160 Y64.078 E.37115
G1 X159.517 Y64.084 E.02432
G1 X165.215 Y69.782 E.40555
G1 X165.215 Y70.271 E.02461
G1 X159.033 Y64.089 E.43994
G1 X158.55 Y64.095 E.02432
G1 X165.215 Y70.76 E.47434
G1 X165.215 Y71.249 E.02461
G1 X158.067 Y64.101 E.50874
G1 X157.583 Y64.106 E.02432
G1 X165.215 Y71.739 E.54313
G1 X165.215 Y72.228 E.02461
G1 X157.1 Y64.112 E.57753
G1 X156.617 Y64.118 E.02432
G1 X165.215 Y72.717 E.61192
G1 X165.215 Y73.206 E.02461
G1 X156.133 Y64.124 E.64632
G1 X155.65 Y64.129 E.02432
G1 X165.215 Y73.695 E.68071
G1 X165.215 Y74.184 E.02461
G1 X155.167 Y64.135 E.71511
G1 X154.683 Y64.141 E.02432
M73 P1 R72
G1 X165.215 Y74.673 E.7495
G1 X165.215 Y75.162 E.02461
G1 X154.2 Y64.147 E.7839
G1 X153.717 Y64.152 E.02432
G1 X165.215 Y75.651 E.8183
G1 X165.215 Y76.14 E.02461
G1 X153.233 Y64.158 E.85269
G1 X152.75 Y64.164 E.02432
G1 X165.215 Y76.629 E.88709
G1 X165.215 Y77.118 E.02461
G1 X152.267 Y64.169 E.92148
G1 X151.783 Y64.175 E.02432
G1 X165.215 Y77.607 E.95588
G1 X165.215 Y78.096 E.02461
G1 X151.3 Y64.181 E.99027
G1 X150.817 Y64.187 E.02432
G1 X165.215 Y78.585 E1.02467
G1 X165.215 Y79.074 E.02461
G1 X150.333 Y64.192 E1.05906
G1 X149.85 Y64.198 E.02432
G1 X165.215 Y79.563 E1.09346
G1 X165.215 Y80.052 E.02461
G1 X149.367 Y64.204 E1.12786
G1 X148.884 Y64.21 E.02432
G1 X165.215 Y80.542 E1.16225
G1 X165.215 Y81.031 E.02461
G1 X148.4 Y64.215 E1.19665
G1 X147.917 Y64.221 E.02432
G1 X165.215 Y81.52 E1.23104
G1 X165.215 Y81.8 E.01409
G1 X165.009 Y81.802 E.0104
G1 X147.434 Y64.227 E1.25073
G1 X146.95 Y64.233 E.02432
G1 X164.525 Y81.808 E1.25073
G1 X164.042 Y81.813 E.02432
G1 X146.467 Y64.238 E1.25072
G1 X145.984 Y64.244 E.02432
G1 X163.559 Y81.819 E1.25072
G1 X163.075 Y81.825 E.02432
G1 X145.5 Y64.25 E1.25072
G1 X145.017 Y64.255 E.02432
G1 X162.592 Y81.831 E1.25072
G1 X162.109 Y81.836 E.02432
G1 X144.534 Y64.261 E1.25071
G1 X144.05 Y64.267 E.02432
G1 X161.625 Y81.842 E1.25071
G1 X161.142 Y81.848 E.02432
G1 X143.567 Y64.273 E1.25071
G1 X143.084 Y64.278 E.02432
M73 P1 R71
G1 X160.658 Y81.853 E1.25071
G1 X160.175 Y81.859 E.02432
G1 X142.6 Y64.284 E1.2507
G1 X142.117 Y64.29 E.02432
G1 X159.692 Y81.865 E1.2507
G1 X159.208 Y81.87 E.02432
G1 X141.634 Y64.296 E1.2507
G1 X141.15 Y64.301 E.02432
G1 X158.725 Y81.876 E1.2507
G1 X158.242 Y81.882 E.02432
G1 X140.667 Y64.307 E1.25069
G1 X140.184 Y64.313 E.02432
G1 X157.758 Y81.887 E1.25069
G1 X157.275 Y81.893 E.02432
G1 X139.7 Y64.319 E1.25069
G1 X139.217 Y64.324 E.02432
G1 X156.792 Y81.899 E1.25069
G1 X156.308 Y81.905 E.02432
G1 X138.734 Y64.33 E1.25068
G1 X138.25 Y64.336 E.02432
G1 X155.825 Y81.91 E1.25068
G1 X155.342 Y81.916 E.02432
G1 X137.767 Y64.341 E1.25068
G1 X137.284 Y64.347 E.02432
G1 X154.858 Y81.922 E1.25068
G1 X154.375 Y81.927 E.02432
G1 X136.8 Y64.353 E1.25067
G1 X136.317 Y64.359 E.02432
G1 X153.891 Y81.933 E1.25067
G1 X153.408 Y81.939 E.02432
G1 X135.834 Y64.364 E1.25067
G1 X135.35 Y64.37 E.02432
G1 X152.925 Y81.944 E1.25067
G1 X152.441 Y81.95 E.02432
G1 X134.867 Y64.376 E1.25066
G1 X134.384 Y64.382 E.02432
G1 X151.958 Y81.956 E1.25066
G1 X151.475 Y81.962 E.02432
G1 X133.9 Y64.387 E1.25066
G1 X133.417 Y64.393 E.02432
G1 X150.991 Y81.967 E1.25066
G1 X150.508 Y81.973 E.02432
G1 X132.934 Y64.399 E1.25065
G1 X132.45 Y64.404 E.02432
G1 X150.025 Y81.979 E1.25065
G1 X149.541 Y81.984 E.02432
G1 X131.967 Y64.41 E1.25065
G1 X131.484 Y64.416 E.02432
G1 X149.058 Y81.99 E1.25065
G1 X148.574 Y81.996 E.02432
G1 X131 Y64.422 E1.25064
G1 X130.517 Y64.427 E.02432
G1 X148.091 Y82.001 E1.25064
G1 X147.608 Y82.007 E.02432
G1 X130.034 Y64.433 E1.25064
G1 X129.55 Y64.439 E.02432
M73 P2 R71
G1 X147.124 Y82.013 E1.25064
G1 X146.641 Y82.018 E.02432
G1 X129.067 Y64.445 E1.25063
G1 X128.584 Y64.45 E.02432
G1 X146.158 Y82.024 E1.25063
G1 X145.674 Y82.03 E.02432
G1 X128.1 Y64.456 E1.25063
G1 X127.617 Y64.462 E.02432
G1 X145.191 Y82.036 E1.25063
G1 X144.708 Y82.041 E.02432
G1 X127.134 Y64.468 E1.25062
G1 X126.651 Y64.473 E.02432
G1 X144.224 Y82.047 E1.25062
G1 X143.741 Y82.053 E.02432
G1 X126.167 Y64.479 E1.25062
G1 X125.684 Y64.485 E.02432
G1 X143.258 Y82.058 E1.25062
G1 X142.774 Y82.064 E.02432
G1 X125.201 Y64.49 E1.25061
G1 X124.717 Y64.496 E.02432
G1 X142.291 Y82.07 E1.25061
G1 X141.807 Y82.075 E.02432
G1 X124.234 Y64.502 E1.25061
G1 X123.751 Y64.508 E.02432
G1 X141.324 Y82.081 E1.25061
G1 X140.841 Y82.087 E.02432
G1 X123.267 Y64.513 E1.2506
G1 X122.784 Y64.519 E.02432
G1 X140.357 Y82.093 E1.2506
G1 X139.874 Y82.098 E.02432
G1 X122.301 Y64.525 E1.2506
G1 X121.817 Y64.531 E.02432
G1 X139.391 Y82.104 E1.2506
G1 X138.907 Y82.11 E.02432
G1 X121.334 Y64.536 E1.25059
G1 X120.851 Y64.542 E.02432
G1 X138.424 Y82.115 E1.25059
G1 X137.941 Y82.121 E.02432
G1 X120.367 Y64.548 E1.25059
G1 X119.884 Y64.553 E.02432
G1 X137.457 Y82.127 E1.25059
G1 X136.974 Y82.132 E.02432
G1 X119.401 Y64.559 E1.25058
G1 X118.917 Y64.565 E.02432
G1 X136.49 Y82.138 E1.25058
G1 X136.007 Y82.144 E.02432
G1 X118.434 Y64.571 E1.25058
G1 X117.951 Y64.576 E.02432
G1 X135.524 Y82.15 E1.25058
G1 X135.04 Y82.155 E.02432
G1 X117.467 Y64.582 E1.25057
G1 X116.984 Y64.588 E.02432
G1 X134.557 Y82.161 E1.25057
G1 X134.074 Y82.167 E.02432
G1 X116.501 Y64.594 E1.25057
G1 X116.017 Y64.599 E.02432
G1 X133.59 Y82.172 E1.25057
G1 X133.107 Y82.178 E.02432
G1 X115.534 Y64.605 E1.25056
G1 X115.051 Y64.611 E.02432
G1 X132.624 Y82.184 E1.25056
G1 X132.14 Y82.189 E.02432
G1 X114.567 Y64.617 E1.25056
G1 X114.084 Y64.622 E.02432
G1 X131.657 Y82.195 E1.25056
G1 X131.173 Y82.201 E.02432
G1 X113.601 Y64.628 E1.25055
G1 X113.117 Y64.634 E.02432
G1 X130.69 Y82.206 E1.25055
G1 X130.207 Y82.212 E.02432
G1 X112.634 Y64.639 E1.25055
G1 X112.151 Y64.645 E.02432
G1 X129.723 Y82.218 E1.25055
G1 X129.24 Y82.224 E.02432
G1 X111.667 Y64.651 E1.25054
G1 X111.184 Y64.657 E.02432
G1 X128.757 Y82.229 E1.25054
G1 X128.273 Y82.235 E.02432
M73 P2 R70
G1 X110.701 Y64.662 E1.25054
G1 X110.217 Y64.668 E.02432
G1 X127.79 Y82.241 E1.25054
G1 X127.307 Y82.246 E.02432
G1 X109.734 Y64.674 E1.25053
G1 X109.251 Y64.68 E.02432
G1 X126.823 Y82.252 E1.25053
G1 X126.34 Y82.258 E.02432
G1 X108.767 Y64.685 E1.25053
G1 X108.284 Y64.691 E.02432
G1 X125.857 Y82.263 E1.25053
G1 X125.373 Y82.269 E.02432
G1 X107.801 Y64.697 E1.25053
G1 X107.317 Y64.703 E.02432
G1 X124.89 Y82.275 E1.25052
G1 X124.406 Y82.281 E.02432
G1 X106.834 Y64.708 E1.25052
G1 X106.351 Y64.714 E.02432
G1 X123.923 Y82.286 E1.25052
G1 X123.44 Y82.292 E.02432
M73 P3 R70
G1 X105.867 Y64.72 E1.25052
G1 X105.384 Y64.725 E.02432
G1 X122.956 Y82.298 E1.25051
G1 X122.473 Y82.303 E.02432
G1 X104.901 Y64.731 E1.25051
G1 X104.417 Y64.737 E.02432
G1 X121.99 Y82.309 E1.25051
G1 X121.506 Y82.315 E.02432
G1 X103.934 Y64.743 E1.25051
G1 X103.451 Y64.748 E.02432
G1 X121.023 Y82.32 E1.2505
G1 X120.54 Y82.326 E.02432
G1 X102.968 Y64.754 E1.2505
G1 X102.484 Y64.76 E.02432
G1 X120.056 Y82.332 E1.2505
G1 X119.573 Y82.338 E.02432
G1 X102.001 Y64.766 E1.2505
G1 X101.518 Y64.771 E.02432
G1 X119.089 Y82.343 E1.25049
G1 X118.606 Y82.349 E.02432
G1 X101.034 Y64.777 E1.25049
G1 X100.551 Y64.783 E.02432
G1 X118.123 Y82.355 E1.25049
G1 X117.639 Y82.36 E.02432
G1 X100.068 Y64.788 E1.25049
G1 X99.584 Y64.794 E.02432
G1 X117.156 Y82.366 E1.25048
G1 X116.673 Y82.372 E.02432
G1 X99.101 Y64.8 E1.25048
G1 X98.618 Y64.806 E.02432
G1 X116.189 Y82.377 E1.25048
G1 X115.706 Y82.383 E.02432
G1 X98.134 Y64.811 E1.25048
G1 X97.651 Y64.817 E.02432
G1 X115.223 Y82.389 E1.25047
G1 X114.739 Y82.394 E.02432
G1 X97.168 Y64.823 E1.25047
G1 X96.684 Y64.829 E.02432
G1 X114.256 Y82.4 E1.25047
G1 X113.772 Y82.406 E.02432
G1 X96.201 Y64.834 E1.25047
G1 X95.718 Y64.84 E.02432
G1 X113.289 Y82.412 E1.25046
G1 X112.806 Y82.417 E.02432
G1 X95.234 Y64.846 E1.25046
G1 X94.751 Y64.852 E.02432
G1 X112.322 Y82.423 E1.25046
G1 X111.839 Y82.429 E.02432
G1 X94.268 Y64.857 E1.25046
G1 X93.784 Y64.863 E.02432
G1 X111.356 Y82.434 E1.25045
G1 X110.872 Y82.44 E.02432
G1 X93.301 Y64.869 E1.25045
G1 X92.818 Y64.874 E.02432
G1 X110.389 Y82.446 E1.25045
G1 X109.906 Y82.451 E.02432
G1 X92.334 Y64.88 E1.25045
G1 X91.851 Y64.886 E.02432
G1 X109.422 Y82.457 E1.25044
G1 X108.939 Y82.463 E.02432
G1 X91.368 Y64.892 E1.25044
G1 X90.884 Y64.897 E.02432
G1 X108.456 Y82.469 E1.25044
G1 X107.972 Y82.474 E.02432
G1 X90.401 Y64.903 E1.25044
G1 X89.918 Y64.909 E.02432
G1 X107.489 Y82.48 E1.25043
G1 X107.005 Y82.486 E.02432
G1 X89.434 Y64.915 E1.25043
G1 X88.951 Y64.92 E.02432
G1 X106.522 Y82.491 E1.25043
G1 X106.039 Y82.497 E.02432
G1 X88.468 Y64.926 E1.25043
G1 X87.984 Y64.932 E.02432
G1 X105.555 Y82.503 E1.25042
G1 X105.072 Y82.508 E.02432
G1 X87.501 Y64.938 E1.25042
G1 X87.018 Y64.943 E.02432
G1 X104.589 Y82.514 E1.25042
G1 X104.105 Y82.52 E.02432
G1 X86.534 Y64.949 E1.25042
G1 X86.051 Y64.955 E.02432
G1 X103.622 Y82.526 E1.25041
G1 X103.139 Y82.531 E.02432
G1 X85.568 Y64.96 E1.25041
G1 X85.084 Y64.966 E.02432
G1 X102.655 Y82.537 E1.25041
G1 X102.172 Y82.543 E.02432
G1 X84.601 Y64.972 E1.25041
G1 X84.118 Y64.978 E.02432
G1 X101.688 Y82.548 E1.2504
G1 X101.205 Y82.554 E.02432
G1 X83.634 Y64.983 E1.2504
G1 X83.151 Y64.989 E.02432
G1 X100.722 Y82.56 E1.2504
G1 X100.238 Y82.565 E.02432
G1 X82.668 Y64.995 E1.2504
G1 X82.184 Y65.001 E.02432
G1 X99.755 Y82.571 E1.25039
G1 X99.272 Y82.577 E.02432
M73 P4 R70
G1 X81.701 Y65.006 E1.25039
G1 X81.218 Y65.012 E.02432
G1 X98.788 Y82.582 E1.25039
G1 X98.305 Y82.588 E.02432
G1 X80.735 Y65.018 E1.25039
G1 X80.251 Y65.023 E.02432
G1 X97.822 Y82.594 E1.25038
G1 X97.338 Y82.6 E.02432
G1 X79.768 Y65.029 E1.25038
G1 X79.285 Y65.035 E.02432
G1 X96.855 Y82.605 E1.25038
G1 X96.371 Y82.611 E.02432
G1 X78.801 Y65.041 E1.25038
G1 X78.318 Y65.046 E.02432
G1 X95.888 Y82.617 E1.25037
G1 X95.405 Y82.622 E.02432
M73 P4 R69
G1 X77.835 Y65.052 E1.25037
G1 X77.351 Y65.058 E.02432
G1 X94.921 Y82.628 E1.25037
G1 X94.438 Y82.634 E.02432
G1 X76.868 Y65.064 E1.25037
G1 X76.385 Y65.069 E.02432
G1 X93.955 Y82.639 E1.25036
G1 X93.471 Y82.645 E.02432
G1 X75.901 Y65.075 E1.25036
G1 X75.418 Y65.081 E.02432
G1 X92.988 Y82.651 E1.25036
G1 X92.505 Y82.657 E.02432
G1 X74.935 Y65.087 E1.25036
G1 X74.451 Y65.092 E.02432
G1 X92.021 Y82.662 E1.25035
G1 X91.538 Y82.668 E.02432
G1 X73.968 Y65.098 E1.25035
G1 X73.485 Y65.104 E.02432
G1 X91.055 Y82.674 E1.25035
G1 X90.571 Y82.679 E.02432
G1 X73.001 Y65.109 E1.25035
G1 X72.518 Y65.115 E.02432
G1 X90.088 Y82.685 E1.25034
G1 X89.604 Y82.691 E.02432
G1 X72.035 Y65.121 E1.25034
G1 X71.551 Y65.127 E.02432
G1 X89.121 Y82.696 E1.25034
G1 X88.638 Y82.702 E.02432
G1 X71.068 Y65.132 E1.25034
G1 X70.585 Y65.138 E.02432
G1 X88.154 Y82.708 E1.25033
G1 X87.671 Y82.713 E.02432
G1 X70.101 Y65.144 E1.25033
G1 X69.618 Y65.15 E.02432
G1 X87.188 Y82.719 E1.25033
G1 X86.704 Y82.725 E.02432
G1 X69.135 Y65.155 E1.25033
G1 X68.651 Y65.161 E.02432
G1 X86.221 Y82.731 E1.25032
G1 X85.738 Y82.736 E.02432
G1 X68.168 Y65.167 E1.25032
G1 X67.685 Y65.172 E.02432
G1 X85.254 Y82.742 E1.25032
G1 X84.771 Y82.748 E.02432
G1 X67.201 Y65.178 E1.25032
G1 X66.718 Y65.184 E.02432
G1 X84.287 Y82.753 E1.25031
G1 X83.804 Y82.759 E.02432
G1 X66.235 Y65.19 E1.25031
G1 X65.751 Y65.195 E.02432
G1 X83.321 Y82.765 E1.25031
G1 X82.837 Y82.77 E.02432
G1 X65.268 Y65.201 E1.25031
G1 X64.785 Y65.207 E.02432
G1 X82.354 Y82.776 E1.2503
G1 X81.871 Y82.782 E.02432
G1 X64.301 Y65.213 E1.2503
G1 X63.818 Y65.218 E.02432
G1 X81.387 Y82.788 E1.2503
G1 X80.904 Y82.793 E.02432
G1 X63.335 Y65.224 E1.2503
G1 X62.851 Y65.23 E.02432
G1 X80.421 Y82.799 E1.25029
G1 X79.937 Y82.805 E.02432
G1 X62.368 Y65.236 E1.25029
G1 X61.885 Y65.241 E.02432
G1 X79.454 Y82.81 E1.25029
G1 X78.97 Y82.816 E.02432
G1 X61.401 Y65.247 E1.25029
G1 X60.918 Y65.253 E.02432
G1 X78.487 Y82.822 E1.25029
G1 X78.004 Y82.827 E.02432
G1 X60.435 Y65.258 E1.25028
G1 X59.951 Y65.264 E.02432
G1 X77.52 Y82.833 E1.25028
G1 X77.037 Y82.839 E.02432
G1 X59.468 Y65.27 E1.25028
G1 X58.985 Y65.276 E.02432
G1 X76.554 Y82.845 E1.25028
G1 X76.07 Y82.85 E.02432
G1 X58.502 Y65.281 E1.25027
G1 X58.018 Y65.287 E.02432
M73 P5 R69
G1 X75.587 Y82.856 E1.25027
G1 X75.104 Y82.862 E.02432
G1 X57.535 Y65.293 E1.25027
G1 X57.052 Y65.299 E.02432
G1 X74.62 Y82.867 E1.25027
G1 X74.137 Y82.873 E.02432
G1 X56.568 Y65.304 E1.25026
G1 X56.085 Y65.31 E.02432
G1 X73.654 Y82.879 E1.25026
G1 X73.17 Y82.884 E.02432
G1 X55.602 Y65.316 E1.25026
G1 X55.118 Y65.322 E.02432
G1 X72.687 Y82.89 E1.25026
G1 X72.203 Y82.896 E.02432
G1 X54.635 Y65.327 E1.25025
G1 X54.152 Y65.333 E.02432
G1 X71.72 Y82.901 E1.25025
G1 X71.237 Y82.907 E.02432
G1 X53.668 Y65.339 E1.25025
G1 X53.185 Y65.344 E.02432
G1 X70.753 Y82.913 E1.25025
G1 X70.27 Y82.919 E.02432
G1 X52.702 Y65.35 E1.25024
G1 X52.218 Y65.356 E.02432
G1 X69.787 Y82.924 E1.25024
G1 X69.303 Y82.93 E.02432
G1 X51.735 Y65.362 E1.25024
G1 X51.252 Y65.367 E.02432
G1 X68.82 Y82.936 E1.25024
G1 X68.337 Y82.941 E.02432
G1 X50.768 Y65.373 E1.25023
G1 X50.285 Y65.379 E.02432
G1 X67.853 Y82.947 E1.25023
G1 X67.37 Y82.953 E.02432
G1 X49.802 Y65.385 E1.25023
G1 X49.318 Y65.39 E.02432
G1 X66.886 Y82.958 E1.25023
G1 X66.403 Y82.964 E.02432
G1 X48.835 Y65.396 E1.25022
G1 X48.352 Y65.402 E.02432
G1 X65.92 Y82.97 E1.25022
G1 X65.436 Y82.976 E.02432
G1 X47.868 Y65.407 E1.25022
G1 X47.385 Y65.413 E.02432
G1 X64.953 Y82.981 E1.25022
G1 X64.47 Y82.987 E.02432
G1 X46.902 Y65.419 E1.25021
G1 X46.418 Y65.425 E.02432
G1 X63.986 Y82.993 E1.25021
G1 X63.503 Y82.998 E.02432
G1 X45.935 Y65.43 E1.25021
G1 X45.452 Y65.436 E.02432
M73 P5 R68
G1 X63.02 Y83.004 E1.25021
G1 X62.536 Y83.01 E.02432
G1 X44.968 Y65.442 E1.2502
G1 X44.485 Y65.448 E.02432
G1 X62.053 Y83.015 E1.2502
G1 X61.569 Y83.021 E.02432
G1 X44.002 Y65.453 E1.2502
G1 X43.518 Y65.459 E.02432
G1 X61.086 Y83.027 E1.2502
G1 X60.603 Y83.033 E.02432
G1 X43.035 Y65.465 E1.25019
G1 X42.552 Y65.471 E.02432
G1 X60.119 Y83.038 E1.25019
G1 X59.636 Y83.044 E.02432
