; generated by PrusaSlicer 2.5.0+win64 on 2022-12-07 at 00:23:07 UTC

; 

; external perimeters extrusion width = 1.00mm
; perimeters extrusion width = 1.00mm
; infill extrusion width = 1.00mm
; solid infill extrusion width = 1.00mm
; top infill extrusion width = 1.00mm
; support material extrusion width = 1.00mm
; first layer extrusion width = 0.42mm

M73 P0 R563
M107
;TYPE:Custom
G90 ; use absolute coordinates
M83 ; extruder relative mode
M140 S60 ; set final bed temp
M104 S150 ; set temporary nozzle temp to prevent oozing during homing and auto bed leveling
G4 S10 ; allow partial nozzle warmup
G28 ; home all axisG1 Z50 F240
G1 X7.6 Y10 F3000
M104 S210 ; set final nozzle temp
M190 S60 ; wait for bed temp to stabilize
M109 S210 ; wait for nozzle temp to stabilize
G1 Z0.28 F240
G92 E0
G1 Y140 E10 F1500 ; prime the nozzle
G1 X4 F5000
G92 E0
G1 Y10 E10 F1200 ; prime the nozzle
G92 E0
G21 ; set units to millimeters
G90 ; use absolute coordinates
M83 ; use relative distances for extrusion
; Filament gcode
M107
;LAYER_CHANGE
;Z:0.35
;HEIGHT:0.35
;BEFORE_LAYER_CHANGE
G92 E0
;0.35


G1 E-1 F3600
M73 P0 R562
G1 Z.35 F7800
;AFTER_LAYER_CHANGE
;0.35
G1 X12.781 Y19.155
G1 E1 F2400
;TYPE:Support material interface
;WIDTH:1
G1 F1800
G1 X12.781 Y15.361 E.51067
G1 X13.674 Y15.361 E.12014
G1 X13.674 Y18.753 E.45661
G1 X14.567 Y18.753 E.12014
G1 X14.567 Y15.361 E.45661
G1 X15.46 Y15.361 E.12014
G1 X15.46 Y18.753 E.45661
G1 X16.352 Y18.753 E.12014
G1 X16.352 Y15.361 E.45661
G1 X17.245 Y15.361 E.12014
G1 X17.245 Y18.753 E.45661
G1 X18.138 Y18.753 E.12014
G1 X18.138 Y15.361 E.45661
G1 X19.03 Y15.361 E.12014
G1 X19.03 Y18.753 E.45661
G1 X19.923 Y18.753 E.12014
G1 X19.923 Y15.361 E.45661
G1 X20.816 Y15.361 E.12014
G1 X20.816 Y18.753 E.45661
G1 X21.708 Y18.753 E.12014
G1 X21.708 Y15.361 E.45661
G1 X22.601 Y15.361 E.12014
G1 X22.601 Y18.753 E.45661
G1 X23.494 Y18.753 E.12014
G1 X23.494 Y15.361 E.45661
G1 X24.387 Y15.361 E.12014
G1 X24.387 Y18.753 E.45661
G1 X25.279 Y18.753 E.12014
G1 X25.279 Y15.361 E.45661
G1 X26.172 Y15.361 E.12014
G1 X26.172 Y18.753 E.45661
G1 X27.065 Y18.753 E.12014
G1 X27.065 Y15.361 E.45661
G1 X27.957 Y15.361 E.12014
G1 X27.957 Y18.753 E.45661
G1 X28.85 Y18.753 E.12014
G1 X28.85 Y15.361 E.45661
G1 X29.743 Y15.361 E.12014
G1 X29.743 Y18.753 E.45661
G1 X30.635 Y18.753 E.12014
G1 X30.635 Y15.361 E.45661
G1 X31.528 Y15.361 E.12014
G1 X31.528 Y18.753 E.45661
G1 X32.421 Y18.753 E.12014
G1 X32.421 Y15.361 E.45661
G1 X33.314 Y15.361 E.12014
G1 X33.314 Y18.753 E.45661
G1 X34.206 Y18.753 E.12014
G1 X34.206 Y15.361 E.45661
G1 X35.099 Y15.361 E.12014
G1 X35.099 Y18.753 E.45661
G1 X35.992 Y18.753 E.12014
G1 X35.992 Y15.361 E.45661
G1 X36.884 Y15.361 E.12014
G1 X36.884 Y18.753 E.45661
G1 X37.777 Y18.753 E.12014
G1 X37.777 Y15.361 E.45661
G1 X38.67 Y15.361 E.12014
G1 X38.67 Y18.753 E.45661
G1 X39.562 Y18.753 E.12014
G1 X39.562 Y15.361 E.45661
G1 X40.455 Y15.361 E.12014
G1 X40.455 Y18.753 E.45661
G1 X41.348 Y18.753 E.12014
G1 X41.348 Y15.361 E.45661
G1 X42.241 Y15.361 E.12014
G1 X42.241 Y18.753 E.45661
G1 X43.133 Y18.753 E.12014
G1 X43.133 Y15.361 E.45661
G1 X44.026 Y15.361 E.12014
G1 X44.026 Y18.753 E.45661
G1 X44.919 Y18.753 E.12014
G1 X44.919 Y15.361 E.45661
G1 X45.811 Y15.361 E.12014
G1 X45.811 Y18.753 E.45661
G1 X46.704 Y18.753 E.12014
G1 X46.704 Y15.361 E.45661
G1 X47.597 Y15.361 E.12014
G1 X47.597 Y18.753 E.45661
G1 X48.489 Y18.753 E.12014
G1 X48.489 Y15.361 E.45661
G1 X49.382 Y15.361 E.12014
G1 X49.382 Y18.753 E.45661
G1 X50.275 Y18.753 E.12014
G1 X50.275 Y15.361 E.45661
G1 X51.168 Y15.361 E.12014
G1 X51.168 Y18.753 E.45661
G1 X52.06 Y18.753 E.12014
G1 X52.06 Y15.361 E.45661
G1 X52.953 Y15.361 E.12014
G1 X52.953 Y18.753 E.45661
G1 X53.846 Y18.753 E.12014
G1 X53.846 Y15.361 E.45661
G1 X54.738 Y15.361 E.12014
G1 X54.738 Y18.753 E.45661
G1 X55.631 Y18.753 E.12014
G1 X55.631 Y15.361 E.45661
G1 X56.524 Y15.361 E.12014
G1 X56.524 Y18.753 E.45661
G1 X57.416 Y18.753 E.12014
G1 X57.416 Y15.361 E.45661
G1 X58.309 Y15.361 E.12014
G1 X58.309 Y18.753 E.45661
G1 X59.202 Y18.753 E.12014
G1 X59.202 Y15.361 E.45661
G1 X60.095 Y15.361 E.12014
G1 X60.095 Y18.753 E.45661
G1 X60.987 Y18.753 E.12014
G1 X60.987 Y15.361 E.45661
G1 X61.88 Y15.361 E.12014
G1 X61.88 Y18.753 E.45661
G1 X62.773 Y18.753 E.12014
G1 X62.773 Y15.361 E.45661
G1 X63.665 Y15.361 E.12014
G1 X63.665 Y18.753 E.45661
G1 X64.558 Y18.753 E.12014
G1 X64.558 Y15.361 E.45661
G1 X65.451 Y15.361 E.12014
G1 X65.451 Y18.753 E.45661
G1 X66.343 Y18.753 E.12014
G1 X66.343 Y15.361 E.45661
G1 X67.236 Y15.361 E.12014
G1 X67.236 Y18.753 E.45661
G1 X68.129 Y18.753 E.12014
G1 X68.129 Y15.361 E.45661
G1 X69.022 Y15.361 E.12014
G1 X69.022 Y18.753 E.45661
G1 X69.914 Y18.753 E.12014
G1 X69.914 Y15.361 E.45661
G1 X70.807 Y15.361 E.12014
G1 X70.807 Y18.753 E.45661
G1 X71.7 Y18.753 E.12014
G1 X71.7 Y15.361 E.45661
G1 X72.592 Y15.361 E.12014
G1 X72.592 Y18.753 E.45661
G1 X73.485 Y18.753 E.12014
G1 X73.485 Y15.361 E.45661
G1 X74.378 Y15.361 E.12014
G1 X74.378 Y18.753 E.45661
G1 X75.27 Y18.753 E.12014
G1 X75.27 Y15.361 E.45661
G1 X76.163 Y15.361 E.12014
G1 X76.163 Y18.753 E.45661
G1 X77.056 Y18.753 E.12014
G1 X77.056 Y15.361 E.45661
G1 X77.949 Y15.361 E.12014
G1 X77.949 Y18.753 E.45661
G1 X78.841 Y18.753 E.12014
G1 X78.841 Y15.361 E.45661
G1 X79.734 Y15.361 E.12014
G1 X79.734 Y18.753 E.45661
G1 X80.627 Y18.753 E.12014
G1 X80.627 Y15.361 E.45661
G1 X81.519 Y15.361 E.12014
G1 X81.519 Y18.753 E.45661
G1 X82.412 Y18.753 E.12014
G1 X82.412 Y15.361 E.45661
G1 X83.305 Y15.361 E.12014
G1 X83.305 Y18.753 E.45661
G1 X84.197 Y18.753 E.12014
G1 X84.197 Y15.361 E.45661
G1 X85.09 Y15.361 E.12014
G1 X85.09 Y18.753 E.45661
G1 X85.983 Y18.753 E.12014
G1 X85.983 Y15.361 E.45661
G1 X86.876 Y15.361 E.12014
G1 X86.876 Y18.753 E.45661
G1 X87.768 Y18.753 E.12014
G1 X87.768 Y15.361 E.45661
G1 X88.661 Y15.361 E.12014
G1 X88.661 Y18.753 E.45661
G1 X89.554 Y18.753 E.12014
G1 X89.554 Y15.361 E.45661
G1 X90.446 Y15.361 E.12014
G1 X90.446 Y18.753 E.45661
G1 X91.339 Y18.753 E.12014
G1 X91.339 Y15.361 E.45661
G1 X92.232 Y15.361 E.12014
G1 X92.232 Y18.753 E.45661
G1 X93.124 Y18.753 E.12014
G1 X93.124 Y15.361 E.45661
G1 X94.017 Y15.361 E.12014
G1 X94.017 Y18.753 E.45661
G1 X94.91 Y18.753 E.12014
G1 X94.91 Y15.361 E.45661
G1 X95.803 Y15.361 E.12014
G1 X95.803 Y18.753 E.45661
G1 X96.695 Y18.753 E.12014
G1 X96.695 Y15.361 E.45661
G1 X97.588 Y15.361 E.12014
G1 X97.588 Y18.753 E.45661
G1 X98.481 Y18.753 E.12014
G1 X98.481 Y15.361 E.45661
G1 X99.373 Y15.361 E.12014
G1 X99.373 Y18.753 E.45661
G1 X100.266 Y18.753 E.12014
G1 X100.266 Y15.361 E.45661
G1 X101.159 Y15.361 E.12014
G1 X101.159 Y18.753 E.45661
G1 X102.051 Y18.753 E.12014
G1 X102.051 Y15.361 E.45661
G1 X102.944 Y15.361 E.12014
G1 X102.944 Y18.753 E.45661
G1 X103.837 Y18.753 E.12014
G1 X103.837 Y15.361 E.45661
G1 X104.729 Y15.361 E.12014
G1 X104.729 Y18.753 E.45661
G1 X105.622 Y18.753 E.12014
G1 X105.622 Y15.361 E.45661
G1 X106.515 Y15.361 E.12014
G1 X106.515 Y18.753 E.45661
G1 X107.408 Y18.753 E.12014
G1 X107.408 Y15.361 E.45661
G1 X108.3 Y15.361 E.12014
G1 X108.3 Y18.753 E.45661
G1 X109.193 Y18.753 E.12014
G1 X109.193 Y15.361 E.45661
G1 X110.086 Y15.361 E.12014
G1 X110.086 Y18.753 E.45661
G1 X110.978 Y18.753 E.12014
G1 X110.978 Y15.361 E.45661
G1 X111.871 Y15.361 E.12014
G1 X111.871 Y18.753 E.45661
G1 X112.764 Y18.753 E.12014
G1 X112.764 Y15.361 E.45661
G1 X113.656 Y15.361 E.12014
G1 X113.656 Y18.753 E.45661
G1 X114.549 Y18.753 E.12014
G1 X114.549 Y15.361 E.45661
G1 X115.442 Y15.361 E.12014
G1 X115.442 Y18.753 E.45661
G1 X116.335 Y18.753 E.12014
G1 X116.335 Y15.361 E.45661
G1 X117.227 Y15.361 E.12014
G1 X117.227 Y18.753 E.45661
G1 X118.12 Y18.753 E.12014
G1 X118.12 Y15.361 E.45661
G1 X119.013 Y15.361 E.12014
G1 X119.013 Y18.753 E.45661
G1 X119.905 Y18.753 E.12014
G1 X119.905 Y15.361 E.45661
G1 X120.798 Y15.361 E.12014
G1 X120.798 Y18.753 E.45661
G1 X121.691 Y18.753 E.12014
G1 X121.691 Y15.361 E.45661
G1 X122.583 Y15.361 E.12014
G1 X122.583 Y18.753 E.45661
G1 X123.476 Y18.753 E.12014
G1 X123.476 Y15.361 E.45661
G1 X124.369 Y15.361 E.12014
G1 X124.369 Y18.753 E.45661
G1 X125.262 Y18.753 E.12014
G1 X125.262 Y15.361 E.45661
G1 X126.154 Y15.361 E.12014
G1 X126.154 Y18.753 E.45661
G1 X127.047 Y18.753 E.12014
G1 X127.047 Y15.361 E.45661
G1 X127.94 Y15.361 E.12014
G1 X127.94 Y18.753 E.45661
G1 X128.832 Y18.753 E.12014
G1 X128.832 Y15.361 E.45661
G1 X129.725 Y15.361 E.12014
G1 X129.725 Y18.753 E.45661
G1 X130.618 Y18.753 E.12014
G1 X130.618 Y15.361 E.45661
G1 X131.51 Y15.361 E.12014
G1 X131.51 Y18.753 E.45661
G1 X132.403 Y18.753 E.12014
G1 X132.403 Y15.361 E.45661
G1 X133.296 Y15.361 E.12014
G1 X133.296 Y18.753 E.45661
G1 X134.189 Y18.753 E.12014
G1 X134.189 Y15.361 E.45661
G1 X135.081 Y15.361 E.12014
G1 X135.081 Y18.753 E.45661
G1 X135.974 Y18.753 E.12014
G1 X135.974 Y15.361 E.45661
G1 X136.867 Y15.361 E.12014
G1 X136.867 Y18.753 E.45661
G1 X137.759 Y18.753 E.12014
G1 X137.759 Y15.361 E.45661
G1 X138.652 Y15.361 E.12014
G1 X138.652 Y15.68 E.04294
G1 X139.545 Y15.68 E.12014
G1 X139.545 Y15.361 E.04294
G1 X140.437 Y15.361 E.12014
G1 X140.437 Y16.081 E.097
G1 E-.7 F3600
;WIPE_START
G1 F6240
G1 X140.437 Y15.561 E-.285
;WIPE_END
G1 E-.015 F3600
G1 X138.652 Y17.189 F7800
G1 E1 F2400
G1 F1800
G1 X138.652 Y18.753 E.21056
G1 X139.545 Y18.753 E.12014
G1 X139.545 Y17.635 E.15046
G1 X140.437 Y17.658 E.12018
G1 X140.437 Y19.155 E.20148
G1 E-.7 F3600
;WIPE_START
G1 F6240
G1 X140.437 Y18.635 E-.285
;WIPE_END
G1 E-.015 F3600
G1 X171.268 Y86.451 F7800
G1 E1 F2400
;TYPE:Support material
;WIDTH:0.42
G1 F1800
G1 X161.09 Y86.451 E.5108
G1 X161.09 Y89.844 E.17027
G1 X140.734 Y89.844 E1.02159
G1 X140.734 Y93.236 E.17027
G1 X116.985 Y93.236 E1.19186
G1 X116.985 Y96.629 E.17027
G1 X100.022 Y96.629 E.85133
G1 X100.022 Y100.022 E.17027
G1 X79.665 Y100.022 E1.02159
G1 X79.665 Y103.414 E.17027
G1 X59.309 Y103.414 E1.02159
G1 X59.309 Y106.807 E.17027
G1 X42.346 Y106.807 E.85133
G1 X42.346 Y110.2 E.17027
G1 X8.732 Y110.2 E1.68695
G1 X8.732 Y69.8 E2.02749
G1 X18.91 Y69.8 E.5108
G1 X18.91 Y66.408 E.17027
G1 X69.8 Y66.408 E2.55399
G1 X69.8 Y63.015 E.17027
G1 X120.691 Y63.015 E2.55399
G1 X120.691 Y59.622 E.17027
G1 X171.268 Y59.622 E2.53828
G1 X171.268 Y86.399 E1.34383
G1 X170.857 Y86.296 F7800
G1 F1800
G1 X170.857 Y59.933 E1.32306
G1 X170.474 Y59.933 E.01923
G1 X170.474 Y86.14 E1.31527
G1 X170.091 Y86.14 E.01923
G1 X170.091 Y59.933 E1.31527
G1 X169.708 Y59.933 E.01923
G1 X169.708 Y86.14 E1.31527
G1 X169.324 Y86.14 E.01923
G1 X169.324 Y59.933 E1.31527
G1 X168.941 Y59.933 E.01923
G1 X168.941 Y86.14 E1.31527
G1 X168.558 Y86.14 E.01923
G1 X168.558 Y59.933 E1.31527
G1 X168.175 Y59.933 E.01923
G1 X168.175 Y86.14 E1.31527
G1 X167.792 Y86.14 E.01923
G1 X167.792 Y59.933 E1.31527
G1 X167.408 Y59.933 E.01923
G1 X167.408 Y86.14 E1.31527
G1 X167.025 Y86.14 E.01923
M73 P0 R561
G1 X167.025 Y59.933 E1.31527
G1 X166.642 Y59.933 E.01923
G1 X166.642 Y86.14 E1.31527
G1 X166.259 Y86.14 E.01923
G1 X166.259 Y59.933 E1.31527
G1 X165.876 Y59.933 E.01923
G1 X165.876 Y86.14 E1.31527
G1 X165.492 Y86.14 E.01923
G1 X165.492 Y59.933 E1.31527
G1 X165.109 Y59.933 E.01923
G1 X165.109 Y86.14 E1.31527
G1 X164.726 Y86.14 E.01923
G1 X164.726 Y59.933 E1.31527
G1 X164.343 Y59.933 E.01923
G1 X164.343 Y86.14 E1.31527
G1 X163.96 Y86.14 E.01923
G1 X163.96 Y59.933 E1.31527
G1 X163.576 Y59.933 E.01923
G1 X163.576 Y86.14 E1.31527
G1 X163.193 Y86.14 E.01923
G1 X163.193 Y59.933 E1.31527
G1 X162.81 Y59.933 E.01923
G1 X162.81 Y86.14 E1.31527
G1 X162.427 Y86.14 E.01923
G1 X162.427 Y59.933 E1.31527
G1 X162.043 Y59.933 E.01923
G1 X162.043 Y86.14 E1.31527
G1 X161.66 Y86.14 E.01923
G1 X161.66 Y59.933 E1.31527
G1 X161.277 Y59.933 E.01923
G1 X161.277 Y86.14 E1.31527
G1 X160.894 Y86.14 E.01923
G1 X160.894 Y59.933 E1.31527
G1 X160.511 Y59.933 E.01923
G1 X160.511 Y89.533 E1.48553
G1 X160.127 Y89.533 E.01923
G1 X160.127 Y59.933 E1.48553
G1 X159.744 Y59.933 E.01923
G1 X159.744 Y89.533 E1.48553
G1 X159.361 Y89.533 E.01923
G1 X159.361 Y59.933 E1.48553
G1 X158.978 Y59.933 E.01923
G1 X158.978 Y89.533 E1.48553
G1 X158.595 Y89.533 E.01923
G1 X158.595 Y59.933 E1.48553
G1 X158.211 Y59.933 E.01923
G1 X158.211 Y89.533 E1.48553
G1 X157.828 Y89.533 E.01923
G1 X157.828 Y59.933 E1.48553
G1 X157.445 Y59.933 E.01923
G1 X157.445 Y89.533 E1.48553
G1 X157.062 Y89.533 E.01923
G1 X157.062 Y59.933 E1.48553
G1 X156.679 Y59.933 E.01923
G1 X156.679 Y89.533 E1.48553
G1 X156.295 Y89.533 E.01923
G1 X156.295 Y59.933 E1.48553
G1 X155.912 Y59.933 E.01923
G1 X155.912 Y89.533 E1.48553
G1 X155.529 Y89.533 E.01923
G1 X155.529 Y59.933 E1.48553
G1 X155.146 Y59.933 E.01923
G1 X155.146 Y89.533 E1.48553
G1 X154.762 Y89.533 E.01923
G1 X154.762 Y59.933 E1.48553
G1 X154.379 Y59.933 E.01923
G1 X154.379 Y89.533 E1.48553
G1 X153.996 Y89.533 E.01923
G1 X153.996 Y59.933 E1.48553
G1 X153.613 Y59.933 E.01923
G1 X153.613 Y89.533 E1.48553
G1 X153.23 Y89.533 E.01923
G1 X153.23 Y59.933 E1.48553
G1 X152.846 Y59.933 E.01923
G1 X152.846 Y89.533 E1.48553
G1 X152.463 Y89.533 E.01923
G1 X152.463 Y59.933 E1.48553
G1 X152.08 Y59.933 E.01923
G1 X152.08 Y89.533 E1.48553
G1 X151.697 Y89.533 E.01923
G1 X151.697 Y59.933 E1.48553
G1 X151.314 Y59.933 E.01923
G1 X151.314 Y89.533 E1.48553
G1 X150.93 Y89.533 E.01923
G1 X150.93 Y59.933 E1.48553
G1 X150.547 Y59.933 E.01923
G1 X150.547 Y89.533 E1.48553
G1 X150.164 Y89.533 E.01923
G1 X150.164 Y59.933 E1.48553
G1 X149.781 Y59.933 E.01923
G1 X149.781 Y89.533 E1.48553
G1 X149.398 Y89.533 E.01923
G1 X149.398 Y59.933 E1.48553
G1 X149.014 Y59.933 E.01923
G1 X149.014 Y89.533 E1.48553
G1 X148.631 Y89.533 E.01923
G1 X148.631 Y59.933 E1.48553
G1 X148.248 Y59.933 E.01923
G1 X148.248 Y89.533 E1.48553
G1 X147.865 Y89.533 E.01923
G1 X147.865 Y59.933 E1.48553
G1 X147.482 Y59.933 E.01923
G1 X147.481 Y89.533 E1.48553
G1 X147.098 Y89.533 E.01923
G1 X147.098 Y59.933 E1.48553
G1 X146.715 Y59.933 E.01923
G1 X146.715 Y89.533 E1.48553
G1 X146.332 Y89.533 E.01923
G1 X146.332 Y59.933 E1.48553
G1 X145.949 Y59.933 E.01923
G1 X145.949 Y89.533 E1.48553
G1 X145.565 Y89.533 E.01923
G1 X145.565 Y59.933 E1.48553
G1 X145.182 Y59.933 E.01923
G1 X145.182 Y89.533 E1.48553
G1 X144.799 Y89.533 E.01923
G1 X144.799 Y59.933 E1.48553
G1 X144.416 Y59.933 E.01923
M73 P0 R560
G1 X144.416 Y89.533 E1.48553
G1 X144.033 Y89.533 E.01923
G1 X144.033 Y59.933 E1.48553
G1 X143.649 Y59.933 E.01923
G1 X143.649 Y89.533 E1.48553
G1 X143.266 Y89.533 E.01923
G1 X143.266 Y59.933 E1.48553
G1 X142.883 Y59.933 E.01923
G1 X142.883 Y89.533 E1.48553
G1 X142.5 Y89.533 E.01923
G1 X142.5 Y59.933 E1.48553
G1 X142.117 Y59.933 E.01923
G1 X142.117 Y89.533 E1.48553
G1 X141.733 Y89.533 E.01923
G1 X141.733 Y59.933 E1.48553
G1 X141.35 Y59.933 E.01923
G1 X141.35 Y89.533 E1.48553
G1 X140.967 Y89.533 E.01923
G1 X140.967 Y59.933 E1.48553
G1 X140.584 Y59.933 E.01923
G1 X140.584 Y89.533 E1.48553
G1 X140.424 Y89.533 E.00803
G1 X140.424 Y92.926 E.17027
G1 X140.201 Y92.926 E.0112
G1 X140.201 Y59.933 E1.6558
G1 X139.817 Y59.933 E.01923
G1 X139.817 Y92.926 E1.6558
G1 X139.434 Y92.926 E.01923
G1 X139.434 Y59.933 E1.6558
G1 X139.051 Y59.933 E.01923
G1 X139.051 Y92.926 E1.6558
G1 X138.668 Y92.926 E.01923
G1 X138.668 Y59.933 E1.6558
G1 X138.284 Y59.933 E.01923
G1 X138.284 Y92.926 E1.6558
G1 X137.901 Y92.926 E.01923
G1 X137.901 Y59.933 E1.6558
G1 X137.518 Y59.933 E.01923
G1 X137.518 Y92.926 E1.6558
G1 X137.135 Y92.926 E.01923
G1 X137.135 Y59.933 E1.6558
G1 X136.752 Y59.933 E.01923
G1 X136.752 Y92.926 E1.6558
G1 X136.368 Y92.926 E.01923
G1 X136.368 Y59.933 E1.6558
G1 X135.985 Y59.933 E.01923
G1 X135.985 Y92.926 E1.6558
G1 X135.602 Y92.926 E.01923
G1 X135.602 Y59.933 E1.6558
G1 X135.219 Y59.933 E.01923
G1 X135.219 Y92.926 E1.6558
G1 X134.836 Y92.926 E.01923
G1 X134.836 Y59.933 E1.6558
G1 X134.452 Y59.933 E.01923
G1 X134.452 Y92.926 E1.6558
G1 X134.069 Y92.926 E.01923
G1 X134.069 Y59.933 E1.6558
G1 X133.686 Y59.933 E.01923
G1 X133.686 Y92.926 E1.6558
G1 X133.303 Y92.926 E.01923
G1 X133.303 Y59.933 E1.6558
G1 X132.92 Y59.933 E.01923
G1 X132.92 Y92.926 E1.6558
G1 X132.536 Y92.926 E.01923
G1 X132.536 Y59.933 E1.6558
G1 X132.153 Y59.933 E.01923
G1 X132.153 Y92.926 E1.6558
