; generated by PrusaSlicer 2.5.0+win64 on 2022-12-07 at 00:23:34 UTC

; 

; external perimeters extrusion width = 1.00mm
; perimeters extrusion width = 1.00mm
; infill extrusion width = 1.00mm
; solid infill extrusion width = 1.00mm
; top infill extrusion width = 1.00mm
; support material extrusion width = 1.00mm
; first layer extrusion width = 0.42mm

M73 P0 R505
M107
;TYPE:Custom
G90 ; use absolute coordinates
M83 ; extruder relative mode
M140 S60 ; set final bed temp
M104 S150 ; set temporary nozzle temp to prevent oozing during homing and auto bed leveling
G4 S10 ; allow partial nozzle warmup
G28 ; home all axisG1 Z50 F240
G1 X7.6 Y10 F3000
M104 S210 ; set final nozzle temp
M190 S60 ; wait for bed temp to stabilize
M109 S210 ; wait for nozzle temp to stabilize
G1 Z0.28 F240
G92 E0
G1 Y140 E10 F1500 ; prime the nozzle
G1 X4 F5000
G92 E0
M73 P0 R504
G1 Y10 E10 F1200 ; prime the nozzle
G92 E0
G21 ; set units to millimeters
G90 ; use absolute coordinates
M83 ; use relative distances for extrusion
; Filament gcode
M107
;LAYER_CHANGE
;Z:0.35
;HEIGHT:0.35
;BEFORE_LAYER_CHANGE
G92 E0
;0.35


G1 E-1 F3600
G1 Z.35 F7800
;AFTER_LAYER_CHANGE
;0.35
G1 X157.742 Y167.876
G1 E1 F2400
;TYPE:Support material
;WIDTH:0.42
G1 F1800
G1 X93.593 Y167.876 E3.21935
G1 X93.593 Y151.225 E.83563
G1 X96.986 Y151.225 E.17027
G1 X96.986 Y130.869 E1.02159
G1 X100.379 Y130.869 E.17027
G1 X100.379 Y120.691 E.5108
G1 X103.771 Y120.691 E.17027
G1 X103.771 Y89.844 E1.54809
G1 X100.379 Y89.844 E.17027
G1 X100.379 Y76.586 E.66536
G1 X103.771 Y76.586 E.17027
G1 X103.771 Y49.444 E1.36213
G1 X107.164 Y49.444 E.17027
G1 X107.164 Y22.302 E1.36213
G1 X110.557 Y22.302 E.17027
G1 X110.557 Y12.124 E.5108
G1 X157.742 Y12.124 E2.36802
G1 X157.742 Y167.824 E7.81392
G1 X157.106 Y167.72 F7800
G1 F1800
G1 X157.106 Y12.435 E7.79315
G1 X156.723 Y12.435 E.01923
G1 X156.723 Y167.565 E7.78536
G1 X156.339 Y167.565 E.01923
G1 X156.339 Y12.435 E7.78536
G1 X155.956 Y12.435 E.01923
G1 X155.956 Y167.565 E7.78536
G1 X155.573 Y167.565 E.01923
G1 X155.573 Y12.435 E7.78536
G1 X155.19 Y12.435 E.01923
G1 X155.19 Y167.565 E7.78536
G1 X154.807 Y167.565 E.01923
G1 X154.807 Y12.435 E7.78536
G1 X154.423 Y12.435 E.01923
M73 P0 R503
G1 X154.423 Y167.565 E7.78536
G1 X154.04 Y167.565 E.01923
G1 X154.04 Y12.435 E7.78536
G1 X153.657 Y12.435 E.01923
G1 X153.657 Y167.565 E7.78536
G1 X153.274 Y167.565 E.01923
G1 X153.274 Y12.435 E7.78536
G1 X152.891 Y12.435 E.01923
G1 X152.891 Y167.565 E7.78536
G1 X152.507 Y167.565 E.01923
G1 X152.507 Y12.435 E7.78536
G1 X152.124 Y12.435 E.01923
G1 X152.124 Y167.565 E7.78536
G1 X151.741 Y167.565 E.01923
G1 X151.741 Y12.435 E7.78536
G1 X151.358 Y12.435 E.01923
G1 X151.358 Y167.565 E7.78536
G1 X150.975 Y167.565 E.01923
G1 X150.975 Y12.435 E7.78536
G1 X150.591 Y12.435 E.01923
G1 X150.591 Y167.565 E7.78536
G1 X150.208 Y167.565 E.01923
M73 P0 R502
G1 X150.208 Y12.435 E7.78536
G1 X149.825 Y12.435 E.01923
G1 X149.825 Y167.565 E7.78536
G1 X149.442 Y167.565 E.01923
G1 X149.442 Y12.435 E7.78536
G1 X149.058 Y12.435 E.01923
G1 X149.058 Y167.565 E7.78536
G1 X148.675 Y167.565 E.01923
G1 X148.675 Y12.435 E7.78536
G1 X148.292 Y12.435 E.01923
G1 X148.292 Y167.565 E7.78536
G1 X147.909 Y167.565 E.01923
G1 X147.909 Y12.435 E7.78536
G1 X147.526 Y12.435 E.01923
G1 X147.526 Y167.565 E7.78536
G1 X147.142 Y167.565 E.01923
G1 X147.142 Y12.435 E7.78536
G1 X146.759 Y12.435 E.01923
G1 X146.759 Y167.565 E7.78536
G1 X146.376 Y167.565 E.01923
G1 X146.376 Y12.435 E7.78536
G1 X145.993 Y12.435 E.01923
G1 X145.993 Y167.565 E7.78536
G1 X145.61 Y167.565 E.01923
M73 P0 R501
G1 X145.61 Y12.435 E7.78536
G1 X145.226 Y12.435 E.01923
G1 X145.226 Y167.565 E7.78536
G1 X144.843 Y167.565 E.01923
G1 X144.843 Y12.435 E7.78536
G1 X144.46 Y12.435 E.01923
G1 X144.46 Y167.565 E7.78536
G1 X144.077 Y167.565 E.01923
G1 X144.077 Y12.435 E7.78536
G1 X143.694 Y12.435 E.01923
G1 X143.694 Y167.565 E7.78536
G1 X143.31 Y167.565 E.01923
G1 X143.31 Y12.435 E7.78536
G1 X142.927 Y12.435 E.01923
G1 X142.927 Y167.565 E7.78536
G1 X142.544 Y167.565 E.01923
G1 X142.544 Y12.435 E7.78536
G1 X142.161 Y12.435 E.01923
G1 X142.161 Y167.565 E7.78536
G1 X141.777 Y167.565 E.01923
G1 X141.777 Y12.435 E7.78536
G1 X141.394 Y12.435 E.01923
M73 P0 R500
G1 X141.394 Y167.565 E7.78536
G1 X141.011 Y167.565 E.01923
G1 X141.011 Y12.435 E7.78536
G1 X140.628 Y12.435 E.01923
G1 X140.628 Y167.565 E7.78536
G1 X140.245 Y167.565 E.01923
G1 X140.245 Y12.435 E7.78536
G1 X139.861 Y12.435 E.01923
G1 X139.861 Y167.565 E7.78536
G1 X139.478 Y167.565 E.01923
G1 X139.478 Y12.435 E7.78536
G1 X139.095 Y12.435 E.01923
G1 X139.095 Y167.565 E7.78536
G1 X138.712 Y167.565 E.01923
G1 X138.712 Y12.435 E7.78536
G1 X138.329 Y12.435 E.01923
G1 X138.329 Y167.565 E7.78536
G1 X137.945 Y167.565 E.01923
G1 X137.945 Y12.435 E7.78536
G1 X137.562 Y12.435 E.01923
G1 X137.562 Y167.565 E7.78536
G1 X137.179 Y167.565 E.01923
G1 X137.179 Y12.435 E7.78536
G1 X136.796 Y12.435 E.01923
M73 P1 R499
G1 X136.796 Y167.565 E7.78536
G1 X136.413 Y167.565 E.01923
G1 X136.413 Y12.435 E7.78536
G1 X136.029 Y12.435 E.01923
G1 X136.029 Y167.565 E7.78536
G1 X135.646 Y167.565 E.01923
G1 X135.646 Y12.435 E7.78536
G1 X135.263 Y12.435 E.01923
G1 X135.263 Y167.565 E7.78536
G1 X134.88 Y167.565 E.01923
G1 X134.88 Y12.435 E7.78536
G1 X134.496 Y12.435 E.01923
G1 X134.496 Y167.565 E7.78536
G1 X134.113 Y167.565 E.01923
G1 X134.113 Y12.435 E7.78536
G1 X133.73 Y12.435 E.01923
G1 X133.73 Y167.565 E7.78536
G1 X133.347 Y167.565 E.01923
G1 X133.347 Y12.435 E7.78536
G1 X132.964 Y12.435 E.01923
G1 X132.964 Y167.565 E7.78536
G1 X132.58 Y167.565 E.01923
M73 P1 R498
G1 X132.58 Y12.435 E7.78536
G1 X132.197 Y12.435 E.01923
G1 X132.197 Y167.565 E7.78536
G1 X131.814 Y167.565 E.01923
G1 X131.814 Y12.435 E7.78536
G1 X131.431 Y12.435 E.01923
G1 X131.431 Y167.565 E7.78536
G1 X131.048 Y167.565 E.01923
G1 X131.048 Y12.435 E7.78536
G1 X130.664 Y12.435 E.01923
G1 X130.664 Y167.565 E7.78536
G1 X130.281 Y167.565 E.01923
G1 X130.281 Y12.435 E7.78536
G1 X129.898 Y12.435 E.01923
G1 X129.898 Y167.565 E7.78536
G1 X129.515 Y167.565 E.01923
G1 X129.515 Y12.435 E7.78536
G1 X129.132 Y12.435 E.01923
G1 X129.132 Y167.565 E7.78536
G1 X128.748 Y167.565 E.01923
G1 X128.748 Y12.435 E7.78536
G1 X128.365 Y12.435 E.01923
G1 X128.365 Y167.565 E7.78536
G1 X127.982 Y167.565 E.01923
M73 P1 R497
G1 X127.982 Y12.435 E7.78536
G1 X127.599 Y12.435 E.01923
G1 X127.599 Y167.565 E7.78536
G1 X127.215 Y167.565 E.01923
G1 X127.216 Y12.435 E7.78536
G1 X126.832 Y12.435 E.01923
G1 X126.832 Y167.565 E7.78536
G1 X126.449 Y167.565 E.01923
G1 X126.449 Y12.435 E7.78536
G1 X126.066 Y12.435 E.01923
G1 X126.066 Y167.565 E7.78536
G1 X125.683 Y167.565 E.01923
G1 X125.683 Y12.435 E7.78536
G1 X125.299 Y12.435 E.01923
G1 X125.299 Y167.565 E7.78536
G1 X124.916 Y167.565 E.01923
G1 X124.916 Y12.435 E7.78536
G1 X124.533 Y12.435 E.01923
G1 X124.533 Y167.565 E7.78536
G1 X124.15 Y167.565 E.01923
G1 X124.15 Y12.435 E7.78536
G1 X123.767 Y12.435 E.01923
M73 P1 R496
G1 X123.767 Y167.565 E7.78536
G1 X123.383 Y167.565 E.01923
G1 X123.383 Y12.435 E7.78536
G1 X123 Y12.435 E.01923
G1 X123 Y167.565 E7.78536
G1 X122.617 Y167.565 E.01923
G1 X122.617 Y12.435 E7.78536
G1 X122.234 Y12.435 E.01923
G1 X122.234 Y167.565 E7.78536
G1 X121.851 Y167.565 E.01923
G1 X121.851 Y12.435 E7.78536
G1 X121.467 Y12.435 E.01923
G1 X121.467 Y167.565 E7.78536
G1 X121.084 Y167.565 E.01923
G1 X121.084 Y12.435 E7.78536
G1 X120.701 Y12.435 E.01923
G1 X120.701 Y167.565 E7.78536
G1 X120.318 Y167.565 E.01923
G1 X120.318 Y12.435 E7.78536
G1 X119.935 Y12.435 E.01923
G1 X119.935 Y167.565 E7.78536
G1 X119.551 Y167.565 E.01923
G1 X119.551 Y12.435 E7.78536
G1 X119.168 Y12.435 E.01923
M73 P1 R495
G1 X119.168 Y167.565 E7.78536
G1 X118.785 Y167.565 E.01923
G1 X118.785 Y12.435 E7.78536
G1 X118.402 Y12.435 E.01923
G1 X118.402 Y167.565 E7.78536
G1 X118.018 Y167.565 E.01923
G1 X118.018 Y12.435 E7.78536
G1 X117.635 Y12.435 E.01923
G1 X117.635 Y167.565 E7.78536
G1 X117.252 Y167.565 E.01923
G1 X117.252 Y12.435 E7.78536
G1 X116.869 Y12.435 E.01923
G1 X116.869 Y167.565 E7.78536
G1 X116.486 Y167.565 E.01923
G1 X116.486 Y12.435 E7.78536
G1 X116.102 Y12.435 E.01923
G1 X116.102 Y167.565 E7.78536
G1 X115.719 Y167.565 E.01923
G1 X115.719 Y12.435 E7.78536
G1 X115.336 Y12.435 E.01923
G1 X115.336 Y167.565 E7.78536
G1 X114.953 Y167.565 E.01923
M73 P1 R494
G1 X114.953 Y12.435 E7.78536
G1 X114.57 Y12.435 E.01923
M73 P2 R494
G1 X114.57 Y167.565 E7.78536
G1 X114.186 Y167.565 E.01923
G1 X114.186 Y12.435 E7.78536
G1 X113.803 Y12.435 E.01923
G1 X113.803 Y167.565 E7.78536
G1 X113.42 Y167.565 E.01923
G1 X113.42 Y12.435 E7.78536
G1 X113.037 Y12.435 E.01923
G1 X113.037 Y167.565 E7.78536
G1 X112.654 Y167.565 E.01923
G1 X112.654 Y12.435 E7.78536
G1 X112.27 Y12.435 E.01923
G1 X112.27 Y167.565 E7.78536
G1 X111.887 Y167.565 E.01923
G1 X111.887 Y12.435 E7.78536
G1 X111.504 Y12.435 E.01923
G1 X111.504 Y167.565 E7.78536
G1 X111.121 Y167.565 E.01923
G1 X111.121 Y12.435 E7.78536
G1 X110.867 Y12.435 E.01272
G1 X110.867 Y22.613 E.5108
G1 X110.737 Y22.613 E.00651
G1 X110.737 Y167.565 E7.27457
G1 X110.354 Y167.565 E.01923
M73 P2 R493
G1 X110.354 Y22.613 E7.27457
G1 X109.971 Y22.613 E.01923
G1 X109.971 Y167.565 E7.27457
G1 X109.588 Y167.565 E.01923
G1 X109.588 Y22.613 E7.27457
G1 X109.205 Y22.613 E.01923
G1 X109.205 Y167.565 E7.27457
G1 X108.821 Y167.565 E.01923
G1 X108.821 Y22.613 E7.27457
G1 X108.438 Y22.613 E.01923
G1 X108.438 Y167.565 E7.27457
G1 X108.055 Y167.565 E.01923
G1 X108.055 Y22.613 E7.27457
G1 X107.672 Y22.613 E.01923
G1 X107.672 Y167.565 E7.27457
G1 X107.289 Y167.565 E.01923
G1 X107.289 Y49.754 E5.91244
G1 X106.905 Y49.754 E.01923
G1 X106.905 Y167.565 E5.91244
G1 X106.522 Y167.565 E.01923
G1 X106.522 Y49.754 E5.91244
G1 X106.139 Y49.754 E.01923
G1 X106.139 Y167.565 E5.91244
G1 X105.756 Y167.565 E.01923
G1 X105.756 Y49.754 E5.91244
G1 X105.373 Y49.754 E.01923
M73 P2 R492
G1 X105.373 Y167.565 E5.91244
G1 X104.989 Y167.565 E.01923
G1 X104.989 Y49.754 E5.91244
G1 X104.606 Y49.754 E.01923
G1 X104.606 Y167.565 E5.91244
G1 X104.223 Y167.565 E.01923
G1 X104.223 Y49.754 E5.91244
G1 X104.082 Y49.754 E.00708
G1 X104.082 Y76.896 E1.36213
G1 X103.84 Y76.896 E.01215
G1 X103.84 Y89.533 E.6342
G1 X103.456 Y89.533 E.01923
G1 X103.456 Y76.896 E.6342
G1 X103.073 Y76.896 E.01923
G1 X103.073 Y89.533 E.6342
G1 X102.69 Y89.533 E.01923
G1 X102.69 Y76.896 E.6342
G1 X102.307 Y76.896 E.01923
G1 X102.307 Y89.533 E.6342
G1 X101.924 Y89.533 E.01923
G1 X101.924 Y76.896 E.6342
G1 X101.54 Y76.896 E.01923
G1 X101.54 Y89.533 E.6342
G1 X101.157 Y89.533 E.01923
G1 X101.157 Y76.896 E.6342
G1 X100.774 Y76.896 E.01923
G1 X100.774 Y89.688 E.64199
G1 E-.7 F3600
;WIPE_START
G1 F6240
G1 X100.774 Y89.168 E-.285
;WIPE_END
G1 E-.015 F3600
G1 X103.84 Y167.72 F7800
G1 E1 F2400
G1 F1800
G1 X103.84 Y121.001 E2.34465
G1 X103.456 Y121.001 E.01923
G1 X103.456 Y167.565 E2.33686
G1 X103.073 Y167.565 E.01923
G1 X103.073 Y121.001 E2.33686
G1 X102.69 Y121.001 E.01923
G1 X102.69 Y167.565 E2.33686
G1 X102.307 Y167.565 E.01923
G1 X102.307 Y121.001 E2.33686
G1 X101.924 Y121.001 E.01923
G1 X101.924 Y167.565 E2.33686
G1 X101.54 Y167.565 E.01923
G1 X101.54 Y121.001 E2.33686
G1 X101.157 Y121.001 E.01923
G1 X101.157 Y167.565 E2.33686
G1 X100.774 Y167.565 E.01923
G1 X100.774 Y121.001 E2.33686
G1 X100.689 Y121.001 E.00426
G1 X100.689 Y131.179 E.5108
G1 X100.391 Y131.179 E.01497
G1 X100.391 Y167.565 E1.82606
G1 X100.008 Y167.565 E.01923
G1 X100.008 Y131.179 E1.82606
G1 X99.624 Y131.179 E.01923
G1 X99.624 Y167.565 E1.82606
G1 X99.241 Y167.565 E.01923
G1 X99.241 Y131.179 E1.82606
G1 X98.858 Y131.179 E.01923
G1 X98.858 Y167.565 E1.82606
G1 X98.475 Y167.565 E.01923
G1 X98.475 Y131.179 E1.82606
G1 X98.092 Y131.179 E.01923
G1 X98.092 Y167.565 E1.82606
G1 X97.708 Y167.565 E.01923
G1 X97.708 Y131.179 E1.82606
G1 X97.325 Y131.179 E.01923
G1 X97.325 Y167.565 E1.82606
G1 X96.942 Y167.565 E.01923
G1 X96.942 Y151.535 E.80447
G1 X96.559 Y151.535 E.01923
G1 X96.559 Y167.565 E.80447
G1 X96.175 Y167.565 E.01923
G1 X96.175 Y151.535 E.80447
G1 X95.792 Y151.535 E.01923
G1 X95.792 Y167.565 E.80447
G1 X95.409 Y167.565 E.01923
G1 X95.409 Y151.535 E.80447
G1 X95.026 Y151.535 E.01923
G1 X95.026 Y167.565 E.80447
G1 X94.643 Y167.565 E.01923
G1 X94.643 Y151.535 E.80447
G1 X94.259 Y151.535 E.01923
G1 X94.259 Y167.72 E.81226
G1 E-.7 F3600
;WIPE_START
G1 F6240
G1 X94.259 Y167.2 E-.285
;WIPE_END
G1 E-.015 F3600
G1 X26.988 Y162.82 F7800
G1 E1 F2400
;TYPE:Perimeter
;WIDTH:0.42
G1 F1800
G1 X29.084 Y134.457 E1.42728
G1 X41.094 Y50.003 E4.28104
G1 X43.368 Y17.18 E1.65121
M73 P2 R491
G1 X57.336 Y17.18 E.70099
G1 X54.277 Y61.262 E2.2176
G1 X43.09 Y140.04 E3.99321
G1 X41.409 Y162.82 E1.14633
G1 X27.138 Y162.82 E.71622
G1 X26.617 Y163.165 F7800
;TYPE:External perimeter
G1 F1800
G1 X28.741 Y134.42 E1.44649
G1 X40.753 Y49.955 E4.28162
G1 X43.047 Y16.835 E1.66612
G1 X57.706 Y16.835 E.7357
G1 X54.621 Y61.298 E2.23678
G1 X43.431 Y140.088 E3.99384
G1 X41.73 Y163.165 E1.16125
G1 X26.767 Y163.165 E.75094
G1 X26.873 Y162.198 F7800
G1 E-.7 F3600
;WIPE_START
G1 F6240
G1 X26.802 Y162.646 E-.285
;WIPE_END
G1 E-.015 F3600
G1 X56.529 Y17.284 F7800
G1 E1 F2400
;TYPE:Solid infill
;WIDTH:0.420082
G1 F1800
G1 X57.035 Y17.789 E.03588
G1 X57.003 Y18.245 E.02296
G1 X56.197 Y17.439 E.05725
G1 X55.709 Y17.439 E.02449
G1 X56.972 Y18.701 E.08964
G1 X56.94 Y19.158 E.02296
G1 X55.221 Y17.439 E.12203
G1 X54.733 Y17.439 E.02449
G1 X56.908 Y19.614 E.15441
G1 X56.877 Y20.07 E.02296
G1 X54.245 Y17.439 E.1868
G1 X53.757 Y17.439 E.02449
G1 X56.845 Y20.526 E.21918
G1 X56.813 Y20.982 E.02296
G1 X53.27 Y17.439 E.25157
G1 X52.782 Y17.439 E.02449
G1 X56.782 Y21.439 E.28396
G1 X56.75 Y21.895 E.02296
G1 X52.294 Y17.439 E.31634
G1 X51.806 Y17.439 E.02449
G1 X56.718 Y22.351 E.34873
G1 X56.687 Y22.807 E.02296
G1 X51.318 Y17.439 E.38111
G1 X50.83 Y17.439 E.02449
G1 X56.655 Y23.264 E.4135
G1 X56.623 Y23.72 E.02296
G1 X50.342 Y17.439 E.44589
G1 X49.855 Y17.439 E.02449
G1 X56.592 Y24.176 E.47827
G1 X56.56 Y24.632 E.02296
G1 X49.367 Y17.439 E.51066
G1 X48.879 Y17.439 E.02449
G1 X56.528 Y25.088 E.54304
G1 X56.497 Y25.545 E.02296
G1 X48.391 Y17.439 E.57543
G1 X47.903 Y17.439 E.02449
G1 X56.465 Y26.001 E.60782
G1 X56.433 Y26.457 E.02296
G1 X47.415 Y17.439 E.6402
G1 X46.927 Y17.439 E.02449
G1 X56.402 Y26.913 E.67259
G1 X56.37 Y27.369 E.02296
G1 X46.44 Y17.439 E.70498
G1 X45.952 Y17.439 E.02449
G1 X56.338 Y27.826 E.73736
G1 X56.307 Y28.282 E.02296
G1 X45.464 Y17.439 E.76975
G1 X44.976 Y17.439 E.02449
G1 X56.275 Y28.738 E.80213
G1 X56.243 Y29.194 E.02296
G1 X44.488 Y17.439 E.83452
G1 X44 Y17.439 E.02449
G1 X56.212 Y29.65 E.86691
G1 X56.18 Y30.107 E.02296
G1 X43.604 Y17.53 E.89282
G1 X43.572 Y17.986 E.02296
G1 X56.148 Y30.563 E.89282
G1 X56.117 Y31.019 E.02296
G1 X43.54 Y18.442 E.89281
G1 X43.509 Y18.899 E.02296
G1 X56.085 Y31.475 E.89281
G1 X56.054 Y31.931 E.02296
G1 X43.477 Y19.355 E.89281
G1 X43.445 Y19.811 E.02296
G1 X56.022 Y32.388 E.89281
G1 X55.99 Y32.844 E.02296
G1 X43.414 Y20.267 E.8928
G1 X43.382 Y20.724 E.02296
G1 X55.959 Y33.3 E.8928
G1 X55.927 Y33.756 E.02296
G1 X43.351 Y21.18 E.8928
G1 X43.319 Y21.636 E.02296
G1 X55.895 Y34.212 E.89279
G1 X55.864 Y34.669 E.02296
G1 X43.287 Y22.092 E.89279
G1 X43.256 Y22.549 E.02296
G1 X55.832 Y35.125 E.89279
G1 X55.8 Y35.581 E.02296
G1 X43.224 Y23.005 E.89279
G1 X43.192 Y23.461 E.02296
G1 X55.769 Y36.037 E.89278
G1 X55.737 Y36.493 E.02296
G1 X43.161 Y23.917 E.89278
G1 X43.129 Y24.374 E.02296
G1 X55.705 Y36.95 E.89278
G1 X55.674 Y37.406 E.02296
G1 X43.098 Y24.83 E.89278
G1 X43.066 Y25.286 E.02296
G1 X55.642 Y37.862 E.89277
G1 X55.61 Y38.318 E.02296
G1 X43.034 Y25.742 E.89277
G1 X43.003 Y26.199 E.02296
G1 X55.579 Y38.774 E.89277
G1 X55.547 Y39.231 E.02296
G1 X42.971 Y26.655 E.89276
G1 X42.94 Y27.111 E.02296
G1 X55.515 Y39.687 E.89276
G1 X55.484 Y40.143 E.02296
G1 X42.908 Y27.567 E.89276
G1 X42.876 Y28.024 E.02296
G1 X55.452 Y40.599 E.89276
G1 X55.42 Y41.055 E.02296
G1 X42.845 Y28.48 E.89275
G1 X42.813 Y28.936 E.02296
G1 X55.389 Y41.512 E.89275
G1 X55.357 Y41.968 E.02296
G1 X42.781 Y29.392 E.89275
G1 X42.75 Y29.848 E.02296
G1 X55.325 Y42.424 E.89275
G1 X55.294 Y42.88 E.02296
