; generated by PrusaSlicer 2.5.0+win64 on 2022-12-07 at 00:23:59 UTC

; 

; external perimeters extrusion width = 1.00mm
; perimeters extrusion width = 1.00mm
; infill extrusion width = 1.00mm
; solid infill extrusion width = 1.00mm
; top infill extrusion width = 1.00mm
; support material extrusion width = 1.00mm
; first layer extrusion width = 0.42mm

M73 P0 R494
M107
;TYPE:Custom
G90 ; use absolute coordinates
M83 ; extruder relative mode
M140 S60 ; set final bed temp
M104 S150 ; set temporary nozzle temp to prevent oozing during homing and auto bed leveling
G4 S10 ; allow partial nozzle warmup
G28 ; home all axisG1 Z50 F240
G1 X7.6 Y10 F3000
M104 S210 ; set final nozzle temp
M190 S60 ; wait for bed temp to stabilize
M109 S210 ; wait for nozzle temp to stabilize
G1 Z0.28 F240
G92 E0
G1 Y140 E10 F1500 ; prime the nozzle
G1 X4 F5000
G92 E0
G1 Y10 E10 F1200 ; prime the nozzle
G92 E0
G21 ; set units to millimeters
G90 ; use absolute coordinates
M83 ; use relative distances for extrusion
; Filament gcode
M107
;LAYER_CHANGE
;Z:0.35
;HEIGHT:0.35
;BEFORE_LAYER_CHANGE
G92 E0
;0.35


G1 E-1 F3600
M73 P0 R493
G1 Z.35 F7800
;AFTER_LAYER_CHANGE
;0.35
G1 X147.519 Y15.917
G1 E1 F2400
;TYPE:Support material
;WIDTH:0.42
G1 F1800
G1 X141.221 Y15.917 E.31609
G1 X140.802 Y16.357 E.03051
G1 X141.376 Y28.447 E.60745
G1 X146.455 Y127.843 E4.99479
G1 X146.538 Y128.346 E.02556
G1 X146.818 Y133.654 E.26677
G1 X146.978 Y133.646 E.00806
G1 X147.002 Y134.075 E.02155
G1 X147.139 Y135.258 E.0598
G1 X148.27 Y140.916 E.28955
G1 X148.389 Y141.813 E.04545
G1 X152.456 Y161.09 E.98872
G1 X150.912 Y161.09 E.07747
G1 X150.912 Y167.876 E.34053
G1 X69.8 Y167.876 E4.07067
G1 X69.8 Y164.483 E.17027
G1 X66.408 Y164.483 E.17027
G1 X66.408 Y116.985 E2.38372
G1 X56.229 Y116.985 E.5108
G1 X56.229 Y59.309 E2.89452
G1 X52.837 Y59.309 E.17027
G1 X52.837 Y12.124 E2.36802
G1 X147.519 Y12.124 E4.75174
G1 X147.519 Y15.865 E.18774
G1 E-.7 F3600
;WIPE_START
G1 F6240
G1 X147.519 Y15.345 E-.285
;WIPE_END
G1 E-.015 F3600
G1 X151.697 Y160.935 F7800
G1 E1 F2400
G1 F1800
G1 X151.697 Y158.996 E.09732
G1 X151.314 Y157.179 E.09317
G1 X151.314 Y160.78 E.1807
G1 X150.93 Y160.78 E.01923
G1 X150.93 Y155.363 E.27186
G1 X150.547 Y153.546 E.09317
G1 X150.547 Y167.565 E.70356
G1 X150.164 Y167.565 E.01923
G1 X150.164 Y151.73 E.79472
G1 X149.781 Y149.913 E.09317
G1 X149.781 Y167.565 E.88588
G1 X149.398 Y167.565 E.01923
G1 X149.398 Y148.097 E.97705
G1 X149.014 Y146.28 E.09317
G1 X149.014 Y167.565 E1.06821
G1 X148.631 Y167.565 E.01923
G1 X148.631 Y144.464 E1.15937
G1 X148.248 Y142.647 E.09317
G1 X148.248 Y167.565 E1.25054
G1 X147.865 Y167.565 E.01923
G1 X147.865 Y140.471 E1.35975
G1 X147.482 Y138.564 E.09764
G1 X147.482 Y167.565 E1.45548
G1 X147.098 Y167.565 E.01923
G1 X147.098 Y136.657 E1.55116
G1 X146.833 Y135.311 E.06883
G1 X146.715 Y134.265 E.05284
G1 X146.715 Y167.565 E1.6712
G1 X146.332 Y167.565 E.01923
G1 X146.332 Y130.346 E1.86789
G1 X146.229 Y128.383 E.09864
G1 X146.145 Y127.867 E.02624
G1 X145.949 Y124.022 E.19322
G1 X145.949 Y167.565 E2.18526
G1 X145.565 Y167.565 E.01923
G1 X145.565 Y116.523 E2.56162
G1 X145.182 Y109.022 E.37691
G1 X145.182 Y167.565 E2.93803
G1 X144.799 Y167.565 E.01923
G1 X144.799 Y101.521 E3.31449
G1 X144.416 Y94.02 E.37695
G1 X144.416 Y167.565 E3.69094
G1 X144.033 Y167.565 E.01923
G1 X144.033 Y86.519 E4.0674
G1 X143.649 Y79.032 E.37622
G1 X143.649 Y167.565 E4.44313
G1 X143.266 Y167.565 E.01923
G1 X143.266 Y71.546 E4.81882
G1 X142.883 Y64.06 E.37619
G1 X142.883 Y167.565 E5.19452
G1 X142.5 Y167.565 E.01923
G1 X142.5 Y56.572 E5.57029
G1 X142.117 Y49.082 E.37637
M73 P0 R492
G1 X142.117 Y167.565 E5.94617
G1 X141.733 Y167.565 E.01923
G1 X141.733 Y41.565 E6.32342
G1 X141.35 Y34.043 E.378
G1 X141.35 Y167.565 E6.70092
G1 X140.967 Y167.565 E.01923
G1 X140.967 Y23.111 E7.24956
G1 E-.7 F3600
;WIPE_START
G1 F6240
G1 X140.967 Y23.631 E-.285
;WIPE_END
G1 E-.015 F3600
G1 X147.098 Y15.762 F7800
G1 E1 F2400
G1 F1800
G1 X147.098 Y12.435 E.16697
G1 X146.715 Y12.435 E.01923
G1 X146.715 Y15.607 E.15918
G1 X146.332 Y15.607 E.01923
G1 X146.332 Y12.435 E.15918
G1 X145.949 Y12.435 E.01923
G1 X145.949 Y15.607 E.15918
G1 X145.565 Y15.607 E.01923
G1 X145.565 Y12.435 E.15918
G1 X145.182 Y12.435 E.01923
G1 X145.182 Y15.607 E.15918
G1 X144.799 Y15.607 E.01923
G1 X144.799 Y12.435 E.15918
G1 X144.416 Y12.435 E.01923
G1 X144.416 Y15.607 E.15918
G1 X144.033 Y15.607 E.01923
G1 X144.033 Y12.435 E.15918
G1 X143.649 Y12.435 E.01923
G1 X143.649 Y15.607 E.15918
G1 X143.266 Y15.607 E.01923
G1 X143.266 Y12.435 E.15918
G1 X142.883 Y12.435 E.01923
G1 X142.883 Y15.607 E.15918
G1 X142.5 Y15.607 E.01923
G1 X142.5 Y12.435 E.15918
G1 X142.117 Y12.435 E.01923
G1 X142.117 Y15.607 E.15918
G1 X141.733 Y15.607 E.01923
G1 X141.733 Y12.435 E.15918
G1 X141.35 Y12.435 E.01923
G1 X141.35 Y15.607 E.15918
G1 X141.088 Y15.607 E.01314
G1 X140.967 Y15.734 E.00882
G1 X140.967 Y12.435 E.16557
G1 X140.584 Y12.435 E.01923
G1 X140.584 Y167.565 E7.78536
G1 X140.201 Y167.565 E.01923
G1 X140.201 Y12.435 E7.78536
G1 X139.817 Y12.435 E.01923
G1 X139.817 Y167.565 E7.78536
G1 X139.434 Y167.565 E.01923
G1 X139.434 Y12.435 E7.78536
G1 X139.051 Y12.435 E.01923
G1 X139.051 Y167.565 E7.78536
G1 X138.668 Y167.565 E.01923
G1 X138.668 Y12.435 E7.78536
G1 X138.284 Y12.435 E.01923
G1 X138.284 Y167.565 E7.78536
G1 X137.901 Y167.565 E.01923
M73 P0 R491
G1 X137.901 Y12.435 E7.78536
G1 X137.518 Y12.435 E.01923
G1 X137.518 Y167.565 E7.78536
G1 X137.135 Y167.565 E.01923
G1 X137.135 Y12.435 E7.78536
G1 X136.752 Y12.435 E.01923
G1 X136.752 Y167.565 E7.78536
G1 X136.368 Y167.565 E.01923
G1 X136.368 Y12.435 E7.78536
G1 X135.985 Y12.435 E.01923
G1 X135.985 Y167.565 E7.78536
G1 X135.602 Y167.565 E.01923
G1 X135.602 Y12.435 E7.78536
G1 X135.219 Y12.435 E.01923
G1 X135.219 Y167.565 E7.78536
G1 X134.836 Y167.565 E.01923
G1 X134.836 Y12.435 E7.78536
G1 X134.452 Y12.435 E.01923
G1 X134.452 Y167.565 E7.78536
G1 X134.069 Y167.565 E.01923
G1 X134.069 Y12.435 E7.78536
G1 X133.686 Y12.435 E.01923
G1 X133.686 Y167.565 E7.78536
G1 X133.303 Y167.565 E.01923
M73 P0 R490
G1 X133.303 Y12.435 E7.78536
G1 X132.92 Y12.435 E.01923
G1 X132.92 Y167.565 E7.78536
G1 X132.536 Y167.565 E.01923
G1 X132.536 Y12.435 E7.78536
G1 X132.153 Y12.435 E.01923
G1 X132.153 Y167.565 E7.78536
G1 X131.77 Y167.565 E.01923
G1 X131.77 Y12.435 E7.78536
G1 X131.387 Y12.435 E.01923
G1 X131.387 Y167.565 E7.78536
G1 X131.003 Y167.565 E.01923
G1 X131.003 Y12.435 E7.78536
G1 X130.62 Y12.435 E.01923
G1 X130.62 Y167.565 E7.78536
G1 X130.237 Y167.565 E.01923
G1 X130.237 Y12.435 E7.78536
G1 X129.854 Y12.435 E.01923
G1 X129.854 Y167.565 E7.78536
G1 X129.471 Y167.565 E.01923
G1 X129.471 Y12.435 E7.78536
G1 X129.087 Y12.435 E.01923
M73 P0 R489
G1 X129.087 Y167.565 E7.78536
G1 X128.704 Y167.565 E.01923
G1 X128.704 Y12.435 E7.78536
G1 X128.321 Y12.435 E.01923
G1 X128.321 Y167.565 E7.78536
G1 X127.938 Y167.565 E.01923
G1 X127.938 Y12.435 E7.78536
G1 X127.555 Y12.435 E.01923
G1 X127.555 Y167.565 E7.78536
G1 X127.171 Y167.565 E.01923
G1 X127.171 Y12.435 E7.78536
G1 X126.788 Y12.435 E.01923
G1 X126.788 Y167.565 E7.78536
G1 X126.405 Y167.565 E.01923
G1 X126.405 Y12.435 E7.78536
G1 X126.022 Y12.435 E.01923
G1 X126.022 Y167.565 E7.78536
G1 X125.639 Y167.565 E.01923
M73 P1 R489
G1 X125.639 Y12.435 E7.78536
G1 X125.255 Y12.435 E.01923
G1 X125.255 Y167.565 E7.78536
G1 X124.872 Y167.565 E.01923
G1 X124.872 Y12.435 E7.78536
G1 X124.489 Y12.435 E.01923
M73 P1 R488
G1 X124.489 Y167.565 E7.78536
G1 X124.106 Y167.565 E.01923
G1 X124.106 Y12.435 E7.78536
G1 X123.723 Y12.435 E.01923
G1 X123.722 Y167.565 E7.78536
G1 X123.339 Y167.565 E.01923
G1 X123.339 Y12.435 E7.78536
G1 X122.956 Y12.435 E.01923
G1 X122.956 Y167.565 E7.78536
G1 X122.573 Y167.565 E.01923
G1 X122.573 Y12.435 E7.78536
G1 X122.19 Y12.435 E.01923
G1 X122.19 Y167.565 E7.78536
G1 X121.806 Y167.565 E.01923
G1 X121.806 Y12.435 E7.78536
G1 X121.423 Y12.435 E.01923
G1 X121.423 Y167.565 E7.78536
G1 X121.04 Y167.565 E.01923
G1 X121.04 Y12.435 E7.78536
G1 X120.657 Y12.435 E.01923
G1 X120.657 Y167.565 E7.78536
G1 X120.274 Y167.565 E.01923
M73 P1 R487
G1 X120.274 Y12.435 E7.78536
G1 X119.89 Y12.435 E.01923
G1 X119.89 Y167.565 E7.78536
G1 X119.507 Y167.565 E.01923
G1 X119.507 Y12.435 E7.78536
G1 X119.124 Y12.435 E.01923
G1 X119.124 Y167.565 E7.78536
G1 X118.741 Y167.565 E.01923
G1 X118.741 Y12.435 E7.78536
G1 X118.358 Y12.435 E.01923
G1 X118.358 Y167.565 E7.78536
G1 X117.974 Y167.565 E.01923
G1 X117.974 Y12.435 E7.78536
G1 X117.591 Y12.435 E.01923
G1 X117.591 Y167.565 E7.78536
G1 X117.208 Y167.565 E.01923
G1 X117.208 Y12.435 E7.78536
G1 X116.825 Y12.435 E.01923
G1 X116.825 Y167.565 E7.78536
G1 X116.442 Y167.565 E.01923
G1 X116.442 Y12.435 E7.78536
G1 X116.058 Y12.435 E.01923
G1 X116.058 Y167.565 E7.78536
G1 X115.675 Y167.565 E.01923
M73 P1 R486
G1 X115.675 Y12.435 E7.78536
G1 X115.292 Y12.435 E.01923
G1 X115.292 Y167.565 E7.78536
G1 X114.909 Y167.565 E.01923
G1 X114.909 Y12.435 E7.78536
G1 X114.525 Y12.435 E.01923
G1 X114.525 Y167.565 E7.78536
G1 X114.142 Y167.565 E.01923
G1 X114.142 Y12.435 E7.78536
G1 X113.759 Y12.435 E.01923
G1 X113.759 Y167.565 E7.78536
G1 X113.376 Y167.565 E.01923
G1 X113.376 Y12.435 E7.78536
G1 X112.993 Y12.435 E.01923
G1 X112.993 Y167.565 E7.78536
G1 X112.609 Y167.565 E.01923
G1 X112.609 Y12.435 E7.78536
G1 X112.226 Y12.435 E.01923
G1 X112.226 Y167.565 E7.78536
G1 X111.843 Y167.565 E.01923
G1 X111.843 Y12.435 E7.78536
G1 X111.46 Y12.435 E.01923
M73 P1 R485
G1 X111.46 Y167.565 E7.78536
G1 X111.077 Y167.565 E.01923
G1 X111.077 Y12.435 E7.78536
G1 X110.693 Y12.435 E.01923
G1 X110.693 Y167.565 E7.78536
G1 X110.31 Y167.565 E.01923
G1 X110.31 Y12.435 E7.78536
G1 X109.927 Y12.435 E.01923
G1 X109.927 Y167.565 E7.78536
G1 X109.544 Y167.565 E.01923
G1 X109.544 Y12.435 E7.78536
G1 X109.161 Y12.435 E.01923
G1 X109.161 Y167.565 E7.78536
G1 X108.777 Y167.565 E.01923
G1 X108.777 Y12.435 E7.78536
G1 X108.394 Y12.435 E.01923
G1 X108.394 Y167.565 E7.78536
G1 X108.011 Y167.565 E.01923
G1 X108.011 Y12.435 E7.78536
G1 X107.628 Y12.435 E.01923
G1 X107.628 Y167.565 E7.78536
G1 X107.244 Y167.565 E.01923
M73 P1 R484
G1 X107.244 Y12.435 E7.78536
G1 X106.861 Y12.435 E.01923
G1 X106.861 Y167.565 E7.78536
G1 X106.478 Y167.565 E.01923
G1 X106.478 Y12.435 E7.78536
G1 X106.095 Y12.435 E.01923
G1 X106.095 Y167.565 E7.78536
G1 X105.712 Y167.565 E.01923
G1 X105.712 Y12.435 E7.78536
G1 X105.328 Y12.435 E.01923
G1 X105.328 Y167.565 E7.78536
G1 X104.945 Y167.565 E.01923
G1 X104.945 Y12.435 E7.78536
G1 X104.562 Y12.435 E.01923
G1 X104.562 Y167.565 E7.78536
G1 X104.179 Y167.565 E.01923
G1 X104.179 Y12.435 E7.78536
G1 X103.796 Y12.435 E.01923
M73 P2 R484
G1 X103.796 Y167.565 E7.78536
G1 X103.412 Y167.565 E.01923
G1 X103.412 Y12.435 E7.78536
G1 X103.029 Y12.435 E.01923
G1 X103.029 Y167.565 E7.78536
G1 X102.646 Y167.565 E.01923
M73 P2 R483
G1 X102.646 Y12.435 E7.78536
G1 X102.263 Y12.435 E.01923
G1 X102.263 Y167.565 E7.78536
G1 X101.88 Y167.565 E.01923
G1 X101.88 Y12.435 E7.78536
G1 X101.496 Y12.435 E.01923
G1 X101.496 Y167.565 E7.78536
G1 X101.113 Y167.565 E.01923
G1 X101.113 Y12.435 E7.78536
G1 X100.73 Y12.435 E.01923
G1 X100.73 Y167.565 E7.78536
G1 X100.347 Y167.565 E.01923
G1 X100.347 Y12.435 E7.78536
G1 X99.963 Y12.435 E.01923
G1 X99.963 Y167.565 E7.78536
G1 X99.58 Y167.565 E.01923
G1 X99.58 Y12.435 E7.78536
G1 X99.197 Y12.435 E.01923
G1 X99.197 Y167.565 E7.78536
G1 X98.814 Y167.565 E.01923
G1 X98.814 Y12.435 E7.78536
G1 X98.431 Y12.435 E.01923
M73 P2 R482
G1 X98.431 Y167.565 E7.78536
G1 X98.047 Y167.565 E.01923
G1 X98.047 Y12.435 E7.78536
G1 X97.664 Y12.435 E.01923
G1 X97.664 Y167.565 E7.78536
G1 X97.281 Y167.565 E.01923
G1 X97.281 Y12.435 E7.78536
G1 X96.898 Y12.435 E.01923
G1 X96.898 Y167.565 E7.78536
G1 X96.515 Y167.565 E.01923
G1 X96.515 Y12.435 E7.78536
G1 X96.131 Y12.435 E.01923
G1 X96.131 Y167.565 E7.78536
G1 X95.748 Y167.565 E.01923
G1 X95.748 Y12.435 E7.78536
G1 X95.365 Y12.435 E.01923
G1 X95.365 Y167.565 E7.78536
G1 X94.982 Y167.565 E.01923
G1 X94.982 Y12.435 E7.78536
G1 X94.599 Y12.435 E.01923
G1 X94.599 Y167.565 E7.78536
G1 X94.215 Y167.565 E.01923
G1 X94.215 Y12.435 E7.78536
G1 X93.832 Y12.435 E.01923
M73 P2 R481
G1 X93.832 Y167.565 E7.78536
G1 X93.449 Y167.565 E.01923
G1 X93.449 Y12.435 E7.78536
G1 X93.066 Y12.435 E.01923
G1 X93.066 Y167.565 E7.78536
G1 X92.682 Y167.565 E.01923
G1 X92.682 Y12.435 E7.78536
G1 X92.299 Y12.435 E.01923
G1 X92.299 Y167.565 E7.78536
G1 X91.916 Y167.565 E.01923
G1 X91.916 Y12.435 E7.78536
G1 X91.533 Y12.435 E.01923
G1 X91.533 Y167.565 E7.78536
G1 X91.15 Y167.565 E.01923
G1 X91.15 Y12.435 E7.78536
G1 X90.766 Y12.435 E.01923
G1 X90.766 Y167.565 E7.78536
G1 X90.383 Y167.565 E.01923
G1 X90.383 Y12.435 E7.78536
G1 X90 Y12.435 E.01923
G1 X90 Y167.565 E7.78536
G1 X89.617 Y167.565 E.01923
M73 P2 R480
G1 X89.617 Y12.435 E7.78536
G1 X89.234 Y12.435 E.01923
G1 X89.234 Y167.565 E7.78536
G1 X88.85 Y167.565 E.01923
G1 X88.85 Y12.435 E7.78536
G1 X88.467 Y12.435 E.01923
G1 X88.467 Y167.565 E7.78536
G1 X88.084 Y167.565 E.01923
G1 X88.084 Y12.435 E7.78536
G1 X87.701 Y12.435 E.01923
G1 X87.701 Y167.565 E7.78536
G1 X87.318 Y167.565 E.01923
G1 X87.318 Y12.435 E7.78536
G1 X86.934 Y12.435 E.01923
G1 X86.934 Y167.565 E7.78536
G1 X86.551 Y167.565 E.01923
G1 X86.551 Y12.435 E7.78536
G1 X86.168 Y12.435 E.01923
G1 X86.168 Y167.565 E7.78536
G1 X85.785 Y167.565 E.01923
G1 X85.785 Y12.435 E7.78536
G1 X85.402 Y12.435 E.01923
G1 X85.401 Y167.565 E7.78536
G1 X85.018 Y167.565 E.01923
M73 P2 R479
G1 X85.018 Y12.435 E7.78536
G1 X84.635 Y12.435 E.01923
G1 X84.635 Y167.565 E7.78536
G1 X84.252 Y167.565 E.01923
G1 X84.252 Y12.435 E7.78536
G1 X83.869 Y12.435 E.01923
G1 X83.869 Y167.565 E7.78536
G1 X83.485 Y167.565 E.01923
G1 X83.485 Y12.435 E7.78536
G1 X83.102 Y12.435 E.01923
G1 X83.102 Y167.565 E7.78536
G1 X82.719 Y167.565 E.01923
G1 X82.719 Y12.435 E7.78536
G1 X82.336 Y12.435 E.01923
G1 X82.336 Y167.565 E7.78536
G1 X81.953 Y167.565 E.01923
M73 P3 R479
G1 X81.953 Y12.435 E7.78536
G1 X81.569 Y12.435 E.01923
G1 X81.569 Y167.565 E7.78536
G1 X81.186 Y167.565 E.01923
G1 X81.186 Y12.435 E7.78536
G1 X80.803 Y12.435 E.01923
M73 P3 R478
G1 X80.803 Y167.565 E7.78536
G1 X80.42 Y167.565 E.01923
G1 X80.42 Y12.435 E7.78536
G1 X80.037 Y12.435 E.01923
G1 X80.037 Y167.565 E7.78536
G1 X79.653 Y167.565 E.01923
G1 X79.653 Y12.435 E7.78536
G1 X79.27 Y12.435 E.01923
G1 X79.27 Y167.565 E7.78536
G1 X78.887 Y167.565 E.01923
G1 X78.887 Y12.435 E7.78536
G1 X78.504 Y12.435 E.01923
G1 X78.504 Y167.565 E7.78536
G1 X78.121 Y167.565 E.01923
G1 X78.121 Y12.435 E7.78536
G1 X77.737 Y12.435 E.01923
G1 X77.737 Y167.565 E7.78536
G1 X77.354 Y167.565 E.01923
G1 X77.354 Y12.435 E7.78536
G1 X76.971 Y12.435 E.01923
G1 X76.971 Y167.565 E7.78536
G1 X76.588 Y167.565 E.01923
G1 X76.588 Y12.435 E7.78536
G1 X76.204 Y12.435 E.01923
M73 P3 R477
G1 X76.204 Y167.565 E7.78536
G1 X75.821 Y167.565 E.01923
G1 X75.821 Y12.435 E7.78536
G1 X75.438 Y12.435 E.01923
G1 X75.438 Y167.565 E7.78536
G1 X75.055 Y167.565 E.01923
G1 X75.055 Y12.435 E7.78536
G1 X74.672 Y12.435 E.01923
G1 X74.672 Y167.565 E7.78536
G1 X74.288 Y167.565 E.01923
G1 X74.288 Y12.435 E7.78536
G1 X73.905 Y12.435 E.01923
G1 X73.905 Y167.565 E7.78536
G1 X73.522 Y167.565 E.01923
G1 X73.522 Y12.435 E7.78536
G1 X73.139 Y12.435 E.01923
G1 X73.139 Y167.565 E7.78536
G1 X72.756 Y167.565 E.01923
G1 X72.756 Y12.435 E7.78536
G1 X72.372 Y12.435 E.01923
G1 X72.372 Y167.565 E7.78536
G1 X71.989 Y167.565 E.01923
M73 P3 R476
G1 X71.989 Y12.435 E7.78536
G1 X71.606 Y12.435 E.01923
G1 X71.606 Y167.565 E7.78536
G1 X71.223 Y167.565 E.01923
G1 X71.223 Y12.435 E7.78536
G1 X70.84 Y12.435 E.01923
G1 X70.84 Y167.565 E7.78536
G1 X70.456 Y167.565 E.01923
G1 X70.456 Y12.435 E7.78536
G1 X70.073 Y12.435 E.01923
G1 X70.073 Y164.173 E7.6151
G1 X69.69 Y164.173 E.01923
G1 X69.69 Y12.435 E7.6151
G1 X69.307 Y12.435 E.01923
G1 X69.307 Y164.173 E7.6151
G1 X68.923 Y164.173 E.01923
G1 X68.923 Y12.435 E7.6151
G1 X68.54 Y12.435 E.01923
G1 X68.54 Y164.173 E7.6151
G1 X68.157 Y164.173 E.01923
G1 X68.157 Y12.435 E7.6151
G1 X67.774 Y12.435 E.01923
G1 X67.774 Y164.173 E7.6151
G1 X67.391 Y164.173 E.01923
M73 P3 R475
