; generated by PrusaSlicer 2.5.0+win64 on 2022-12-07 at 00:23:31 UTC

; 

; external perimeters extrusion width = 1.00mm
; perimeters extrusion width = 1.00mm
; infill extrusion width = 1.00mm
; solid infill extrusion width = 1.00mm
; top infill extrusion width = 1.00mm
; support material extrusion width = 1.00mm
; first layer extrusion width = 0.42mm

M73 P0 R572
M107
;TYPE:Custom
G90 ; use absolute coordinates
M83 ; extruder relative mode
M140 S60 ; set final bed temp
M104 S150 ; set temporary nozzle temp to prevent oozing during homing and auto bed leveling
G4 S10 ; allow partial nozzle warmup
G28 ; home all axisG1 Z50 F240
G1 X7.6 Y10 F3000
M104 S210 ; set final nozzle temp
M190 S60 ; wait for bed temp to stabilize
M109 S210 ; wait for nozzle temp to stabilize
G1 Z0.28 F240
G92 E0
G1 Y140 E10 F1500 ; prime the nozzle
G1 X4 F5000
G92 E0
M73 P0 R571
G1 Y10 E10 F1200 ; prime the nozzle
G92 E0
G21 ; set units to millimeters
G90 ; use absolute coordinates
M83 ; use relative distances for extrusion
; Filament gcode
M107
;LAYER_CHANGE
;Z:0.35
;HEIGHT:0.35
;BEFORE_LAYER_CHANGE
G92 E0
;0.35


G1 E-1 F3600
G1 Z.35 F7800
;AFTER_LAYER_CHANGE
;0.35
G1 X103.414 Y69.487
G1 E1 F2400
;TYPE:Support material
;WIDTH:0.42
G1 F1800
G1 X100.022 Y69.487 E.17027
G1 X100.022 Y161.09 E4.59717
G1 X96.629 Y161.09 E.17027
G1 X96.629 Y167.876 E.34053
G1 X8.732 Y167.876 E4.41121
G1 X8.732 Y12.124 E7.81652
G1 X103.414 Y12.124 E4.75174
G1 X103.414 Y69.436 E2.87622
G1 X103.029 Y69.332 F7800
G1 F1800
G1 X103.029 Y12.435 E2.85545
G1 X102.646 Y12.435 E.01923
G1 X102.646 Y69.177 E2.84766
G1 X102.263 Y69.177 E.01923
G1 X102.263 Y12.435 E2.84766
G1 X101.88 Y12.435 E.01923
G1 X101.88 Y69.177 E2.84766
G1 X101.496 Y69.177 E.01923
G1 X101.496 Y12.435 E2.84766
G1 X101.113 Y12.435 E.01923
G1 X101.113 Y69.177 E2.84766
G1 X100.73 Y69.177 E.01923
G1 X100.73 Y12.435 E2.84766
G1 X100.347 Y12.435 E.01923
G1 X100.347 Y69.177 E2.84766
G1 X99.963 Y69.177 E.01923
G1 X99.963 Y12.435 E2.84766
G1 X99.58 Y12.435 E.01923
G1 X99.58 Y160.78 E7.44483
G1 X99.197 Y160.78 E.01923
G1 X99.197 Y12.435 E7.44483
G1 X98.814 Y12.435 E.01923
G1 X98.814 Y160.78 E7.44483
G1 X98.431 Y160.78 E.01923
M73 P0 R570
G1 X98.431 Y12.435 E7.44483
G1 X98.047 Y12.435 E.01923
G1 X98.047 Y160.78 E7.44483
G1 X97.664 Y160.78 E.01923
G1 X97.664 Y12.435 E7.44483
G1 X97.281 Y12.435 E.01923
G1 X97.281 Y160.78 E7.44483
G1 X96.898 Y160.78 E.01923
G1 X96.898 Y12.435 E7.44483
G1 X96.515 Y12.435 E.01923
G1 X96.515 Y160.78 E7.44483
G1 X96.319 Y160.78 E.00984
G1 X96.319 Y167.565 E.34053
G1 X96.131 Y167.565 E.0094
G1 X96.131 Y12.435 E7.78536
G1 X95.748 Y12.435 E.01923
G1 X95.748 Y167.565 E7.78536
G1 X95.365 Y167.565 E.01923
G1 X95.365 Y12.435 E7.78536
G1 X94.982 Y12.435 E.01923
G1 X94.982 Y167.565 E7.78536
G1 X94.599 Y167.565 E.01923
G1 X94.599 Y12.435 E7.78536
G1 X94.215 Y12.435 E.01923
G1 X94.215 Y167.565 E7.78536
G1 X93.832 Y167.565 E.01923
M73 P0 R569
G1 X93.832 Y12.435 E7.78536
G1 X93.449 Y12.435 E.01923
G1 X93.449 Y167.565 E7.78536
G1 X93.066 Y167.565 E.01923
G1 X93.066 Y12.435 E7.78536
G1 X92.682 Y12.435 E.01923
G1 X92.682 Y167.565 E7.78536
G1 X92.299 Y167.565 E.01923
G1 X92.299 Y12.435 E7.78536
G1 X91.916 Y12.435 E.01923
G1 X91.916 Y167.565 E7.78536
G1 X91.533 Y167.565 E.01923
G1 X91.533 Y12.435 E7.78536
G1 X91.15 Y12.435 E.01923
G1 X91.15 Y167.565 E7.78536
G1 X90.766 Y167.565 E.01923
G1 X90.766 Y12.435 E7.78536
G1 X90.383 Y12.435 E.01923
G1 X90.383 Y167.565 E7.78536
G1 X90 Y167.565 E.01923
G1 X90 Y12.435 E7.78536
G1 X89.617 Y12.435 E.01923
G1 X89.617 Y167.565 E7.78536
G1 X89.234 Y167.565 E.01923
M73 P0 R568
G1 X89.234 Y12.435 E7.78536
G1 X88.85 Y12.435 E.01923
G1 X88.85 Y167.565 E7.78536
G1 X88.467 Y167.565 E.01923
G1 X88.467 Y12.435 E7.78536
G1 X88.084 Y12.435 E.01923
G1 X88.084 Y167.565 E7.78536
G1 X87.701 Y167.565 E.01923
G1 X87.701 Y12.435 E7.78536
G1 X87.318 Y12.435 E.01923
G1 X87.318 Y167.565 E7.78536
G1 X86.934 Y167.565 E.01923
G1 X86.934 Y12.435 E7.78536
G1 X86.551 Y12.435 E.01923
G1 X86.551 Y167.565 E7.78536
G1 X86.168 Y167.565 E.01923
G1 X86.168 Y12.435 E7.78536
G1 X85.785 Y12.435 E.01923
G1 X85.785 Y167.565 E7.78536
G1 X85.401 Y167.565 E.01923
G1 X85.401 Y12.435 E7.78536
G1 X85.018 Y12.435 E.01923
M73 P0 R567
G1 X85.018 Y167.565 E7.78536
G1 X84.635 Y167.565 E.01923
G1 X84.635 Y12.435 E7.78536
G1 X84.252 Y12.435 E.01923
G1 X84.252 Y167.565 E7.78536
G1 X83.869 Y167.565 E.01923
G1 X83.869 Y12.435 E7.78536
G1 X83.485 Y12.435 E.01923
G1 X83.485 Y167.565 E7.78536
G1 X83.102 Y167.565 E.01923
G1 X83.102 Y12.435 E7.78536
G1 X82.719 Y12.435 E.01923
G1 X82.719 Y167.565 E7.78536
G1 X82.336 Y167.565 E.01923
G1 X82.336 Y12.435 E7.78536
G1 X81.953 Y12.435 E.01923
G1 X81.953 Y167.565 E7.78536
G1 X81.569 Y167.565 E.01923
G1 X81.569 Y12.435 E7.78536
G1 X81.186 Y12.435 E.01923
G1 X81.186 Y167.565 E7.78536
G1 X80.803 Y167.565 E.01923
G1 X80.803 Y12.435 E7.78536
G1 X80.42 Y12.435 E.01923
M73 P0 R566
G1 X80.42 Y167.565 E7.78536
G1 X80.037 Y167.565 E.01923
G1 X80.037 Y12.435 E7.78536
G1 X79.653 Y12.435 E.01923
G1 X79.653 Y167.565 E7.78536
G1 X79.27 Y167.565 E.01923
G1 X79.27 Y12.435 E7.78536
G1 X78.887 Y12.435 E.01923
G1 X78.887 Y167.565 E7.78536
G1 X78.504 Y167.565 E.01923
G1 X78.504 Y12.435 E7.78536
G1 X78.12 Y12.435 E.01923
G1 X78.12 Y167.565 E7.78536
G1 X77.737 Y167.565 E.01923
M73 P1 R566
G1 X77.737 Y12.435 E7.78536
G1 X77.354 Y12.435 E.01923
G1 X77.354 Y167.565 E7.78536
G1 X76.971 Y167.565 E.01923
G1 X76.971 Y12.435 E7.78536
G1 X76.588 Y12.435 E.01923
G1 X76.588 Y167.565 E7.78536
G1 X76.204 Y167.565 E.01923
M73 P1 R565
G1 X76.204 Y12.435 E7.78536
G1 X75.821 Y12.435 E.01923
G1 X75.821 Y167.565 E7.78536
G1 X75.438 Y167.565 E.01923
G1 X75.438 Y12.435 E7.78536
G1 X75.055 Y12.435 E.01923
G1 X75.055 Y167.565 E7.78536
G1 X74.672 Y167.565 E.01923
G1 X74.672 Y12.435 E7.78536
G1 X74.288 Y12.435 E.01923
G1 X74.288 Y167.565 E7.78536
G1 X73.905 Y167.565 E.01923
G1 X73.905 Y12.435 E7.78536
G1 X73.522 Y12.435 E.01923
G1 X73.522 Y167.565 E7.78536
G1 X73.139 Y167.565 E.01923
G1 X73.139 Y12.435 E7.78536
G1 X72.756 Y12.435 E.01923
G1 X72.756 Y167.565 E7.78536
G1 X72.372 Y167.565 E.01923
G1 X72.372 Y12.435 E7.78536
G1 X71.989 Y12.435 E.01923
M73 P1 R564
G1 X71.989 Y167.565 E7.78536
G1 X71.606 Y167.565 E.01923
G1 X71.606 Y12.435 E7.78536
G1 X71.223 Y12.435 E.01923
G1 X71.223 Y167.565 E7.78536
G1 X70.839 Y167.565 E.01923
G1 X70.84 Y12.435 E7.78536
G1 X70.456 Y12.435 E.01923
G1 X70.456 Y167.565 E7.78536
G1 X70.073 Y167.565 E.01923
G1 X70.073 Y12.435 E7.78536
G1 X69.69 Y12.435 E.01923
G1 X69.69 Y167.565 E7.78536
G1 X69.307 Y167.565 E.01923
G1 X69.307 Y12.435 E7.78536
G1 X68.923 Y12.435 E.01923
G1 X68.923 Y167.565 E7.78536
G1 X68.54 Y167.565 E.01923
G1 X68.54 Y12.435 E7.78536
G1 X68.157 Y12.435 E.01923
G1 X68.157 Y167.565 E7.78536
G1 X67.774 Y167.565 E.01923
G1 X67.774 Y12.435 E7.78536
G1 X67.391 Y12.435 E.01923
M73 P1 R563
G1 X67.391 Y167.565 E7.78536
G1 X67.007 Y167.565 E.01923
G1 X67.007 Y12.435 E7.78536
G1 X66.624 Y12.435 E.01923
G1 X66.624 Y167.565 E7.78536
G1 X66.241 Y167.565 E.01923
G1 X66.241 Y12.435 E7.78536
G1 X65.858 Y12.435 E.01923
G1 X65.858 Y167.565 E7.78536
G1 X65.475 Y167.565 E.01923
G1 X65.475 Y12.435 E7.78536
G1 X65.091 Y12.435 E.01923
G1 X65.091 Y167.565 E7.78536
G1 X64.708 Y167.565 E.01923
G1 X64.708 Y12.435 E7.78536
G1 X64.325 Y12.435 E.01923
G1 X64.325 Y167.565 E7.78536
G1 X63.942 Y167.565 E.01923
G1 X63.942 Y12.435 E7.78536
G1 X63.559 Y12.435 E.01923
G1 X63.559 Y167.565 E7.78536
G1 X63.175 Y167.565 E.01923
M73 P1 R562
G1 X63.175 Y12.435 E7.78536
G1 X62.792 Y12.435 E.01923
G1 X62.792 Y167.565 E7.78536
G1 X62.409 Y167.565 E.01923
G1 X62.409 Y12.435 E7.78536
G1 X62.026 Y12.435 E.01923
G1 X62.026 Y167.565 E7.78536
G1 X61.642 Y167.565 E.01923
G1 X61.642 Y12.435 E7.78536
G1 X61.259 Y12.435 E.01923
G1 X61.259 Y167.565 E7.78536
G1 X60.876 Y167.565 E.01923
G1 X60.876 Y12.435 E7.78536
G1 X60.493 Y12.435 E.01923
G1 X60.493 Y167.565 E7.78536
G1 X60.11 Y167.565 E.01923
G1 X60.11 Y12.435 E7.78536
G1 X59.726 Y12.435 E.01923
G1 X59.726 Y167.565 E7.78536
G1 X59.343 Y167.565 E.01923
G1 X59.343 Y12.435 E7.78536
G1 X58.96 Y12.435 E.01923
G1 X58.96 Y167.565 E7.78536
G1 X58.577 Y167.565 E.01923
M73 P1 R561
G1 X58.577 Y12.435 E7.78536
G1 X58.194 Y12.435 E.01923
G1 X58.194 Y167.565 E7.78536
G1 X57.81 Y167.565 E.01923
G1 X57.81 Y12.435 E7.78536
G1 X57.427 Y12.435 E.01923
G1 X57.427 Y167.565 E7.78536
G1 X57.044 Y167.565 E.01923
G1 X57.044 Y12.435 E7.78536
G1 X56.661 Y12.435 E.01923
G1 X56.661 Y167.565 E7.78536
G1 X56.278 Y167.565 E.01923
G1 X56.278 Y12.435 E7.78536
G1 X55.894 Y12.435 E.01923
G1 X55.894 Y167.565 E7.78536
G1 X55.511 Y167.565 E.01923
G1 X55.511 Y12.435 E7.78536
G1 X55.128 Y12.435 E.01923
G1 X55.128 Y167.565 E7.78536
G1 X54.745 Y167.565 E.01923
G1 X54.745 Y12.435 E7.78536
G1 X54.361 Y12.435 E.01923
M73 P1 R560
G1 X54.361 Y167.565 E7.78536
G1 X53.978 Y167.565 E.01923
G1 X53.978 Y12.435 E7.78536
G1 X53.595 Y12.435 E.01923
G1 X53.595 Y167.565 E7.78536
G1 X53.212 Y167.565 E.01923
G1 X53.212 Y12.435 E7.78536
G1 X52.829 Y12.435 E.01923
G1 X52.829 Y167.565 E7.78536
G1 X52.445 Y167.565 E.01923
M73 P2 R560
G1 X52.445 Y12.435 E7.78536
G1 X52.062 Y12.435 E.01923
G1 X52.062 Y167.565 E7.78536
G1 X51.679 Y167.565 E.01923
G1 X51.679 Y12.435 E7.78536
G1 X51.296 Y12.435 E.01923
G1 X51.296 Y167.565 E7.78536
G1 X50.913 Y167.565 E.01923
G1 X50.913 Y12.435 E7.78536
G1 X50.529 Y12.435 E.01923
G1 X50.529 Y167.565 E7.78536
G1 X50.146 Y167.565 E.01923
G1 X50.146 Y12.435 E7.78536
G1 X49.763 Y12.435 E.01923
M73 P2 R559
G1 X49.763 Y167.565 E7.78536
G1 X49.38 Y167.565 E.01923
G1 X49.38 Y12.435 E7.78536
G1 X48.997 Y12.435 E.01923
G1 X48.997 Y167.565 E7.78536
G1 X48.613 Y167.565 E.01923
G1 X48.613 Y12.435 E7.78536
G1 X48.23 Y12.435 E.01923
G1 X48.23 Y167.565 E7.78536
G1 X47.847 Y167.565 E.01923
G1 X47.847 Y12.435 E7.78536
G1 X47.464 Y12.435 E.01923
G1 X47.464 Y167.565 E7.78536
G1 X47.08 Y167.565 E.01923
G1 X47.08 Y12.435 E7.78536
G1 X46.697 Y12.435 E.01923
G1 X46.697 Y167.565 E7.78536
G1 X46.314 Y167.565 E.01923
G1 X46.314 Y12.435 E7.78536
G1 X45.931 Y12.435 E.01923
G1 X45.931 Y167.565 E7.78536
G1 X45.548 Y167.565 E.01923
M73 P2 R558
G1 X45.548 Y12.435 E7.78536
G1 X45.164 Y12.435 E.01923
G1 X45.164 Y167.565 E7.78536
G1 X44.781 Y167.565 E.01923
G1 X44.781 Y12.435 E7.78536
G1 X44.398 Y12.435 E.01923
G1 X44.398 Y167.565 E7.78536
G1 X44.015 Y167.565 E.01923
G1 X44.015 Y12.435 E7.78536
G1 X43.632 Y12.435 E.01923
G1 X43.632 Y167.565 E7.78536
G1 X43.248 Y167.565 E.01923
G1 X43.248 Y12.435 E7.78536
G1 X42.865 Y12.435 E.01923
G1 X42.865 Y167.565 E7.78536
G1 X42.482 Y167.565 E.01923
G1 X42.482 Y12.435 E7.78536
G1 X42.099 Y12.435 E.01923
G1 X42.099 Y167.565 E7.78536
G1 X41.716 Y167.565 E.01923
G1 X41.716 Y12.435 E7.78536
G1 X41.332 Y12.435 E.01923
G1 X41.332 Y167.565 E7.78536
G1 X40.949 Y167.565 E.01923
M73 P2 R557
G1 X40.949 Y12.435 E7.78536
G1 X40.566 Y12.435 E.01923
G1 X40.566 Y167.565 E7.78536
G1 X40.183 Y167.565 E.01923
G1 X40.183 Y12.435 E7.78536
G1 X39.799 Y12.435 E.01923
G1 X39.799 Y167.565 E7.78536
G1 X39.416 Y167.565 E.01923
G1 X39.416 Y12.435 E7.78536
G1 X39.033 Y12.435 E.01923
G1 X39.033 Y167.565 E7.78536
G1 X38.65 Y167.565 E.01923
G1 X38.65 Y12.435 E7.78536
G1 X38.267 Y12.435 E.01923
G1 X38.267 Y167.565 E7.78536
G1 X37.883 Y167.565 E.01923
G1 X37.883 Y12.435 E7.78536
G1 X37.5 Y12.435 E.01923
G1 X37.5 Y167.565 E7.78536
G1 X37.117 Y167.565 E.01923
G1 X37.117 Y12.435 E7.78536
G1 X36.734 Y12.435 E.01923
M73 P2 R556
G1 X36.734 Y167.565 E7.78536
G1 X36.351 Y167.565 E.01923
G1 X36.351 Y12.435 E7.78536
G1 X35.967 Y12.435 E.01923
G1 X35.967 Y167.565 E7.78536
G1 X35.584 Y167.565 E.01923
G1 X35.584 Y12.435 E7.78536
G1 X35.201 Y12.435 E.01923
G1 X35.201 Y167.565 E7.78536
G1 X34.818 Y167.565 E.01923
G1 X34.818 Y12.435 E7.78536
G1 X34.435 Y12.435 E.01923
G1 X34.435 Y167.565 E7.78536
G1 X34.051 Y167.565 E.01923
G1 X34.051 Y12.435 E7.78536
G1 X33.668 Y12.435 E.01923
G1 X33.668 Y167.565 E7.78536
G1 X33.285 Y167.565 E.01923
G1 X33.285 Y12.435 E7.78536
G1 X32.902 Y12.435 E.01923
G1 X32.902 Y167.565 E7.78536
G1 X32.518 Y167.565 E.01923
G1 X32.519 Y12.435 E7.78536
G1 X32.135 Y12.435 E.01923
M73 P2 R555
G1 X32.135 Y167.565 E7.78536
G1 X31.752 Y167.565 E.01923
G1 X31.752 Y12.435 E7.78536
G1 X31.369 Y12.435 E.01923
G1 X31.369 Y167.565 E7.78536
G1 X30.986 Y167.565 E.01923
G1 X30.986 Y12.435 E7.78536
G1 X30.602 Y12.435 E.01923
G1 X30.602 Y167.565 E7.78536
G1 X30.219 Y167.565 E.01923
G1 X30.219 Y12.435 E7.78536
G1 X29.836 Y12.435 E.01923
G1 X29.836 Y167.565 E7.78536
G1 X29.453 Y167.565 E.01923
G1 X29.453 Y12.435 E7.78536
G1 X29.07 Y12.435 E.01923
G1 X29.07 Y167.565 E7.78536
G1 X28.686 Y167.565 E.01923
G1 X28.686 Y12.435 E7.78536
G1 X28.303 Y12.435 E.01923
G1 X28.303 Y167.565 E7.78536
G1 X27.92 Y167.565 E.01923
M73 P2 R554
G1 X27.92 Y12.435 E7.78536
G1 X27.537 Y12.435 E.01923
M73 P3 R554
G1 X27.537 Y167.565 E7.78536
G1 X27.154 Y167.565 E.01923
G1 X27.154 Y12.435 E7.78536
G1 X26.77 Y12.435 E.01923
G1 X26.77 Y167.565 E7.78536
G1 X26.387 Y167.565 E.01923
G1 X26.387 Y12.435 E7.78536
G1 X26.004 Y12.435 E.01923
G1 X26.004 Y167.565 E7.78536
G1 X25.621 Y167.565 E.01923
G1 X25.621 Y12.435 E7.78536
G1 X25.238 Y12.435 E.01923
G1 X25.238 Y167.565 E7.78536
G1 X24.854 Y167.565 E.01923
G1 X24.854 Y12.435 E7.78536
G1 X24.471 Y12.435 E.01923
G1 X24.471 Y167.565 E7.78536
G1 X24.088 Y167.565 E.01923
G1 X24.088 Y12.435 E7.78536
G1 X23.705 Y12.435 E.01923
G1 X23.705 Y167.565 E7.78536
G1 X23.321 Y167.565 E.01923
M73 P3 R553
G1 X23.321 Y12.435 E7.78536
G1 X22.938 Y12.435 E.01923
G1 X22.938 Y167.565 E7.78536
G1 X22.555 Y167.565 E.01923
G1 X22.555 Y12.435 E7.78536
G1 X22.172 Y12.435 E.01923
G1 X22.172 Y167.565 E7.78536
G1 X21.789 Y167.565 E.01923
G1 X21.789 Y12.435 E7.78536
G1 X21.405 Y12.435 E.01923
G1 X21.405 Y167.565 E7.78536
G1 X21.022 Y167.565 E.01923
G1 X21.022 Y12.435 E7.78536
G1 X20.639 Y12.435 E.01923
G1 X20.639 Y167.565 E7.78536
G1 X20.256 Y167.565 E.01923
G1 X20.256 Y12.435 E7.78536
G1 X19.873 Y12.435 E.01923
G1 X19.873 Y167.565 E7.78536
G1 X19.489 Y167.565 E.01923
G1 X19.489 Y12.435 E7.78536
G1 X19.106 Y12.435 E.01923
M73 P3 R552
G1 X19.106 Y167.565 E7.78536
G1 X18.723 Y167.565 E.01923
G1 X18.723 Y12.435 E7.78536
G1 X18.34 Y12.435 E.01923
G1 X18.34 Y167.565 E7.78536
G1 X17.957 Y167.565 E.01923
G1 X17.957 Y12.435 E7.78536
G1 X17.573 Y12.435 E.01923
G1 X17.573 Y167.565 E7.78536
G1 X17.19 Y167.565 E.01923
G1 X17.19 Y12.435 E7.78536
G1 X16.807 Y12.435 E.01923
G1 X16.807 Y167.565 E7.78536
G1 X16.424 Y167.565 E.01923
G1 X16.424 Y12.435 E7.78536
G1 X16.04 Y12.435 E.01923
G1 X16.04 Y167.565 E7.78536
G1 X15.657 Y167.565 E.01923
G1 X15.657 Y12.435 E7.78536
G1 X15.274 Y12.435 E.01923
G1 X15.274 Y167.565 E7.78536
G1 X14.891 Y167.565 E.01923
M73 P3 R551
G1 X14.891 Y12.435 E7.78536
G1 X14.508 Y12.435 E.01923
G1 X14.508 Y167.565 E7.78536
G1 X14.124 Y167.565 E.01923
G1 X14.124 Y12.435 E7.78536
G1 X13.741 Y12.435 E.01923
G1 X13.741 Y167.565 E7.78536
G1 X13.358 Y167.565 E.01923
G1 X13.358 Y12.435 E7.78536
G1 X12.975 Y12.435 E.01923
G1 X12.975 Y167.565 E7.78536
G1 X12.592 Y167.565 E.01923
G1 X12.592 Y12.435 E7.78536
G1 X12.208 Y12.435 E.01923
G1 X12.208 Y167.565 E7.78536
G1 X11.825 Y167.565 E.01923
G1 X11.825 Y12.435 E7.78536
G1 X11.442 Y12.435 E.01923
G1 X11.442 Y167.565 E7.78536
G1 X11.059 Y167.565 E.01923
G1 X11.059 Y12.435 E7.78536
G1 X10.676 Y12.435 E.01923
G1 X10.676 Y167.565 E7.78536
G1 X10.292 Y167.565 E.01923
M73 P3 R550
G1 X10.292 Y12.435 E7.78536
G1 X9.909 Y12.435 E.01923
G1 X9.909 Y167.565 E7.78536
G1 X9.526 Y167.565 E.01923
G1 X9.526 Y12.435 E7.78536
G1 X9.143 Y12.435 E.01923
G1 X9.143 Y167.72 E7.79315
G1 E-.7 F3600
;WIPE_START
G1 F6240
G1 X9.143 Y167.2 E-.285
;WIPE_END
G1 E-.015 F3600
G1 X157.198 Y79.376 F7800
G1 E1 F2400
G1 F1800
G1 X157.198 Y80.478 E.05535
G1 X160.59 Y80.478 E.17027
G1 X160.59 Y83.871 E.17027
G1 X168.689 Y83.871 E.40642
G1 X168.689 Y80.871 E.15056
G1 X171.268 Y80.871 E.12947
G1 X171.268 Y167.876 E4.3664
G1 X161.403 Y167.876 E.49509
G1 X161.403 Y147.519 E1.02159
G1 X158.01 Y147.519 E.17027
G1 X158.01 Y127.163 E1.02159
G1 X154.618 Y127.163 E.17027
