; generated by PrusaSlicer 2.5.0+win64 on 2022-12-07 at 00:23:40 UTC

; 

; external perimeters extrusion width = 1.00mm
; perimeters extrusion width = 1.00mm
; infill extrusion width = 1.00mm
; solid infill extrusion width = 1.00mm
; top infill extrusion width = 1.00mm
; support material extrusion width = 1.00mm
; first layer extrusion width = 0.42mm

M73 P0 R665
M107
;TYPE:Custom
G90 ; use absolute coordinates
M83 ; extruder relative mode
M140 S60 ; set final bed temp
M104 S150 ; set temporary nozzle temp to prevent oozing during homing and auto bed leveling
G4 S10 ; allow partial nozzle warmup
G28 ; home all axisG1 Z50 F240
G1 X7.6 Y10 F3000
M104 S210 ; set final nozzle temp
M190 S60 ; wait for bed temp to stabilize
M109 S210 ; wait for nozzle temp to stabilize
G1 Z0.28 F240
G92 E0
G1 Y140 E10 F1500 ; prime the nozzle
G1 X4 F5000
G92 E0
G1 Y10 E10 F1200 ; prime the nozzle
G92 E0
G21 ; set units to millimeters
G90 ; use absolute coordinates
M83 ; use relative distances for extrusion
; Filament gcode
M107
;LAYER_CHANGE
;Z:0.35
;HEIGHT:0.35
;BEFORE_LAYER_CHANGE
G92 E0
;0.35


M73 P0 R664
G1 E-1 F3600
G1 Z.35 F7800
;AFTER_LAYER_CHANGE
;0.35
G1 X167.88 Y167.876
G1 E1 F2400
;TYPE:Support material
;WIDTH:0.42
G1 F1800
G1 X90.16 Y167.876 E3.90041
G1 X90.16 Y137.654 E1.51669
G1 X93.553 Y137.654 E.17027
G1 X93.553 Y117.298 E1.02159
G1 X96.946 Y117.298 E.17027
G1 X96.946 Y107.12 E.5108
G1 X100.339 Y107.12 E.17027
G1 X100.339 Y93.549 E.68106
G1 X103.731 Y93.549 E.17027
G1 X103.731 Y89.844 E.18597
G1 X100.339 Y89.844 E.17027
G1 X100.339 Y22.302 E3.38961
G1 X103.731 Y22.302 E.17027
G1 X103.731 Y12.124 E.5108
G1 X167.88 Y12.124 E3.21935
G1 X167.88 Y167.824 E7.81392
G1 X167.412 Y167.72 F7800
G1 F1800
G1 X167.412 Y12.435 E7.79315
G1 X167.029 Y12.435 E.01923
G1 X167.029 Y167.565 E7.78536
G1 X166.646 Y167.565 E.01923
G1 X166.646 Y12.435 E7.78536
G1 X166.263 Y12.435 E.01923
G1 X166.263 Y167.565 E7.78536
G1 X165.88 Y167.565 E.01923
G1 X165.88 Y12.435 E7.78536
G1 X165.496 Y12.435 E.01923
G1 X165.496 Y167.565 E7.78536
G1 X165.113 Y167.565 E.01923
G1 X165.113 Y12.435 E7.78536
G1 X164.73 Y12.435 E.01923
M73 P0 R663
G1 X164.73 Y167.565 E7.78536
G1 X164.347 Y167.565 E.01923
G1 X164.347 Y12.435 E7.78536
G1 X163.964 Y12.435 E.01923
G1 X163.964 Y167.565 E7.78536
G1 X163.58 Y167.565 E.01923
G1 X163.58 Y12.435 E7.78536
G1 X163.197 Y12.435 E.01923
G1 X163.197 Y167.565 E7.78536
G1 X162.814 Y167.565 E.01923
G1 X162.814 Y12.435 E7.78536
G1 X162.431 Y12.435 E.01923
G1 X162.431 Y167.565 E7.78536
G1 X162.047 Y167.565 E.01923
G1 X162.047 Y12.435 E7.78536
G1 X161.664 Y12.435 E.01923
G1 X161.664 Y167.565 E7.78536
G1 X161.281 Y167.565 E.01923
G1 X161.281 Y12.435 E7.78536
G1 X160.898 Y12.435 E.01923
G1 X160.898 Y167.565 E7.78536
G1 X160.515 Y167.565 E.01923
G1 X160.515 Y12.435 E7.78536
G1 X160.131 Y12.435 E.01923
M73 P0 R662
G1 X160.131 Y167.565 E7.78536
G1 X159.748 Y167.565 E.01923
G1 X159.748 Y12.435 E7.78536
G1 X159.365 Y12.435 E.01923
G1 X159.365 Y167.565 E7.78536
G1 X158.982 Y167.565 E.01923
G1 X158.982 Y12.435 E7.78536
G1 X158.599 Y12.435 E.01923
G1 X158.599 Y167.565 E7.78536
G1 X158.215 Y167.565 E.01923
G1 X158.215 Y12.435 E7.78536
G1 X157.832 Y12.435 E.01923
G1 X157.832 Y167.565 E7.78536
G1 X157.449 Y167.565 E.01923
G1 X157.449 Y12.435 E7.78536
G1 X157.066 Y12.435 E.01923
G1 X157.066 Y167.565 E7.78536
G1 X156.683 Y167.565 E.01923
G1 X156.683 Y12.435 E7.78536
G1 X156.299 Y12.435 E.01923
G1 X156.299 Y167.565 E7.78536
G1 X155.916 Y167.565 E.01923
M73 P0 R661
G1 X155.916 Y12.435 E7.78536
G1 X155.533 Y12.435 E.01923
G1 X155.533 Y167.565 E7.78536
G1 X155.15 Y167.565 E.01923
G1 X155.15 Y12.435 E7.78536
G1 X154.766 Y12.435 E.01923
G1 X154.766 Y167.565 E7.78536
G1 X154.383 Y167.565 E.01923
G1 X154.383 Y12.435 E7.78536
G1 X154 Y12.435 E.01923
G1 X154 Y167.565 E7.78536
G1 X153.617 Y167.565 E.01923
G1 X153.617 Y12.435 E7.78536
G1 X153.234 Y12.435 E.01923
G1 X153.234 Y167.565 E7.78536
G1 X152.85 Y167.565 E.01923
G1 X152.85 Y12.435 E7.78536
G1 X152.467 Y12.435 E.01923
G1 X152.467 Y167.565 E7.78536
G1 X152.084 Y167.565 E.01923
G1 X152.084 Y12.435 E7.78536
G1 X151.701 Y12.435 E.01923
G1 X151.701 Y167.565 E7.78536
G1 X151.318 Y167.565 E.01923
M73 P0 R660
G1 X151.318 Y12.435 E7.78536
G1 X150.934 Y12.435 E.01923
G1 X150.934 Y167.565 E7.78536
G1 X150.551 Y167.565 E.01923
G1 X150.551 Y12.435 E7.78536
G1 X150.168 Y12.435 E.01923
G1 X150.168 Y167.565 E7.78536
G1 X149.785 Y167.565 E.01923
G1 X149.785 Y12.435 E7.78536
G1 X149.402 Y12.435 E.01923
G1 X149.402 Y167.565 E7.78536
G1 X149.018 Y167.565 E.01923
G1 X149.018 Y12.435 E7.78536
G1 X148.635 Y12.435 E.01923
G1 X148.635 Y167.565 E7.78536
G1 X148.252 Y167.565 E.01923
G1 X148.252 Y12.435 E7.78536
G1 X147.869 Y12.435 E.01923
G1 X147.869 Y167.565 E7.78536
G1 X147.485 Y167.565 E.01923
G1 X147.486 Y12.435 E7.78536
G1 X147.102 Y12.435 E.01923
M73 P0 R659
G1 X147.102 Y167.565 E7.78536
G1 X146.719 Y167.565 E.01923
G1 X146.719 Y12.435 E7.78536
G1 X146.336 Y12.435 E.01923
G1 X146.336 Y167.565 E7.78536
G1 X145.953 Y167.565 E.01923
G1 X145.953 Y12.435 E7.78536
G1 X145.569 Y12.435 E.01923
G1 X145.569 Y167.565 E7.78536
G1 X145.186 Y167.565 E.01923
G1 X145.186 Y12.435 E7.78536
G1 X144.803 Y12.435 E.01923
G1 X144.803 Y167.565 E7.78536
G1 X144.42 Y167.565 E.01923
G1 X144.42 Y12.435 E7.78536
G1 X144.037 Y12.435 E.01923
G1 X144.037 Y167.565 E7.78536
G1 X143.653 Y167.565 E.01923
G1 X143.653 Y12.435 E7.78536
G1 X143.27 Y12.435 E.01923
G1 X143.27 Y167.565 E7.78536
G1 X142.887 Y167.565 E.01923
M73 P0 R658
G1 X142.887 Y12.435 E7.78536
G1 X142.504 Y12.435 E.01923
G1 X142.504 Y167.565 E7.78536
G1 X142.121 Y167.565 E.01923
G1 X142.121 Y12.435 E7.78536
G1 X141.737 Y12.435 E.01923
G1 X141.737 Y167.565 E7.78536
G1 X141.354 Y167.565 E.01923
G1 X141.354 Y12.435 E7.78536
G1 X140.971 Y12.435 E.01923
G1 X140.971 Y167.565 E7.78536
G1 X140.588 Y167.565 E.01923
G1 X140.588 Y12.435 E7.78536
G1 X140.205 Y12.435 E.01923
M73 P1 R658
G1 X140.205 Y167.565 E7.78536
G1 X139.821 Y167.565 E.01923
G1 X139.821 Y12.435 E7.78536
G1 X139.438 Y12.435 E.01923
G1 X139.438 Y167.565 E7.78536
G1 X139.055 Y167.565 E.01923
G1 X139.055 Y12.435 E7.78536
G1 X138.672 Y12.435 E.01923
G1 X138.672 Y167.565 E7.78536
G1 X138.288 Y167.565 E.01923
M73 P1 R657
G1 X138.288 Y12.435 E7.78536
G1 X137.905 Y12.435 E.01923
G1 X137.905 Y167.565 E7.78536
G1 X137.522 Y167.565 E.01923
G1 X137.522 Y12.435 E7.78536
G1 X137.139 Y12.435 E.01923
G1 X137.139 Y167.565 E7.78536
G1 X136.756 Y167.565 E.01923
G1 X136.756 Y12.435 E7.78536
G1 X136.372 Y12.435 E.01923
G1 X136.372 Y167.565 E7.78536
G1 X135.989 Y167.565 E.01923
G1 X135.989 Y12.435 E7.78536
G1 X135.606 Y12.435 E.01923
G1 X135.606 Y167.565 E7.78536
G1 X135.223 Y167.565 E.01923
G1 X135.223 Y12.435 E7.78536
G1 X134.84 Y12.435 E.01923
G1 X134.84 Y167.565 E7.78536
G1 X134.456 Y167.565 E.01923
G1 X134.456 Y12.435 E7.78536
G1 X134.073 Y12.435 E.01923
M73 P1 R656
G1 X134.073 Y167.565 E7.78536
G1 X133.69 Y167.565 E.01923
G1 X133.69 Y12.435 E7.78536
G1 X133.307 Y12.435 E.01923
G1 X133.307 Y167.565 E7.78536
G1 X132.924 Y167.565 E.01923
G1 X132.924 Y12.435 E7.78536
G1 X132.54 Y12.435 E.01923
G1 X132.54 Y167.565 E7.78536
G1 X132.157 Y167.565 E.01923
G1 X132.157 Y12.435 E7.78536
G1 X131.774 Y12.435 E.01923
G1 X131.774 Y167.565 E7.78536
G1 X131.391 Y167.565 E.01923
G1 X131.391 Y12.435 E7.78536
G1 X131.007 Y12.435 E.01923
G1 X131.007 Y167.565 E7.78536
G1 X130.624 Y167.565 E.01923
G1 X130.624 Y12.435 E7.78536
G1 X130.241 Y12.435 E.01923
G1 X130.241 Y167.565 E7.78536
G1 X129.858 Y167.565 E.01923
G1 X129.858 Y12.435 E7.78536
G1 X129.475 Y12.435 E.01923
M73 P1 R655
G1 X129.475 Y167.565 E7.78536
G1 X129.091 Y167.565 E.01923
G1 X129.091 Y12.435 E7.78536
G1 X128.708 Y12.435 E.01923
G1 X128.708 Y167.565 E7.78536
G1 X128.325 Y167.565 E.01923
G1 X128.325 Y12.435 E7.78536
G1 X127.942 Y12.435 E.01923
G1 X127.942 Y167.565 E7.78536
G1 X127.559 Y167.565 E.01923
G1 X127.559 Y12.435 E7.78536
G1 X127.175 Y12.435 E.01923
G1 X127.175 Y167.565 E7.78536
G1 X126.792 Y167.565 E.01923
G1 X126.792 Y12.435 E7.78536
G1 X126.409 Y12.435 E.01923
G1 X126.409 Y167.565 E7.78536
G1 X126.026 Y167.565 E.01923
G1 X126.026 Y12.435 E7.78536
G1 X125.643 Y12.435 E.01923
G1 X125.643 Y167.565 E7.78536
G1 X125.259 Y167.565 E.01923
M73 P1 R654
G1 X125.259 Y12.435 E7.78536
G1 X124.876 Y12.435 E.01923
G1 X124.876 Y167.565 E7.78536
G1 X124.493 Y167.565 E.01923
G1 X124.493 Y12.435 E7.78536
G1 X124.11 Y12.435 E.01923
G1 X124.11 Y167.565 E7.78536
G1 X123.726 Y167.565 E.01923
G1 X123.726 Y12.435 E7.78536
G1 X123.343 Y12.435 E.01923
G1 X123.343 Y167.565 E7.78536
G1 X122.96 Y167.565 E.01923
G1 X122.96 Y12.435 E7.78536
G1 X122.577 Y12.435 E.01923
G1 X122.577 Y167.565 E7.78536
G1 X122.194 Y167.565 E.01923
G1 X122.194 Y12.435 E7.78536
G1 X121.81 Y12.435 E.01923
G1 X121.81 Y167.565 E7.78536
G1 X121.427 Y167.565 E.01923
G1 X121.427 Y12.435 E7.78536
G1 X121.044 Y12.435 E.01923
G1 X121.044 Y167.565 E7.78536
G1 X120.661 Y167.565 E.01923
M73 P1 R653
G1 X120.661 Y12.435 E7.78536
G1 X120.278 Y12.435 E.01923
G1 X120.278 Y167.565 E7.78536
G1 X119.894 Y167.565 E.01923
G1 X119.894 Y12.435 E7.78536
G1 X119.511 Y12.435 E.01923
G1 X119.511 Y167.565 E7.78536
G1 X119.128 Y167.565 E.01923
G1 X119.128 Y12.435 E7.78536
G1 X118.745 Y12.435 E.01923
G1 X118.745 Y167.565 E7.78536
G1 X118.362 Y167.565 E.01923
G1 X118.362 Y12.435 E7.78536
G1 X117.978 Y12.435 E.01923
G1 X117.978 Y167.565 E7.78536
G1 X117.595 Y167.565 E.01923
G1 X117.595 Y12.435 E7.78536
G1 X117.212 Y12.435 E.01923
G1 X117.212 Y167.565 E7.78536
G1 X116.829 Y167.565 E.01923
G1 X116.829 Y12.435 E7.78536
G1 X116.445 Y12.435 E.01923
M73 P1 R652
G1 X116.445 Y167.565 E7.78536
G1 X116.062 Y167.565 E.01923
G1 X116.062 Y12.435 E7.78536
G1 X115.679 Y12.435 E.01923
G1 X115.679 Y167.565 E7.78536
G1 X115.296 Y167.565 E.01923
G1 X115.296 Y12.435 E7.78536
G1 X114.913 Y12.435 E.01923
G1 X114.913 Y167.565 E7.78536
G1 X114.529 Y167.565 E.01923
G1 X114.529 Y12.435 E7.78536
G1 X114.146 Y12.435 E.01923
G1 X114.146 Y167.565 E7.78536
G1 X113.763 Y167.565 E.01923
G1 X113.763 Y12.435 E7.78536
G1 X113.38 Y12.435 E.01923
G1 X113.38 Y167.565 E7.78536
G1 X112.997 Y167.565 E.01923
G1 X112.997 Y12.435 E7.78536
G1 X112.613 Y12.435 E.01923
G1 X112.613 Y167.565 E7.78536
G1 X112.23 Y167.565 E.01923
G1 X112.23 Y12.435 E7.78536
G1 X111.847 Y12.435 E.01923
M73 P1 R651
G1 X111.847 Y167.565 E7.78536
G1 X111.464 Y167.565 E.01923
G1 X111.464 Y12.435 E7.78536
G1 X111.081 Y12.435 E.01923
M73 P2 R651
G1 X111.081 Y167.565 E7.78536
G1 X110.697 Y167.565 E.01923
G1 X110.697 Y12.435 E7.78536
G1 X110.314 Y12.435 E.01923
G1 X110.314 Y167.565 E7.78536
G1 X109.931 Y167.565 E.01923
G1 X109.931 Y12.435 E7.78536
G1 X109.548 Y12.435 E.01923
G1 X109.548 Y167.565 E7.78536
G1 X109.164 Y167.565 E.01923
G1 X109.165 Y12.435 E7.78536
G1 X108.781 Y12.435 E.01923
G1 X108.781 Y167.565 E7.78536
G1 X108.398 Y167.565 E.01923
G1 X108.398 Y12.435 E7.78536
G1 X108.015 Y12.435 E.01923
G1 X108.015 Y167.565 E7.78536
G1 X107.632 Y167.565 E.01923
M73 P2 R650
G1 X107.632 Y12.435 E7.78536
G1 X107.248 Y12.435 E.01923
G1 X107.248 Y167.565 E7.78536
G1 X106.865 Y167.565 E.01923
G1 X106.865 Y12.435 E7.78536
G1 X106.482 Y12.435 E.01923
G1 X106.482 Y167.565 E7.78536
G1 X106.099 Y167.565 E.01923
G1 X106.099 Y12.435 E7.78536
G1 X105.716 Y12.435 E.01923
G1 X105.716 Y167.565 E7.78536
G1 X105.332 Y167.565 E.01923
G1 X105.332 Y12.435 E7.78536
G1 X104.949 Y12.435 E.01923
G1 X104.949 Y167.565 E7.78536
G1 X104.566 Y167.565 E.01923
G1 X104.566 Y12.435 E7.78536
G1 X104.183 Y12.435 E.01923
G1 X104.183 Y167.565 E7.78536
G1 X103.8 Y167.565 E.01923
G1 X103.8 Y93.86 E3.69899
G1 X103.416 Y93.86 E.01923
G1 X103.416 Y167.565 E3.69899
G1 X103.033 Y167.565 E.01923
G1 X103.033 Y93.86 E3.69899
G1 X102.65 Y93.86 E.01923
M73 P2 R649
G1 X102.65 Y167.565 E3.69899
G1 X102.267 Y167.565 E.01923
G1 X102.267 Y93.86 E3.69899
G1 X101.884 Y93.86 E.01923
G1 X101.884 Y167.565 E3.69899
G1 X101.5 Y167.565 E.01923
G1 X101.5 Y93.86 E3.69899
G1 X101.117 Y93.86 E.01923
G1 X101.117 Y167.565 E3.69899
G1 X100.734 Y167.565 E.01923
G1 X100.734 Y93.86 E3.69899
G1 X100.649 Y93.86 E.00426
G1 X100.649 Y107.43 E.68106
G1 X100.351 Y107.43 E.01497
G1 X100.351 Y167.565 E3.01792
G1 X99.967 Y167.565 E.01923
G1 X99.967 Y107.43 E3.01792
G1 X99.584 Y107.43 E.01923
G1 X99.584 Y167.565 E3.01792
G1 X99.201 Y167.565 E.01923
G1 X99.201 Y107.43 E3.01792
G1 X98.818 Y107.43 E.01923
G1 X98.818 Y167.565 E3.01792
G1 X98.435 Y167.565 E.01923
G1 X98.435 Y107.43 E3.01792
G1 X98.051 Y107.43 E.01923
G1 X98.051 Y167.565 E3.01792
G1 X97.668 Y167.565 E.01923
G1 X97.668 Y107.43 E3.01792
G1 X97.285 Y107.43 E.01923
G1 X97.285 Y167.565 E3.01792
G1 X96.902 Y167.565 E.01923
G1 X96.902 Y117.608 E2.50713
G1 X96.519 Y117.608 E.01923
G1 X96.519 Y167.565 E2.50713
G1 X96.135 Y167.565 E.01923
G1 X96.135 Y117.608 E2.50713
G1 X95.752 Y117.608 E.01923
G1 X95.752 Y167.565 E2.50713
G1 X95.369 Y167.565 E.01923
G1 X95.369 Y117.608 E2.50713
G1 X94.986 Y117.608 E.01923
G1 X94.986 Y167.565 E2.50713
G1 X94.603 Y167.565 E.01923
G1 X94.603 Y117.608 E2.50713
G1 X94.219 Y117.608 E.01923
G1 X94.219 Y167.565 E2.50713
G1 X93.836 Y167.565 E.01923
G1 X93.836 Y137.965 E1.48553
G1 X93.453 Y137.965 E.01923
G1 X93.453 Y167.565 E1.48553
G1 X93.07 Y167.565 E.01923
G1 X93.07 Y137.965 E1.48553
G1 X92.686 Y137.965 E.01923
G1 X92.686 Y167.565 E1.48553
G1 X92.303 Y167.565 E.01923
G1 X92.303 Y137.965 E1.48553
G1 X91.92 Y137.965 E.01923
G1 X91.92 Y167.565 E1.48553
G1 X91.537 Y167.565 E.01923
G1 X91.537 Y137.965 E1.48553
G1 X91.154 Y137.965 E.01923
G1 X91.154 Y167.565 E1.48553
G1 X90.77 Y167.565 E.01923
G1 X90.77 Y137.809 E1.49332
G1 E-.7 F3600
;WIPE_START
G1 F6240
G1 X90.77 Y138.329 E-.285
;WIPE_END
G1 E-.015 F3600
G1 X103.8 Y89.688 F7800
G1 E1 F2400
G1 F1800
G1 X103.8 Y22.613 E3.36624
G1 X103.416 Y22.613 E.01923
M73 P2 R648
G1 X103.416 Y89.533 E3.35846
G1 X103.033 Y89.533 E.01923
G1 X103.033 Y22.613 E3.35846
G1 X102.65 Y22.613 E.01923
G1 X102.65 Y89.533 E3.35846
G1 X102.267 Y89.533 E.01923
G1 X102.267 Y22.613 E3.35846
G1 X101.884 Y22.613 E.01923
G1 X101.884 Y89.533 E3.35846
G1 X101.5 Y89.533 E.01923
G1 X101.5 Y22.613 E3.35846
G1 X101.117 Y22.613 E.01923
G1 X101.117 Y89.533 E3.35846
G1 X100.734 Y89.533 E.01923
G1 X100.734 Y22.458 E3.36624
G1 E-.7 F3600
;WIPE_START
G1 F6240
G1 X100.734 Y22.978 E-.285
;WIPE_END
G1 E-.015 F3600
G1 X49.473 Y17.18 F7800
G1 E1 F2400
;TYPE:Perimeter
;WIDTH:0.42
G1 F1800
G1 X48.31 Y32.892 E.79068
G1 X33.545 Y133.7 E5.11312
G1 X33.697 Y150.557 E.84601
G1 X33.499 Y162.82 E.6155
G1 X18.741 Y162.82 E.74066
G1 X19.059 Y141.971 E1.04644
G1 X18.947 Y129.277 E.63709
G1 X34.713 Y21.743 E5.45439
G1 X35.052 Y17.18 E.22961
G1 X49.323 Y17.18 E.71622
G1 X49.845 Y16.835 F7800
;TYPE:External perimeter
G1 F1800
G1 X48.653 Y32.93 E.80993
G1 X33.886 Y133.75 E5.11374
G1 X34.042 Y150.558 E.84357
G1 X33.838 Y163.165 E.63275
G1 X18.391 Y163.165 E.77527
G1 X18.714 Y141.966 E1.06402
G1 X18.602 Y129.253 E.63801
G1 X34.372 Y21.693 E5.45572
G1 X34.732 Y16.835 E.24444
G1 X49.695 Y16.835 E.75094
G1 X49.391 Y17.726 F7800
G1 X48.664 Y17.284
;TYPE:Solid infill
;WIDTH:0.420846
G1 F1800
G1 X49.169 Y17.788 E.03591
G1 X49.135 Y18.243 E.02297
G1 X48.331 Y17.439 E.05725
G1 X47.842 Y17.439 E.0246
G1 X49.102 Y18.699 E.08964
G1 X49.068 Y19.154 E.02297
G1 X47.353 Y17.439 E.12203
G1 X46.864 Y17.439 E.0246
G1 X49.034 Y19.609 E.15442
G1 X49.001 Y20.064 E.02297
G1 X46.375 Y17.439 E.18681
G1 X45.886 Y17.439 E.0246
G1 X48.967 Y20.52 E.2192
G1 X48.933 Y20.975 E.02297
G1 X45.397 Y17.439 E.25159
G1 X44.908 Y17.439 E.0246
G1 X48.899 Y21.43 E.28398
G1 X48.866 Y21.885 E.02297
G1 X44.419 Y17.439 E.31637
G1 X43.93 Y17.439 E.0246
G1 X48.832 Y22.341 E.34876
G1 X48.798 Y22.796 E.02297
G1 X43.441 Y17.439 E.38115
G1 X42.952 Y17.439 E.0246
G1 X48.765 Y23.251 E.41353
G1 X48.731 Y23.706 E.02297
G1 X42.463 Y17.439 E.44592
G1 X41.974 Y17.439 E.0246
G1 X48.697 Y24.162 E.47831
G1 X48.664 Y24.617 E.02297
G1 X41.485 Y17.439 E.5107
G1 X40.997 Y17.439 E.0246
G1 X48.63 Y25.072 E.54309
G1 X48.596 Y25.527 E.02297
G1 X40.508 Y17.439 E.57548
G1 X40.019 Y17.439 E.0246
G1 X48.562 Y25.983 E.60787
G1 X48.529 Y26.438 E.02297
