; generated by PrusaSlicer 2.5.0+win64 on 2022-12-07 at 00:24:09 UTC

; 

; external perimeters extrusion width = 1.00mm
; perimeters extrusion width = 1.00mm
; infill extrusion width = 1.00mm
; solid infill extrusion width = 1.00mm
; top infill extrusion width = 1.00mm
; support material extrusion width = 1.00mm
; first layer extrusion width = 0.42mm

M73 P0 R203
M107
;TYPE:Custom
G90 ; use absolute coordinates
M83 ; extruder relative mode
M140 S60 ; set final bed temp
M104 S150 ; set temporary nozzle temp to prevent oozing during homing and auto bed leveling
G4 S10 ; allow partial nozzle warmup
G28 ; home all axisG1 Z50 F240
G1 X7.6 Y10 F3000
M104 S210 ; set final nozzle temp
M190 S60 ; wait for bed temp to stabilize
M109 S210 ; wait for nozzle temp to stabilize
G1 Z0.28 F240
G92 E0
G1 Y140 E10 F1500 ; prime the nozzle
G1 X4 F5000
G92 E0
G1 Y10 E10 F1200 ; prime the nozzle
G92 E0
G21 ; set units to millimeters
G90 ; use absolute coordinates
M83 ; use relative distances for extrusion
; Filament gcode
M107
;LAYER_CHANGE
;Z:0.35
;HEIGHT:0.35
;BEFORE_LAYER_CHANGE
G92 E0
;0.35


G1 E-1 F3600
G1 Z.35 F7800
;AFTER_LAYER_CHANGE
;0.35
G1 X24.49 Y14.704
G1 E1 F2400
;TYPE:Support material
;WIDTH:0.42
G1 F1800
G1 X21.49 Y14.704 E.15056
G1 X21.49 Y53.337 E1.93881
G1 X21.99 Y53.337 E.02509
G1 X21.99 Y107.12 E2.69916
G1 X25.382 Y107.12 E.17027
M73 P0 R202
G1 X25.382 Y113.905 E.34053
G1 X28.775 Y113.905 E.17027
G1 X28.775 Y120.691 E.34053
G1 X32.168 Y120.691 E.17027
G1 X32.168 Y127.476 E.34053
G1 X35.56 Y127.476 E.17027
G1 X35.56 Y134.262 E.34053
G1 X38.953 Y134.262 E.17027
G1 X38.953 Y141.047 E.34053
G1 X42.346 Y141.047 E.17027
G1 X42.346 Y147.832 E.34053
G1 X45.738 Y147.832 E.17027
G1 X45.738 Y154.618 E.34053
G1 X65.595 Y154.618 E.9965
G1 X65.595 Y155.118 E.02509
G1 X68.987 Y155.118 E.17027
G1 X68.987 Y161.903 E.34053
G1 X72.38 Y161.903 E.17027
G1 X72.38 Y165.296 E.17027
G1 X75.38 Y165.296 E.15056
G1 X75.38 Y167.876 E.12947
G1 X8.732 Y167.876 E3.34481
G1 X8.732 Y12.124 E7.81652
G1 X24.49 Y12.124 E.79082
G1 X24.49 Y14.652 E.12687
G1 E-.7 F3600
;WIPE_START
G1 F6240
G1 X24.49 Y14.132 E-.285
;WIPE_END
G1 E-.015 F3600
G1 X21.99 Y144.127 F7800
G1 E1 F2400
G1 F1800
G1 X21.99 Y154.618 E.5265
G1 X29.088 Y154.618 E.35623
G1 X29.088 Y150.912 E.18597
G1 X25.695 Y150.912 E.17027
G1 X25.695 Y144.127 E.34053
G1 X22.041 Y144.127 E.18337
G1 E-.7 F3600
;WIPE_START
G1 F6240
G1 X22.561 Y144.127 E-.285
;WIPE_END
G1 E-.015 F3600
G1 X75.055 Y167.72 F7800
G1 E1 F2400
G1 F1800
G1 X75.055 Y165.606 E.1061
G1 X74.672 Y165.606 E.01923
G1 X74.672 Y167.565 E.09831
G1 X74.288 Y167.565 E.01923
G1 X74.288 Y165.606 E.09831
G1 X73.905 Y165.606 E.01923
G1 X73.905 Y167.565 E.09831
G1 X73.522 Y167.565 E.01923
G1 X73.522 Y165.606 E.09831
G1 X73.139 Y165.606 E.01923
G1 X73.139 Y167.565 E.09831
G1 X72.756 Y167.565 E.01923
G1 X72.756 Y165.606 E.09831
G1 X72.372 Y165.606 E.01923
G1 X72.372 Y167.565 E.09831
G1 X71.989 Y167.565 E.01923
G1 X71.989 Y162.214 E.26858
G1 X71.606 Y162.214 E.01923
G1 X71.606 Y167.565 E.26858
G1 X71.223 Y167.565 E.01923
G1 X71.223 Y162.214 E.26858
G1 X70.839 Y162.214 E.01923
G1 X70.839 Y167.565 E.26858
G1 X70.456 Y167.565 E.01923
G1 X70.456 Y162.214 E.26858
G1 X70.073 Y162.214 E.01923
G1 X70.073 Y167.565 E.26858
G1 X69.69 Y167.565 E.01923
G1 X69.69 Y162.214 E.26858
G1 X69.307 Y162.214 E.01923
G1 X69.307 Y167.565 E.26858
G1 X68.923 Y167.565 E.01923
G1 X68.923 Y162.214 E.26858
G1 X68.677 Y162.214 E.01237
G1 X68.677 Y155.428 E.34053
G1 X68.54 Y155.428 E.00686
G1 X68.54 Y167.565 E.60911
G1 X68.157 Y167.565 E.01923
G1 X68.157 Y155.428 E.60911
G1 X67.774 Y155.428 E.01923
G1 X67.774 Y167.565 E.60911
G1 X67.391 Y167.565 E.01923
G1 X67.391 Y155.428 E.60911
G1 X67.007 Y155.428 E.01923
G1 X67.007 Y167.565 E.60911
G1 X66.624 Y167.565 E.01923
G1 X66.624 Y155.428 E.60911
G1 X66.241 Y155.428 E.01923
G1 X66.241 Y167.565 E.60911
G1 X65.858 Y167.565 E.01923
G1 X65.858 Y155.428 E.60911
G1 X65.475 Y155.428 E.01923
G1 X65.475 Y167.565 E.60911
G1 X65.091 Y167.565 E.01923
G1 X65.091 Y154.928 E.6342
G1 X64.708 Y154.928 E.01923
G1 X64.708 Y167.565 E.6342
G1 X64.325 Y167.565 E.01923
G1 X64.325 Y154.928 E.6342
G1 X63.942 Y154.928 E.01923
G1 X63.942 Y167.565 E.6342
G1 X63.559 Y167.565 E.01923
G1 X63.559 Y154.928 E.6342
G1 X63.175 Y154.928 E.01923
G1 X63.175 Y167.565 E.6342
G1 X62.792 Y167.565 E.01923
G1 X62.792 Y154.928 E.6342
G1 X62.409 Y154.928 E.01923
G1 X62.409 Y167.565 E.6342
G1 X62.026 Y167.565 E.01923
G1 X62.026 Y154.928 E.6342
G1 X61.642 Y154.928 E.01923
G1 X61.642 Y167.565 E.6342
G1 X61.259 Y167.565 E.01923
G1 X61.259 Y154.928 E.6342
G1 X60.876 Y154.928 E.01923
G1 X60.876 Y167.565 E.6342
G1 X60.493 Y167.565 E.01923
G1 X60.493 Y154.928 E.6342
G1 X60.11 Y154.928 E.01923
G1 X60.11 Y167.565 E.6342
G1 X59.726 Y167.565 E.01923
G1 X59.726 Y154.928 E.6342
G1 X59.343 Y154.928 E.01923
G1 X59.343 Y167.565 E.6342
G1 X58.96 Y167.565 E.01923
G1 X58.96 Y154.928 E.6342
G1 X58.577 Y154.928 E.01923
G1 X58.577 Y167.565 E.6342
G1 X58.194 Y167.565 E.01923
G1 X58.194 Y154.928 E.6342
G1 X57.81 Y154.928 E.01923
G1 X57.81 Y167.565 E.6342
G1 X57.427 Y167.565 E.01923
G1 X57.427 Y154.928 E.6342
G1 X57.044 Y154.928 E.01923
G1 X57.044 Y167.565 E.6342
G1 X56.661 Y167.565 E.01923
G1 X56.661 Y154.928 E.6342
G1 X56.278 Y154.928 E.01923
G1 X56.278 Y167.565 E.6342
G1 X55.894 Y167.565 E.01923
G1 X55.894 Y154.928 E.6342
G1 X55.511 Y154.928 E.01923
G1 X55.511 Y167.565 E.6342
G1 X55.128 Y167.565 E.01923
G1 X55.128 Y154.928 E.6342
G1 X54.745 Y154.928 E.01923
G1 X54.745 Y167.565 E.6342
G1 X54.361 Y167.565 E.01923
G1 X54.361 Y154.928 E.6342
G1 X53.978 Y154.928 E.01923
G1 X53.978 Y167.565 E.6342
G1 X53.595 Y167.565 E.01923
G1 X53.595 Y154.928 E.6342
G1 X53.212 Y154.928 E.01923
G1 X53.212 Y167.565 E.6342
G1 X52.829 Y167.565 E.01923
G1 X52.829 Y154.928 E.6342
G1 X52.445 Y154.928 E.01923
G1 X52.445 Y167.565 E.6342
G1 X52.062 Y167.565 E.01923
G1 X52.062 Y154.928 E.6342
G1 X51.679 Y154.928 E.01923
G1 X51.679 Y167.565 E.6342
G1 X51.296 Y167.565 E.01923
G1 X51.296 Y154.928 E.6342
G1 X50.913 Y154.928 E.01923
G1 X50.913 Y167.565 E.6342
G1 X50.529 Y167.565 E.01923
G1 X50.529 Y154.928 E.6342
G1 X50.146 Y154.928 E.01923
G1 X50.146 Y167.565 E.6342
G1 X49.763 Y167.565 E.01923
G1 X49.763 Y154.928 E.6342
G1 X49.38 Y154.928 E.01923
G1 X49.38 Y167.565 E.6342
G1 X48.997 Y167.565 E.01923
G1 X48.997 Y154.928 E.6342
G1 X48.613 Y154.928 E.01923
G1 X48.613 Y167.565 E.6342
G1 X48.23 Y167.565 E.01923
G1 X48.23 Y154.928 E.6342
G1 X47.847 Y154.928 E.01923
G1 X47.847 Y167.565 E.6342
G1 X47.464 Y167.565 E.01923
G1 X47.464 Y154.928 E.6342
G1 X47.08 Y154.928 E.01923
G1 X47.08 Y167.565 E.6342
G1 X46.697 Y167.565 E.01923
G1 X46.697 Y154.928 E.6342
G1 X46.314 Y154.928 E.01923
G1 X46.314 Y167.565 E.6342
G1 X45.931 Y167.565 E.01923
G1 X45.931 Y154.928 E.6342
G1 X45.548 Y154.928 E.01923
G1 X45.548 Y167.565 E.6342
G1 X45.164 Y167.565 E.01923
G1 X45.164 Y148.143 E.97474
G1 X44.781 Y148.143 E.01923
G1 X44.781 Y167.565 E.97474
G1 X44.398 Y167.565 E.01923
G1 X44.398 Y148.143 E.97474
G1 X44.015 Y148.143 E.01923
G1 X44.015 Y167.565 E.97474
G1 X43.632 Y167.565 E.01923
G1 X43.632 Y148.143 E.97474
G1 X43.248 Y148.143 E.01923
G1 X43.248 Y167.565 E.97474
G1 X42.865 Y167.565 E.01923
G1 X42.865 Y148.143 E.97474
G1 X42.482 Y148.143 E.01923
G1 X42.482 Y167.565 E.97474
G1 X42.099 Y167.565 E.01923
G1 X42.099 Y148.143 E.97474
G1 X42.035 Y148.143 E.00318
G1 X42.035 Y141.357 E.34053
G1 X41.716 Y141.357 E.01605
G1 X41.716 Y167.565 E1.31527
G1 X41.332 Y167.565 E.01923
G1 X41.332 Y141.357 E1.31527
G1 X40.949 Y141.357 E.01923
G1 X40.949 Y167.565 E1.31527
G1 X40.566 Y167.565 E.01923
G1 X40.566 Y141.357 E1.31527
G1 X40.183 Y141.357 E.01923
M73 P0 R201
G1 X40.183 Y167.565 E1.31527
G1 X39.799 Y167.565 E.01923
G1 X39.799 Y141.357 E1.31527
G1 X39.416 Y141.357 E.01923
G1 X39.416 Y167.565 E1.31527
G1 X39.033 Y167.565 E.01923
G1 X39.033 Y141.357 E1.31527
G1 X38.65 Y141.357 E.01923
G1 X38.65 Y167.565 E1.31527
G1 X38.267 Y167.565 E.01923
G1 X38.267 Y134.572 E1.6558
G1 X37.883 Y134.572 E.01923
G1 X37.883 Y167.565 E1.6558
G1 X37.5 Y167.565 E.01923
G1 X37.5 Y134.572 E1.6558
G1 X37.117 Y134.572 E.01923
G1 X37.117 Y167.565 E1.6558
G1 X36.734 Y167.565 E.01923
G1 X36.734 Y134.572 E1.6558
G1 X36.351 Y134.572 E.01923
G1 X36.351 Y167.565 E1.6558
G1 X35.967 Y167.565 E.01923
G1 X35.967 Y134.572 E1.6558
G1 X35.584 Y134.572 E.01923
G1 X35.584 Y167.565 E1.6558
G1 X35.201 Y167.565 E.01923
G1 X35.201 Y127.787 E1.99633
G1 X34.818 Y127.787 E.01923
G1 X34.818 Y167.565 E1.99633
G1 X34.435 Y167.565 E.01923
G1 X34.435 Y127.787 E1.99633
G1 X34.051 Y127.787 E.01923
G1 X34.051 Y167.565 E1.99633
G1 X33.668 Y167.565 E.01923
G1 X33.668 Y127.787 E1.99633
G1 X33.285 Y127.787 E.01923
G1 X33.285 Y167.565 E1.99633
G1 X32.902 Y167.565 E.01923
G1 X32.902 Y127.787 E1.99633
G1 X32.518 Y127.787 E.01923
G1 X32.518 Y167.565 E1.99633
G1 X32.135 Y167.565 E.01923
G1 X32.135 Y127.787 E1.99633
G1 X31.857 Y127.787 E.01395
G1 X31.857 Y121.001 E.34053
G1 X31.752 Y121.001 E.00528
G1 X31.752 Y167.565 E2.33686
G1 X31.369 Y167.565 E.01923
G1 X31.369 Y121.001 E2.33686
G1 X30.986 Y121.001 E.01923
G1 X30.986 Y167.565 E2.33686
G1 X30.602 Y167.565 E.01923
G1 X30.602 Y121.001 E2.33686
G1 X30.219 Y121.001 E.01923
G1 X30.219 Y167.565 E2.33686
G1 X29.836 Y167.565 E.01923
G1 X29.836 Y121.001 E2.33686
G1 X29.453 Y121.001 E.01923
G1 X29.453 Y167.565 E2.33686
G1 X29.07 Y167.565 E.01923
G1 X29.07 Y154.928 E.6342
G1 X28.686 Y154.928 E.01923
G1 X28.686 Y167.565 E.6342
G1 X28.303 Y167.565 E.01923
G1 X28.303 Y154.928 E.6342
G1 X27.92 Y154.928 E.01923
G1 X27.92 Y167.565 E.6342
G1 X27.537 Y167.565 E.01923
G1 X27.537 Y154.928 E.6342
G1 X27.154 Y154.928 E.01923
G1 X27.154 Y167.565 E.6342
G1 X26.77 Y167.565 E.01923
G1 X26.77 Y154.928 E.6342
G1 X26.387 Y154.928 E.01923
G1 X26.387 Y167.565 E.6342
G1 X26.004 Y167.565 E.01923
G1 X26.004 Y154.928 E.6342
G1 X25.621 Y154.928 E.01923
G1 X25.621 Y167.565 E.6342
G1 X25.238 Y167.565 E.01923
G1 X25.238 Y154.928 E.6342
G1 X24.854 Y154.928 E.01923
G1 X24.854 Y167.565 E.6342
G1 X24.471 Y167.565 E.01923
G1 X24.471 Y154.928 E.6342
G1 X24.088 Y154.928 E.01923
G1 X24.088 Y167.565 E.6342
G1 X23.705 Y167.565 E.01923
G1 X23.705 Y154.928 E.6342
G1 X23.321 Y154.928 E.01923
G1 X23.321 Y167.565 E.6342
G1 X22.938 Y167.565 E.01923
G1 X22.938 Y154.928 E.6342
G1 X22.555 Y154.928 E.01923
M73 P1 R201
G1 X22.555 Y167.565 E.6342
G1 X22.172 Y167.565 E.01923
G1 X22.172 Y154.773 E.64199
G1 E-.7 F3600
;WIPE_START
G1 F6240
G1 X22.172 Y155.293 E-.285
;WIPE_END
G1 E-.015 F3600
G1 X29.07 Y150.757 F7800
G1 E1 F2400
G1 F1800
G1 X29.07 Y121.001 E1.49332
G1 X28.686 Y121.001 E.01923
G1 X28.686 Y150.602 E1.48553
G1 X28.303 Y150.602 E.01923
G1 X28.303 Y114.216 E1.82606
G1 X27.92 Y114.216 E.01923
G1 X27.92 Y150.602 E1.82606
G1 X27.537 Y150.602 E.01923
G1 X27.537 Y114.216 E1.82606
G1 X27.154 Y114.216 E.01923
G1 X27.154 Y150.602 E1.82606
G1 X26.77 Y150.602 E.01923
G1 X26.77 Y114.216 E1.82606
G1 X26.387 Y114.216 E.01923
G1 X26.387 Y150.602 E1.82606
G1 X26.006 Y150.602 E.01915
G1 X26.004 Y114.216 E1.82606
G1 X25.621 Y114.216 E.01923
G1 X25.621 Y143.816 E1.48553
G1 X25.238 Y143.816 E.01923
M73 P1 R200
G1 X25.238 Y114.216 E1.48553
G1 X25.072 Y114.216 E.00831
G1 X25.072 Y107.43 E.34053
G1 X24.854 Y107.43 E.01092
G1 X24.854 Y143.816 E1.82606
G1 X24.471 Y143.816 E.01923
G1 X24.471 Y107.43 E1.82606
G1 X24.088 Y107.43 E.01923
G1 X24.088 Y143.816 E1.82606
G1 X23.705 Y143.816 E.01923
G1 X23.705 Y107.43 E1.82606
G1 X23.321 Y107.43 E.01923
G1 X23.321 Y143.816 E1.82606
G1 X22.938 Y143.816 E.01923
G1 X22.938 Y107.43 E1.82606
G1 X22.555 Y107.43 E.01923
G1 X22.555 Y143.816 E1.82606
G1 X22.172 Y143.816 E.01923
G1 X22.172 Y107.43 E1.82606
G1 X21.789 Y107.43 E.01923
G1 X21.789 Y167.565 E3.01792
G1 X21.405 Y167.565 E.01923
G1 X21.405 Y53.647 E5.71708
G1 X21.179 Y53.647 E.01135
G1 X21.179 Y22.592 E1.55851
G1 X21.179 Y14.394 E.41145
G1 X21.405 Y14.394 E.01136
G1 X21.405 Y12.435 E.09831
G1 X21.789 Y12.435 E.01923
G1 X21.789 Y14.394 E.09831
G1 X22.172 Y14.394 E.01923
G1 X22.172 Y12.435 E.09831
G1 X22.555 Y12.435 E.01923
G1 X22.555 Y14.394 E.09831
G1 X22.938 Y14.394 E.01923
G1 X22.938 Y12.435 E.09831
G1 X23.321 Y12.435 E.01923
G1 X23.321 Y14.394 E.09831
G1 X23.705 Y14.394 E.01923
G1 X23.705 Y12.435 E.09831
G1 X24.088 Y12.435 E.01923
G1 X24.088 Y14.549 E.1061
G1 E-.7 F3600
;WIPE_START
G1 F6240
G1 X24.088 Y14.029 E-.285
;WIPE_END
G1 E-.015 F3600
G1 X21.022 Y167.72 F7800
G1 E1 F2400
G1 F1800
G1 X21.022 Y12.435 E7.79315
G1 X20.639 Y12.435 E.01923
G1 X20.639 Y167.565 E7.78536
G1 X20.256 Y167.565 E.01923
G1 X20.256 Y12.435 E7.78536
G1 X19.873 Y12.435 E.01923
G1 X19.873 Y167.565 E7.78536
G1 X19.489 Y167.565 E.01923
G1 X19.489 Y12.435 E7.78536
G1 X19.106 Y12.435 E.01923
G1 X19.106 Y167.565 E7.78536
G1 X18.723 Y167.565 E.01923
G1 X18.723 Y12.435 E7.78536
G1 X18.34 Y12.435 E.01923
G1 X18.34 Y167.565 E7.78536
G1 X17.957 Y167.565 E.01923
M73 P1 R199
G1 X17.957 Y12.435 E7.78536
G1 X17.573 Y12.435 E.01923
G1 X17.573 Y167.565 E7.78536
G1 X17.19 Y167.565 E.01923
G1 X17.19 Y12.435 E7.78536
G1 X16.807 Y12.435 E.01923
G1 X16.807 Y167.565 E7.78536
G1 X16.424 Y167.565 E.01923
G1 X16.424 Y12.435 E7.78536
G1 X16.04 Y12.435 E.01923
G1 X16.04 Y167.565 E7.78536
G1 X15.657 Y167.565 E.01923
G1 X15.657 Y12.435 E7.78536
G1 X15.274 Y12.435 E.01923
G1 X15.274 Y167.565 E7.78536
G1 X14.891 Y167.565 E.01923
G1 X14.891 Y12.435 E7.78536
G1 X14.508 Y12.435 E.01923
M73 P2 R199
G1 X14.508 Y167.565 E7.78536
G1 X14.124 Y167.565 E.01923
G1 X14.124 Y12.435 E7.78536
G1 X13.741 Y12.435 E.01923
M73 P2 R198
G1 X13.741 Y167.565 E7.78536
G1 X13.358 Y167.565 E.01923
G1 X13.358 Y12.435 E7.78536
G1 X12.975 Y12.435 E.01923
G1 X12.975 Y167.565 E7.78536
G1 X12.592 Y167.565 E.01923
G1 X12.592 Y12.435 E7.78536
G1 X12.208 Y12.435 E.01923
G1 X12.208 Y167.565 E7.78536
G1 X11.825 Y167.565 E.01923
G1 X11.825 Y12.435 E7.78536
G1 X11.442 Y12.435 E.01923
G1 X11.442 Y167.565 E7.78536
G1 X11.059 Y167.565 E.01923
G1 X11.059 Y12.435 E7.78536
G1 X10.676 Y12.435 E.01923
G1 X10.676 Y167.565 E7.78536
G1 X10.292 Y167.565 E.01923
G1 X10.292 Y12.435 E7.78536
G1 X9.909 Y12.435 E.01923
G1 X9.909 Y167.565 E7.78536
G1 X9.526 Y167.565 E.01923
G1 X9.526 Y12.435 E7.78536
G1 X9.143 Y12.435 E.01923
M73 P2 R197
G1 X9.143 Y167.72 E7.79315
G1 E-.7 F3600
;WIPE_START
G1 F6240
G1 X9.143 Y167.2 E-.285
;WIPE_END
G1 E-.015 F3600
G1 X28.85 Y80.224 F7800
G1 E1 F2400
;TYPE:Support material interface
;WIDTH:1
G1 F1800
G1 X28.85 Y15.361 E8.72949
G1 X27.957 Y15.361 E.12014
G1 X27.957 Y73.037 E7.76223
G1 X27.065 Y73.037 E.12014
G1 X27.065 Y15.361 E7.76223
G1 X26.172 Y15.361 E.12014
G1 X26.172 Y73.037 E7.76223
G1 X25.539 Y73.037 E.08523
G1 X25.539 Y52.68 E2.73961
G1 X25.279 Y52.68 E.03491
G1 X25.279 Y15.361 E5.02262
G1 X24.387 Y15.361 E.12014
G1 X24.387 Y52.68 E5.02262
G1 X23.494 Y52.68 E.12014
G1 X23.494 Y15.361 E5.02262
G1 X22.601 Y15.361 E.12014
G1 X22.601 Y53.082 E5.07668
G1 E-.7 F3600
;WIPE_START
G1 F6240
G1 X22.601 Y52.562 E-.285
;WIPE_END
G1 E-.015 F3600
G1 X63.665 Y22.548 F7800
G1 E1 F2400
G1 F1800
G1 X63.665 Y15.361 E.96727
G1 X64.558 Y15.361 E.12014
G1 X64.558 Y22.146 E.91321
G1 X65.451 Y22.146 E.12014
G1 X65.451 Y15.361 E.91321
G1 X66.343 Y15.361 E.12014
G1 X66.343 Y22.146 E.91321
G1 X67.236 Y22.146 E.12014
G1 X67.236 Y15.361 E.91321
G1 X68.129 Y15.361 E.12014
G1 X68.129 Y22.146 E.91321
G1 X69.022 Y22.146 E.12014
G1 X69.022 Y15.361 E.91321
G1 X69.914 Y15.361 E.12014
G1 X69.914 Y22.146 E.91321
G1 X70.807 Y22.146 E.12014
G1 X70.807 Y15.361 E.91321
G1 X71.7 Y15.361 E.12014
G1 X71.7 Y22.146 E.91321
G1 X72.592 Y22.146 E.12014
G1 X72.592 Y15.361 E.91321
G1 X73.485 Y15.361 E.12014
G1 X73.485 Y22.146 E.91321
G1 X74.378 Y22.146 E.12014
G1 X74.378 Y15.361 E.91321
G1 X75.27 Y15.361 E.12014
G1 X75.27 Y22.146 E.91321
G1 X76.163 Y22.146 E.12014
G1 X76.163 Y15.361 E.91321
G1 X77.056 Y15.361 E.12014
G1 X77.056 Y22.146 E.91321
G1 X77.949 Y22.146 E.12014
G1 X77.949 Y15.361 E.91321
G1 X78.841 Y15.361 E.12014
G1 X78.841 Y22.146 E.91321
G1 X79.734 Y22.146 E.12014
G1 X79.734 Y15.361 E.91321
G1 X80.627 Y15.361 E.12014
G1 X80.627 Y22.146 E.91321
