; generated by PrusaSlicer 2.5.0+win64 on 2022-12-07 at 00:24:18 UTC

; 

; external perimeters extrusion width = 1.00mm
; perimeters extrusion width = 1.00mm
; infill extrusion width = 1.00mm
; solid infill extrusion width = 1.00mm
; top infill extrusion width = 1.00mm
; support material extrusion width = 1.00mm
; first layer extrusion width = 0.42mm

M73 P0 R253
M107
;TYPE:Custom
G90 ; use absolute coordinates
M83 ; extruder relative mode
M140 S60 ; set final bed temp
M104 S150 ; set temporary nozzle temp to prevent oozing during homing and auto bed leveling
G4 S10 ; allow partial nozzle warmup
G28 ; home all axisG1 Z50 F240
G1 X7.6 Y10 F3000
M104 S210 ; set final nozzle temp
M190 S60 ; wait for bed temp to stabilize
M109 S210 ; wait for nozzle temp to stabilize
G1 Z0.28 F240
G92 E0
G1 Y140 E10 F1500 ; prime the nozzle
G1 X4 F5000
G92 E0
M73 P0 R252
G1 Y10 E10 F1200 ; prime the nozzle
G92 E0
G21 ; set units to millimeters
G90 ; use absolute coordinates
M83 ; use relative distances for extrusion
; Filament gcode
M107
;LAYER_CHANGE
;Z:0.35
;HEIGHT:0.35
;BEFORE_LAYER_CHANGE
G92 E0
;0.35


G1 E-1 F3600
G1 Z.35 F7800
;AFTER_LAYER_CHANGE
;0.35
G1 X12.781 Y14.959
G1 E1 F2400
;TYPE:Support material interface
;WIDTH:1
G1 F1800
G1 X12.781 Y73.036 E7.81629
G1 X13.674 Y73.036 E.12014
G1 X13.674 Y15.361 E7.76223
G1 X14.567 Y15.361 E.12014
G1 X14.567 Y73.036 E7.76223
G1 X15.46 Y73.036 E.12014
G1 X15.46 Y15.361 E7.76223
G1 X16.352 Y15.361 E.12014
G1 X16.352 Y73.036 E7.76223
G1 X17.245 Y73.036 E.12014
G1 X17.245 Y15.361 E7.76223
G1 X18.138 Y15.361 E.12014
G1 X18.138 Y73.438 E7.81629
G1 E-.7 F3600
;WIPE_START
G1 F6240
G1 X18.138 Y72.918 E-.285
;WIPE_END
G1 E-.015 F3600
G1 X11.311 Y73.693 F7800
G1 E1 F2400
;TYPE:Support material
;WIDTH:0.42
G1 F1800
G1 X18.097 Y73.693 E.34053
G1 X18.097 Y77.086 E.17027
G1 X21.99 Y77.086 E.19536
G1 X21.99 Y96.942 E.9965
G1 X28.775 Y96.942 E.34053
G1 X28.775 Y100.335 E.17027
G1 X35.56 Y100.335 E.34053
G1 X35.56 Y103.727 E.17027
G1 X42.346 Y103.727 E.34053
G1 X42.346 Y107.12 E.17027
G1 X49.131 Y107.12 E.34053
G1 X49.131 Y110.513 E.17027
G1 X55.917 Y110.513 E.34053
G1 X55.917 Y113.905 E.17027
G1 X62.702 Y113.905 E.34053
G1 X62.702 Y117.298 E.17027
G1 X69.487 Y117.298 E.34053
G1 X69.487 Y120.691 E.17027
G1 X72.88 Y120.691 E.17027
G1 X72.88 Y124.083 E.17027
G1 X79.665 Y124.083 E.34053
G1 X79.665 Y127.476 E.17027
G1 X86.451 Y127.476 E.34053
G1 X86.451 Y130.869 E.17027
G1 X93.236 Y130.869 E.34053
G1 X93.236 Y134.262 E.17027
G1 X100.022 Y134.262 E.34053
G1 X100.022 Y137.654 E.17027
G1 X106.807 Y137.654 E.34053
G1 X106.807 Y141.047 E.17027
G1 X113.592 Y141.047 E.34053
G1 X113.592 Y144.44 E.17027
G1 X120.378 Y144.44 E.34053
G1 X120.378 Y147.832 E.17027
G1 X123.771 Y147.832 E.17027
G1 X123.771 Y151.225 E.17027
G1 X127.163 Y151.225 E.17027
G1 X127.163 Y154.618 E.17027
G1 X158.01 Y154.618 E1.54809
G1 X158.01 Y151.725 E.14517
G1 X168.689 Y151.725 E.53589
G1 X168.689 Y148.725 E.15056
G1 X171.268 Y148.725 E.12947
G1 X171.268 Y167.876 E.96109
G1 X8.732 Y167.876 E8.15705
G1 X8.732 Y70.693 E4.8772
G1 X11.311 Y70.693 E.12947
G1 X11.311 Y73.641 E.14796
G1 X21.99 Y147.519 F7800
G1 F1800
G1 X21.99 Y154.618 E.35623
G1 X35.873 Y154.618 E.69677
G1 X35.873 Y150.912 E.18597
G1 X29.088 Y150.912 E.34053
G1 X29.088 Y147.519 E.17027
G1 X22.041 Y147.519 E.35364
G1 X21.99 Y113.592 F7800
G1 F1800
G1 X21.99 Y127.476 E.69677
G1 X28.775 Y127.476 E.34053
G1 X28.775 Y130.869 E.17027
G1 X32.168 Y130.869 E.17027
G1 X32.168 Y134.262 E.17027
G1 X38.953 Y134.262 E.34053
G1 X38.953 Y137.654 E.17027
G1 X45.738 Y137.654 E.34053
G1 X45.738 Y141.047 E.17027
G1 X52.524 Y141.047 E.34053
G1 X52.524 Y144.44 E.17027
G1 X59.309 Y144.44 E.34053
G1 X59.309 Y147.832 E.17027
G1 X66.095 Y147.832 E.34053
G1 X66.095 Y151.225 E.17027
G1 X72.88 Y151.225 E.34053
G1 X72.88 Y154.618 E.17027
G1 X96.942 Y154.618 E1.20756
G1 X96.942 Y150.912 E.18597
G1 X90.156 Y150.912 E.34053
G1 X90.156 Y147.519 E.17027
G1 X83.371 Y147.519 E.34053
G1 X83.371 Y144.127 E.17027
G1 X76.586 Y144.127 E.34053
G1 X76.586 Y140.734 E.17027
G1 X69.8 Y140.734 E.34053
G1 X69.8 Y137.341 E.17027
G1 X63.015 Y137.341 E.34053
G1 X63.015 Y133.949 E.17027
G1 X59.622 Y133.949 E.17027
G1 X59.622 Y130.556 E.17027
G1 X52.837 Y130.556 E.34053
G1 X52.837 Y127.163 E.17027
G1 X46.051 Y127.163 E.34053
G1 X46.051 Y123.771 E.17027
G1 X39.266 Y123.771 E.34053
G1 X39.266 Y120.378 E.17027
G1 X32.481 Y120.378 E.34053
G1 X32.481 Y116.985 E.17027
G1 X25.695 Y116.985 E.34053
G1 X25.695 Y113.592 E.17027
G1 X22.041 Y113.592 E.18337
G1 E-.7 F3600
;WIPE_START
G1 F6240
G1 X22.561 Y113.592 E-.285
;WIPE_END
G1 E-.015 F3600
G1 X170.857 Y167.72 F7800
G1 E1 F2400
G1 F1800
G1 X170.857 Y149.035 E.93772
G1 X170.474 Y149.035 E.01923
G1 X170.474 Y167.565 E.92993
G1 X170.091 Y167.565 E.01923
G1 X170.091 Y149.035 E.92993
G1 X169.708 Y149.035 E.01923
G1 X169.708 Y167.565 E.92993
G1 X169.324 Y167.565 E.01923
G1 X169.324 Y149.035 E.92993
G1 X168.999 Y149.035 E.01634
M73 P0 R251
G1 X168.999 Y152.035 E.15056
G1 X168.941 Y152.035 E.00289
G1 X168.941 Y167.565 E.77938
G1 X168.558 Y167.565 E.01923
G1 X168.558 Y152.035 E.77938
G1 X168.175 Y152.035 E.01923
G1 X168.175 Y167.565 E.77938
G1 X167.792 Y167.565 E.01923
G1 X167.792 Y152.035 E.77938
G1 X167.408 Y152.035 E.01923
G1 X167.408 Y167.565 E.77938
G1 X167.025 Y167.565 E.01923
G1 X167.025 Y152.035 E.77938
G1 X166.642 Y152.035 E.01923
G1 X166.642 Y167.565 E.77938
G1 X166.259 Y167.565 E.01923
G1 X166.259 Y152.035 E.77938
G1 X165.876 Y152.035 E.01923
G1 X165.876 Y167.565 E.77938
G1 X165.492 Y167.565 E.01923
G1 X165.492 Y152.035 E.77938
G1 X165.109 Y152.035 E.01923
G1 X165.109 Y167.565 E.77938
G1 X164.726 Y167.565 E.01923
G1 X164.726 Y152.035 E.77938
G1 X164.343 Y152.035 E.01923
G1 X164.343 Y167.565 E.77938
G1 X163.96 Y167.565 E.01923
G1 X163.96 Y152.035 E.77938
G1 X163.576 Y152.035 E.01923
G1 X163.576 Y167.565 E.77938
G1 X163.193 Y167.565 E.01923
G1 X163.193 Y152.035 E.77938
G1 X162.81 Y152.035 E.01923
G1 X162.81 Y167.565 E.77938
G1 X162.427 Y167.565 E.01923
G1 X162.427 Y152.035 E.77938
G1 X162.043 Y152.035 E.01923
G1 X162.043 Y167.565 E.77938
G1 X161.66 Y167.565 E.01923
G1 X161.66 Y152.035 E.77938
G1 X161.277 Y152.035 E.01923
G1 X161.277 Y167.565 E.77938
G1 X160.894 Y167.565 E.01923
G1 X160.894 Y152.035 E.77938
G1 X160.511 Y152.035 E.01923
G1 X160.511 Y167.565 E.77938
G1 X160.127 Y167.565 E.01923
G1 X160.127 Y152.035 E.77938
G1 X159.744 Y152.035 E.01923
G1 X159.744 Y167.565 E.77938
G1 X159.361 Y167.565 E.01923
G1 X159.361 Y152.035 E.77938
G1 X158.978 Y152.035 E.01923
G1 X158.978 Y167.565 E.77938
G1 X158.595 Y167.565 E.01923
G1 X158.595 Y152.035 E.77938
G1 X158.321 Y152.035 E.01374
G1 X158.321 Y154.928 E.14517
G1 X158.211 Y154.928 E.00549
G1 X158.211 Y167.565 E.6342
G1 X157.828 Y167.565 E.01923
G1 X157.828 Y154.928 E.6342
G1 X157.445 Y154.928 E.01923
G1 X157.445 Y167.565 E.6342
G1 X157.062 Y167.565 E.01923
G1 X157.062 Y154.928 E.6342
G1 X156.679 Y154.928 E.01923
G1 X156.679 Y167.565 E.6342
G1 X156.295 Y167.565 E.01923
G1 X156.295 Y154.928 E.6342
G1 X155.912 Y154.928 E.01923
G1 X155.912 Y167.565 E.6342
G1 X155.529 Y167.565 E.01923
G1 X155.529 Y154.928 E.6342
G1 X155.146 Y154.928 E.01923
G1 X155.146 Y167.565 E.6342
G1 X154.762 Y167.565 E.01923
G1 X154.762 Y154.928 E.6342
G1 X154.379 Y154.928 E.01923
G1 X154.379 Y167.565 E.6342
G1 X153.996 Y167.565 E.01923
G1 X153.996 Y154.928 E.6342
G1 X153.613 Y154.928 E.01923
G1 X153.613 Y167.565 E.6342
G1 X153.23 Y167.565 E.01923
G1 X153.23 Y154.928 E.6342
G1 X152.846 Y154.928 E.01923
G1 X152.846 Y167.565 E.6342
G1 X152.463 Y167.565 E.01923
G1 X152.463 Y154.928 E.6342
G1 X152.08 Y154.928 E.01923
G1 X152.08 Y167.565 E.6342
G1 X151.697 Y167.565 E.01923
G1 X151.697 Y154.928 E.6342
G1 X151.314 Y154.928 E.01923
G1 X151.314 Y167.565 E.6342
G1 X150.93 Y167.565 E.01923
G1 X150.93 Y154.928 E.6342
G1 X150.547 Y154.928 E.01923
G1 X150.547 Y167.565 E.6342
G1 X150.164 Y167.565 E.01923
G1 X150.164 Y154.928 E.6342
G1 X149.781 Y154.928 E.01923
G1 X149.781 Y167.565 E.6342
G1 X149.398 Y167.565 E.01923
G1 X149.398 Y154.928 E.6342
G1 X149.014 Y154.928 E.01923
G1 X149.014 Y167.565 E.6342
G1 X148.631 Y167.565 E.01923
G1 X148.631 Y154.928 E.6342
G1 X148.248 Y154.928 E.01923
G1 X148.248 Y167.565 E.6342
G1 X147.865 Y167.565 E.01923
G1 X147.865 Y154.928 E.6342
G1 X147.481 Y154.928 E.01923
G1 X147.481 Y167.565 E.6342
G1 X147.098 Y167.565 E.01923
G1 X147.098 Y154.928 E.6342
G1 X146.715 Y154.928 E.01923
G1 X146.715 Y167.565 E.6342
G1 X146.332 Y167.565 E.01923
G1 X146.332 Y154.928 E.6342
G1 X145.949 Y154.928 E.01923
G1 X145.949 Y167.565 E.6342
G1 X145.565 Y167.565 E.01923
G1 X145.565 Y154.928 E.6342
G1 X145.182 Y154.928 E.01923
G1 X145.182 Y167.565 E.6342
G1 X144.799 Y167.565 E.01923
G1 X144.799 Y154.928 E.6342
G1 X144.416 Y154.928 E.01923
G1 X144.416 Y167.565 E.6342
G1 X144.033 Y167.565 E.01923
G1 X144.033 Y154.928 E.6342
G1 X143.649 Y154.928 E.01923
G1 X143.649 Y167.565 E.6342
G1 X143.266 Y167.565 E.01923
G1 X143.266 Y154.928 E.6342
G1 X142.883 Y154.928 E.01923
G1 X142.883 Y167.565 E.6342
G1 X142.5 Y167.565 E.01923
G1 X142.5 Y154.928 E.6342
G1 X142.117 Y154.928 E.01923
G1 X142.117 Y167.565 E.6342
G1 X141.733 Y167.565 E.01923
G1 X141.733 Y154.928 E.6342
G1 X141.35 Y154.928 E.01923
G1 X141.35 Y167.565 E.6342
G1 X140.967 Y167.565 E.01923
G1 X140.967 Y154.928 E.6342
G1 X140.584 Y154.928 E.01923
G1 X140.584 Y167.565 E.6342
G1 X140.2 Y167.565 E.01923
G1 X140.2 Y154.928 E.6342
G1 X139.817 Y154.928 E.01923
G1 X139.817 Y167.565 E.6342
G1 X139.434 Y167.565 E.01923
G1 X139.434 Y154.928 E.6342
G1 X139.051 Y154.928 E.01923
G1 X139.051 Y167.565 E.6342
G1 X138.668 Y167.565 E.01923
G1 X138.668 Y154.928 E.6342
G1 X138.284 Y154.928 E.01923
G1 X138.284 Y167.565 E.6342
G1 X137.901 Y167.565 E.01923
G1 X137.901 Y154.928 E.6342
G1 X137.518 Y154.928 E.01923
G1 X137.518 Y167.565 E.6342
G1 X137.135 Y167.565 E.01923
G1 X137.135 Y154.928 E.6342
G1 X136.752 Y154.928 E.01923
G1 X136.752 Y167.565 E.6342
G1 X136.368 Y167.565 E.01923
G1 X136.368 Y154.928 E.6342
G1 X135.985 Y154.928 E.01923
G1 X135.985 Y167.565 E.6342
G1 X135.602 Y167.565 E.01923
G1 X135.602 Y154.928 E.6342
G1 X135.219 Y154.928 E.01923
G1 X135.219 Y167.565 E.6342
G1 X134.836 Y167.565 E.01923
G1 X134.836 Y154.928 E.6342
G1 X134.452 Y154.928 E.01923
G1 X134.452 Y167.565 E.6342
G1 X134.069 Y167.565 E.01923
G1 X134.069 Y154.928 E.6342
G1 X133.686 Y154.928 E.01923
G1 X133.686 Y167.565 E.6342
G1 X133.303 Y167.565 E.01923
G1 X133.303 Y154.928 E.6342
G1 X132.92 Y154.928 E.01923
G1 X132.92 Y167.565 E.6342
G1 X132.536 Y167.565 E.01923
G1 X132.536 Y154.928 E.6342
G1 X132.153 Y154.928 E.01923
G1 X132.153 Y167.565 E.6342
G1 X131.77 Y167.565 E.01923
G1 X131.77 Y154.928 E.6342
G1 X131.387 Y154.928 E.01923
G1 X131.387 Y167.565 E.6342
G1 X131.003 Y167.565 E.01923
G1 X131.003 Y154.928 E.6342
G1 X130.62 Y154.928 E.01923
G1 X130.62 Y167.565 E.6342
G1 X130.237 Y167.565 E.01923
G1 X130.237 Y154.928 E.6342
G1 X129.854 Y154.928 E.01923
G1 X129.854 Y167.565 E.6342
G1 X129.471 Y167.565 E.01923
G1 X129.471 Y154.928 E.6342
G1 X129.087 Y154.928 E.01923
G1 X129.087 Y167.565 E.6342
G1 X128.704 Y167.565 E.01923
G1 X128.704 Y154.928 E.6342
G1 X128.321 Y154.928 E.01923
G1 X128.321 Y167.565 E.6342
G1 X127.938 Y167.565 E.01923
G1 X127.938 Y154.928 E.6342
G1 X127.555 Y154.928 E.01923
G1 X127.555 Y167.565 E.6342
G1 X127.171 Y167.565 E.01923
G1 X127.171 Y154.928 E.6342
G1 X126.853 Y154.928 E.01598
G1 X126.853 Y151.535 E.17027
G1 X126.788 Y151.535 E.00325
G1 X126.788 Y167.565 E.80447
G1 X126.405 Y167.565 E.01923
G1 X126.405 Y151.535 E.80447
G1 X126.022 Y151.535 E.01923
G1 X126.022 Y167.565 E.80447
G1 X125.639 Y167.565 E.01923
G1 X125.639 Y151.535 E.80447
G1 X125.255 Y151.535 E.01923
G1 X125.255 Y167.565 E.80447
G1 X124.872 Y167.565 E.01923
G1 X124.872 Y151.535 E.80447
G1 X124.489 Y151.535 E.01923
M73 P0 R250
G1 X124.489 Y167.565 E.80447
G1 X124.106 Y167.565 E.01923
G1 X124.106 Y151.535 E.80447
G1 X123.722 Y151.535 E.01923
G1 X123.722 Y167.565 E.80447
G1 X123.339 Y167.565 E.01923
G1 X123.339 Y148.143 E.97474
G1 X122.956 Y148.143 E.01923
G1 X122.956 Y167.565 E.97474
G1 X122.573 Y167.565 E.01923
G1 X122.573 Y148.143 E.97474
G1 X122.19 Y148.143 E.01923
G1 X122.19 Y167.565 E.97474
G1 X121.806 Y167.565 E.01923
G1 X121.806 Y148.143 E.97474
G1 X121.423 Y148.143 E.01923
G1 X121.423 Y167.565 E.97474
G1 X121.04 Y167.565 E.01923
G1 X121.04 Y148.143 E.97474
G1 X120.657 Y148.143 E.01923
G1 X120.657 Y167.565 E.97474
G1 X120.274 Y167.565 E.01923
G1 X120.274 Y148.143 E.97474
G1 X120.067 Y148.143 E.01034
G1 X120.067 Y144.75 E.17027
G1 X119.89 Y144.75 E.00889
G1 X119.89 Y167.565 E1.145
G1 X119.507 Y167.565 E.01923
G1 X119.507 Y144.75 E1.145
G1 X119.124 Y144.75 E.01923
G1 X119.124 Y167.565 E1.145
G1 X118.741 Y167.565 E.01923
G1 X118.741 Y144.75 E1.145
G1 X118.358 Y144.75 E.01923
G1 X118.358 Y167.565 E1.145
G1 X117.974 Y167.565 E.01923
G1 X117.974 Y144.75 E1.145
G1 X117.591 Y144.75 E.01923
G1 X117.591 Y167.565 E1.145
G1 X117.208 Y167.565 E.01923
G1 X117.208 Y144.75 E1.145
G1 X116.825 Y144.75 E.01923
G1 X116.825 Y167.565 E1.145
G1 X116.441 Y167.565 E.01923
G1 X116.441 Y144.75 E1.145
G1 X116.058 Y144.75 E.01923
G1 X116.058 Y167.565 E1.145
G1 X115.675 Y167.565 E.01923
G1 X115.675 Y144.75 E1.145
G1 X115.292 Y144.75 E.01923
G1 X115.292 Y167.565 E1.145
G1 X114.909 Y167.565 E.01923
G1 X114.909 Y144.75 E1.145
G1 X114.525 Y144.75 E.01923
G1 X114.525 Y167.565 E1.145
G1 X114.142 Y167.565 E.01923
G1 X114.142 Y144.75 E1.145
G1 X113.759 Y144.75 E.01923
G1 X113.759 Y167.565 E1.145
G1 X113.376 Y167.565 E.01923
G1 X113.376 Y144.75 E1.145
G1 X113.282 Y144.75 E.0047
G1 X113.282 Y141.357 E.17027
G1 X112.993 Y141.357 E.01453
G1 X112.993 Y167.565 E1.31527
G1 X112.609 Y167.565 E.01923
G1 X112.609 Y141.357 E1.31527
G1 X112.226 Y141.357 E.01923
G1 X112.226 Y167.565 E1.31527
G1 X111.843 Y167.565 E.01923
G1 X111.843 Y141.357 E1.31527
G1 X111.46 Y141.357 E.01923
G1 X111.46 Y167.565 E1.31527
G1 X111.077 Y167.565 E.01923
G1 X111.077 Y141.357 E1.31527
G1 X110.693 Y141.357 E.01923
M73 P1 R250
G1 X110.693 Y167.565 E1.31527
G1 X110.31 Y167.565 E.01923
G1 X110.31 Y141.357 E1.31527
G1 X109.927 Y141.357 E.01923
G1 X109.927 Y167.565 E1.31527
G1 X109.544 Y167.565 E.01923
G1 X109.544 Y141.357 E1.31527
G1 X109.16 Y141.357 E.01923
G1 X109.16 Y167.565 E1.31527
G1 X108.777 Y167.565 E.01923
G1 X108.777 Y141.357 E1.31527
G1 X108.394 Y141.357 E.01923
G1 X108.394 Y167.565 E1.31527
G1 X108.011 Y167.565 E.01923
G1 X108.011 Y141.357 E1.31527
G1 X107.628 Y141.357 E.01923
G1 X107.628 Y167.565 E1.31527
G1 X107.244 Y167.565 E.01923
G1 X107.244 Y141.357 E1.31527
G1 X106.861 Y141.357 E.01923
G1 X106.861 Y167.565 E1.31527
G1 X106.478 Y167.565 E.01923
G1 X106.478 Y137.965 E1.48553
G1 X106.095 Y137.965 E.01923
G1 X106.095 Y167.565 E1.48553
G1 X105.712 Y167.565 E.01923
G1 X105.712 Y137.965 E1.48553
G1 X105.328 Y137.965 E.01923
G1 X105.328 Y167.565 E1.48553
G1 X104.945 Y167.565 E.01923
G1 X104.945 Y137.965 E1.48553
G1 X104.562 Y137.965 E.01923
G1 X104.562 Y167.565 E1.48553
G1 X104.179 Y167.565 E.01923
G1 X104.179 Y137.965 E1.48553
G1 X103.796 Y137.965 E.01923
G1 X103.796 Y167.565 E1.48553
G1 X103.412 Y167.565 E.01923
G1 X103.412 Y137.965 E1.48553
G1 X103.029 Y137.965 E.01923
G1 X103.029 Y167.565 E1.48553
G1 X102.646 Y167.565 E.01923
G1 X102.646 Y137.965 E1.48553
G1 X102.263 Y137.965 E.01923
G1 X102.263 Y167.565 E1.48553
G1 X101.879 Y167.565 E.01923
G1 X101.88 Y137.965 E1.48553
G1 X101.496 Y137.965 E.01923
G1 X101.496 Y167.565 E1.48553
G1 X101.113 Y167.565 E.01923
G1 X101.113 Y137.965 E1.48553
G1 X100.73 Y137.965 E.01923
G1 X100.73 Y167.565 E1.48553
G1 X100.347 Y167.565 E.01923
G1 X100.347 Y137.965 E1.48553
G1 X99.963 Y137.965 E.01923
G1 X99.963 Y167.565 E1.48553
G1 X99.58 Y167.565 E.01923
G1 X99.58 Y134.572 E1.6558
G1 X99.197 Y134.572 E.01923
G1 X99.197 Y167.565 E1.6558
G1 X98.814 Y167.565 E.01923
M73 P1 R249
G1 X98.814 Y134.572 E1.6558
G1 X98.431 Y134.572 E.01923
G1 X98.431 Y167.565 E1.6558
G1 X98.047 Y167.565 E.01923
G1 X98.047 Y134.572 E1.6558
G1 X97.664 Y134.572 E.01923
G1 X97.664 Y167.565 E1.6558
G1 X97.281 Y167.565 E.01923
G1 X97.281 Y134.572 E1.6558
