; generated by PrusaSlicer 2.5.0+win64 on 2022-12-07 at 00:24:11 UTC

; 

; external perimeters extrusion width = 1.00mm
; perimeters extrusion width = 1.00mm
; infill extrusion width = 1.00mm
; solid infill extrusion width = 1.00mm
; top infill extrusion width = 1.00mm
; support material extrusion width = 1.00mm
; first layer extrusion width = 0.42mm

M73 P0 R208
M107
;TYPE:Custom
G90 ; use absolute coordinates
M83 ; extruder relative mode
M140 S60 ; set final bed temp
M104 S150 ; set temporary nozzle temp to prevent oozing during homing and auto bed leveling
G4 S10 ; allow partial nozzle warmup
G28 ; home all axisG1 Z50 F240
G1 X7.6 Y10 F3000
M104 S210 ; set final nozzle temp
M190 S60 ; wait for bed temp to stabilize
M109 S210 ; wait for nozzle temp to stabilize
G1 Z0.28 F240
G92 E0
G1 Y140 E10 F1500 ; prime the nozzle
G1 X4 F5000
G92 E0
G1 Y10 E10 F1200 ; prime the nozzle
G92 E0
G21 ; set units to millimeters
G90 ; use absolute coordinates
M83 ; use relative distances for extrusion
; Filament gcode
M107
;LAYER_CHANGE
;Z:0.35
;HEIGHT:0.35
;BEFORE_LAYER_CHANGE
G92 E0
;0.35


G1 E-1 F3600
G1 Z.35 F7800
;AFTER_LAYER_CHANGE
;0.35
G1 X15.46 Y14.959
G1 E1 F2400
;TYPE:Support material interface
;WIDTH:1
G1 F1800
G1 X15.46 Y28.931 E1.88047
G1 X16.352 Y28.931 E.12014
G1 X16.352 Y15.361 E1.82641
G1 X17.245 Y15.361 E.12014
G1 X17.245 Y28.931 E1.82641
G1 X18.138 Y28.931 E.12014
G1 X18.138 Y15.361 E1.82641
G1 X19.03 Y15.361 E.12014
G1 X19.03 Y42.502 E3.65282
G1 X19.923 Y42.502 E.12014
G1 X19.923 Y15.361 E3.65281
G1 X20.816 Y15.361 E.12014
G1 X20.816 Y42.904 E3.70688
G1 E-.7 F3600
;WIPE_START
G1 F6240
G1 X20.816 Y42.384 E-.285
;WIPE_END
G1 E-.015 F3600
G1 X17.704 Y14.704 F7800
G1 E1 F2400
;TYPE:Support material
;WIDTH:0.42
G1 F1800
G1 X14.704 Y14.704 E.15056
G1 X14.704 Y29.588 E.74695
G1 X18.097 Y29.588 E.17027
G1 X18.097 Y43.159 E.68106
G1 X21.49 Y43.159 E.17027
G1 X21.49 Y60.122 E.85133
G1 X21.99 Y60.122 E.02509
G1 X21.99 Y107.12 E2.35863
G1 X25.382 Y107.12 E.17027
G1 X25.382 Y113.905 E.34053
G1 X28.775 Y113.905 E.17027
G1 X28.775 Y120.691 E.34053
G1 X32.168 Y120.691 E.17027
G1 X32.168 Y127.476 E.34053
G1 X35.56 Y127.476 E.17027
G1 X35.56 Y134.262 E.34053
G1 X38.953 Y134.262 E.17027
G1 X38.953 Y141.047 E.34053
G1 X42.346 Y141.047 E.17027
G1 X42.346 Y147.832 E.34053
G1 X45.739 Y147.832 E.17027
G1 X45.739 Y151.225 E.17027
G1 X49.131 Y151.225 E.17027
G1 X49.131 Y154.618 E.17027
G1 X82.558 Y154.618 E1.67756
G1 X82.558 Y155.118 E.02509
G1 X89.344 Y155.118 E.34053
G1 X89.344 Y158.51 E.17027
G1 X96.129 Y158.51 E.34053
G1 X96.129 Y161.903 E.17027
G1 X102.914 Y161.903 E.34053
G1 X102.914 Y165.296 E.17027
G1 X105.914 Y165.296 E.15056
G1 X105.914 Y167.876 E.12947
G1 X8.732 Y167.876 E4.8772
G1 X8.732 Y12.124 E7.81652
M73 P0 R207
G1 X17.704 Y12.124 E.45029
G1 X17.704 Y14.652 E.12687
G1 E-.7 F3600
;WIPE_START
G1 F6240
G1 X17.704 Y14.132 E-.285
;WIPE_END
G1 E-.015 F3600
G1 X21.99 Y144.127 F7800
G1 E1 F2400
G1 F1800
G1 X21.99 Y154.618 E.5265
G1 X29.088 Y154.618 E.35623
G1 X29.088 Y150.912 E.18597
G1 X25.695 Y150.912 E.17027
G1 X25.695 Y144.127 E.34053
G1 X22.041 Y144.127 E.18337
G1 E-.7 F3600
;WIPE_START
G1 F6240
G1 X22.561 Y144.127 E-.285
;WIPE_END
G1 E-.015 F3600
G1 X105.328 Y167.72 F7800
G1 E1 F2400
G1 F1800
G1 X105.328 Y165.606 E.1061
G1 X104.945 Y165.606 E.01923
G1 X104.945 Y167.565 E.09831
G1 X104.562 Y167.565 E.01923
G1 X104.562 Y165.606 E.09831
G1 X104.179 Y165.606 E.01923
G1 X104.179 Y167.565 E.09831
G1 X103.796 Y167.565 E.01923
G1 X103.796 Y165.606 E.09831
G1 X103.412 Y165.606 E.01923
G1 X103.412 Y167.565 E.09831
G1 X103.029 Y167.565 E.01923
G1 X103.029 Y165.606 E.09831
G1 X102.646 Y165.606 E.01923
G1 X102.646 Y167.565 E.09831
G1 X102.263 Y167.565 E.01923
G1 X102.263 Y162.214 E.26858
G1 X101.88 Y162.214 E.01923
G1 X101.88 Y167.565 E.26858
G1 X101.496 Y167.565 E.01923
G1 X101.496 Y162.214 E.26858
G1 X101.113 Y162.214 E.01923
G1 X101.113 Y167.565 E.26858
G1 X100.73 Y167.565 E.01923
G1 X100.73 Y162.214 E.26858
G1 X100.347 Y162.214 E.01923
G1 X100.347 Y167.565 E.26858
G1 X99.963 Y167.565 E.01923
G1 X99.963 Y162.214 E.26858
G1 X99.58 Y162.214 E.01923
G1 X99.58 Y167.565 E.26858
G1 X99.197 Y167.565 E.01923
G1 X99.197 Y162.214 E.26858
G1 X98.814 Y162.214 E.01923
G1 X98.814 Y167.565 E.26858
G1 X98.431 Y167.565 E.01923
G1 X98.431 Y162.214 E.26858
G1 X98.047 Y162.214 E.01923
G1 X98.047 Y167.565 E.26858
G1 X97.664 Y167.565 E.01923
G1 X97.664 Y162.214 E.26858
G1 X97.281 Y162.214 E.01923
G1 X97.281 Y167.565 E.26858
G1 X96.898 Y167.565 E.01923
G1 X96.898 Y162.214 E.26858
G1 X96.515 Y162.214 E.01923
G1 X96.515 Y167.565 E.26858
G1 X96.131 Y167.565 E.01923
G1 X96.131 Y162.214 E.26858
G1 X95.819 Y162.214 E.0157
G1 X95.819 Y158.821 E.17027
G1 X95.748 Y158.821 E.00353
G1 X95.748 Y167.565 E.43885
G1 X95.365 Y167.565 E.01923
G1 X95.365 Y158.821 E.43885
G1 X94.982 Y158.821 E.01923
G1 X94.982 Y167.565 E.43885
G1 X94.599 Y167.565 E.01923
G1 X94.599 Y158.821 E.43885
G1 X94.215 Y158.821 E.01923
G1 X94.215 Y167.565 E.43885
G1 X93.832 Y167.565 E.01923
G1 X93.832 Y158.821 E.43885
G1 X93.449 Y158.821 E.01923
G1 X93.449 Y167.565 E.43885
G1 X93.066 Y167.565 E.01923
G1 X93.066 Y158.821 E.43885
G1 X92.683 Y158.821 E.01923
G1 X92.683 Y167.565 E.43885
G1 X92.299 Y167.565 E.01923
G1 X92.299 Y158.821 E.43885
G1 X91.916 Y158.821 E.01923
G1 X91.916 Y167.565 E.43885
G1 X91.533 Y167.565 E.01923
G1 X91.533 Y158.821 E.43885
G1 X91.15 Y158.821 E.01923
G1 X91.15 Y167.565 E.43885
G1 X90.766 Y167.565 E.01923
G1 X90.766 Y158.821 E.43885
G1 X90.383 Y158.821 E.01923
G1 X90.383 Y167.565 E.43885
G1 X90 Y167.565 E.01923
G1 X90 Y158.821 E.43885
G1 X89.617 Y158.821 E.01923
G1 X89.617 Y167.565 E.43885
G1 X89.234 Y167.565 E.01923
G1 X89.234 Y158.821 E.43885
G1 X89.033 Y158.821 E.01006
G1 X89.033 Y155.428 E.17027
G1 X88.85 Y155.428 E.00917
G1 X88.85 Y167.565 E.60911
G1 X88.467 Y167.565 E.01923
G1 X88.467 Y155.428 E.60911
G1 X88.084 Y155.428 E.01923
G1 X88.084 Y167.565 E.60911
G1 X87.701 Y167.565 E.01923
G1 X87.701 Y155.428 E.60911
G1 X87.318 Y155.428 E.01923
G1 X87.318 Y167.565 E.60911
G1 X86.934 Y167.565 E.01923
G1 X86.934 Y155.428 E.60911
G1 X86.551 Y155.428 E.01923
G1 X86.551 Y167.565 E.60911
G1 X86.168 Y167.565 E.01923
G1 X86.168 Y155.428 E.60911
G1 X85.785 Y155.428 E.01923
G1 X85.785 Y167.565 E.60911
G1 X85.402 Y167.565 E.01923
G1 X85.402 Y155.428 E.60911
G1 X85.018 Y155.428 E.01923
G1 X85.018 Y167.565 E.60911
G1 X84.635 Y167.565 E.01923
G1 X84.635 Y155.428 E.60911
G1 X84.252 Y155.428 E.01923
G1 X84.252 Y167.565 E.60911
G1 X83.869 Y167.565 E.01923
G1 X83.869 Y155.428 E.60911
G1 X83.485 Y155.428 E.01923
G1 X83.485 Y167.565 E.60911
G1 X83.102 Y167.565 E.01923
G1 X83.102 Y155.428 E.60911
G1 X82.719 Y155.428 E.01923
G1 X82.719 Y167.565 E.60911
G1 X82.336 Y167.565 E.01923
G1 X82.336 Y155.428 E.60911
G1 X82.248 Y155.428 E.00442
G1 X82.248 Y154.928 E.02509
G1 X81.953 Y154.928 E.01481
G1 X81.953 Y167.565 E.6342
G1 X81.569 Y167.565 E.01923
G1 X81.569 Y154.928 E.6342
G1 X81.186 Y154.928 E.01923
G1 X81.186 Y167.565 E.6342
G1 X80.803 Y167.565 E.01923
G1 X80.803 Y154.928 E.6342
G1 X80.42 Y154.928 E.01923
G1 X80.42 Y167.565 E.6342
G1 X80.037 Y167.565 E.01923
G1 X80.037 Y154.928 E.6342
G1 X79.653 Y154.928 E.01923
G1 X79.653 Y167.565 E.6342
G1 X79.27 Y167.565 E.01923
G1 X79.27 Y154.928 E.6342
G1 X78.887 Y154.928 E.01923
G1 X78.887 Y167.565 E.6342
G1 X78.504 Y167.565 E.01923
G1 X78.504 Y154.928 E.6342
G1 X78.121 Y154.928 E.01923
G1 X78.121 Y167.565 E.6342
G1 X77.737 Y167.565 E.01923
G1 X77.737 Y154.928 E.6342
G1 X77.354 Y154.928 E.01923
G1 X77.354 Y167.565 E.6342
G1 X76.971 Y167.565 E.01923
G1 X76.971 Y154.928 E.6342
G1 X76.588 Y154.928 E.01923
G1 X76.588 Y167.565 E.6342
G1 X76.204 Y167.565 E.01923
G1 X76.204 Y154.928 E.6342
G1 X75.821 Y154.928 E.01923
G1 X75.821 Y167.565 E.6342
G1 X75.438 Y167.565 E.01923
G1 X75.438 Y154.928 E.6342
G1 X75.055 Y154.928 E.01923
G1 X75.055 Y167.565 E.6342
G1 X74.672 Y167.565 E.01923
G1 X74.672 Y154.928 E.6342
G1 X74.288 Y154.928 E.01923
G1 X74.288 Y167.565 E.6342
G1 X73.905 Y167.565 E.01923
G1 X73.905 Y154.928 E.6342
G1 X73.522 Y154.928 E.01923
G1 X73.522 Y167.565 E.6342
G1 X73.139 Y167.565 E.01923
G1 X73.139 Y154.928 E.6342
G1 X72.756 Y154.928 E.01923
G1 X72.756 Y167.565 E.6342
G1 X72.372 Y167.565 E.01923
G1 X72.372 Y154.928 E.6342
G1 X71.989 Y154.928 E.01923
G1 X71.989 Y167.565 E.6342
G1 X71.606 Y167.565 E.01923
G1 X71.606 Y154.928 E.6342
G1 X71.223 Y154.928 E.01923
G1 X71.223 Y167.565 E.6342
G1 X70.84 Y167.565 E.01923
G1 X70.84 Y154.928 E.6342
G1 X70.456 Y154.928 E.01923
G1 X70.456 Y167.565 E.6342
G1 X70.073 Y167.565 E.01923
G1 X70.073 Y154.928 E.6342
G1 X69.69 Y154.928 E.01923
G1 X69.69 Y167.565 E.6342
G1 X69.307 Y167.565 E.01923
G1 X69.307 Y154.928 E.6342
G1 X68.923 Y154.928 E.01923
G1 X68.923 Y167.565 E.6342
G1 X68.54 Y167.565 E.01923
G1 X68.54 Y154.928 E.6342
G1 X68.157 Y154.928 E.01923
G1 X68.157 Y167.565 E.6342
G1 X67.774 Y167.565 E.01923
G1 X67.774 Y154.928 E.6342
G1 X67.391 Y154.928 E.01923
G1 X67.391 Y167.565 E.6342
G1 X67.007 Y167.565 E.01923
G1 X67.007 Y154.928 E.6342
G1 X66.624 Y154.928 E.01923
G1 X66.624 Y167.565 E.6342
G1 X66.241 Y167.565 E.01923
G1 X66.241 Y154.928 E.6342
G1 X65.858 Y154.928 E.01923
G1 X65.858 Y167.565 E.6342
G1 X65.475 Y167.565 E.01923
G1 X65.475 Y154.928 E.6342
G1 X65.091 Y154.928 E.01923
G1 X65.091 Y167.565 E.6342
G1 X64.708 Y167.565 E.01923
G1 X64.708 Y154.928 E.6342
G1 X64.325 Y154.928 E.01923
G1 X64.325 Y167.565 E.6342
G1 X63.942 Y167.565 E.01923
G1 X63.942 Y154.928 E.6342
G1 X63.559 Y154.928 E.01923
G1 X63.559 Y167.565 E.6342
G1 X63.175 Y167.565 E.01923
G1 X63.175 Y154.928 E.6342
G1 X62.792 Y154.928 E.01923
G1 X62.792 Y167.565 E.6342
G1 X62.409 Y167.565 E.01923
G1 X62.409 Y154.928 E.6342
G1 X62.026 Y154.928 E.01923
G1 X62.026 Y167.565 E.6342
G1 X61.642 Y167.565 E.01923
G1 X61.642 Y154.928 E.6342
G1 X61.259 Y154.928 E.01923
G1 X61.259 Y167.565 E.6342
G1 X60.876 Y167.565 E.01923
G1 X60.876 Y154.928 E.6342
G1 X60.493 Y154.928 E.01923
G1 X60.493 Y167.565 E.6342
G1 X60.11 Y167.565 E.01923
M73 P0 R206
G1 X60.11 Y154.928 E.6342
G1 X59.726 Y154.928 E.01923
G1 X59.726 Y167.565 E.6342
G1 X59.343 Y167.565 E.01923
G1 X59.343 Y154.928 E.6342
G1 X58.96 Y154.928 E.01923
G1 X58.96 Y167.565 E.6342
G1 X58.577 Y167.565 E.01923
G1 X58.577 Y154.928 E.6342
G1 X58.194 Y154.928 E.01923
G1 X58.194 Y167.565 E.6342
G1 X57.81 Y167.565 E.01923
G1 X57.81 Y154.928 E.6342
G1 X57.427 Y154.928 E.01923
G1 X57.427 Y167.565 E.6342
G1 X57.044 Y167.565 E.01923
G1 X57.044 Y154.928 E.6342
G1 X56.661 Y154.928 E.01923
G1 X56.661 Y167.565 E.6342
G1 X56.278 Y167.565 E.01923
G1 X56.278 Y154.928 E.6342
G1 X55.894 Y154.928 E.01923
G1 X55.894 Y167.565 E.6342
G1 X55.511 Y167.565 E.01923
G1 X55.511 Y154.928 E.6342
G1 X55.128 Y154.928 E.01923
G1 X55.128 Y167.565 E.6342
G1 X54.745 Y167.565 E.01923
G1 X54.745 Y154.928 E.6342
G1 X54.362 Y154.928 E.01923
G1 X54.362 Y167.565 E.6342
G1 X53.978 Y167.565 E.01923
G1 X53.978 Y154.928 E.6342
G1 X53.595 Y154.928 E.01923
G1 X53.595 Y167.565 E.6342
G1 X53.212 Y167.565 E.01923
G1 X53.212 Y154.928 E.6342
G1 X52.829 Y154.928 E.01923
G1 X52.829 Y167.565 E.6342
G1 X52.445 Y167.565 E.01923
G1 X52.445 Y154.928 E.6342
G1 X52.062 Y154.928 E.01923
G1 X52.062 Y167.565 E.6342
G1 X51.679 Y167.565 E.01923
G1 X51.679 Y154.928 E.6342
G1 X51.296 Y154.928 E.01923
G1 X51.296 Y167.565 E.6342
G1 X50.913 Y167.565 E.01923
G1 X50.913 Y154.928 E.6342
G1 X50.529 Y154.928 E.01923
G1 X50.529 Y167.565 E.6342
G1 X50.146 Y167.565 E.01923
G1 X50.146 Y154.928 E.6342
G1 X49.763 Y154.928 E.01923
G1 X49.763 Y167.565 E.6342
G1 X49.38 Y167.565 E.01923
G1 X49.38 Y154.928 E.6342
G1 X48.997 Y154.928 E.01923
G1 X48.997 Y167.565 E.6342
G1 X48.613 Y167.565 E.01923
G1 X48.613 Y151.535 E.80447
G1 X48.23 Y151.535 E.01923
G1 X48.23 Y167.565 E.80447
G1 X47.847 Y167.565 E.01923
G1 X47.847 Y151.535 E.80447
G1 X47.464 Y151.535 E.01923
G1 X47.464 Y167.565 E.80447
G1 X47.081 Y167.565 E.01923
G1 X47.081 Y151.535 E.80447
G1 X46.697 Y151.535 E.01923
G1 X46.697 Y167.565 E.80447
G1 X46.314 Y167.565 E.01923
G1 X46.314 Y151.535 E.80447
G1 X45.931 Y151.535 E.01923
G1 X45.931 Y167.565 E.80447
G1 X45.548 Y167.565 E.01923
G1 X45.548 Y151.535 E.80447
G1 X45.428 Y151.535 E.006
G1 X45.428 Y148.143 E.17027
G1 X45.164 Y148.143 E.01323
G1 X45.164 Y167.565 E.97474
G1 X44.781 Y167.565 E.01923
G1 X44.781 Y148.143 E.97474
G1 X44.398 Y148.143 E.01923
G1 X44.398 Y167.565 E.97474
G1 X44.015 Y167.565 E.01923
G1 X44.015 Y148.143 E.97474
G1 X43.632 Y148.143 E.01923
G1 X43.632 Y167.565 E.97474
G1 X43.248 Y167.565 E.01923
G1 X43.248 Y148.143 E.97474
G1 X42.865 Y148.143 E.01923
G1 X42.865 Y167.565 E.97474
G1 X42.482 Y167.565 E.01923
G1 X42.482 Y148.143 E.97474
G1 X42.099 Y148.143 E.01923
G1 X42.099 Y167.565 E.97474
G1 X41.716 Y167.565 E.01923
G1 X41.716 Y141.357 E1.31527
G1 X41.332 Y141.357 E.01923
G1 X41.332 Y167.565 E1.31527
G1 X40.949 Y167.565 E.01923
G1 X40.949 Y141.357 E1.31527
G1 X40.566 Y141.357 E.01923
G1 X40.566 Y167.565 E1.31527
G1 X40.183 Y167.565 E.01923
G1 X40.183 Y141.357 E1.31527
G1 X39.8 Y141.357 E.01923
G1 X39.8 Y167.565 E1.31527
G1 X39.416 Y167.565 E.01923
G1 X39.416 Y141.357 E1.31527
G1 X39.033 Y141.357 E.01923
G1 X39.033 Y167.565 E1.31527
G1 X38.65 Y167.565 E.01923
G1 X38.643 Y134.572 E1.6558
G1 X38.267 Y134.572 E.01887
G1 X38.267 Y167.565 E1.6558
G1 X37.883 Y167.565 E.01923
G1 X37.883 Y134.572 E1.6558
G1 X37.5 Y134.572 E.01923
M73 P1 R206
G1 X37.5 Y167.565 E1.6558
G1 X37.117 Y167.565 E.01923
G1 X37.117 Y134.572 E1.6558
G1 X36.734 Y134.572 E.01923
G1 X36.734 Y167.565 E1.6558
G1 X36.351 Y167.565 E.01923
G1 X36.351 Y134.572 E1.6558
G1 X35.967 Y134.572 E.01923
G1 X35.967 Y167.565 E1.6558
G1 X35.584 Y167.565 E.01923
G1 X35.584 Y134.572 E1.6558
G1 X35.25 Y134.572 E.01677
G1 X35.25 Y127.787 E.34053
G1 X35.201 Y127.787 E.00246
G1 X35.201 Y167.565 E1.99633
G1 X34.818 Y167.565 E.01923
G1 X34.818 Y127.787 E1.99633
G1 X34.435 Y127.787 E.01923
G1 X34.435 Y167.565 E1.99633
G1 X34.051 Y167.565 E.01923
G1 X34.051 Y127.787 E1.99633
G1 X33.668 Y127.787 E.01923
G1 X33.668 Y167.565 E1.99633
G1 X33.285 Y167.565 E.01923
G1 X33.285 Y127.787 E1.99633
G1 X32.902 Y127.787 E.01923
G1 X32.902 Y167.565 E1.99633
G1 X32.519 Y167.565 E.01923
G1 X32.519 Y127.787 E1.99633
G1 X32.135 Y127.787 E.01923
G1 X32.135 Y167.565 E1.99633
G1 X31.752 Y167.565 E.01923
G1 X31.752 Y121.001 E2.33686
G1 X31.369 Y121.001 E.01923
G1 X31.369 Y167.565 E2.33686
G1 X30.986 Y167.565 E.01923
M73 P1 R205
G1 X30.986 Y121.001 E2.33686
G1 X30.602 Y121.001 E.01923
G1 X30.602 Y167.565 E2.33686
G1 X30.219 Y167.565 E.01923
G1 X30.219 Y121.001 E2.33686
G1 X29.836 Y121.001 E.01923
G1 X29.836 Y167.565 E2.33686
G1 X29.453 Y167.565 E.01923
G1 X29.453 Y121.001 E2.33686
G1 X29.07 Y121.001 E.01923
G1 X29.07 Y150.602 E1.48553
G1 X28.686 Y150.602 E.01923
G1 X28.686 Y121.001 E1.48553
G1 X28.465 Y121.001 E.01113
G1 X28.465 Y114.216 E.34053
G1 X28.303 Y114.216 E.0081
G1 X28.303 Y150.602 E1.82606
G1 X27.92 Y150.602 E.01923
G1 X27.92 Y114.216 E1.82606
G1 X27.537 Y114.216 E.01923
G1 X27.537 Y150.602 E1.82606
G1 X27.154 Y150.602 E.01923
G1 X27.154 Y114.216 E1.82606
G1 X26.77 Y114.216 E.01923
G1 X26.77 Y150.602 E1.82606
G1 X26.387 Y150.602 E.01923
G1 X26.387 Y114.216 E1.82606
G1 X26.004 Y114.216 E.01923
G1 X26.004 Y143.816 E1.48553
G1 X25.621 Y143.816 E.01923
G1 X25.621 Y114.216 E1.48553
G1 X25.238 Y114.216 E.01923
G1 X25.238 Y143.816 E1.48553
G1 X24.854 Y143.816 E.01923
G1 X24.854 Y107.43 E1.82606
G1 X24.471 Y107.43 E.01923
G1 X24.471 Y143.816 E1.82606
G1 X24.088 Y143.816 E.01923
G1 X24.088 Y107.43 E1.82606
G1 X23.705 Y107.43 E.01923
G1 X23.705 Y143.816 E1.82606
G1 X23.321 Y143.816 E.01923
G1 X23.322 Y107.43 E1.82606
G1 X22.938 Y107.43 E.01923
G1 X22.938 Y143.816 E1.82606
G1 X22.555 Y143.816 E.01923
G1 X22.555 Y107.43 E1.82606
G1 X22.172 Y107.43 E.01923
G1 X22.172 Y143.972 E1.83385
G1 E-.7 F3600
;WIPE_START
G1 F6240
G1 X22.172 Y143.452 E-.285
;WIPE_END
G1 E-.015 F3600
G1 X29.07 Y167.72 F7800
G1 E1 F2400
G1 F1800
G1 X29.07 Y154.928 E.64199
G1 X28.686 Y154.928 E.01923
G1 X28.686 Y167.565 E.6342
G1 X28.303 Y167.565 E.01923
G1 X28.303 Y154.928 E.6342
