; generated by PrusaSlicer 2.5.0+win64 on 2022-12-07 at 00:24:44 UTC

; 

; external perimeters extrusion width = 1.00mm
; perimeters extrusion width = 1.00mm
; infill extrusion width = 1.00mm
; solid infill extrusion width = 1.00mm
; top infill extrusion width = 1.00mm
; support material extrusion width = 1.00mm
; first layer extrusion width = 0.42mm

M73 P0 R618
M107
;TYPE:Custom
G90 ; use absolute coordinates
M83 ; extruder relative mode
M140 S60 ; set final bed temp
M104 S150 ; set temporary nozzle temp to prevent oozing during homing and auto bed leveling
G4 S10 ; allow partial nozzle warmup
G28 ; home all axisG1 Z50 F240
G1 X7.6 Y10 F3000
M104 S210 ; set final nozzle temp
M190 S60 ; wait for bed temp to stabilize
M109 S210 ; wait for nozzle temp to stabilize
G1 Z0.28 F240
G92 E0
G1 Y140 E10 F1500 ; prime the nozzle
G1 X4 F5000
G92 E0
G1 Y10 E10 F1200 ; prime the nozzle
G92 E0
G21 ; set units to millimeters
G90 ; use absolute coordinates
M83 ; use relative distances for extrusion
; Filament gcode
M107
;LAYER_CHANGE
;Z:0.35
;HEIGHT:0.35
;BEFORE_LAYER_CHANGE
G92 E0
;0.35


G1 E-1 F3600
G1 Z.35 F7800
;AFTER_LAYER_CHANGE
;0.35
G1 X29.743 Y160.845
G1 E1 F2400
;TYPE:Support material interface
;WIDTH:1
G1 F1800
G1 X29.743 Y164.639 E.51067
G1 X30.635 Y164.639 E.12014
G1 X30.635 Y161.247 E.45661
G1 X31.528 Y161.247 E.12014
G1 X31.528 Y164.639 E.45661
G1 X32.421 Y164.639 E.12014
G1 X32.421 Y161.247 E.45661
G1 X33.314 Y161.247 E.12014
G1 X33.314 Y164.639 E.45661
G1 X34.206 Y164.639 E.12014
G1 X34.206 Y161.247 E.45661
G1 X35.099 Y161.247 E.12014
G1 X35.099 Y164.639 E.45661
G1 X35.992 Y164.639 E.12014
G1 X35.992 Y161.247 E.45661
G1 X36.884 Y161.247 E.12014
G1 X36.884 Y164.639 E.45661
G1 X37.777 Y164.639 E.12014
G1 X37.777 Y161.247 E.45661
G1 X38.67 Y161.247 E.12014
G1 X38.67 Y164.639 E.45661
G1 X39.562 Y164.639 E.12014
G1 X39.562 Y161.247 E.45661
G1 X40.455 Y161.247 E.12014
G1 X40.455 Y164.639 E.45661
G1 X41.348 Y164.639 E.12014
G1 X41.348 Y161.247 E.45661
G1 X42.241 Y161.247 E.12014
G1 X42.241 Y164.639 E.45661
G1 X43.133 Y164.639 E.12014
G1 X43.133 Y161.247 E.45661
G1 X44.026 Y161.247 E.12014
G1 X44.026 Y164.639 E.45661
G1 X44.919 Y164.639 E.12014
G1 X44.919 Y161.247 E.45661
G1 X45.811 Y161.247 E.12014
G1 X45.811 Y164.639 E.45661
G1 X46.704 Y164.639 E.12014
G1 X46.704 Y161.247 E.45661
G1 X47.597 Y161.247 E.12014
G1 X47.597 Y164.639 E.45661
G1 X48.489 Y164.639 E.12014
G1 X48.489 Y161.247 E.45661
G1 X49.382 Y161.247 E.12014
G1 X49.382 Y164.639 E.45661
G1 X50.275 Y164.639 E.12014
G1 X50.275 Y161.247 E.45661
G1 X51.168 Y161.247 E.12014
G1 X51.168 Y164.639 E.45661
G1 X52.06 Y164.639 E.12014
G1 X52.06 Y161.247 E.45661
G1 X52.953 Y161.247 E.12014
G1 X52.953 Y164.639 E.45661
G1 X53.846 Y164.639 E.12014
G1 X53.846 Y161.247 E.45661
G1 X54.738 Y161.247 E.12014
G1 X54.738 Y164.639 E.45661
G1 X55.631 Y164.639 E.12014
G1 X55.631 Y161.247 E.45661
G1 X56.524 Y161.247 E.12014
G1 X56.524 Y164.639 E.45661
G1 X57.416 Y164.639 E.12014
G1 X57.416 Y161.247 E.45661
G1 X58.309 Y161.247 E.12014
G1 X58.309 Y164.639 E.45661
G1 X59.202 Y164.639 E.12014
G1 X59.202 Y161.247 E.45661
G1 X60.095 Y161.247 E.12014
G1 X60.095 Y164.639 E.45661
G1 X60.987 Y164.639 E.12014
G1 X60.987 Y161.247 E.45661
G1 X61.88 Y161.247 E.12014
G1 X61.88 Y164.639 E.45661
G1 X62.773 Y164.639 E.12014
G1 X62.773 Y161.247 E.45661
G1 X63.665 Y161.247 E.12014
G1 X63.665 Y164.639 E.45661
G1 X64.558 Y164.639 E.12014
G1 X64.558 Y161.247 E.45661
G1 X65.451 Y161.247 E.12014
G1 X65.451 Y164.639 E.45661
G1 X66.343 Y164.639 E.12014
G1 X66.343 Y161.247 E.45661
G1 X67.236 Y161.247 E.12014
G1 X67.236 Y164.639 E.45661
G1 X68.129 Y164.639 E.12014
G1 X68.129 Y161.247 E.45661
G1 X69.022 Y161.247 E.12014
G1 X69.022 Y164.639 E.45661
G1 X69.914 Y164.639 E.12014
G1 X69.914 Y161.247 E.45661
G1 X70.807 Y161.247 E.12014
G1 X70.807 Y164.639 E.45661
G1 X71.7 Y164.639 E.12014
G1 X71.7 Y161.247 E.45661
G1 X72.592 Y161.247 E.12014
G1 X72.592 Y164.639 E.45661
G1 X73.485 Y164.639 E.12014
G1 X73.485 Y161.247 E.45661
G1 X74.378 Y161.247 E.12014
G1 X74.378 Y164.639 E.45661
G1 X75.27 Y164.639 E.12014
G1 X75.27 Y161.247 E.45661
G1 X76.163 Y161.247 E.12014
G1 X76.163 Y164.639 E.45661
G1 X77.056 Y164.639 E.12014
G1 X77.056 Y161.247 E.45661
G1 X77.949 Y161.247 E.12014
G1 X77.949 Y164.639 E.45661
G1 X78.841 Y164.639 E.12014
G1 X78.841 Y161.247 E.45661
G1 X79.734 Y161.247 E.12014
G1 X79.734 Y164.639 E.45661
G1 X80.627 Y164.639 E.12014
G1 X80.627 Y161.247 E.45661
G1 X81.519 Y161.247 E.12014
G1 X81.519 Y164.639 E.45661
G1 X82.412 Y164.639 E.12014
G1 X82.412 Y161.247 E.45661
G1 X83.305 Y161.247 E.12014
G1 X83.305 Y164.639 E.45661
G1 X84.197 Y164.639 E.12014
G1 X84.197 Y161.247 E.45661
G1 X85.09 Y161.247 E.12014
G1 X85.09 Y164.639 E.45661
G1 X85.983 Y164.639 E.12014
G1 X85.983 Y161.247 E.45661
G1 X86.875 Y161.247 E.12014
G1 X86.875 Y164.639 E.45661
G1 X87.768 Y164.639 E.12014
G1 X87.768 Y161.247 E.45661
G1 X88.661 Y161.247 E.12014
G1 X88.661 Y164.639 E.45661
G1 X89.554 Y164.639 E.12014
G1 X89.554 Y161.247 E.45661
G1 X90.446 Y161.247 E.12014
G1 X90.446 Y164.639 E.45661
G1 X91.339 Y164.639 E.12014
G1 X91.339 Y161.247 E.45661
G1 X92.232 Y161.247 E.12014
G1 X92.232 Y164.639 E.45661
G1 X93.124 Y164.639 E.12014
G1 X93.124 Y161.247 E.45661
G1 X94.017 Y161.247 E.12014
G1 X94.017 Y164.639 E.45661
G1 X94.91 Y164.639 E.12014
G1 X94.91 Y161.247 E.45661
G1 X95.802 Y161.247 E.12014
G1 X95.802 Y164.639 E.45661
G1 X96.695 Y164.639 E.12014
G1 X96.695 Y161.247 E.45661
G1 X97.588 Y161.247 E.12014
G1 X97.588 Y164.639 E.45661
G1 X98.481 Y164.639 E.12014
G1 X98.481 Y161.247 E.45661
G1 X99.373 Y161.247 E.12014
G1 X99.373 Y164.639 E.45661
G1 X100.266 Y164.639 E.12014
G1 X100.266 Y161.247 E.45661
G1 X101.159 Y161.247 E.12014
G1 X101.159 Y164.639 E.45661
G1 X102.051 Y164.639 E.12014
G1 X102.051 Y161.247 E.45661
G1 X102.944 Y161.247 E.12014
G1 X102.944 Y164.639 E.45661
G1 X103.837 Y164.639 E.12014
G1 X103.837 Y161.247 E.45661
G1 X104.729 Y161.247 E.12014
G1 X104.729 Y164.639 E.45661
G1 X105.622 Y164.639 E.12014
G1 X105.622 Y161.247 E.45661
G1 X106.515 Y161.247 E.12014
G1 X106.515 Y164.639 E.45661
G1 X107.408 Y164.639 E.12014
G1 X107.408 Y161.247 E.45661
G1 X108.3 Y161.247 E.12014
G1 X108.3 Y164.639 E.45661
G1 X109.193 Y164.639 E.12014
G1 X109.193 Y161.247 E.45661
G1 X110.086 Y161.247 E.12014
G1 X110.086 Y164.639 E.45661
G1 X110.978 Y164.639 E.12014
G1 X110.978 Y161.247 E.45661
G1 X111.871 Y161.247 E.12014
G1 X111.871 Y164.639 E.45661
G1 X112.764 Y164.639 E.12014
G1 X112.764 Y161.247 E.45661
G1 X113.656 Y161.247 E.12014
G1 X113.656 Y165.041 E.51067
G1 E-.7 F3600
;WIPE_START
G1 F6240
G1 X113.656 Y164.521 E-.285
;WIPE_END
G1 E-.015 F3600
G1 X116.335 Y165.041 F7800
G1 E1 F2400
G1 F1800
G1 X116.335 Y164.322 E.09673
G1 X115.442 Y164.322 E.12014
G1 X115.442 Y164.639 E.04267
G1 X114.549 Y164.639 E.12014
G1 X114.549 Y164.322 E.04267
G1 X113.958 Y164.322 E.07956
G1 X113.95 Y162.437 E.25371
G1 X114.549 Y162.432 E.08058
G1 X114.549 Y161.247 E.15959
G1 X115.442 Y161.247 E.12014
G1 X115.442 Y162.425 E.15863
G1 X116.335 Y162.418 E.12015
G1 X116.335 Y160.845 E.21173
G1 E-.7 F3600
;WIPE_START
G1 F6240
G1 X116.335 Y161.365 E-.285
;WIPE_END
G1 E-.015 F3600
G1 X171.268 Y106.807 F7800
G1 E1 F2400
;TYPE:Support material
;WIDTH:0.42
G1 F1800
G1 X83.371 Y106.807 E4.41121
G1 X83.371 Y103.414 E.17027
G1 X12.124 Y103.414 E3.57558
G1 X12.124 Y100.022 E.17027
G1 X8.732 Y100.022 E.17027
G1 X8.732 Y12.124 E4.41121
G1 X171.268 Y12.124 E8.15705
G1 X171.268 Y106.755 E4.74914
G1 X170.857 Y106.652 F7800
M73 P0 R617
G1 F1800
G1 X170.857 Y12.435 E4.72837
G1 X170.474 Y12.435 E.01923
G1 X170.474 Y106.497 E4.72058
G1 X170.091 Y106.497 E.01923
G1 X170.091 Y12.435 E4.72058
G1 X169.708 Y12.435 E.01923
G1 X169.708 Y106.497 E4.72058
G1 X169.324 Y106.497 E.01923
G1 X169.324 Y12.435 E4.72058
G1 X168.941 Y12.435 E.01923
G1 X168.941 Y106.497 E4.72058
G1 X168.558 Y106.497 E.01923
G1 X168.558 Y12.435 E4.72058
G1 X168.175 Y12.435 E.01923
G1 X168.175 Y106.497 E4.72058
G1 X167.792 Y106.497 E.01923
G1 X167.792 Y12.435 E4.72058
G1 X167.408 Y12.435 E.01923
G1 X167.408 Y106.497 E4.72058
G1 X167.025 Y106.497 E.01923
G1 X167.025 Y12.435 E4.72058
G1 X166.642 Y12.435 E.01923
G1 X166.642 Y106.497 E4.72058
G1 X166.259 Y106.497 E.01923
G1 X166.259 Y12.435 E4.72058
G1 X165.876 Y12.435 E.01923
G1 X165.876 Y106.497 E4.72058
G1 X165.492 Y106.497 E.01923
G1 X165.492 Y12.435 E4.72058
G1 X165.109 Y12.435 E.01923
G1 X165.109 Y106.497 E4.72058
G1 X164.726 Y106.497 E.01923
G1 X164.726 Y12.435 E4.72058
G1 X164.343 Y12.435 E.01923
G1 X164.343 Y106.497 E4.72058
G1 X163.96 Y106.497 E.01923
G1 X163.96 Y12.435 E4.72058
G1 X163.576 Y12.435 E.01923
M73 P0 R616
G1 X163.576 Y106.497 E4.72058
G1 X163.193 Y106.497 E.01923
G1 X163.193 Y12.435 E4.72058
G1 X162.81 Y12.435 E.01923
G1 X162.81 Y106.497 E4.72058
G1 X162.427 Y106.497 E.01923
G1 X162.427 Y12.435 E4.72058
G1 X162.043 Y12.435 E.01923
G1 X162.043 Y106.497 E4.72058
G1 X161.66 Y106.497 E.01923
G1 X161.66 Y12.435 E4.72058
G1 X161.277 Y12.435 E.01923
G1 X161.277 Y106.497 E4.72058
G1 X160.894 Y106.497 E.01923
G1 X160.894 Y12.435 E4.72058
G1 X160.511 Y12.435 E.01923
G1 X160.511 Y106.497 E4.72058
G1 X160.127 Y106.497 E.01923
G1 X160.127 Y12.435 E4.72058
G1 X159.744 Y12.435 E.01923
G1 X159.744 Y106.497 E4.72058
G1 X159.361 Y106.497 E.01923
G1 X159.361 Y12.435 E4.72058
G1 X158.978 Y12.435 E.01923
G1 X158.978 Y106.497 E4.72058
G1 X158.595 Y106.497 E.01923
G1 X158.595 Y12.435 E4.72058
G1 X158.211 Y12.435 E.01923
G1 X158.211 Y106.497 E4.72058
G1 X157.828 Y106.497 E.01923
G1 X157.828 Y12.435 E4.72058
G1 X157.445 Y12.435 E.01923
G1 X157.445 Y106.497 E4.72058
G1 X157.062 Y106.497 E.01923
G1 X157.062 Y12.435 E4.72058
G1 X156.679 Y12.435 E.01923
G1 X156.679 Y106.497 E4.72058
G1 X156.295 Y106.497 E.01923
M73 P0 R615
G1 X156.295 Y12.435 E4.72058
G1 X155.912 Y12.435 E.01923
G1 X155.912 Y106.497 E4.72058
G1 X155.529 Y106.497 E.01923
G1 X155.529 Y12.435 E4.72058
G1 X155.146 Y12.435 E.01923
G1 X155.146 Y106.497 E4.72058
G1 X154.762 Y106.497 E.01923
G1 X154.762 Y12.435 E4.72058
G1 X154.379 Y12.435 E.01923
G1 X154.379 Y106.497 E4.72058
G1 X153.996 Y106.497 E.01923
G1 X153.996 Y12.435 E4.72058
G1 X153.613 Y12.435 E.01923
G1 X153.613 Y106.497 E4.72058
G1 X153.23 Y106.497 E.01923
G1 X153.23 Y12.435 E4.72058
G1 X152.846 Y12.435 E.01923
G1 X152.846 Y106.497 E4.72058
G1 X152.463 Y106.497 E.01923
G1 X152.463 Y12.435 E4.72058
G1 X152.08 Y12.435 E.01923
G1 X152.08 Y106.497 E4.72058
G1 X151.697 Y106.497 E.01923
G1 X151.697 Y12.435 E4.72058
G1 X151.314 Y12.435 E.01923
G1 X151.314 Y106.497 E4.72058
G1 X150.93 Y106.497 E.01923
G1 X150.93 Y12.435 E4.72058
G1 X150.547 Y12.435 E.01923
G1 X150.547 Y106.497 E4.72058
G1 X150.164 Y106.497 E.01923
G1 X150.164 Y12.435 E4.72058
G1 X149.781 Y12.435 E.01923
G1 X149.781 Y106.497 E4.72058
G1 X149.398 Y106.497 E.01923
G1 X149.398 Y12.435 E4.72058
G1 X149.014 Y12.435 E.01923
M73 P0 R614
G1 X149.014 Y106.497 E4.72058
G1 X148.631 Y106.497 E.01923
G1 X148.631 Y12.435 E4.72058
G1 X148.248 Y12.435 E.01923
G1 X148.248 Y106.497 E4.72058
G1 X147.865 Y106.497 E.01923
G1 X147.865 Y12.435 E4.72058
G1 X147.482 Y12.435 E.01923
G1 X147.482 Y106.497 E4.72058
G1 X147.098 Y106.497 E.01923
G1 X147.098 Y12.435 E4.72058
G1 X146.715 Y12.435 E.01923
G1 X146.715 Y106.497 E4.72058
G1 X146.332 Y106.497 E.01923
G1 X146.332 Y12.435 E4.72058
G1 X145.949 Y12.435 E.01923
G1 X145.949 Y106.497 E4.72058
G1 X145.565 Y106.497 E.01923
G1 X145.565 Y12.435 E4.72058
G1 X145.182 Y12.435 E.01923
G1 X145.182 Y106.497 E4.72058
G1 X144.799 Y106.497 E.01923
G1 X144.799 Y12.435 E4.72058
G1 X144.416 Y12.435 E.01923
G1 X144.416 Y106.497 E4.72058
G1 X144.033 Y106.497 E.01923
G1 X144.033 Y12.435 E4.72058
G1 X143.649 Y12.435 E.01923
G1 X143.649 Y106.497 E4.72058
G1 X143.266 Y106.497 E.01923
G1 X143.266 Y12.435 E4.72058
G1 X142.883 Y12.435 E.01923
G1 X142.883 Y106.497 E4.72058
G1 X142.5 Y106.497 E.01923
G1 X142.5 Y12.435 E4.72058
G1 X142.117 Y12.435 E.01923
M73 P0 R613
G1 X142.117 Y106.497 E4.72058
G1 X141.733 Y106.497 E.01923
G1 X141.733 Y12.435 E4.72058
G1 X141.35 Y12.435 E.01923
G1 X141.35 Y106.497 E4.72058
G1 X140.967 Y106.497 E.01923
G1 X140.967 Y12.435 E4.72058
G1 X140.584 Y12.435 E.01923
G1 X140.584 Y106.497 E4.72058
G1 X140.201 Y106.497 E.01923
G1 X140.201 Y12.435 E4.72058
G1 X139.817 Y12.435 E.01923
G1 X139.817 Y106.497 E4.72058
G1 X139.434 Y106.497 E.01923
G1 X139.434 Y12.435 E4.72058
G1 X139.051 Y12.435 E.01923
G1 X139.051 Y106.497 E4.72058
G1 X138.668 Y106.497 E.01923
G1 X138.668 Y12.435 E4.72058
G1 X138.284 Y12.435 E.01923
G1 X138.284 Y106.497 E4.72058
G1 X137.901 Y106.497 E.01923
G1 X137.901 Y12.435 E4.72058
G1 X137.518 Y12.435 E.01923
G1 X137.518 Y106.497 E4.72058
G1 X137.135 Y106.497 E.01923
G1 X137.135 Y12.435 E4.72058
G1 X136.752 Y12.435 E.01923
G1 X136.752 Y106.497 E4.72058
G1 X136.368 Y106.497 E.01923
G1 X136.368 Y12.435 E4.72058
G1 X135.985 Y12.435 E.01923
G1 X135.985 Y106.497 E4.72058
G1 X135.602 Y106.497 E.01923
G1 X135.602 Y12.435 E4.72058
G1 X135.219 Y12.435 E.01923
G1 X135.219 Y106.497 E4.72058
G1 X134.836 Y106.497 E.01923
M73 P0 R612
G1 X134.836 Y12.435 E4.72058
G1 X134.452 Y12.435 E.01923
G1 X134.452 Y106.497 E4.72058
G1 X134.069 Y106.497 E.01923
G1 X134.069 Y12.435 E4.72058
G1 X133.686 Y12.435 E.01923
G1 X133.686 Y106.497 E4.72058
G1 X133.303 Y106.497 E.01923
G1 X133.303 Y12.435 E4.72058
G1 X132.92 Y12.435 E.01923
G1 X132.92 Y106.497 E4.72058
G1 X132.536 Y106.497 E.01923
M73 P1 R612
G1 X132.536 Y12.435 E4.72058
G1 X132.153 Y12.435 E.01923
G1 X132.153 Y106.497 E4.72058
G1 X131.77 Y106.497 E.01923
G1 X131.77 Y12.435 E4.72058
G1 X131.387 Y12.435 E.01923
G1 X131.387 Y106.497 E4.72058
G1 X131.003 Y106.497 E.01923
G1 X131.003 Y12.435 E4.72058
G1 X130.62 Y12.435 E.01923
G1 X130.62 Y106.497 E4.72058
G1 X130.237 Y106.497 E.01923
G1 X130.237 Y12.435 E4.72058
G1 X129.854 Y12.435 E.01923
G1 X129.854 Y106.497 E4.72058
G1 X129.471 Y106.497 E.01923
G1 X129.471 Y12.435 E4.72058
G1 X129.087 Y12.435 E.01923
G1 X129.087 Y106.497 E4.72058
G1 X128.704 Y106.497 E.01923
G1 X128.704 Y12.435 E4.72058
G1 X128.321 Y12.435 E.01923
G1 X128.321 Y106.497 E4.72058
G1 X127.938 Y106.497 E.01923
G1 X127.938 Y12.435 E4.72058
G1 X127.555 Y12.435 E.01923
M73 P1 R611
G1 X127.555 Y106.497 E4.72058
G1 X127.171 Y106.497 E.01923
G1 X127.171 Y12.435 E4.72058
G1 X126.788 Y12.435 E.01923
G1 X126.788 Y106.497 E4.72058
G1 X126.405 Y106.497 E.01923
G1 X126.405 Y12.435 E4.72058
G1 X126.022 Y12.435 E.01923
G1 X126.022 Y106.497 E4.72058
G1 X125.639 Y106.497 E.01923
G1 X125.639 Y12.435 E4.72058
G1 X125.255 Y12.435 E.01923
G1 X125.255 Y106.497 E4.72058
G1 X124.872 Y106.497 E.01923
G1 X124.872 Y12.435 E4.72058
G1 X124.489 Y12.435 E.01923
G1 X124.489 Y106.497 E4.72058
G1 X124.106 Y106.497 E.01923
G1 X124.106 Y12.435 E4.72058
G1 X123.722 Y12.435 E.01923
G1 X123.722 Y106.497 E4.72058
G1 X123.339 Y106.497 E.01923
G1 X123.339 Y12.435 E4.72058
G1 X122.956 Y12.435 E.01923
G1 X122.956 Y106.497 E4.72058
G1 X122.573 Y106.497 E.01923
G1 X122.573 Y12.435 E4.72058
G1 X122.19 Y12.435 E.01923
G1 X122.19 Y106.497 E4.72058
G1 X121.806 Y106.497 E.01923
G1 X121.806 Y12.435 E4.72058
G1 X121.423 Y12.435 E.01923
G1 X121.423 Y106.497 E4.72058
G1 X121.04 Y106.497 E.01923
G1 X121.04 Y12.435 E4.72058
G1 X120.657 Y12.435 E.01923
G1 X120.657 Y106.497 E4.72058
G1 X120.274 Y106.497 E.01923
M73 P1 R610
G1 X120.274 Y12.435 E4.72058
G1 X119.89 Y12.435 E.01923
G1 X119.89 Y106.497 E4.72058
G1 X119.507 Y106.497 E.01923
G1 X119.507 Y12.435 E4.72058
G1 X119.124 Y12.435 E.01923
G1 X119.124 Y106.497 E4.72058
G1 X118.741 Y106.497 E.01923
G1 X118.741 Y12.435 E4.72058
G1 X118.358 Y12.435 E.01923
G1 X118.358 Y106.497 E4.72058
G1 X117.974 Y106.497 E.01923
G1 X117.974 Y12.435 E4.72058
G1 X117.591 Y12.435 E.01923
G1 X117.591 Y106.497 E4.72058
G1 X117.208 Y106.497 E.01923
G1 X117.208 Y12.435 E4.72058
G1 X116.825 Y12.435 E.01923
G1 X116.825 Y106.497 E4.72058
G1 X116.441 Y106.497 E.01923
G1 X116.441 Y12.435 E4.72058
G1 X116.058 Y12.435 E.01923
G1 X116.058 Y106.497 E4.72058
G1 X115.675 Y106.497 E.01923
G1 X115.675 Y12.435 E4.72058
G1 X115.292 Y12.435 E.01923
G1 X115.292 Y106.497 E4.72058
